2025-07-07 17:06:10,119 - gym_custom_envs_real_ur_drivers_URBasic_robotModelEvent - INFO - Init done
2025-07-07 17:06:10,620 - gym_custom_envs_real_ur_drivers_URBasic_realTimeClientEvent - INFO - Connected
2025-07-07 17:06:10,620 - gym_custom_envs_real_ur_drivers_URBasic_realTimeClientEvent - INFO - RT_CLient constructor done
2025-07-07 17:06:10,621 - gym_custom_envs_real_ur_drivers_URBasic_dataLogEvent - INFO - Data logging (not event logging) is disabled
2025-07-07 17:06:10,622 - gym_custom_envs_real_ur_drivers_URBasic_dataLogEvent - INFO - DataLog constructor done
2025-07-07 17:06:10,622 - gym_custom_envs_real_ur_drivers_URBasic_dataLogEvent - INFO - DataLog is stopped
2025-07-07 17:06:10,623 - gym_custom_envs_real_ur_drivers_URBasic_rtdeEvent - INFO - RTDE constructor done
2025-07-07 17:06:11,124 - gym_custom_envs_real_ur_drivers_URBasic_dashboardEvent - INFO - Connected
2025-07-07 17:06:11,125 - gym_custom_envs_real_ur_drivers_URBasic_dashboardEvent - INFO - UR Dashboard respond Connected: Universal Robots Dashboard Server
2025-07-07 17:06:11,125 - gym_custom_envs_real_ur_drivers_URBasic_dashboardEvent - INFO - Dashboard server constructor done
2025-07-07 17:06:11,126 - gym_custom_envs_real_ur_drivers_URBasic_robotConnectorEvent - INFO - Init done
2025-07-07 17:06:11,232 - gym_custom_envs_real_ur_drivers_URBasic_rtdeEvent - INFO - Controller version: 3.3.1-60
2025-07-07 17:06:11,236 - gym_custom_envs_real_ur_drivers_URBasic_rtdeEvent - INFO - RTDE started
2025-07-07 17:06:12,126 - gym_custom_envs_real_ur_drivers_URBasic_urScriptEvent - INFO - Init done!!!
2025-07-07 17:06:12,138 - gym_custom_envs_real_ur_drivers_URBasic_urScriptExtEvent - INFO - Init done
2025-07-07 17:06:13,775 - gym_custom_envs_real_ur_interfaceEvent - INFO - [] init done
2025-07-07 17:06:13,775 - gym_custom_envs_real_ur_drivers_URBasic_realTimeClientEvent - INFO - Program send to Robot:
end_freedrive_mode()

2025-07-07 17:06:15,765 - gym_custom_envs_real_ur_drivers_URBasic_realTimeClientEvent - INFO - Program send to Robot:
servoj([-0.11732451423059148, -1.5510167802720085, -1.631543824198266, -1.4849707832175987, 1.7177578926086425, 2.9588782253674535], 0.5, 0.5, 0.008, 0.2, 100)

2025-07-07 17:06:15,780 - gym_custom_envs_real_ur_drivers_URBasic_realTimeClientEvent - INFO - Program send to Robot:
servoj([-0.11697191937136218, -1.5510291524274702, -1.6315375249470243, -1.4849999451545668, 1.7177339315414428, 2.9590841604956664], 0.5, 0.5, 0.008, 0.2, 100)

2025-07-07 17:06:15,795 - gym_custom_envs_real_ur_drivers_URBasic_realTimeClientEvent - INFO - Program send to Robot:
servoj([-0.11697724201738366, -1.551055741035654, -1.6315019990689386, -1.4849827662874573, 1.7177339315414428, 2.9591215806812388], 0.5, 0.5, 0.008, 0.2, 100)

2025-07-07 17:06:15,813 - gym_custom_envs_real_ur_drivers_URBasic_realTimeClientEvent - INFO - Program send to Robot:
servoj([-0.11663076923223215, -1.551094887054151, -1.6314603071608054, -1.4850212734836363, 1.7177218914031982, 2.9593114499698716], 0.5, 0.5, 0.008, 0.2, 100)

2025-07-07 17:06:15,829 - gym_custom_envs_real_ur_drivers_URBasic_realTimeClientEvent - INFO - Program send to Robot:
servoj([-0.11661487736077081, -1.551076869512443, -1.6314780405203526, -1.4850561889627525, 1.717745852470398, 2.9592573429255027], 0.5, 0.5, 0.008, 0.2, 100)

2025-07-07 17:06:15,843 - gym_custom_envs_real_ur_drivers_URBasic_realTimeClientEvent - INFO - Program send to Robot:
servoj([-0.11548991220461065, -1.5511244901573398, -1.631446585688293, -1.4851684092175113, 1.7176860094070434, 2.9599028029568335], 0.5, 0.5, 0.008, 0.2, 100)

2025-07-07 17:06:15,860 - gym_custom_envs_real_ur_drivers_URBasic_realTimeClientEvent - INFO - Program send to Robot:
servoj([-0.11539975564361293, -1.551089964839708, -1.6314016271226766, -1.4852146715367331, 1.717650008201599, 2.9599579584434785], 0.5, 0.5, 0.008, 0.2, 100)

2025-07-07 17:06:15,876 - gym_custom_envs_real_ur_drivers_URBasic_realTimeClientEvent - INFO - Program send to Robot:
servoj([-0.11484988631635712, -1.5510792006532295, -1.631775206015003, -1.4852726674250236, 1.717410635948181, 2.9603064367303755], 0.5, 0.5, 0.008, 0.2, 100)

2025-07-07 17:06:15,890 - gym_custom_envs_real_ur_drivers_URBasic_realTimeClientEvent - INFO - Program send to Robot:
servoj([-0.11455001622189537, -1.5511084497226575, -1.631756274707341, -1.4852673801821097, 1.7170638561248779, 2.9604618741953193], 0.5, 0.5, 0.008, 0.2, 100)

2025-07-07 17:06:15,910 - gym_custom_envs_real_ur_drivers_URBasic_realTimeClientEvent - INFO - Program send to Robot:
servoj([-0.1142978896042981, -1.5511282351115312, -1.6313479705554021, -1.48527660959061, 1.7167886018753051, 2.9606225475822177], 0.5, 0.5, 0.008, 0.2, 100)

2025-07-07 17:06:15,926 - gym_custom_envs_real_ur_drivers_URBasic_realTimeClientEvent - INFO - Program send to Robot:
servoj([-0.11381673321825572, -1.5511155522717102, -1.6313348187876389, -1.485355350273414, 1.7162620544433593, 2.960896733879559], 0.5, 0.5, 0.008, 0.2, 100)

2025-07-07 17:06:15,938 - gym_custom_envs_real_ur_drivers_URBasic_realTimeClientEvent - INFO - Program send to Robot:
servoj([-0.11346052231247378, -1.5511353228639968, -1.63133871656649, -1.4853732593965525, 1.7159875154495239, 2.9611267152554195], 0.5, 0.5, 0.008, 0.2, 100)

2025-07-07 17:06:15,954 - gym_custom_envs_real_ur_drivers_URBasic_realTimeClientEvent - INFO - Program send to Robot:
servoj([-0.11290597004881686, -1.5511410837843775, -1.6312666326837781, -1.4854646683269939, 1.7153415203094482, 2.9614181992516455], 0.5, 0.5, 0.008, 0.2, 100)

2025-07-07 17:06:15,973 - gym_custom_envs_real_ur_drivers_URBasic_realTimeClientEvent - INFO - Program send to Robot:
servoj([-0.11227830568200817, -1.5511559560972672, -1.6312369988752327, -1.485496856832208, 1.714647603034973, 2.9617508097169702], 0.5, 0.5, 0.008, 0.2, 100)

2025-07-07 17:06:15,986 - gym_custom_envs_real_ur_drivers_URBasic_realTimeClientEvent - INFO - Program send to Robot:
servoj([-0.11169927978107883, -1.5512043027117506, -1.6311844957222037, -1.4856022141521636, 1.7141093730926513, 2.9620787391609538], 0.5, 0.5, 0.008, 0.2, 100)

2025-07-07 17:06:16,005 - gym_custom_envs_real_ur_drivers_URBasic_realTimeClientEvent - INFO - Program send to Robot:
servoj([-0.11114854902082455, -1.5512154240084362, -1.6310503965412833, -1.4857828772956148, 1.7128768682479858, 2.9626269752643246], 0.5, 0.5, 0.008, 0.2, 100)

2025-07-07 17:06:16,021 - gym_custom_envs_real_ur_drivers_URBasic_realTimeClientEvent - INFO - Program send to Robot:
servoj([-0.11012797702927221, -1.5512764678537307, -1.6310156996668206, -1.4859040214176287, 1.7118725299835205, 2.9631945739034973], 0.5, 0.5, 0.008, 0.2, 100)

2025-07-07 17:06:16,034 - gym_custom_envs_real_ur_drivers_URBasic_realTimeClientEvent - INFO - Program send to Robot:
servoj([-0.10817971692648716, -1.5513353579289306, -1.6308901647299983, -1.4861804171420423, 1.7101138353347778, 2.9640520517132813], 0.5, 0.5, 0.008, 0.2, 100)

2025-07-07 17:06:16,050 - gym_custom_envs_real_ur_drivers_URBasic_realTimeClientEvent - INFO - Program send to Robot:
servoj([-0.10666163441117477, -1.5513918087583622, -1.6307700714676665, -1.4862914185940341, 1.7086547136306762, 2.964857508857401], 0.5, 0.5, 0.008, 0.2, 100)

2025-07-07 17:06:16,071 - gym_custom_envs_real_ur_drivers_URBasic_realTimeClientEvent - INFO - Program send to Robot:
servoj([-0.10510948585924013, -1.551410921787553, -1.6306319954977633, -1.4864983913926275, 1.7072308778762817, 2.9656453002316248], 0.5, 0.5, 0.008, 0.2, 100)

2025-07-07 17:06:16,082 - gym_custom_envs_real_ur_drivers_URBasic_realTimeClientEvent - INFO - Program send to Robot:
servoj([-0.10528637526249618, -1.551450696777466, -1.63064604600067, -1.4865639168548535, 1.7075540542602539, 2.9656244539603462], 0.5, 0.5, 0.008, 0.2, 100)

2025-07-07 17:06:16,098 - gym_custom_envs_real_ur_drivers_URBasic_realTimeClientEvent - INFO - Program send to Robot:
servoj([-0.10500336101924768, -1.551486161286551, -1.6305410181149347, -1.4865699111425186, 1.7073866844177246, 2.9657349037917036], 0.5, 0.5, 0.008, 0.2, 100)

2025-07-07 17:06:16,118 - gym_custom_envs_real_ur_drivers_URBasic_realTimeClientEvent - INFO - Program send to Robot:
servoj([-0.10419854034004299, -1.5514719765234273, -1.6305365851925862, -1.4867403448780627, 1.706202459335327, 2.966262111697762], 0.5, 0.5, 0.008, 0.2, 100)

2025-07-07 17:06:16,130 - gym_custom_envs_real_ur_drivers_URBasic_realTimeClientEvent - INFO - Program send to Robot:
servoj([-0.10324045663191286, -1.5510693190192262, -1.6305459206271233, -1.4868393891225529, 1.705329132080078, 2.966801501485635], 0.5, 0.5, 0.008, 0.2, 100)

2025-07-07 17:06:16,146 - gym_custom_envs_real_ur_drivers_URBasic_realTimeClientEvent - INFO - Program send to Robot:
servoj([-0.10210147855785104, -1.551114094672497, -1.6303504735616567, -1.486816246908093, 1.7043482780456543, 2.967298457463644], 0.5, 0.5, 0.008, 0.2, 100)

2025-07-07 17:06:16,167 - gym_custom_envs_real_ur_drivers_URBasic_realTimeClientEvent - INFO - Program send to Robot:
servoj([0.009203884727313927, -1.5539225381434942, -1.6229516735830085, -1.5017671913400428, 1.584602153885867, 3.029612056074141], 0.5, 0.5, 0.008, 0.2, 100)

2025-07-07 17:06:16,170 - gym_custom_envs_real_ur_drivers_URBasic_realTimeClientEvent - INFO - Program send to Robot:
servoj([0.009203884727313927, -1.553922538128308, -1.6229516735830085, -1.5017671913400428, 1.584602153885867, 3.029612056074141], 0.5, 0.5, 0.008, 0.2, 100)

2025-07-07 17:06:16,193 - gym_custom_envs_real_ur_drivers_URBasic_realTimeClientEvent - INFO - Program send to Robot:
servoj([0.007685243747306982, -1.5554411791081628, -1.6229516735830085, -1.5017671913400428, 1.584602153885867, 3.029612056074141], 0.5, 0.5, 0.008, 0.2, 100)

2025-07-07 17:06:16,203 - gym_custom_envs_real_ur_drivers_URBasic_realTimeClientEvent - INFO - Program send to Robot:
servoj([0.007670057337506912, -1.5554563655179614, -1.6229516735830085, -1.5017671913400428, 1.584602153885867, 3.029612056074141], 0.5, 0.5, 0.008, 0.2, 100)

2025-07-07 17:06:16,215 - gym_custom_envs_real_ur_drivers_URBasic_realTimeClientEvent - INFO - Program send to Robot:
servoj([0.007669905473408912, -1.5554565173820594, -1.6229516735830085, -1.5017671913400428, 1.584602153885867, 3.029612056074141], 0.5, 0.5, 0.008, 0.2, 100)

2025-07-07 17:06:16,219 - gym_custom_envs_real_ur_drivers_URBasic_realTimeClientEvent - INFO - Program send to Robot:
servoj([0.009188544934774877, -1.5539378779206936, -1.6229516735830085, -1.5017671913400428, 1.584602153885867, 3.029612056074141], 0.5, 0.5, 0.008, 0.2, 100)

2025-07-07 17:06:16,234 - gym_custom_envs_real_ur_drivers_URBasic_realTimeClientEvent - INFO - Program send to Robot:
servoj([0.009203731329388535, -1.5539226915260798, -1.6229516735830085, -1.5017671913400428, 1.584602153885867, 3.029612056074141], 0.5, 0.5, 0.008, 0.2, 100)

2025-07-07 17:06:16,242 - gym_custom_envs_real_ur_drivers_URBasic_realTimeClientEvent - INFO - Program send to Robot:
servoj([0.009203883193334672, -1.5539225396621337, -1.6229516735830085, -1.5017671913400428, 1.584602153885867, 3.029612056074141], 0.5, 0.5, 0.008, 0.2, 100)

2025-07-07 17:06:16,264 - gym_custom_envs_real_ur_drivers_URBasic_realTimeClientEvent - INFO - Program send to Robot:
servoj([0.009203884711974133, -1.5539225381434942, -1.6229516735830085, -1.5017671913400428, 1.584602153885867, 3.029612056074141], 0.5, 0.5, 0.008, 0.2, 100)

2025-07-07 17:06:16,266 - gym_custom_envs_real_ur_drivers_URBasic_realTimeClientEvent - INFO - Program send to Robot:
servoj([0.009203884727160529, -1.553922538128308, -1.6229516735830085, -1.5017671913400428, 1.584602153885867, 3.029612056074141], 0.5, 0.5, 0.008, 0.2, 100)

2025-07-07 17:06:16,283 - gym_custom_envs_real_ur_drivers_URBasic_realTimeClientEvent - INFO - Program send to Robot:
servoj([0.009203884727312393, -1.553922538128156, -1.6229516735830085, -1.5017671913400428, 1.584602153885867, 3.029612056074141], 0.5, 0.5, 0.008, 0.2, 100)

2025-07-07 17:06:16,291 - gym_custom_envs_real_ur_drivers_URBasic_realTimeClientEvent - INFO - Program send to Robot:
servoj([0.009203884727313911, -1.5539225381281545, -1.6229516735830085, -1.5017671913400428, 1.584602153885867, 3.029612056074141], 0.5, 0.5, 0.008, 0.2, 100)

2025-07-07 17:06:16,307 - gym_custom_envs_real_ur_drivers_URBasic_realTimeClientEvent - INFO - Program send to Robot:
servoj([0.009203884727313927, -1.5539225381281545, -1.6229516735830085, -1.5017671913400428, 1.584602153885867, 3.029612056074141], 0.5, 0.5, 0.008, 0.2, 100)

2025-07-07 17:06:16,322 - gym_custom_envs_real_ur_drivers_URBasic_realTimeClientEvent - INFO - Program send to Robot:
servoj([0.009203884727313927, -1.5539225381281545, -1.6229516735830085, -1.5017671913400428, 1.584602153885867, 3.029612056074141], 0.5, 0.5, 0.008, 0.2, 100)

2025-07-07 17:06:16,331 - gym_custom_envs_real_ur_drivers_URBasic_realTimeClientEvent - INFO - Program send to Robot:
servoj([0.009203884727313927, -1.5539225381281545, -1.6229516735830085, -1.5017671913400428, 1.584602153885867, 3.029612056074141], 0.5, 0.5, 0.008, 0.2, 100)

2025-07-07 17:06:16,347 - gym_custom_envs_real_ur_drivers_URBasic_realTimeClientEvent - INFO - Program send to Robot:
servoj([0.009203884727313927, -1.5524038971481477, -1.6229516735830085, -1.5017671913400428, 1.584602153885867, 3.029612056074141], 0.5, 0.5, 0.008, 0.2, 100)

2025-07-07 17:06:16,355 - gym_custom_envs_real_ur_drivers_URBasic_realTimeClientEvent - INFO - Program send to Robot:
servoj([0.009203884727313927, -1.5523887107383476, -1.6229516735830085, -1.5017671913400428, 1.584602153885867, 3.029612056074141], 0.5, 0.5, 0.008, 0.2, 100)

2025-07-07 17:06:16,362 - gym_custom_envs_real_ur_drivers_URBasic_realTimeClientEvent - INFO - Program send to Robot:
servoj([0.009203884727313927, -1.5523885588742496, -1.6229516735830085, -1.5017671913400428, 1.584602153885867, 3.029612056074141], 0.5, 0.5, 0.008, 0.2, 100)

2025-07-07 17:06:16,379 - gym_custom_envs_real_ur_drivers_URBasic_realTimeClientEvent - INFO - Program send to Robot:
servoj([0.007685243747306982, -1.5493512753955951, -1.6229516735830085, -1.5017671913400428, 1.584602153885867, 3.029612056074141], 0.5, 0.5, 0.008, 0.2, 100)

2025-07-07 17:06:16,387 - gym_custom_envs_real_ur_drivers_URBasic_realTimeClientEvent - INFO - Program send to Robot:
servoj([0.007670057337506912, -1.5493209025608086, -1.6229516735830085, -1.5017671913400428, 1.584602153885867, 3.029612056074141], 0.5, 0.5, 0.008, 0.2, 100)

2025-07-07 17:06:16,403 - gym_custom_envs_real_ur_drivers_URBasic_realTimeClientEvent - INFO - Program send to Robot:
servoj([0.007669905473408912, -1.5493205988324608, -1.6229516735830085, -1.5017671913400428, 1.584602153885867, 3.029612056074141], 0.5, 0.5, 0.008, 0.2, 100)

2025-07-07 17:06:16,419 - gym_custom_envs_real_ur_drivers_URBasic_realTimeClientEvent - INFO - Program send to Robot:
servoj([0.007669903954767932, -1.5493205957951772, -1.6229516735830085, -1.5017671913400428, 1.586120794865874, 3.029612056074141], 0.5, 0.5, 0.008, 0.2, 100)

2025-07-07 17:06:16,427 - gym_custom_envs_real_ur_drivers_URBasic_realTimeClientEvent - INFO - Program send to Robot:
servoj([0.0076699039395815224, -1.5493205957648044, -1.6229516735830085, -1.5017671913400428, 1.5861359812756741, 3.029612056074141], 0.5, 0.5, 0.008, 0.2, 100)

2025-07-07 17:06:16,435 - gym_custom_envs_real_ur_drivers_URBasic_realTimeClientEvent - INFO - Program send to Robot:
servoj([0.007669903939429658, -1.5493205957645007, -1.6229516735830085, -1.5017671913400428, 1.586136133139772, 3.029612056074141], 0.5, 0.5, 0.008, 0.2, 100)

2025-07-07 17:06:16,443 - gym_custom_envs_real_ur_drivers_URBasic_realTimeClientEvent - INFO - Program send to Robot:
servoj([0.007669903939428139, -1.5493205957644975, -1.6214330326030015, -1.5017671913400428, 1.586136134658413, 3.0280934150941343], 0.5, 0.5, 0.008, 0.2, 100)

2025-07-07 17:06:16,459 - gym_custom_envs_real_ur_drivers_URBasic_realTimeClientEvent - INFO - Program send to Robot:
servoj([0.007669903939428124, -1.5493205957644975, -1.6214178461932014, -1.5017671913400428, 1.5861361346735994, 3.0280782286843344], 0.5, 0.5, 0.008, 0.2, 100)

2025-07-07 17:06:16,466 - gym_custom_envs_real_ur_drivers_URBasic_realTimeClientEvent - INFO - Program send to Robot:
servoj([0.007669903939428124, -1.5493205957644975, -1.6214176943291034, -1.5017671913400428, 1.5861361346737513, 3.028078076820236], 0.5, 0.5, 0.008, 0.2, 100)

2025-07-07 17:06:16,474 - gym_custom_envs_real_ur_drivers_URBasic_realTimeClientEvent - INFO - Program send to Robot:
servoj([0.007669903939428124, -1.5493205957644975, -1.6183804108504487, -1.5017671913400428, 1.5861361346737528, 3.0280780753015955], 0.5, 0.5, 0.008, 0.2, 100)

2025-07-07 17:06:16,482 - gym_custom_envs_real_ur_drivers_URBasic_realTimeClientEvent - INFO - Program send to Robot:
servoj([0.007669903939428124, -1.5493205957644975, -1.6183500380156621, -1.5017671913400428, 1.5861361346737528, 3.028078075286409], 0.5, 0.5, 0.008, 0.2, 100)

2025-07-07 17:06:16,499 - gym_custom_envs_real_ur_drivers_URBasic_realTimeClientEvent - INFO - Program send to Robot:
servoj([0.007669903939428124, -1.5493205957644975, -1.6183497342873143, -1.5017671913400428, 1.5861361346737528, 3.028078075286257], 0.5, 0.5, 0.008, 0.2, 100)

2025-07-07 17:06:16,506 - gym_custom_envs_real_ur_drivers_URBasic_realTimeClientEvent - INFO - Program send to Robot:
servoj([0.007669903939428124, -1.5493205957644975, -1.6153124492900177, -1.5017671913400428, 1.5861361346737528, 3.0280780752862557], 0.5, 0.5, 0.008, 0.2, 100)

2025-07-07 17:06:16,523 - gym_custom_envs_real_ur_drivers_URBasic_realTimeClientEvent - INFO - Program send to Robot:
servoj([0.007669903939428124, -1.5493205957644975, -1.6152820764400448, -1.5017671913400428, 1.5861361346737528, 3.0280780752862557], 0.5, 0.5, 0.008, 0.2, 100)

2025-07-07 17:06:16,530 - gym_custom_envs_real_ur_drivers_URBasic_realTimeClientEvent - INFO - Program send to Robot:
servoj([0.007669903939428124, -1.5493205957644975, -1.615281772711545, -1.5017671913400428, 1.5861361346737528, 3.0280780752862557], 0.5, 0.5, 0.008, 0.2, 100)

2025-07-07 17:06:16,547 - gym_custom_envs_real_ur_drivers_URBasic_realTimeClientEvent - INFO - Program send to Robot:
servoj([0.007669903939428124, -1.5493205957644975, -1.613763128694253, -1.5017671913400428, 1.5861361346737528, 3.0280780752862557], 0.5, 0.5, 0.008, 0.2, 100)

2025-07-07 17:06:16,563 - gym_custom_envs_real_ur_drivers_URBasic_realTimeClientEvent - INFO - Program send to Robot:
servoj([0.007669903939428124, -1.5493205957644975, -1.6137479422540801, -1.5017671913400428, 1.5861361346737528, 3.0280780752862557], 0.5, 0.5, 0.008, 0.2, 100)

2025-07-07 17:06:16,571 - gym_custom_envs_real_ur_drivers_URBasic_realTimeClientEvent - INFO - Program send to Robot:
servoj([0.007669903939428124, -1.5493205957644975, -1.6137477903896784, -1.5017671913400428, 1.5861361346737528, 3.0295967162662625], 0.5, 0.5, 0.008, 0.2, 100)

2025-07-07 17:06:16,579 - gym_custom_envs_real_ur_drivers_URBasic_realTimeClientEvent - INFO - Program send to Robot:
servoj([0.007669903939428124, -1.5493205957644975, -1.6137477888710343, -1.5017671913400428, 1.5861361346737528, 3.0296119026760624], 0.5, 0.5, 0.008, 0.2, 100)

2025-07-07 17:06:16,586 - gym_custom_envs_real_ur_drivers_URBasic_realTimeClientEvent - INFO - Program send to Robot:
servoj([0.007669903939428124, -1.5493205957644975, -1.613747788855848, -1.5017671913400428, 1.5861361346737528, 3.0296120545401606], 0.5, 0.5, 0.008, 0.2, 100)

2025-07-07 17:06:16,603 - gym_custom_envs_real_ur_drivers_URBasic_realTimeClientEvent - INFO - Program send to Robot:
servoj([0.007669903939428124, -1.5493205957644975, -1.6137477888556961, -1.5017671913400428, 1.5861361346737528, 3.0296120560588014], 0.5, 0.5, 0.008, 0.2, 100)

2025-07-07 17:06:16,610 - gym_custom_envs_real_ur_drivers_URBasic_realTimeClientEvent - INFO - Program send to Robot:
servoj([0.007669903939428124, -1.5493205957644975, -1.6137477888556946, -1.5017671913400428, 1.5861361346737528, 3.029612056073988], 0.5, 0.5, 0.008, 0.2, 100)

2025-07-07 17:06:16,618 - gym_custom_envs_real_ur_drivers_URBasic_realTimeClientEvent - INFO - Program send to Robot:
servoj([0.007669903939428124, -1.5493205957644975, -1.6137477888556946, -1.5017671913400428, 1.5861361346737528, 3.0296120560741397], 0.5, 0.5, 0.008, 0.2, 100)

2025-07-07 17:06:16,626 - gym_custom_envs_real_ur_drivers_URBasic_realTimeClientEvent - INFO - Program send to Robot:
servoj([0.007669903939428124, -1.5493205957644975, -1.6137477888556946, -1.5017671913400428, 1.5861361346737528, 3.029612056074141], 0.5, 0.5, 0.008, 0.2, 100)

2025-07-07 17:06:16,643 - gym_custom_envs_real_ur_drivers_URBasic_realTimeClientEvent - INFO - Program send to Robot:
servoj([0.007669903939428124, -1.5493205957644975, -1.6137477888556946, -1.5017671913400428, 1.5861361346737528, 3.029612056074141], 0.5, 0.5, 0.008, 0.2, 100)

2025-07-07 17:06:16,650 - gym_custom_envs_real_ur_drivers_URBasic_realTimeClientEvent - INFO - Program send to Robot:
servoj([0.007669903939428124, -1.5493205957644975, -1.6137477888556946, -1.5017671913400428, 1.5861361346737528, 3.029612056074141], 0.5, 0.5, 0.008, 0.2, 100)

2025-07-07 17:06:16,667 - gym_custom_envs_real_ur_drivers_URBasic_realTimeClientEvent - INFO - Program send to Robot:
servoj([0.007669903939428124, -1.5493205957644975, -1.6137477888556946, -1.5017671913400428, 1.5861361346737528, 3.029612056074141], 0.5, 0.5, 0.008, 0.2, 100)

2025-07-07 17:06:16,683 - gym_custom_envs_real_ur_drivers_URBasic_realTimeClientEvent - INFO - Program send to Robot:
servoj([0.007669903939428124, -1.5493205957644975, -1.6137477888556946, -1.5017671913400428, 1.5861361346737528, 3.029612056074141], 0.5, 0.5, 0.008, 0.2, 100)

2025-07-07 17:06:16,691 - gym_custom_envs_real_ur_drivers_URBasic_realTimeClientEvent - INFO - Program send to Robot:
servoj([0.007669903939428124, -1.5493205957644975, -1.6137477888556946, -1.5017671913400428, 1.5861361346737528, 3.029612056074141], 0.5, 0.5, 0.008, 0.2, 100)

2025-07-07 17:06:16,699 - gym_custom_envs_real_ur_drivers_URBasic_realTimeClientEvent - INFO - Program send to Robot:
servoj([0.007669903939428124, -1.5478019547844908, -1.6137477888556946, -1.5017671913400428, 1.5861361346737528, 3.029612056074141], 0.5, 0.5, 0.008, 0.2, 100)

2025-07-07 17:06:16,707 - gym_custom_envs_real_ur_drivers_URBasic_realTimeClientEvent - INFO - Program send to Robot:
servoj([0.007669903939428124, -1.5477867683746909, -1.6137477888556946, -1.5017671913400428, 1.5861361346737528, 3.029612056074141], 0.5, 0.5, 0.008, 0.2, 100)

2025-07-07 17:06:16,723 - gym_custom_envs_real_ur_drivers_URBasic_realTimeClientEvent - INFO - Program send to Robot:
servoj([0.007669903939428124, -1.5477866165105927, -1.6137477888556946, -1.5017671913400428, 1.5861361346737528, 3.029612056074141], 0.5, 0.5, 0.008, 0.2, 100)

2025-07-07 17:06:16,731 - gym_custom_envs_real_ur_drivers_URBasic_realTimeClientEvent - INFO - Program send to Robot:
servoj([0.007669903939428124, -1.547786614991952, -1.6137477888556946, -1.5017671913400428, 1.5861361346737528, 3.029612056074141], 0.5, 0.5, 0.008, 0.2, 100)

2025-07-07 17:06:16,738 - gym_custom_envs_real_ur_drivers_URBasic_realTimeClientEvent - INFO - Program send to Robot:
servoj([0.007669903939428124, -1.5477866149767654, -1.6137477888556946, -1.5017671913400428, 1.5861361346737528, 3.029612056074141], 0.5, 0.5, 0.008, 0.2, 100)

2025-07-07 17:06:16,746 - gym_custom_envs_real_ur_drivers_URBasic_realTimeClientEvent - INFO - Program send to Robot:
servoj([0.007669903939428124, -1.5477866149766135, -1.6137477888556946, -1.5017671913400428, 1.5861361346737528, 3.029612056074141], 0.5, 0.5, 0.008, 0.2, 100)

2025-07-07 17:06:16,763 - gym_custom_envs_real_ur_drivers_URBasic_realTimeClientEvent - INFO - Program send to Robot:
servoj([0.007669903939428124, -1.547786614976612, -1.6137477888556946, -1.5017671913400428, 1.5861361346737528, 3.029612056074141], 0.5, 0.5, 0.008, 0.2, 100)

2025-07-07 17:06:16,770 - gym_custom_envs_real_ur_drivers_URBasic_realTimeClientEvent - INFO - Program send to Robot:
servoj([0.007669903939428124, -1.547786614976612, -1.6137477888556946, -1.5017671913400428, 1.5861361346737528, 3.029612056074141], 0.5, 0.5, 0.008, 0.2, 100)

2025-07-07 17:06:16,786 - gym_custom_envs_real_ur_drivers_URBasic_realTimeClientEvent - INFO - Program send to Robot:
servoj([0.007669903939428124, -1.547786614976612, -1.6137477888556946, -1.5017671913400428, 1.5861361346737528, 3.029612056074141], 0.5, 0.5, 0.008, 0.2, 100)

2025-07-07 17:06:16,803 - gym_custom_envs_real_ur_drivers_URBasic_realTimeClientEvent - INFO - Program send to Robot:
servoj([0.007669903939428124, -1.547786614976612, -1.6137477888556946, -1.5017671913400428, 1.5861361346737528, 3.029612056074141], 0.5, 0.5, 0.008, 0.2, 100)

2025-07-07 17:06:16,811 - gym_custom_envs_real_ur_drivers_URBasic_realTimeClientEvent - INFO - Program send to Robot:
servoj([0.007669903939428124, -1.547786614976612, -1.6137477888556946, -1.5017671913400428, 1.5861361346737528, 3.029612056074141], 0.5, 0.5, 0.008, 0.2, 100)

2025-07-07 17:06:16,819 - gym_custom_envs_real_ur_drivers_URBasic_realTimeClientEvent - INFO - Program send to Robot:
servoj([0.007669903939428124, -1.547786614976612, -1.6137477888556946, -1.5017671913400428, 1.5861361346737528, 3.029612056074141], 0.5, 0.5, 0.008, 0.2, 100)

2025-07-07 17:06:16,827 - gym_custom_envs_real_ur_drivers_URBasic_realTimeClientEvent - INFO - Program send to Robot:
servoj([0.007669903939428124, -1.547786614976612, -1.6137477888556946, -1.5017671913400428, 1.5876547756537598, 3.029612056074141], 0.5, 0.5, 0.008, 0.2, 100)

2025-07-07 17:06:16,842 - gym_custom_envs_real_ur_drivers_URBasic_realTimeClientEvent - INFO - Program send to Robot:
servoj([0.007669903939428124, -1.547786614976612, -1.6137477888556946, -1.5017671913400428, 1.58766996206356, 3.029612056074141], 0.5, 0.5, 0.008, 0.2, 100)

2025-07-07 17:06:16,850 - gym_custom_envs_real_ur_drivers_URBasic_realTimeClientEvent - INFO - Program send to Robot:
servoj([0.007669903939428124, -1.547786614976612, -1.6137477888556946, -1.5017671913400428, 1.5876701139276579, 3.029612056074141], 0.5, 0.5, 0.008, 0.2, 100)

2025-07-07 17:06:16,858 - gym_custom_envs_real_ur_drivers_URBasic_realTimeClientEvent - INFO - Program send to Robot:
servoj([0.007669903939428124, -1.547786614976612, -1.6122291478756876, -1.5017671913400428, 1.5876701154462989, 3.029612056074141], 0.5, 0.5, 0.008, 0.2, 100)

2025-07-07 17:06:16,867 - gym_custom_envs_real_ur_drivers_URBasic_realTimeClientEvent - INFO - Program send to Robot:
servoj([0.007669903939428124, -1.547786614976612, -1.6122139614658875, -1.5017671913400428, 1.5876701154614852, 3.029612056074141], 0.5, 0.5, 0.008, 0.2, 100)

2025-07-07 17:06:16,882 - gym_custom_envs_real_ur_drivers_URBasic_realTimeClientEvent - INFO - Program send to Robot:
servoj([0.007669903939428124, -1.547786614976612, -1.6122138096017895, -1.5017671913400428, 1.587670115461637, 3.029612056074141], 0.5, 0.5, 0.008, 0.2, 100)

2025-07-07 17:06:16,890 - gym_custom_envs_real_ur_drivers_URBasic_realTimeClientEvent - INFO - Program send to Robot:
servoj([0.007669903939428124, -1.547786614976612, -1.6137324490631555, -1.5017671913400428, 1.5876701154616386, 3.0280934150941343], 0.5, 0.5, 0.008, 0.2, 100)

2025-07-07 17:06:16,906 - gym_custom_envs_real_ur_drivers_URBasic_realTimeClientEvent - INFO - Program send to Robot:
servoj([0.007669903939428124, -1.547786614976612, -1.6137476354577691, -1.5017671913400428, 1.5876701154616386, 3.0280782286843344], 0.5, 0.5, 0.008, 0.2, 100)

2025-07-07 17:06:16,914 - gym_custom_envs_real_ur_drivers_URBasic_realTimeClientEvent - INFO - Program send to Robot:
servoj([0.007669903939428124, -1.547786614976612, -1.6137477873217152, -1.5017671913400428, 1.5876701154616386, 3.028078076820236], 0.5, 0.5, 0.008, 0.2, 100)

2025-07-07 17:06:16,930 - gym_custom_envs_real_ur_drivers_URBasic_realTimeClientEvent - INFO - Program send to Robot:
servoj([0.007669903939428124, -1.547786614976612, -1.6137477888403546, -1.5017671913400428, 1.5907073974216526, 3.0280780753015955], 0.5, 0.5, 0.008, 0.2, 100)

2025-07-07 17:06:16,947 - gym_custom_envs_real_ur_drivers_URBasic_realTimeClientEvent - INFO - Program send to Robot:
servoj([0.007669903939428124, -1.547786614976612, -1.6137477888555412, -1.5017671913400428, 1.5907377702412528, 3.028078075286409], 0.5, 0.5, 0.008, 0.2, 100)

2025-07-07 17:06:16,955 - gym_custom_envs_real_ur_drivers_URBasic_realTimeClientEvent - INFO - Program send to Robot:
servoj([0.007669903939428124, -1.547786614976612, -1.613747788855693, -1.5017671913400428, 1.5952939969094686, 3.028078075286257], 0.5, 0.5, 0.008, 0.2, 100)

2025-07-07 17:06:16,971 - gym_custom_envs_real_ur_drivers_URBasic_realTimeClientEvent - INFO - Program send to Robot:
servoj([0.007669903939428124, -1.547786614976612, -1.6137477888556946, -1.5017671913400428, 1.5953395591761508, 3.0280780752862557], 0.5, 0.5, 0.008, 0.2, 100)

2025-07-07 17:06:16,979 - gym_custom_envs_real_ur_drivers_URBasic_realTimeClientEvent - INFO - Program send to Robot:
servoj([0.007669903939428124, -1.547786614976612, -1.6137477888556946, -1.5017671913400428, 1.5953400147988175, 3.0280780752862557], 0.5, 0.5, 0.008, 0.2, 100)

2025-07-07 17:06:16,986 - gym_custom_envs_real_ur_drivers_URBasic_realTimeClientEvent - INFO - Program send to Robot:
servoj([0.007669903939428124, -1.547786614976612, -1.6137477888556946, -1.5017671913400428, 1.601414583275071, 3.0280780752862557], 0.5, 0.5, 0.008, 0.2, 100)

2025-07-07 17:06:17,002 - gym_custom_envs_real_ur_drivers_URBasic_realTimeClientEvent - INFO - Program send to Robot:
servoj([0.007669903939428124, -1.547786614976612, -1.6137477888556946, -1.5017671913400428, 1.6014753289598336, 3.0280780752862557], 0.5, 0.5, 0.008, 0.2, 100)

2025-07-07 17:06:17,010 - gym_custom_envs_real_ur_drivers_URBasic_realTimeClientEvent - INFO - Program send to Robot:
servoj([0.007669903939428124, -1.547786614976612, -1.6137477888556946, -1.5017671913400428, 1.6014759364166813, 3.0280780752862557], 0.5, 0.5, 0.008, 0.2, 100)

2025-07-07 17:06:17,027 - gym_custom_envs_real_ur_drivers_URBasic_realTimeClientEvent - INFO - Program send to Robot:
servoj([0.007669903939428124, -1.547786614976612, -1.6137477888556946, -1.5017671913400428, 1.6075505064112776, 3.0280780752862557], 0.5, 0.5, 0.008, 0.2, 100)

2025-07-07 17:06:17,043 - gym_custom_envs_real_ur_drivers_URBasic_realTimeClientEvent - INFO - Program send to Robot:
servoj([0.007669903939428124, -1.547786614976612, -1.6137477888556946, -1.5017671913400428, 1.6076112521112236, 3.0280780752862557], 0.5, 0.5, 0.008, 0.2, 100)

2025-07-07 17:06:17,051 - gym_custom_envs_real_ur_drivers_URBasic_realTimeClientEvent - INFO - Program send to Robot:
servoj([0.007669903939428124, -1.547786614976612, -1.6137477888556946, -1.5017671913400428, 1.609130500548229, 3.0295967162662625], 0.5, 0.5, 0.008, 0.2, 100)

2025-07-07 17:06:17,061 - gym_custom_envs_real_ur_drivers_URBasic_realTimeClientEvent - INFO - Program send to Robot:
servoj([0.007669903939428124, -1.547786614976612, -1.6137477888556946, -1.5017671913400428, 1.6091456930325991, 3.0296119026760624], 0.5, 0.5, 0.008, 0.2, 100)

2025-07-07 17:06:17,068 - gym_custom_envs_real_ur_drivers_URBasic_realTimeClientEvent - INFO - Program send to Robot:
servoj([0.007669903939428124, -1.547786614976612, -1.6137477888556946, -1.5017671913400428, 1.609145844957443, 3.0296120545401606], 0.5, 0.5, 0.008, 0.2, 100)

2025-07-07 17:06:17,083 - gym_custom_envs_real_ur_drivers_URBasic_realTimeClientEvent - INFO - Program send to Robot:
servoj([0.007669903939428124, -1.547786614976612, -1.6137477888556946, -1.5017671913400428, 1.6091458464766912, 3.0296120560588014], 0.5, 0.5, 0.008, 0.2, 100)

2025-07-07 17:06:17,092 - gym_custom_envs_real_ur_drivers_URBasic_realTimeClientEvent - INFO - Program send to Robot:
servoj([0.007669903939428124, -1.547786614976612, -1.6137477888556946, -1.5017671913400428, 1.6091458464918837, 3.029612056073988], 0.5, 0.5, 0.008, 0.2, 100)

2025-07-07 17:06:17,098 - gym_custom_envs_real_ur_drivers_URBasic_realTimeClientEvent - INFO - Program send to Robot:
servoj([0.007669903939428124, -1.547786614976612, -1.6137477888556946, -1.5017671913400428, 1.6091458464920356, 3.0296120560741397], 0.5, 0.5, 0.008, 0.2, 100)

2025-07-07 17:06:17,107 - gym_custom_envs_real_ur_drivers_URBasic_realTimeClientEvent - INFO - Program send to Robot:
servoj([0.007669903939428124, -1.547786614976612, -1.6137477888556946, -1.5017671913400428, 1.6091458464920372, 3.029612056074141], 0.5, 0.5, 0.008, 0.2, 100)

2025-07-07 17:06:17,123 - gym_custom_envs_real_ur_drivers_URBasic_realTimeClientEvent - INFO - Program send to Robot:
servoj([0.007669903939428124, -1.547786614976612, -1.6122291478756876, -1.5017671913400428, 1.6091458464920372, 3.029612056074141], 0.5, 0.5, 0.008, 0.2, 100)

2025-07-07 17:06:17,131 - gym_custom_envs_real_ur_drivers_URBasic_realTimeClientEvent - INFO - Program send to Robot:
servoj([0.007669903939428124, -1.547786614976612, -1.6122139614658875, -1.5017671913400428, 1.6091458464920372, 3.029612056074141], 0.5, 0.5, 0.008, 0.2, 100)

2025-07-07 17:06:17,139 - gym_custom_envs_real_ur_drivers_URBasic_realTimeClientEvent - INFO - Program send to Robot:
servoj([0.007669903939428124, -1.547786614976612, -1.6122138096017895, -1.5017671913400428, 1.6091458464920372, 3.029612056074141], 0.5, 0.5, 0.008, 0.2, 100)

2025-07-07 17:06:17,147 - gym_custom_envs_real_ur_drivers_URBasic_realTimeClientEvent - INFO - Program send to Robot:
servoj([0.007669903939428124, -1.547786614976612, -1.6122138080831485, -1.5017671913400428, 1.6091458464920372, 3.0280934150941343], 0.5, 0.5, 0.008, 0.2, 100)

2025-07-07 17:06:17,164 - gym_custom_envs_real_ur_drivers_URBasic_realTimeClientEvent - INFO - Program send to Robot:
servoj([0.007669903939428124, -1.547786614976612, -1.612213808067962, -1.5017671913400428, 1.6091458464920372, 3.0280782286843344], 0.5, 0.5, 0.008, 0.2, 100)

2025-07-07 17:06:17,170 - gym_custom_envs_real_ur_drivers_URBasic_realTimeClientEvent - INFO - Program send to Robot:
servoj([0.007669903939428124, -1.547786614976612, -1.6122138080678101, -1.5017671913400428, 1.6091458464920372, 3.028078076820236], 0.5, 0.5, 0.008, 0.2, 100)

2025-07-07 17:06:17,180 - gym_custom_envs_real_ur_drivers_URBasic_realTimeClientEvent - INFO - Program send to Robot:
servoj([0.007669903939428124, -1.547786614976612, -1.6122138080678088, -1.5017671913400428, 1.6106644874720442, 3.0280780753015955], 0.5, 0.5, 0.008, 0.2, 100)

2025-07-07 17:06:17,195 - gym_custom_envs_real_ur_drivers_URBasic_realTimeClientEvent - INFO - Program send to Robot:
servoj([0.007669903939428124, -1.547786614976612, -1.6122138080678088, -1.5017671913400428, 1.6106796738818443, 3.028078075286409], 0.5, 0.5, 0.008, 0.2, 100)

2025-07-07 17:06:17,205 - gym_custom_envs_real_ur_drivers_URBasic_realTimeClientEvent - INFO - Program send to Robot:
servoj([0.007669903939428124, -1.547786614976612, -1.6122138080678088, -1.5017671913400428, 1.6106798257459423, 3.028078075286257], 0.5, 0.5, 0.008, 0.2, 100)

2025-07-07 17:06:17,213 - gym_custom_envs_real_ur_drivers_URBasic_realTimeClientEvent - INFO - Program send to Robot:
servoj([0.007669903939428124, -1.547786614976612, -1.610695167087802, -1.5017671913400428, 1.61219846824459, 3.0280780752862557], 0.5, 0.5, 0.008, 0.2, 100)

2025-07-07 17:06:17,219 - gym_custom_envs_real_ur_drivers_URBasic_realTimeClientEvent - INFO - Program send to Robot:
servoj([0.007669903939428124, -1.547786614976612, -1.6106799806780019, -1.5017671913400428, 1.6122136546695764, 3.0280780752862557], 0.5, 0.5, 0.008, 0.2, 100)

2025-07-07 17:06:17,237 - gym_custom_envs_real_ur_drivers_URBasic_realTimeClientEvent - INFO - Program send to Robot:
servoj([0.007669903939428124, -1.547786614976612, -1.610679828813904, -1.5017671913400428, 1.6122138065338263, 3.0280780752862557], 0.5, 0.5, 0.008, 0.2, 100)

2025-07-07 17:06:17,242 - gym_custom_envs_real_ur_drivers_URBasic_realTimeClientEvent - INFO - Program send to Robot:
servoj([0.007669903939428124, -1.547786614976612, -1.6121984682752697, -1.5017671913400428, 1.6167697309924898, 3.0280780752862557], 0.5, 0.5, 0.008, 0.2, 100)

2025-07-07 17:06:17,253 - gym_custom_envs_real_ur_drivers_URBasic_realTimeClientEvent - INFO - Program send to Robot:
servoj([0.007669903939428124, -1.547786614976612, -1.6122136546698833, -1.5017671913400428, 1.6168152902370765, 3.0280780752862557], 0.5, 0.5, 0.008, 0.2, 100)

2025-07-07 17:06:17,266 - gym_custom_envs_real_ur_drivers_URBasic_realTimeClientEvent - INFO - Program send to Robot:
servoj([0.007669903939428124, -1.547786614976612, -1.6122138065338294, -1.5017671913400428, 1.6168157458295223, 3.0280780752862557], 0.5, 0.5, 0.008, 0.2, 100)

2025-07-07 17:06:17,278 - gym_custom_envs_real_ur_drivers_URBasic_realTimeClientEvent - INFO - Program send to Robot:
servoj([0.007669903939428124, -1.547786614976612, -1.6122138080524688, -1.5017671913400428, 1.6244089552854806, 3.0280780752862557], 0.5, 0.5, 0.008, 0.2, 100)

2025-07-07 17:06:17,283 - gym_custom_envs_real_ur_drivers_URBasic_realTimeClientEvent - INFO - Program send to Robot:
servoj([0.007669903939428124, -1.547786614976612, -1.6122138080676554, -1.5017671913400428, 1.6244848873800402, 3.0280780752862557], 0.5, 0.5, 0.008, 0.2, 100)

2025-07-07 17:06:17,291 - gym_custom_envs_real_ur_drivers_URBasic_realTimeClientEvent - INFO - Program send to Robot:
servoj([0.007669903939428124, -1.547786614976612, -1.6122138080678072, -1.5017671913400428, 1.6244856467009858, 3.0280780752862557], 0.5, 0.5, 0.008, 0.2, 100)

2025-07-07 17:06:17,306 - gym_custom_envs_real_ur_drivers_URBasic_realTimeClientEvent - INFO - Program send to Robot:
servoj([0.007669903939428124, -1.547786614976612, -1.6122138080678088, -1.5017671913400428, 1.633597500174236, 3.0280780752862557], 0.5, 0.5, 0.008, 0.2, 100)

2025-07-07 17:06:17,314 - gym_custom_envs_real_ur_drivers_URBasic_realTimeClientEvent - INFO - Program send to Robot:
servoj([0.007669903939428124, -1.547786614976612, -1.6122138080678088, -1.5017671913400428, 1.6336886187089685, 3.0280780752862557], 0.5, 0.5, 0.008, 0.2, 100)

2025-07-07 17:06:17,322 - gym_custom_envs_real_ur_drivers_URBasic_realTimeClientEvent - INFO - Program send to Robot:
servoj([0.007669903939428124, -1.547786614976612, -1.6122138080678088, -1.5017671913400428, 1.6336895298943157, 3.0280780752862557], 0.5, 0.5, 0.008, 0.2, 100)

2025-07-07 17:06:17,331 - gym_custom_envs_real_ur_drivers_URBasic_realTimeClientEvent - INFO - Program send to Robot:
servoj([0.007669903939428124, -1.547786614976612, -1.6122138080678088, -1.5017671913400428, 1.6336895390061692, 3.0280780752862557], 0.5, 0.5, 0.008, 0.2, 100)

2025-07-07 17:06:17,350 - gym_custom_envs_real_ur_drivers_URBasic_realTimeClientEvent - INFO - Program send to Robot:
servoj([0.007669903939428124, -1.547786614976612, -1.6122138080678088, -1.5017671913400428, 1.639764103017315, 3.0280780752862557], 0.5, 0.5, 0.008, 0.2, 100)

2025-07-07 17:06:17,355 - gym_custom_envs_real_ur_drivers_URBasic_realTimeClientEvent - INFO - Program send to Robot:
servoj([0.007669903939428124, -1.547786614976612, -1.6122138080678088, -1.5017671913400428, 1.6398248486574263, 3.0280780752862557], 0.5, 0.5, 0.008, 0.2, 100)

2025-07-07 17:06:17,363 - gym_custom_envs_real_ur_drivers_URBasic_realTimeClientEvent - INFO - Program send to Robot:
servoj([0.007669903939428124, -1.547786614976612, -1.6122138080678088, -1.5017671913400428, 1.6398254561138275, 3.0280780752862557], 0.5, 0.5, 0.008, 0.2, 100)

2025-07-07 17:06:17,378 - gym_custom_envs_real_ur_drivers_URBasic_realTimeClientEvent - INFO - Program send to Robot:
servoj([0.007669903939428124, -1.547786614976612, -1.6122138080678088, -1.5017671913400428, 1.6428627441484043, 3.0280780752862557], 0.5, 0.5, 0.008, 0.2, 100)

2025-07-07 17:06:17,386 - gym_custom_envs_real_ur_drivers_URBasic_realTimeClientEvent - INFO - Program send to Robot:
servoj([0.007669903939428124, -1.547786614976612, -1.6122138080678088, -1.5017671913400428, 1.64289311702875, 3.0280780752862557], 0.5, 0.5, 0.008, 0.2, 100)

2025-07-07 17:06:17,398 - gym_custom_envs_real_ur_drivers_URBasic_realTimeClientEvent - INFO - Program send to Robot:
servoj([0.007669903939428124, -1.547786614976612, -1.6122138080678088, -1.5017671913400428, 1.6428934207575534, 3.0280780752862557], 0.5, 0.5, 0.008, 0.2, 100)

2025-07-07 17:06:17,411 - gym_custom_envs_real_ur_drivers_URBasic_realTimeClientEvent - INFO - Program send to Robot:
servoj([0.007669903939428124, -1.547786614976612, -1.6122138080678088, -1.5017671913400428, 1.6428934237948416, 3.0280780752862557], 0.5, 0.5, 0.008, 0.2, 100)

2025-07-07 17:06:17,423 - gym_custom_envs_real_ur_drivers_URBasic_realTimeClientEvent - INFO - Program send to Robot:
servoj([0.007669903939428124, -1.547786614976612, -1.6122138080678088, -1.5017671913400428, 1.6428934238252144, 3.0280780752862557], 0.5, 0.5, 0.008, 0.2, 100)

2025-07-07 17:06:17,427 - gym_custom_envs_real_ur_drivers_URBasic_realTimeClientEvent - INFO - Program send to Robot:
servoj([0.007669903939428124, -1.547786614976612, -1.6122138080678088, -1.5017671913400428, 1.6428934238255182, 3.0280780752862557], 0.5, 0.5, 0.008, 0.2, 100)

2025-07-07 17:06:17,447 - gym_custom_envs_real_ur_drivers_URBasic_realTimeClientEvent - INFO - Program send to Robot:
servoj([0.007669903939428124, -1.547786614976612, -1.6122138080678088, -1.5017671913400428, 1.644412064805528, 3.0280780752862557], 0.5, 0.5, 0.008, 0.2, 100)

2025-07-07 17:06:17,450 - gym_custom_envs_real_ur_drivers_URBasic_realTimeClientEvent - INFO - Program send to Robot:
servoj([0.007669903939428124, -1.547786614976612, -1.6122138080678088, -1.5017671913400428, 1.6444272512153282, 3.0280780752862557], 0.5, 0.5, 0.008, 0.2, 100)

2025-07-07 17:06:17,470 - gym_custom_envs_real_ur_drivers_URBasic_realTimeClientEvent - INFO - Program send to Robot:
servoj([0.007669903939428124, -1.547786614976612, -1.6122138080678088, -1.5017671913400428, 1.6444274030794261, 3.0280780752862557], 0.5, 0.5, 0.008, 0.2, 100)

2025-07-07 17:06:17,476 - gym_custom_envs_real_ur_drivers_URBasic_realTimeClientEvent - INFO - Program send to Robot:
servoj([0.007669903939428124, -1.547786614976612, -1.6122138080678088, -1.5017671913400428, 1.6444274045980671, 3.0280780752862557], 0.5, 0.5, 0.008, 0.2, 100)

2025-07-07 17:06:17,495 - gym_custom_envs_real_ur_drivers_URBasic_realTimeClientEvent - INFO - Program send to Robot:
servoj([0.007669903939428124, -1.547786614976612, -1.6122138080678088, -1.5017671913400428, 1.6444274046132537, 3.0280780752862557], 0.5, 0.5, 0.008, 0.2, 100)

2025-07-07 17:06:17,499 - gym_custom_envs_real_ur_drivers_URBasic_realTimeClientEvent - INFO - Program send to Robot:
servoj([0.007669903939428124, -1.547786614976612, -1.6122138080678088, -1.5017671913400428, 1.6444274046134055, 3.0280780752862557], 0.5, 0.5, 0.008, 0.2, 100)

2025-07-07 17:06:17,518 - gym_custom_envs_real_ur_drivers_URBasic_realTimeClientEvent - INFO - Program send to Robot:
servoj([0.007669903939428124, -1.547786614976612, -1.6122138080678088, -1.5017671913400428, 1.644427404613407, 3.0280780752862557], 0.5, 0.5, 0.008, 0.2, 100)

2025-07-07 17:06:17,522 - gym_custom_envs_real_ur_drivers_URBasic_realTimeClientEvent - INFO - Program send to Robot:
servoj([0.007669903939428124, -1.547786614976612, -1.6122138080678088, -1.5017671913400428, 1.644427404613407, 3.0280780752862557], 0.5, 0.5, 0.008, 0.2, 100)

2025-07-07 17:06:17,544 - gym_custom_envs_real_ur_drivers_URBasic_realTimeClientEvent - INFO - Program send to Robot:
servoj([0.007669903939428124, -1.547786614976612, -1.6122138080678088, -1.5017671913400428, 1.645946045593414, 3.0280780752862557], 0.5, 0.5, 0.008, 0.2, 100)

2025-07-07 17:06:17,547 - gym_custom_envs_real_ur_drivers_URBasic_realTimeClientEvent - INFO - Program send to Robot:
servoj([0.007669903939428124, -1.547786614976612, -1.6122138080678088, -1.5017671913400428, 1.645961232003214, 3.0280780752862557], 0.5, 0.5, 0.008, 0.2, 100)

2025-07-07 17:06:17,568 - gym_custom_envs_real_ur_drivers_URBasic_realTimeClientEvent - INFO - Program send to Robot:
servoj([0.007669903939428124, -1.5462679739966052, -1.6122138080678088, -1.5017671913400428, 1.6474800248473191, 3.0280780752862557], 0.5, 0.5, 0.008, 0.2, 100)

2025-07-07 17:06:17,579 - gym_custom_envs_real_ur_drivers_URBasic_realTimeClientEvent - INFO - Program send to Robot:
servoj([0.007669903939428124, -1.546252787586805, -1.6122138080678088, -1.5017671913400428, 1.64749521277576, 3.0280780752862557], 0.5, 0.5, 0.008, 0.2, 100)

2025-07-07 17:06:17,593 - gym_custom_envs_real_ur_drivers_URBasic_realTimeClientEvent - INFO - Program send to Robot:
servoj([0.007669903939428124, -1.546252635722707, -1.6122138080678088, -1.5017671913400428, 1.6474953646550445, 3.0280780752862557], 0.5, 0.5, 0.008, 0.2, 100)

2025-07-07 17:06:17,603 - gym_custom_envs_real_ur_drivers_URBasic_realTimeClientEvent - INFO - Program send to Robot:
servoj([0.007669903939428124, -1.5447339932240591, -1.6122138080678088, -1.5017671913400428, 1.6520512891138572, 3.0280780752862557], 0.5, 0.5, 0.008, 0.2, 100)

2025-07-07 17:06:17,610 - gym_custom_envs_real_ur_drivers_URBasic_realTimeClientEvent - INFO - Program send to Robot:
servoj([0.007669903939428124, -1.5447188067990727, -1.6122138080678088, -1.5017671913400428, 1.6520968483584453, 3.0280780752862557], 0.5, 0.5, 0.008, 0.2, 100)

2025-07-07 17:06:17,618 - gym_custom_envs_real_ur_drivers_URBasic_realTimeClientEvent - INFO - Program send to Robot:
servoj([0.007669903939428124, -1.5447186549348229, -1.6122138080678088, -1.5017671913400428, 1.6520973039508913, 3.0280780752862557], 0.5, 0.5, 0.008, 0.2, 100)

2025-07-07 17:06:17,635 - gym_custom_envs_real_ur_drivers_URBasic_realTimeClientEvent - INFO - Program send to Robot:
servoj([0.007669903939428124, -1.5432000124361736, -1.6122138080678088, -1.5017671913400428, 1.6566532314468365, 3.0280780752862557], 0.5, 0.5, 0.008, 0.2, 100)

2025-07-07 17:06:17,642 - gym_custom_envs_real_ur_drivers_URBasic_realTimeClientEvent - INFO - Program send to Robot:
servoj([0.007669903939428124, -1.5431848260111871, -1.6122138080678088, -1.5017671913400428, 1.656698790721796, 3.0280780752862557], 0.5, 0.5, 0.008, 0.2, 100)

2025-07-07 17:06:17,659 - gym_custom_envs_real_ur_drivers_URBasic_realTimeClientEvent - INFO - Program send to Robot:
servoj([0.007669903939428124, -1.5416660331669305, -1.6122138080678088, -1.5017671913400428, 1.6627738102345724, 3.0280780752862557], 0.5, 0.5, 0.008, 0.2, 100)

2025-07-07 17:06:17,675 - gym_custom_envs_real_ur_drivers_URBasic_realTimeClientEvent - INFO - Program send to Robot:
servoj([0.007669903939428124, -1.5416508452384878, -1.6122138080678088, -1.5017671913400428, 1.6628345604297001, 3.0280780752862557], 0.5, 0.5, 0.008, 0.2, 100)

2025-07-07 17:06:17,683 - gym_custom_envs_real_ur_drivers_URBasic_realTimeClientEvent - INFO - Program send to Robot:
servoj([0.007669903939428124, -1.5416506933592036, -1.6122138080678088, -1.5017671913400428, 1.6628351679316515, 3.0280780752862557], 0.5, 0.5, 0.008, 0.2, 100)

2025-07-07 17:06:17,691 - gym_custom_envs_real_ur_drivers_URBasic_realTimeClientEvent - INFO - Program send to Robot:
servoj([0.007669903939428124, -1.5401320508604042, -1.6122138080678088, -1.5017671913400428, 1.6658724559666849, 3.0280780752862557], 0.5, 0.5, 0.008, 0.2, 100)

2025-07-07 17:06:17,699 - gym_custom_envs_real_ur_drivers_URBasic_realTimeClientEvent - INFO - Program send to Robot:
servoj([0.007669903939428124, -1.5401168644354162, -1.6122138080678088, -1.5017671913400428, 1.6659028288470352, 3.0280780752862557], 0.5, 0.5, 0.008, 0.2, 100)

2025-07-07 17:06:17,714 - gym_custom_envs_real_ur_drivers_URBasic_realTimeClientEvent - INFO - Program send to Robot:
servoj([0.007669903939428124, -1.5401167125711663, -1.6122138080678088, -1.5017671913400428, 1.6659031325758389, 3.0280780752862557], 0.5, 0.5, 0.008, 0.2, 100)

2025-07-07 17:06:17,722 - gym_custom_envs_real_ur_drivers_URBasic_realTimeClientEvent - INFO - Program send to Robot:
servoj([0.007669903939428124, -1.5401167110525238, -1.6122138080678088, -1.5017671913400428, 1.6674217765931338, 3.0280780752862557], 0.5, 0.5, 0.008, 0.2, 100)

2025-07-07 17:06:17,731 - gym_custom_envs_real_ur_drivers_URBasic_realTimeClientEvent - INFO - Program send to Robot:
servoj([0.007669903939428124, -1.5401167110373373, -1.6122138080678088, -1.5017671913400428, 1.6674369630333068, 3.0280780752862557], 0.5, 0.5, 0.008, 0.2, 100)

2025-07-07 17:06:17,747 - gym_custom_envs_real_ur_drivers_URBasic_realTimeClientEvent - INFO - Program send to Robot:
servoj([0.007669903939428124, -1.5401167110371854, -1.6122138080678088, -1.5017671913400428, 1.6674371148977085, 3.0280780752862557], 0.5, 0.5, 0.008, 0.2, 100)

2025-07-07 17:06:17,754 - gym_custom_envs_real_ur_drivers_URBasic_realTimeClientEvent - INFO - Program send to Robot:
servoj([0.007669903939428124, -1.5401167110371838, -1.6122138080678088, -1.5017671913400428, 1.6674371164163526, 3.0280780752862557], 0.5, 0.5, 0.008, 0.2, 100)

2025-07-07 17:06:17,763 - gym_custom_envs_real_ur_drivers_URBasic_realTimeClientEvent - INFO - Program send to Robot:
servoj([0.007669903939428124, -1.5401167110371838, -1.6122138080678088, -1.5017671913400428, 1.667437116431539, 3.0280780752862557], 0.5, 0.5, 0.008, 0.2, 100)

2025-07-07 17:06:17,772 - gym_custom_envs_real_ur_drivers_URBasic_realTimeClientEvent - INFO - Program send to Robot:
servoj([0.007669903939428124, -1.5401167110371838, -1.6122138080678088, -1.5017671913400428, 1.6674371164316908, 3.0280780752862557], 0.5, 0.5, 0.008, 0.2, 100)

2025-07-07 17:06:17,788 - gym_custom_envs_real_ur_drivers_URBasic_realTimeClientEvent - INFO - Program send to Robot:
servoj([0.007669903939428124, -1.5401167110371838, -1.6122138080678088, -1.5017671913400428, 1.6674371164316923, 3.0280780752862557], 0.5, 0.5, 0.008, 0.2, 100)

2025-07-07 17:06:17,797 - gym_custom_envs_real_ur_drivers_URBasic_realTimeClientEvent - INFO - Program send to Robot:
servoj([0.007669903939428124, -1.5401167110371838, -1.6122138080678088, -1.5017671913400428, 1.6674371164316923, 3.0280780752862557], 0.5, 0.5, 0.008, 0.2, 100)

2025-07-07 17:06:17,803 - gym_custom_envs_real_ur_drivers_URBasic_realTimeClientEvent - INFO - Program send to Robot:
servoj([0.007669903939428124, -1.5401167110371838, -1.6122138080678088, -1.5017671913400428, 1.6674371164316923, 3.0280780752862557], 0.5, 0.5, 0.008, 0.2, 100)

2025-07-07 17:06:17,812 - gym_custom_envs_real_ur_drivers_URBasic_realTimeClientEvent - INFO - Program send to Robot:
servoj([0.007669903939428124, -1.5401167110371838, -1.6122138080678088, -1.5017671913400428, 1.6674371164316923, 3.0280780752862557], 0.5, 0.5, 0.008, 0.2, 100)

2025-07-07 17:06:17,827 - gym_custom_envs_real_ur_drivers_URBasic_realTimeClientEvent - INFO - Program send to Robot:
servoj([0.007669903939428124, -1.5385980700571769, -1.6122138080678088, -1.5017671913400428, 1.6674371164316923, 3.0280780752862557], 0.5, 0.5, 0.008, 0.2, 100)

2025-07-07 17:06:17,835 - gym_custom_envs_real_ur_drivers_URBasic_realTimeClientEvent - INFO - Program send to Robot:
servoj([0.007669903939428124, -1.538582883647377, -1.6122138080678088, -1.5017671913400428, 1.6674371164316923, 3.0280780752862557], 0.5, 0.5, 0.008, 0.2, 100)

2025-07-07 17:06:17,843 - gym_custom_envs_real_ur_drivers_URBasic_realTimeClientEvent - INFO - Program send to Robot:
servoj([0.007669903939428124, -1.538582731783279, -1.6122138080678088, -1.5017671913400428, 1.6674371164316923, 3.0280780752862557], 0.5, 0.5, 0.008, 0.2, 100)

2025-07-07 17:06:17,859 - gym_custom_envs_real_ur_drivers_URBasic_realTimeClientEvent - INFO - Program send to Robot:
servoj([0.007669903939428124, -1.538582730264638, -1.6137324490478158, -1.5017671913400428, 1.6674371164316923, 3.0280780752862557], 0.5, 0.5, 0.008, 0.2, 100)

2025-07-07 17:06:17,867 - gym_custom_envs_real_ur_drivers_URBasic_realTimeClientEvent - INFO - Program send to Robot:
servoj([0.007669903939428124, -1.5385827302494515, -1.6137476354576157, -1.5017671913400428, 1.6674371164316923, 3.0280780752862557], 0.5, 0.5, 0.008, 0.2, 100)

2025-07-07 17:06:17,874 - gym_custom_envs_real_ur_drivers_URBasic_realTimeClientEvent - INFO - Program send to Robot:
servoj([0.007669903939428124, -1.5385827302492996, -1.6137477873217136, -1.5017671913400428, 1.6674371164316923, 3.0280780752862557], 0.5, 0.5, 0.008, 0.2, 100)

2025-07-07 17:06:17,883 - gym_custom_envs_real_ur_drivers_URBasic_realTimeClientEvent - INFO - Program send to Robot:
servoj([0.007669903939428124, -1.538582730249298, -1.6137477888403546, -1.5017671913400428, 1.6689557574116984, 3.0280780752862557], 0.5, 0.5, 0.008, 0.2, 100)

2025-07-07 17:06:17,899 - gym_custom_envs_real_ur_drivers_URBasic_realTimeClientEvent - INFO - Program send to Robot:
servoj([0.007669903939428124, -1.538582730249298, -1.6137477888555412, -1.5017671913400428, 1.6689709438214986, 3.0280780752862557], 0.5, 0.5, 0.008, 0.2, 100)

2025-07-07 17:06:17,908 - gym_custom_envs_real_ur_drivers_URBasic_realTimeClientEvent - INFO - Program send to Robot:
servoj([0.007669903939428124, -1.538582730249298, -1.613747788855693, -1.5017671913400428, 1.6689710956855965, 3.0280780752862557], 0.5, 0.5, 0.008, 0.2, 100)

2025-07-07 17:06:17,917 - gym_custom_envs_real_ur_drivers_URBasic_realTimeClientEvent - INFO - Program send to Robot:
servoj([0.007669903939428124, -1.538582730249298, -1.6137477888556946, -1.5017671913400428, 1.6689710972042375, 3.0280780752862557], 0.5, 0.5, 0.008, 0.2, 100)

2025-07-07 17:06:17,923 - gym_custom_envs_real_ur_drivers_URBasic_realTimeClientEvent - INFO - Program send to Robot:
servoj([0.007669903939428124, -1.538582730249298, -1.6137477888556946, -1.5017671913400428, 1.6689710972194238, 3.0280780752862557], 0.5, 0.5, 0.008, 0.2, 100)

2025-07-07 17:06:17,938 - gym_custom_envs_real_ur_drivers_URBasic_realTimeClientEvent - INFO - Program send to Robot:
servoj([0.007669903939428124, -1.538582730249298, -1.6137477888556946, -1.5017671913400428, 1.6689710972195757, 3.0280780752862557], 0.5, 0.5, 0.008, 0.2, 100)

2025-07-07 17:06:17,947 - gym_custom_envs_real_ur_drivers_URBasic_realTimeClientEvent - INFO - Program send to Robot:
servoj([0.00615126295942162, -1.5370640892692913, -1.6137477888556946, -1.5017671913400428, 1.6689710972195773, 3.0280780752862557], 0.5, 0.5, 0.008, 0.2, 100)

2025-07-07 17:06:17,956 - gym_custom_envs_real_ur_drivers_URBasic_realTimeClientEvent - INFO - Program send to Robot:
servoj([0.006136076549621554, -1.5370489028594914, -1.6137477888556946, -1.5017671913400428, 1.6689710972195773, 3.0280780752862557], 0.5, 0.5, 0.008, 0.2, 100)

2025-07-07 17:06:17,971 - gym_custom_envs_real_ur_drivers_URBasic_realTimeClientEvent - INFO - Program send to Robot:
servoj([0.006135924685523554, -1.5370487509953932, -1.6137477888556946, -1.5017671913400428, 1.6689710972195773, 3.0280780752862557], 0.5, 0.5, 0.008, 0.2, 100)

2025-07-07 17:06:17,979 - gym_custom_envs_real_ur_drivers_URBasic_realTimeClientEvent - INFO - Program send to Robot:
servoj([0.0061359231668825735, -1.5370487494767522, -1.6137477888556946, -1.5017671913400428, 1.6689710972195773, 3.0280780752862557], 0.5, 0.5, 0.008, 0.2, 100)

2025-07-07 17:06:17,987 - gym_custom_envs_real_ur_drivers_URBasic_realTimeClientEvent - INFO - Program send to Robot:
servoj([0.006135923151696164, -1.5370487494615659, -1.6137477888556946, -1.5017671913400428, 1.6689710972195773, 3.0280780752862557], 0.5, 0.5, 0.008, 0.2, 100)

2025-07-07 17:06:17,994 - gym_custom_envs_real_ur_drivers_URBasic_realTimeClientEvent - INFO - Program send to Robot:
servoj([0.006135923151544299, -1.537048749461414, -1.6137477888556946, -1.5017671913400428, 1.6689710972195773, 3.0280780752862557], 0.5, 0.5, 0.008, 0.2, 100)

2025-07-07 17:06:18,012 - gym_custom_envs_real_ur_drivers_URBasic_realTimeClientEvent - INFO - Program send to Robot:
servoj([0.006135923151542781, -1.5370487494614125, -1.6137477888556946, -1.5017671913400428, 1.6689710972195773, 3.0280780752862557], 0.5, 0.5, 0.008, 0.2, 100)

2025-07-07 17:06:18,018 - gym_custom_envs_real_ur_drivers_URBasic_realTimeClientEvent - INFO - Program send to Robot:
servoj([0.006135923151542766, -1.5370487494614125, -1.6137477888556946, -1.5017671913400428, 1.6689710972195773, 3.0280780752862557], 0.5, 0.5, 0.008, 0.2, 100)

2025-07-07 17:06:18,028 - gym_custom_envs_real_ur_drivers_URBasic_realTimeClientEvent - INFO - Program send to Robot:
servoj([0.006135923151542766, -1.5370487494614125, -1.6137477888556946, -1.5017671913400428, 1.6689710972195773, 3.0280780752862557], 0.5, 0.5, 0.008, 0.2, 100)

2025-07-07 17:06:18,043 - gym_custom_envs_real_ur_drivers_URBasic_realTimeClientEvent - INFO - Program send to Robot:
servoj([0.006135923151542766, -1.5370487494614125, -1.6137477888556946, -1.5017671913400428, 1.6689710972195773, 3.0280780752862557], 0.5, 0.5, 0.008, 0.2, 100)

2025-07-07 17:06:18,052 - gym_custom_envs_real_ur_drivers_URBasic_realTimeClientEvent - INFO - Program send to Robot:
servoj([0.006135923151542766, -1.5370487494614125, -1.6137477888556946, -1.5017671913400428, 1.6689710972195773, 3.0280780752862557], 0.5, 0.5, 0.008, 0.2, 100)

2025-07-07 17:06:18,060 - gym_custom_envs_real_ur_drivers_URBasic_realTimeClientEvent - INFO - Program send to Robot:
servoj([0.006135923151542766, -1.5370487494614125, -1.6137477888556946, -1.5017671913400428, 1.6689710972195773, 3.0280780752862557], 0.5, 0.5, 0.008, 0.2, 100)

2025-07-07 17:06:18,067 - gym_custom_envs_real_ur_drivers_URBasic_realTimeClientEvent - INFO - Program send to Robot:
servoj([0.006135923151542766, -1.5370487494614125, -1.6137477888556946, -1.5017671913400428, 1.6689710972195773, 3.0280780752862557], 0.5, 0.5, 0.008, 0.2, 100)

2025-07-07 17:06:18,083 - gym_custom_envs_real_ur_drivers_URBasic_realTimeClientEvent - INFO - Program send to Robot:
servoj([0.006135923151542766, -1.5370487494614125, -1.6137477888556946, -1.5017671913400428, 1.6689710972195773, 3.0280780752862557], 0.5, 0.5, 0.008, 0.2, 100)

2025-07-07 17:06:18,090 - gym_custom_envs_real_ur_drivers_URBasic_realTimeClientEvent - INFO - Program send to Robot:
servoj([0.006135923151542766, -1.5370487494614125, -1.6137477888556946, -1.5017671913400428, 1.6689710972195773, 3.0280780752862557], 0.5, 0.5, 0.008, 0.2, 100)

2025-07-07 17:06:18,099 - gym_custom_envs_real_ur_drivers_URBasic_realTimeClientEvent - INFO - Program send to Robot:
servoj([0.006135923151542766, -1.5370487494614125, -1.6137477888556946, -1.5017671913400428, 1.6689710972195773, 3.0280780752862557], 0.5, 0.5, 0.008, 0.2, 100)

2025-07-07 17:06:18,107 - gym_custom_envs_real_ur_drivers_URBasic_realTimeClientEvent - INFO - Program send to Robot:
servoj([0.006135923151542766, -1.5370487494614125, -1.6137477888556946, -1.5017671913400428, 1.6689710972195773, 3.0280780752862557], 0.5, 0.5, 0.008, 0.2, 100)

2025-07-07 17:06:18,123 - gym_custom_envs_real_ur_drivers_URBasic_realTimeClientEvent - INFO - Program send to Robot:
servoj([0.006135923151542766, -1.5370487494614125, -1.6137477888556946, -1.5017671913400428, 1.6689710972195773, 3.0280780752862557], 0.5, 0.5, 0.008, 0.2, 100)

2025-07-07 17:06:18,132 - gym_custom_envs_real_ur_drivers_URBasic_realTimeClientEvent - INFO - Program send to Robot:
servoj([0.006135923151542766, -1.5370487494614125, -1.6137477888556946, -1.5017671913400428, 1.6689710972195773, 3.0280780752862557], 0.5, 0.5, 0.008, 0.2, 100)

2025-07-07 17:06:18,138 - gym_custom_envs_real_ur_drivers_URBasic_realTimeClientEvent - INFO - Program send to Robot:
servoj([0.006135923151542766, -1.5370487494614125, -1.6137477888556946, -1.5017671913400428, 1.6689710972195773, 3.0280780752862557], 0.5, 0.5, 0.008, 0.2, 100)

2025-07-07 17:06:18,148 - gym_custom_envs_real_ur_drivers_URBasic_realTimeClientEvent - INFO - Program send to Robot:
servoj([0.006135923151542766, -1.5370487494614125, -1.6137477888556946, -1.5017671913400428, 1.6689710972195773, 3.0280780752862557], 0.5, 0.5, 0.008, 0.2, 100)

2025-07-07 17:06:18,163 - gym_custom_envs_real_ur_drivers_URBasic_realTimeClientEvent - INFO - Program send to Robot:
servoj([0.006135923151542766, -1.5370487494614125, -1.6137477888556946, -1.5017671913400428, 1.6689710972195773, 3.0280780752862557], 0.5, 0.5, 0.008, 0.2, 100)

2025-07-07 17:06:18,172 - gym_custom_envs_real_ur_drivers_URBasic_realTimeClientEvent - INFO - Program send to Robot:
servoj([0.006135923151542766, -1.5370487494614125, -1.6137477888556946, -1.5017671913400428, 1.6689710972195773, 3.0280780752862557], 0.5, 0.5, 0.008, 0.2, 100)

2025-07-07 17:06:18,180 - gym_custom_envs_real_ur_drivers_URBasic_realTimeClientEvent - INFO - Program send to Robot:
servoj([0.006135923151542766, -1.5370487494614125, -1.6137477888556946, -1.5017671913400428, 1.6689710972195773, 3.0280780752862557], 0.5, 0.5, 0.008, 0.2, 100)

2025-07-07 17:06:18,187 - gym_custom_envs_real_ur_drivers_URBasic_realTimeClientEvent - INFO - Program send to Robot:
servoj([0.006135923151542766, -1.5370487494614125, -1.6137477888556946, -1.5017671913400428, 1.6689710972195773, 3.0280780752862557], 0.5, 0.5, 0.008, 0.2, 100)

2025-07-07 17:06:18,203 - gym_custom_envs_real_ur_drivers_URBasic_realTimeClientEvent - INFO - Program send to Robot:
servoj([0.006135923151542766, -1.5370487494614125, -1.6137477888556946, -1.5017671913400428, 1.6689710972195773, 3.0280780752862557], 0.5, 0.5, 0.008, 0.2, 100)

2025-07-07 17:06:18,210 - gym_custom_envs_real_ur_drivers_URBasic_realTimeClientEvent - INFO - Program send to Robot:
servoj([0.006135923151542766, -1.5370487494614125, -1.6137477888556946, -1.5017671913400428, 1.6689710972195773, 3.0280780752862557], 0.5, 0.5, 0.008, 0.2, 100)

2025-07-07 17:06:18,219 - gym_custom_envs_real_ur_drivers_URBasic_realTimeClientEvent - INFO - Program send to Robot:
servoj([0.006135923151542766, -1.5370487494614125, -1.6137477888556946, -1.5017671913400428, 1.6689710972195773, 3.0280780752862557], 0.5, 0.5, 0.008, 0.2, 100)

2025-07-07 17:06:18,235 - gym_custom_envs_real_ur_drivers_URBasic_realTimeClientEvent - INFO - Program send to Robot:
servoj([0.006135923151542766, -1.5370487494614125, -1.6152664298357016, -1.5017671913400428, 1.6689710972195773, 3.0280780752862557], 0.5, 0.5, 0.008, 0.2, 100)

2025-07-07 17:06:18,243 - gym_custom_envs_real_ur_drivers_URBasic_realTimeClientEvent - INFO - Program send to Robot:
servoj([0.006135923151542766, -1.5370487494614125, -1.6152816162455015, -1.5017671913400428, 1.6689710972195773, 3.0280780752862557], 0.5, 0.5, 0.008, 0.2, 100)

2025-07-07 17:06:18,252 - gym_custom_envs_real_ur_drivers_URBasic_realTimeClientEvent - INFO - Program send to Robot:
servoj([0.006135923151542766, -1.5370487494614125, -1.6152817681095997, -1.5017671913400428, 1.6689710972195773, 3.0280780752862557], 0.5, 0.5, 0.008, 0.2, 100)

2025-07-07 17:06:18,259 - gym_custom_envs_real_ur_drivers_URBasic_realTimeClientEvent - INFO - Program send to Robot:
servoj([0.006135923151542766, -1.5370487494614125, -1.6152817696282407, -1.5017671913400428, 1.6689710972195773, 3.0280780752862557], 0.5, 0.5, 0.008, 0.2, 100)

2025-07-07 17:06:18,277 - gym_custom_envs_real_ur_drivers_URBasic_realTimeClientEvent - INFO - Program send to Robot:
servoj([0.006135923151542766, -1.5370487494614125, -1.615281769643427, -1.5017671913400428, 1.6689710972195773, 3.0280780752862557], 0.5, 0.5, 0.008, 0.2, 100)

2025-07-07 17:06:18,282 - gym_custom_envs_real_ur_drivers_URBasic_realTimeClientEvent - INFO - Program send to Robot:
servoj([0.006135923151542766, -1.5370487494614125, -1.6152817696435788, -1.5017671913400428, 1.6689710972195773, 3.0280780752862557], 0.5, 0.5, 0.008, 0.2, 100)

2025-07-07 17:06:18,292 - gym_custom_envs_real_ur_drivers_URBasic_realTimeClientEvent - INFO - Program send to Robot:
servoj([0.006135923151542766, -1.5370487494614125, -1.6152817696435804, -1.5017671913400428, 1.6689710972195773, 3.0280780752862557], 0.5, 0.5, 0.008, 0.2, 100)

2025-07-07 17:06:18,307 - gym_custom_envs_real_ur_drivers_URBasic_realTimeClientEvent - INFO - Program send to Robot:
servoj([0.006135923151542766, -1.5370487494614125, -1.6152817696435804, -1.5017671913400428, 1.6674524562395712, 3.0280780752862557], 0.5, 0.5, 0.008, 0.2, 100)

2025-07-07 17:06:18,315 - gym_custom_envs_real_ur_drivers_URBasic_realTimeClientEvent - INFO - Program send to Robot:
servoj([0.006135923151542766, -1.5370487494614125, -1.6152817696435804, -1.5017671913400428, 1.6674372698297713, 3.0280780752862557], 0.5, 0.5, 0.008, 0.2, 100)

2025-07-07 17:06:18,323 - gym_custom_envs_real_ur_drivers_URBasic_realTimeClientEvent - INFO - Program send to Robot:
servoj([0.006135923151542766, -1.5370487494614125, -1.6152817696435804, -1.5017671913400428, 1.667437117965673, 3.0280780752862557], 0.5, 0.5, 0.008, 0.2, 100)

2025-07-07 17:06:18,331 - gym_custom_envs_real_ur_drivers_URBasic_realTimeClientEvent - INFO - Program send to Robot:
servoj([0.006135923151542766, -1.5370487494614125, -1.6168004106235874, -1.5017671913400428, 1.667437116447032, 3.0280780752862557], 0.5, 0.5, 0.008, 0.2, 100)

2025-07-07 17:06:18,346 - gym_custom_envs_real_ur_drivers_URBasic_realTimeClientEvent - INFO - Program send to Robot:
servoj([0.006135923151542766, -1.5370487494614125, -1.6168155970333875, -1.5017671913400428, 1.6674371164318458, 3.0280780752862557], 0.5, 0.5, 0.008, 0.2, 100)

2025-07-07 17:06:18,354 - gym_custom_envs_real_ur_drivers_URBasic_realTimeClientEvent - INFO - Program send to Robot:
servoj([0.006135923151542766, -1.5370487494614125, -1.6168157488974855, -1.5017671913400428, 1.667437116431694, 3.0280780752862557], 0.5, 0.5, 0.008, 0.2, 100)

2025-07-07 17:06:18,362 - gym_custom_envs_real_ur_drivers_URBasic_realTimeClientEvent - INFO - Program send to Robot:
servoj([0.0046172821715358215, -1.5370487494614125, -1.6168157504161265, -1.5017671913400428, 1.6674371164316923, 3.0280780752862557], 0.5, 0.5, 0.008, 0.2, 100)

2025-07-07 17:06:18,379 - gym_custom_envs_real_ur_drivers_URBasic_realTimeClientEvent - INFO - Program send to Robot:
servoj([0.004602095761735752, -1.5370487494614125, -1.6168157504313128, -1.5017671913400428, 1.6674371164316923, 3.0280780752862557], 0.5, 0.5, 0.008, 0.2, 100)

2025-07-07 17:06:18,387 - gym_custom_envs_real_ur_drivers_URBasic_realTimeClientEvent - INFO - Program send to Robot:
servoj([0.004601943897637751, -1.5370487494614125, -1.6168157504314646, -1.5017671913400428, 1.6674371164316923, 3.0280780752862557], 0.5, 0.5, 0.008, 0.2, 100)

2025-07-07 17:06:18,396 - gym_custom_envs_real_ur_drivers_URBasic_realTimeClientEvent - INFO - Program send to Robot:
servoj([0.004601942378996771, -1.5370487494614125, -1.6168157504314662, -1.5017671913400428, 1.6689557574116984, 3.0280780752862557], 0.5, 0.5, 0.008, 0.2, 100)

2025-07-07 17:06:18,403 - gym_custom_envs_real_ur_drivers_URBasic_realTimeClientEvent - INFO - Program send to Robot:
servoj([0.0046019423638103615, -1.5370487494614125, -1.6168157504314662, -1.5017671913400428, 1.6689709438214986, 3.0280780752862557], 0.5, 0.5, 0.008, 0.2, 100)

2025-07-07 17:06:18,420 - gym_custom_envs_real_ur_drivers_URBasic_realTimeClientEvent - INFO - Program send to Robot:
servoj([0.004601942363658497, -1.5370487494614125, -1.6168157504314662, -1.5017671913400428, 1.6689710956855965, 3.0280780752862557], 0.5, 0.5, 0.008, 0.2, 100)

2025-07-07 17:06:18,427 - gym_custom_envs_real_ur_drivers_URBasic_realTimeClientEvent - INFO - Program send to Robot:
servoj([0.004601942363656978, -1.5370487494614125, -1.6168157504314662, -1.5017671913400428, 1.6689710972042375, 3.0280780752862557], 0.5, 0.5, 0.008, 0.2, 100)

2025-07-07 17:06:18,435 - gym_custom_envs_real_ur_drivers_URBasic_realTimeClientEvent - INFO - Program send to Robot:
servoj([0.004601942363656963, -1.5370487494614125, -1.6168157504314662, -1.5017671913400428, 1.6689710972194238, 3.0280780752862557], 0.5, 0.5, 0.008, 0.2, 100)

2025-07-07 17:06:18,443 - gym_custom_envs_real_ur_drivers_URBasic_realTimeClientEvent - INFO - Program send to Robot:
servoj([0.004601942363656963, -1.5370487494614125, -1.6168157504314662, -1.5017671913400428, 1.6689710972195757, 3.0280780752862557], 0.5, 0.5, 0.008, 0.2, 100)

2025-07-07 17:06:18,458 - gym_custom_envs_real_ur_drivers_URBasic_realTimeClientEvent - INFO - Program send to Robot:
servoj([0.004601942363656963, -1.5370487494614125, -1.6168157504314662, -1.5017671913400428, 1.6689710972195773, 3.0280780752862557], 0.5, 0.5, 0.008, 0.2, 100)

2025-07-07 17:06:18,466 - gym_custom_envs_real_ur_drivers_URBasic_realTimeClientEvent - INFO - Program send to Robot:
servoj([0.004601942363656963, -1.5370487494614125, -1.6168157504314662, -1.5017671913400428, 1.6689710972195773, 3.0280780752862557], 0.5, 0.5, 0.008, 0.2, 100)

2025-07-07 17:06:18,474 - gym_custom_envs_real_ur_drivers_URBasic_realTimeClientEvent - INFO - Program send to Robot:
servoj([0.004601942363656963, -1.5370487494614125, -1.6168157504314662, -1.5017671913400428, 1.6689710972195773, 3.0280780752862557], 0.5, 0.5, 0.008, 0.2, 100)

2025-07-07 17:06:18,491 - gym_custom_envs_real_ur_drivers_URBasic_realTimeClientEvent - INFO - Program send to Robot:
servoj([0.004601942363656963, -1.5370487494614125, -1.6168157504314662, -1.5017671913400428, 1.6689710972195773, 3.0280780752862557], 0.5, 0.5, 0.008, 0.2, 100)

2025-07-07 17:06:18,498 - gym_custom_envs_real_ur_drivers_URBasic_realTimeClientEvent - INFO - Program send to Robot:
servoj([0.004601942363656963, -1.5370487494614125, -1.6168157504314662, -1.5017671913400428, 1.6689710972195773, 3.0280780752862557], 0.5, 0.5, 0.008, 0.2, 100)

2025-07-07 17:06:18,507 - gym_custom_envs_real_ur_drivers_URBasic_realTimeClientEvent - INFO - Program send to Robot:
servoj([0.004601942363656963, -1.5370487494614125, -1.6168157504314662, -1.5017671913400428, 1.6689710972195773, 3.0280780752862557], 0.5, 0.5, 0.008, 0.2, 100)

2025-07-07 17:06:18,516 - gym_custom_envs_real_ur_drivers_URBasic_realTimeClientEvent - INFO - Program send to Robot:
servoj([0.004601942363656963, -1.5370487494614125, -1.6168157504314662, -1.5017671913400428, 1.6689710972195773, 3.0280780752862557], 0.5, 0.5, 0.008, 0.2, 100)

2025-07-07 17:06:18,531 - gym_custom_envs_real_ur_drivers_URBasic_realTimeClientEvent - INFO - Program send to Robot:
servoj([0.004601942363656963, -1.5370487494614125, -1.6168157504314662, -1.5017671913400428, 1.6689710972195773, 3.0280780752862557], 0.5, 0.5, 0.008, 0.2, 100)

2025-07-07 17:06:18,539 - gym_custom_envs_real_ur_drivers_URBasic_realTimeClientEvent - INFO - Program send to Robot:
servoj([0.004601942363656963, -1.5370487494614125, -1.6168157504314662, -1.5017671913400428, 1.6689710972195773, 3.0280780752862557], 0.5, 0.5, 0.008, 0.2, 100)

2025-07-07 17:06:18,547 - gym_custom_envs_real_ur_drivers_URBasic_realTimeClientEvent - INFO - Program send to Robot:
servoj([0.004601942363656963, -1.5370487494614125, -1.6168157504314662, -1.5017671913400428, 1.6689710972195773, 3.0280780752862557], 0.5, 0.5, 0.008, 0.2, 100)

2025-07-07 17:06:18,554 - gym_custom_envs_real_ur_drivers_URBasic_realTimeClientEvent - INFO - Program send to Robot:
servoj([0.004601942363656963, -1.5370487494614125, -1.6168157504314662, -1.5017671913400428, 1.6689710972195773, 3.0280780752862557], 0.5, 0.5, 0.008, 0.2, 100)

2025-07-07 17:06:18,571 - gym_custom_envs_real_ur_drivers_URBasic_realTimeClientEvent - INFO - Program send to Robot:
servoj([0.004601942363656963, -1.5370487494614125, -1.6168157504314662, -1.5017671913400428, 1.6689710972195773, 3.0280780752862557], 0.5, 0.5, 0.008, 0.2, 100)

2025-07-07 17:06:18,587 - gym_custom_envs_real_ur_drivers_URBasic_realTimeClientEvent - INFO - Program send to Robot:
servoj([0.004601942363656963, -1.5370487494614125, -1.6168157504314662, -1.5017671913400428, 1.6704897381995842, 3.0280780752862557], 0.5, 0.5, 0.008, 0.2, 100)

2025-07-07 17:06:18,595 - gym_custom_envs_real_ur_drivers_URBasic_realTimeClientEvent - INFO - Program send to Robot:
servoj([0.004601942363656963, -1.5370487494614125, -1.6168157504314662, -1.5017671913400428, 1.6705049246093844, 3.0280780752862557], 0.5, 0.5, 0.008, 0.2, 100)

2025-07-07 17:06:18,603 - gym_custom_envs_real_ur_drivers_URBasic_realTimeClientEvent - INFO - Program send to Robot:
servoj([0.004601942363656963, -1.5370487494614125, -1.6168157504314662, -1.5017671913400428, 1.6705050764734823, 3.0280780752862557], 0.5, 0.5, 0.008, 0.2, 100)

2025-07-07 17:06:18,611 - gym_custom_envs_real_ur_drivers_URBasic_realTimeClientEvent - INFO - Program send to Robot:
servoj([0.004601942363656963, -1.5370487494614125, -1.6168157504314662, -1.5017671913400428, 1.6705050779921233, 3.0280780752862557], 0.5, 0.5, 0.008, 0.2, 100)

2025-07-07 17:06:18,627 - gym_custom_envs_real_ur_drivers_URBasic_realTimeClientEvent - INFO - Program send to Robot:
servoj([0.004601942363656963, -1.5370487494614125, -1.6168157504314662, -1.5017671913400428, 1.6689864370273029, 3.0280780752862557], 0.5, 0.5, 0.008, 0.2, 100)

2025-07-07 17:06:18,636 - gym_custom_envs_real_ur_drivers_URBasic_realTimeClientEvent - INFO - Program send to Robot:
servoj([0.004601942363656963, -1.5370487494614125, -1.6168157504314662, -1.5017671913400428, 1.6689712506176546, 3.0280780752862557], 0.5, 0.5, 0.008, 0.2, 100)

2025-07-07 17:06:18,643 - gym_custom_envs_real_ur_drivers_URBasic_realTimeClientEvent - INFO - Program send to Robot:
servoj([0.004601942363656963, -1.5370487494614125, -1.6168157504314662, -1.5017671913400428, 1.668971098753558, 3.0280780752862557], 0.5, 0.5, 0.008, 0.2, 100)

2025-07-07 17:06:18,652 - gym_custom_envs_real_ur_drivers_URBasic_realTimeClientEvent - INFO - Program send to Robot:
servoj([0.004601942363656963, -1.5370487494614125, -1.6168157504314662, -1.5017671913400428, 1.6689710972349172, 3.0280780752862557], 0.5, 0.5, 0.008, 0.2, 100)

2025-07-07 17:06:18,666 - gym_custom_envs_real_ur_drivers_URBasic_realTimeClientEvent - INFO - Program send to Robot:
servoj([0.004601942363656963, -1.5370487494614125, -1.6168157504314662, -1.5017671913400428, 1.6689710972197307, 3.0280780752862557], 0.5, 0.5, 0.008, 0.2, 100)

2025-07-07 17:06:18,675 - gym_custom_envs_real_ur_drivers_URBasic_realTimeClientEvent - INFO - Program send to Robot:
servoj([0.004601942363656963, -1.5370487494614125, -1.6168157504314662, -1.5017671913400428, 1.6689710972195788, 3.0280780752862557], 0.5, 0.5, 0.008, 0.2, 100)

2025-07-07 17:06:18,683 - gym_custom_envs_real_ur_drivers_URBasic_realTimeClientEvent - INFO - Program send to Robot:
servoj([0.004601942363656963, -1.5370487494614125, -1.6168157504314662, -1.5017671913400428, 1.6689710972195773, 3.0280780752862557], 0.5, 0.5, 0.008, 0.2, 100)

2025-07-07 17:06:18,691 - gym_custom_envs_real_ur_drivers_URBasic_realTimeClientEvent - INFO - Program send to Robot:
servoj([0.004601942363656963, -1.5370487494614125, -1.6168157504314662, -1.5017671913400428, 1.6689710972195773, 3.0280780752862557], 0.5, 0.5, 0.008, 0.2, 100)

2025-07-07 17:06:18,707 - gym_custom_envs_real_ur_drivers_URBasic_realTimeClientEvent - INFO - Program send to Robot:
servoj([0.004601942363656963, -1.5370487494614125, -1.6168157504314662, -1.5017671913400428, 1.6689710972195773, 3.0280780752862557], 0.5, 0.5, 0.008, 0.2, 100)

2025-07-07 17:06:18,718 - gym_custom_envs_real_ur_drivers_URBasic_realTimeClientEvent - INFO - Program send to Robot:
servoj([0.003083301383650019, -1.5370487494614125, -1.6168157504314662, -1.5017671913400428, 1.6689710972195773, 3.0280780752862557], 0.5, 0.5, 0.008, 0.2, 100)

2025-07-07 17:06:18,733 - gym_custom_envs_real_ur_drivers_URBasic_realTimeClientEvent - INFO - Program send to Robot:
servoj([0.0030681149738499493, -1.5370487494614125, -1.6168157504314662, -1.5017671913400428, 1.6689710972195773, 3.0280780752862557], 0.5, 0.5, 0.008, 0.2, 100)

2025-07-07 17:06:18,739 - gym_custom_envs_real_ur_drivers_URBasic_realTimeClientEvent - INFO - Program send to Robot:
servoj([0.003067963109751949, -1.5370487494614125, -1.6168157504314662, -1.5017671913400428, 1.6689710972195773, 3.0280780752862557], 0.5, 0.5, 0.008, 0.2, 100)

2025-07-07 17:06:18,757 - gym_custom_envs_real_ur_drivers_URBasic_realTimeClientEvent - INFO - Program send to Robot:
servoj([0.001549320611104464, -1.5370487494614125, -1.6168157504314662, -1.5017671913400428, 1.6689710972195773, 3.0280780752862557], 0.5, 0.5, 0.008, 0.2, 100)

2025-07-07 17:06:18,763 - gym_custom_envs_real_ur_drivers_URBasic_realTimeClientEvent - INFO - Program send to Robot:
servoj([0.001534134186117989, -1.5370487494614125, -1.6168157504314662, -1.5017671913400428, 1.6689710972195773, 3.0280780752862557], 0.5, 0.5, 0.008, 0.2, 100)

2025-07-07 17:06:18,773 - gym_custom_envs_real_ur_drivers_URBasic_realTimeClientEvent - INFO - Program send to Robot:
servoj([0.0015339823218681243, -1.5370487494614125, -1.6168157504314662, -1.5017671913400428, 1.6689710972195773, 3.0280780752862557], 0.5, 0.5, 0.008, 0.2, 100)

2025-07-07 17:06:18,786 - gym_custom_envs_real_ur_drivers_URBasic_realTimeClientEvent - INFO - Program send to Robot:
servoj([0.0015339808032256257, -1.5370487494614125, -1.6168157504314662, -1.5017671913400428, 1.6689710972195773, 3.0280780752862557], 0.5, 0.5, 0.008, 0.2, 100)

2025-07-07 17:06:18,795 - gym_custom_envs_real_ur_drivers_URBasic_realTimeClientEvent - INFO - Program send to Robot:
servoj([0.0015339807880392006, -1.5370487494614125, -1.6168157504314662, -1.5017671913400428, 1.6689710972195773, 3.0280780752862557], 0.5, 0.5, 0.008, 0.2, 100)

2025-07-07 17:06:18,803 - gym_custom_envs_real_ur_drivers_URBasic_realTimeClientEvent - INFO - Program send to Robot:
servoj([0.0015339807878873364, -1.5370487494614125, -1.6168157504314662, -1.5017671913400428, 1.6689710972195773, 3.0280780752862557], 0.5, 0.5, 0.008, 0.2, 100)

2025-07-07 17:06:18,810 - gym_custom_envs_real_ur_drivers_URBasic_realTimeClientEvent - INFO - Program send to Robot:
servoj([0.001533980787885818, -1.5370487494614125, -1.6168157504314662, -1.5017671913400428, 1.6689710972195773, 3.0280780752862557], 0.5, 0.5, 0.008, 0.2, 100)

2025-07-07 17:06:18,827 - gym_custom_envs_real_ur_drivers_URBasic_realTimeClientEvent - INFO - Program send to Robot:
servoj([0.0015339807878858027, -1.5370487494614125, -1.6168157504314662, -1.5017671913400428, 1.6689710972195773, 3.0280780752862557], 0.5, 0.5, 0.008, 0.2, 100)

2025-07-07 17:06:18,835 - gym_custom_envs_real_ur_drivers_URBasic_realTimeClientEvent - INFO - Program send to Robot:
servoj([0.0015339807878858025, -1.5370487494614125, -1.6168157504314662, -1.5017671913400428, 1.6689710972195773, 3.0280780752862557], 0.5, 0.5, 0.008, 0.2, 100)

2025-07-07 17:06:18,843 - gym_custom_envs_real_ur_drivers_URBasic_realTimeClientEvent - INFO - Program send to Robot:
servoj([1.533980787885804e-05, -1.5370487494614125, -1.6183343914114723, -1.5017671913400428, 1.6689710972195773, 3.0280780752862557], 0.5, 0.5, 0.008, 0.2, 100)

2025-07-07 17:06:18,852 - gym_custom_envs_real_ur_drivers_URBasic_realTimeClientEvent - INFO - Program send to Robot:
servoj([1.5339807878858053e-07, -1.5370487494614125, -1.6183495778212724, -1.5017671913400428, 1.6689710972195773, 3.0280780752862557], 0.5, 0.5, 0.008, 0.2, 100)

2025-07-07 17:06:18,868 - gym_custom_envs_real_ur_drivers_URBasic_realTimeClientEvent - INFO - Program send to Robot:
servoj([1.5339807878858067e-09, -1.5370487494614125, -1.6183497296853704, -1.5017671913400428, 1.6689710972195773, 3.0280780752862557], 0.5, 0.5, 0.008, 0.2, 100)

2025-07-07 17:06:18,876 - gym_custom_envs_real_ur_drivers_URBasic_realTimeClientEvent - INFO - Program send to Robot:
servoj([0.0015186409953467524, -1.5370487494614125, -1.6183497312040114, -1.5017671913400428, 1.6689710972195773, 3.0280780752862557], 0.5, 0.5, 0.008, 0.2, 100)

2025-07-07 17:06:18,882 - gym_custom_envs_real_ur_drivers_URBasic_realTimeClientEvent - INFO - Program send to Robot:
servoj([0.001533827389960412, -1.5370487494614125, -1.6183497312191977, -1.5017671913400428, 1.6689710972195773, 3.0280780752862557], 0.5, 0.5, 0.008, 0.2, 100)

2025-07-07 17:06:18,899 - gym_custom_envs_real_ur_drivers_URBasic_realTimeClientEvent - INFO - Program send to Robot:
servoj([0.0015339792539065485, -1.5370487494614125, -1.6183497312193496, -1.5017671913400428, 1.6689710972195773, 3.0280780752862557], 0.5, 0.5, 0.008, 0.2, 100)

2025-07-07 17:06:18,907 - gym_custom_envs_real_ur_drivers_URBasic_realTimeClientEvent - INFO - Program send to Robot:
servoj([1.53397925390655e-05, -1.5370487494614125, -1.618349731219351, -1.5017671913400428, 1.6689710972195773, 3.0280780752862557], 0.5, 0.5, 0.008, 0.2, 100)

2025-07-07 17:06:18,915 - gym_custom_envs_real_ur_drivers_URBasic_realTimeClientEvent - INFO - Program send to Robot:
servoj([1.5339792539065514e-07, -1.5370487494614125, -1.618349731219351, -1.5017671913400428, 1.6689710972195773, 3.0280780752862557], 0.5, 0.5, 0.008, 0.2, 100)

2025-07-07 17:06:18,923 - gym_custom_envs_real_ur_drivers_URBasic_realTimeClientEvent - INFO - Program send to Robot:
servoj([1.5339792539065528e-09, -1.5370487494614125, -1.618349731219351, -1.5017671913400428, 1.6689710972195773, 3.0280780752862557], 0.5, 0.5, 0.008, 0.2, 100)

2025-07-07 17:06:18,939 - gym_custom_envs_real_ur_drivers_URBasic_realTimeClientEvent - INFO - Program send to Robot:
servoj([1.5339792539065542e-11, -1.5370487494614125, -1.619868372199358, -1.5017671913400428, 1.6689710972195773, 3.0280780752862557], 0.5, 0.5, 0.008, 0.2, 100)

2025-07-07 17:06:18,946 - gym_custom_envs_real_ur_drivers_URBasic_realTimeClientEvent - INFO - Program send to Robot:
servoj([1.5339792539065555e-13, -1.5370487494614125, -1.6198835586091582, -1.5017671913400428, 1.6689710972195773, 3.0280780752862557], 0.5, 0.5, 0.008, 0.2, 100)

2025-07-07 17:06:18,954 - gym_custom_envs_real_ur_drivers_URBasic_realTimeClientEvent - INFO - Program send to Robot:
servoj([1.5339792539065568e-15, -1.5370487494614125, -1.6198837104732562, -1.5017671913400428, 1.6689710972195773, 3.0280780752862557], 0.5, 0.5, 0.008, 0.2, 100)

2025-07-07 17:06:18,972 - gym_custom_envs_real_ur_drivers_URBasic_realTimeClientEvent - INFO - Program send to Robot:
servoj([1.5339792539065582e-17, -1.5355301084814057, -1.6198837119918972, -1.5017671913400428, 1.6689710972195773, 3.0280780752862557], 0.5, 0.5, 0.008, 0.2, 100)

2025-07-07 17:06:18,979 - gym_custom_envs_real_ur_drivers_URBasic_realTimeClientEvent - INFO - Program send to Robot:
servoj([1.5339792539065595e-19, -1.5355149220716056, -1.6198837120070837, -1.5017671913400428, 1.6689710972195773, 3.0280780752862557], 0.5, 0.5, 0.008, 0.2, 100)

2025-07-07 17:06:18,987 - gym_custom_envs_real_ur_drivers_URBasic_realTimeClientEvent - INFO - Program send to Robot:
servoj([1.5339792539065609e-21, -1.5355147702075076, -1.6198837120072354, -1.5017671913400428, 1.6689710972195773, 3.0280780752862557], 0.5, 0.5, 0.008, 0.2, 100)

2025-07-07 17:06:18,996 - gym_custom_envs_real_ur_drivers_URBasic_realTimeClientEvent - INFO - Program send to Robot:
servoj([1.533979253906562e-23, -1.5355147686888666, -1.619883712007237, -1.5017671913400428, 1.6689710972195773, 3.0280780752862557], 0.5, 0.5, 0.008, 0.2, 100)

2025-07-07 17:06:19,012 - gym_custom_envs_real_ur_drivers_URBasic_realTimeClientEvent - INFO - Program send to Robot:
servoj([1.5339792539065634e-25, -1.5355147686736803, -1.619883712007237, -1.5017671913400428, 1.6689710972195773, 3.0280780752862557], 0.5, 0.5, 0.008, 0.2, 100)

2025-07-07 17:06:19,020 - gym_custom_envs_real_ur_drivers_URBasic_realTimeClientEvent - INFO - Program send to Robot:
servoj([1.5339792539065648e-27, -1.5355147686735284, -1.619883712007237, -1.5017671913400428, 1.6689710972195773, 3.0280780752862557], 0.5, 0.5, 0.008, 0.2, 100)

2025-07-07 17:06:19,027 - gym_custom_envs_real_ur_drivers_URBasic_realTimeClientEvent - INFO - Program send to Robot:
servoj([1.5339792539065662e-29, -1.5355147686735269, -1.619883712007237, -1.5017671913400428, 1.6689710972195773, 3.0280780752862557], 0.5, 0.5, 0.008, 0.2, 100)

2025-07-07 17:06:19,043 - gym_custom_envs_real_ur_drivers_URBasic_realTimeClientEvent - INFO - Program send to Robot:
servoj([1.5339792539065676e-31, -1.5355147686735269, -1.61836507102723, -1.5017671913400428, 1.6689710972195773, 3.0280780752862557], 0.5, 0.5, 0.008, 0.2, 100)

2025-07-07 17:06:19,051 - gym_custom_envs_real_ur_drivers_URBasic_realTimeClientEvent - INFO - Program send to Robot:
servoj([1.533979253906569e-33, -1.5355147686735269, -1.61834988461743, -1.5017671913400428, 1.6689710972195773, 3.0280780752862557], 0.5, 0.5, 0.008, 0.2, 100)

2025-07-07 17:06:19,059 - gym_custom_envs_real_ur_drivers_URBasic_realTimeClientEvent - INFO - Program send to Robot:
servoj([1.5339792539065704e-35, -1.5355147686735269, -1.618349732753332, -1.5017671913400428, 1.6689710972195773, 3.0280780752862557], 0.5, 0.5, 0.008, 0.2, 100)

2025-07-07 17:06:19,067 - gym_custom_envs_real_ur_drivers_URBasic_realTimeClientEvent - INFO - Program send to Robot:
servoj([-0.0015186409800069444, -1.5355147686735269, -1.618349731234691, -1.5017671913400428, 1.6689710972195773, 3.0280780752862557], 0.5, 0.5, 0.008, 0.2, 100)

2025-07-07 17:06:19,083 - gym_custom_envs_real_ur_drivers_URBasic_realTimeClientEvent - INFO - Program send to Robot:
servoj([-0.001533827389807014, -1.5355147686735269, -1.6183497312195045, -1.5017671913400428, 1.6689710972195773, 3.0280780752862557], 0.5, 0.5, 0.008, 0.2, 100)

2025-07-07 17:06:19,092 - gym_custom_envs_real_ur_drivers_URBasic_realTimeClientEvent - INFO - Program send to Robot:
servoj([-0.0015339792539050146, -1.5355147686735269, -1.6183497312193527, -1.5017671913400428, 1.6689710972195773, 3.0280780752862557], 0.5, 0.5, 0.008, 0.2, 100)

2025-07-07 17:06:19,099 - gym_custom_envs_real_ur_drivers_URBasic_realTimeClientEvent - INFO - Program send to Robot:
servoj([-0.0015339807725459945, -1.5324774867135131, -1.618349731219351, -1.5017671913400428, 1.6689710972195773, 3.0280780752862557], 0.5, 0.5, 0.008, 0.2, 100)

2025-07-07 17:06:19,108 - gym_custom_envs_real_ur_drivers_URBasic_realTimeClientEvent - INFO - Program send to Robot:
servoj([-0.0015339807877324044, -1.532447113893913, -1.618349731219351, -1.5017671913400428, 1.6689710972195773, 3.0280780752862557], 0.5, 0.5, 0.008, 0.2, 100)

2025-07-07 17:06:19,122 - gym_custom_envs_real_ur_drivers_URBasic_realTimeClientEvent - INFO - Program send to Robot:
servoj([-0.0015339807878842686, -1.532446810165717, -1.618349731219351, -1.5017671913400428, 1.6689710972195773, 3.0280780752862557], 0.5, 0.5, 0.008, 0.2, 100)

2025-07-07 17:06:19,133 - gym_custom_envs_real_ur_drivers_URBasic_realTimeClientEvent - INFO - Program send to Robot:
servoj([-0.001533980787885787, -1.5294095251684217, -1.618349731219351, -1.5017671913400428, 1.6689710972195773, 3.0280780752862557], 0.5, 0.5, 0.008, 0.2, 100)

2025-07-07 17:06:19,141 - gym_custom_envs_real_ur_drivers_URBasic_realTimeClientEvent - INFO - Program send to Robot:
servoj([-0.0015339807878858023, -1.5293791523184488, -1.618349731219351, -1.5017671913400428, 1.6689710972195773, 3.0280780752862557], 0.5, 0.5, 0.008, 0.2, 100)

2025-07-07 17:06:19,158 - gym_custom_envs_real_ur_drivers_URBasic_realTimeClientEvent - INFO - Program send to Robot:
servoj([-0.0015339807878858025, -1.529378848589949, -1.618349731219351, -1.5017671913400428, 1.6689710972195773, 3.0280780752862557], 0.5, 0.5, 0.008, 0.2, 100)

2025-07-07 17:06:19,166 - gym_custom_envs_real_ur_drivers_URBasic_realTimeClientEvent - INFO - Program send to Robot:
servoj([-0.0015339807878858025, -1.527860204572657, -1.619868372199358, -1.5017671913400428, 1.6689710972195773, 3.0280780752862557], 0.5, 0.5, 0.008, 0.2, 100)

2025-07-07 17:06:19,182 - gym_custom_envs_real_ur_drivers_URBasic_realTimeClientEvent - INFO - Program send to Robot:
servoj([-0.0015339807878858025, -1.527845018132484, -1.6198835586091582, -1.5017671913400428, 1.6689710972195773, 3.0280780752862557], 0.5, 0.5, 0.008, 0.2, 100)

2025-07-07 17:06:19,190 - gym_custom_envs_real_ur_drivers_URBasic_realTimeClientEvent - INFO - Program send to Robot:
servoj([-0.0015339807878858025, -1.5278448662680824, -1.6198837104732562, -1.5017671913400428, 1.6689710972195773, 3.0280780752862557], 0.5, 0.5, 0.008, 0.2, 100)

2025-07-07 17:06:19,195 - gym_custom_envs_real_ur_drivers_URBasic_realTimeClientEvent - INFO - Program send to Robot:
servoj([-0.0015339807878858025, -1.5278448647494385, -1.6183650710118902, -1.5017671913400428, 1.6689710972195773, 3.0280780752862557], 0.5, 0.5, 0.008, 0.2, 100)

2025-07-07 17:06:19,213 - gym_custom_envs_real_ur_drivers_URBasic_realTimeClientEvent - INFO - Program send to Robot:
servoj([-0.0015339807878858025, -1.527844864734252, -1.6183498846172766, -1.5017671913400428, 1.6689710972195773, 3.0280780752862557], 0.5, 0.5, 0.008, 0.2, 100)

2025-07-07 17:06:19,218 - gym_custom_envs_real_ur_drivers_URBasic_realTimeClientEvent - INFO - Program send to Robot:
servoj([-0.0015339807878858025, -1.5278448647341, -1.6183497327533305, -1.5017671913400428, 1.6689710972195773, 3.0280780752862557], 0.5, 0.5, 0.008, 0.2, 100)

2025-07-07 17:06:19,225 - gym_custom_envs_real_ur_drivers_URBasic_rtdeEvent - INFO - Total packages: 1000
2025-07-07 17:06:19,229 - gym_custom_envs_real_ur_drivers_URBasic_realTimeClientEvent - INFO - Program send to Robot:
servoj([-0.0015339807878858025, -1.5278448647340985, -1.6198683722146978, -1.5017671913400428, 1.6689710972195773, 3.0280780752862557], 0.5, 0.5, 0.008, 0.2, 100)

2025-07-07 17:06:19,243 - gym_custom_envs_real_ur_drivers_URBasic_realTimeClientEvent - INFO - Program send to Robot:
servoj([-0.0015339807878858025, -1.5278448647340985, -1.6198835586093117, -1.5017671913400428, 1.6689710972195773, 3.0280780752862557], 0.5, 0.5, 0.008, 0.2, 100)

2025-07-07 17:06:19,254 - gym_custom_envs_real_ur_drivers_URBasic_realTimeClientEvent - INFO - Program send to Robot:
servoj([-0.0015339807878858025, -1.5278448647340985, -1.6198837104732577, -1.5017671913400428, 1.6689710972195773, 3.0280780752862557], 0.5, 0.5, 0.008, 0.2, 100)

2025-07-07 17:06:19,259 - gym_custom_envs_real_ur_drivers_URBasic_realTimeClientEvent - INFO - Program send to Robot:
servoj([-0.0015339807878858025, -1.5278448647340985, -1.6198837119918972, -1.5017671913400428, 1.6689710972195773, 3.0280780752862557], 0.5, 0.5, 0.008, 0.2, 100)

2025-07-07 17:06:19,277 - gym_custom_envs_real_ur_drivers_URBasic_realTimeClientEvent - INFO - Program send to Robot:
servoj([-0.0015339807878858025, -1.5278448647340985, -1.6198837120070837, -1.5017671913400428, 1.6689710972195773, 3.0280780752862557], 0.5, 0.5, 0.008, 0.2, 100)

2025-07-07 17:06:19,285 - gym_custom_envs_real_ur_drivers_URBasic_realTimeClientEvent - INFO - Program send to Robot:
servoj([-0.0015339807878858025, -1.5278448647340985, -1.6198837120072354, -1.5017671913400428, 1.6689710972195773, 3.0280780752862557], 0.5, 0.5, 0.008, 0.2, 100)

2025-07-07 17:06:19,290 - gym_custom_envs_real_ur_drivers_URBasic_realTimeClientEvent - INFO - Program send to Robot:
servoj([-0.0015339807878858025, -1.5278448647340985, -1.61836507102723, -1.5017671913400428, 1.6674524562395712, 3.0295967162662625], 0.5, 0.5, 0.008, 0.2, 100)

2025-07-07 17:06:19,309 - gym_custom_envs_real_ur_drivers_URBasic_realTimeClientEvent - INFO - Program send to Robot:
servoj([-0.0015339807878858025, -1.5278448647340985, -1.61834988461743, -1.5017671913400428, 1.6674372698297713, 3.0296119026760624], 0.5, 0.5, 0.008, 0.2, 100)

2025-07-07 17:06:19,314 - gym_custom_envs_real_ur_drivers_URBasic_realTimeClientEvent - INFO - Program send to Robot:
servoj([-0.0015339807878858025, -1.5278448647340985, -1.618349732753332, -1.5017671913400428, 1.667437117965673, 3.0296120545401606], 0.5, 0.5, 0.008, 0.2, 100)

2025-07-07 17:06:19,325 - gym_custom_envs_real_ur_drivers_URBasic_realTimeClientEvent - INFO - Program send to Robot:
servoj([-0.0015339807878858025, -1.5278448647340985, -1.619868372214698, -1.5017671913400428, 1.667437116447032, 3.0296120560588014], 0.5, 0.5, 0.008, 0.2, 100)

2025-07-07 17:06:19,339 - gym_custom_envs_real_ur_drivers_URBasic_realTimeClientEvent - INFO - Program send to Robot:
servoj([-0.0015339807878858025, -1.5278448647340985, -1.6198835586093117, -1.5017671913400428, 1.6674371164318458, 3.029612056073988], 0.5, 0.5, 0.008, 0.2, 100)

2025-07-07 17:06:19,349 - gym_custom_envs_real_ur_drivers_URBasic_realTimeClientEvent - INFO - Program send to Robot:
servoj([-0.0015339807878858025, -1.5278448647340985, -1.6198837104732577, -1.5017671913400428, 1.667437116431694, 3.0296120560741397], 0.5, 0.5, 0.008, 0.2, 100)

2025-07-07 17:06:19,359 - gym_custom_envs_real_ur_drivers_URBasic_realTimeClientEvent - INFO - Program send to Robot:
servoj([-0.0015339807878858025, -1.5278448647340985, -1.6183650710118902, -1.5017671913400428, 1.6674371164316923, 3.029612056074141], 0.5, 0.5, 0.008, 0.2, 100)

2025-07-07 17:06:19,363 - gym_custom_envs_real_ur_drivers_URBasic_realTimeClientEvent - INFO - Program send to Robot:
servoj([-0.0015339807878858025, -1.5278448647340985, -1.6183498846172766, -1.5017671913400428, 1.6674371164316923, 3.029612056074141], 0.5, 0.5, 0.008, 0.2, 100)

2025-07-07 17:06:19,378 - gym_custom_envs_real_ur_drivers_URBasic_realTimeClientEvent - INFO - Program send to Robot:
servoj([-0.0015339807878858025, -1.5278448647340985, -1.6183497327533305, -1.5017671913400428, 1.6674371164316923, 3.029612056074141], 0.5, 0.5, 0.008, 0.2, 100)

2025-07-07 17:06:19,386 - gym_custom_envs_real_ur_drivers_URBasic_realTimeClientEvent - INFO - Program send to Robot:
servoj([-0.0015339807878858025, -1.5278448647340985, -1.6183497312346908, -1.5017671913400428, 1.6674371164316923, 3.029612056074141], 0.5, 0.5, 0.008, 0.2, 100)

2025-07-07 17:06:19,397 - gym_custom_envs_real_ur_drivers_URBasic_realTimeClientEvent - INFO - Program send to Robot:
servoj([-0.0015339807878858025, -1.5278448647340985, -1.6183497312195045, -1.5017671913400428, 1.6674371164316923, 3.029612056074141], 0.5, 0.5, 0.008, 0.2, 100)

2025-07-07 17:06:19,410 - gym_custom_envs_real_ur_drivers_URBasic_realTimeClientEvent - INFO - Program send to Robot:
servoj([-0.0015339807878858025, -1.5278448647340985, -1.6183497312193527, -1.5017671913400428, 1.6674371164316923, 3.029612056074141], 0.5, 0.5, 0.008, 0.2, 100)

2025-07-07 17:06:19,420 - gym_custom_envs_real_ur_drivers_URBasic_realTimeClientEvent - INFO - Program send to Robot:
servoj([-0.003052621767892307, -1.5278448647340985, -1.618349731219351, -1.5017671913400428, 1.6674371164316923, 3.029612056074141], 0.5, 0.5, 0.008, 0.2, 100)

2025-07-07 17:06:19,428 - gym_custom_envs_real_ur_drivers_URBasic_realTimeClientEvent - INFO - Program send to Robot:
servoj([-0.003067808177692372, -1.5278448647340985, -1.618349731219351, -1.5017671913400428, 1.6674371164316923, 3.029612056074141], 0.5, 0.5, 0.008, 0.2, 100)

2025-07-07 17:06:19,435 - gym_custom_envs_real_ur_drivers_URBasic_realTimeClientEvent - INFO - Program send to Robot:
servoj([-0.003067960041790373, -1.5278448647340985, -1.618349731219351, -1.5017671913400428, 1.6674371164316923, 3.029612056074141], 0.5, 0.5, 0.008, 0.2, 100)

2025-07-07 17:06:19,453 - gym_custom_envs_real_ur_drivers_URBasic_realTimeClientEvent - INFO - Program send to Robot:
servoj([-0.0015493205804248482, -1.5278448647340985, -1.618349731219351, -1.5017671913400428, 1.6674371164316923, 3.029612056074141], 0.5, 0.5, 0.008, 0.2, 100)

2025-07-07 17:06:19,459 - gym_custom_envs_real_ur_drivers_URBasic_realTimeClientEvent - INFO - Program send to Robot:
servoj([-0.001534134185811193, -1.5278448647340985, -1.618349731219351, -1.5017671913400428, 1.6674371164316923, 3.029612056074141], 0.5, 0.5, 0.008, 0.2, 100)

2025-07-07 17:06:19,468 - gym_custom_envs_real_ur_drivers_URBasic_realTimeClientEvent - INFO - Program send to Robot:
servoj([-0.0015339823218650564, -1.5278448647340985, -1.618349731219351, -1.5017671913400428, 1.6674371164316923, 3.029612056074141], 0.5, 0.5, 0.008, 0.2, 100)

2025-07-07 17:06:19,483 - gym_custom_envs_real_ur_drivers_URBasic_realTimeClientEvent - INFO - Program send to Robot:
servoj([-0.0030526217832320996, -1.5278448647340985, -1.618349731219351, -1.5017671913400428, 1.6674371164316923, 3.029612056074141], 0.5, 0.5, 0.008, 0.2, 100)

2025-07-07 17:06:19,493 - gym_custom_envs_real_ur_drivers_URBasic_realTimeClientEvent - INFO - Program send to Robot:
servoj([-0.0030678081778457702, -1.5278448647340985, -1.618349731219351, -1.5017671913400428, 1.6674371164316923, 3.029612056074141], 0.5, 0.5, 0.008, 0.2, 100)

2025-07-07 17:06:19,501 - gym_custom_envs_real_ur_drivers_URBasic_realTimeClientEvent - INFO - Program send to Robot:
servoj([-0.003067960041791907, -1.5278448647340985, -1.618349731219351, -1.5017671913400428, 1.6674371164316923, 3.029612056074141], 0.5, 0.5, 0.008, 0.2, 100)

2025-07-07 17:06:19,506 - gym_custom_envs_real_ur_drivers_URBasic_realTimeClientEvent - INFO - Program send to Robot:
servoj([-0.003067961560431368, -1.5278448647340985, -1.618349731219351, -1.5017671913400428, 1.6674371164316923, 3.029612056074141], 0.5, 0.5, 0.008, 0.2, 100)

2025-07-07 17:06:19,525 - gym_custom_envs_real_ur_drivers_URBasic_realTimeClientEvent - INFO - Program send to Robot:
servoj([-0.0030679615756177628, -1.5278448647340985, -1.618349731219351, -1.5017671913400428, 1.6674371164316923, 3.029612056074141], 0.5, 0.5, 0.008, 0.2, 100)

2025-07-07 17:06:19,531 - gym_custom_envs_real_ur_drivers_URBasic_realTimeClientEvent - INFO - Program send to Robot:
servoj([-0.003067961575769627, -1.5278448647340985, -1.618349731219351, -1.5017671913400428, 1.6674371164316923, 3.029612056074141], 0.5, 0.5, 0.008, 0.2, 100)

2025-07-07 17:06:19,540 - gym_custom_envs_real_ur_drivers_URBasic_realTimeClientEvent - INFO - Program send to Robot:
servoj([-0.0030679615757711453, -1.5278448647340985, -1.618349731219351, -1.5017671913400428, 1.6674371164316923, 3.029612056074141], 0.5, 0.5, 0.008, 0.2, 100)

2025-07-07 17:06:19,554 - gym_custom_envs_real_ur_drivers_URBasic_realTimeClientEvent - INFO - Program send to Robot:
servoj([-0.001549320595764656, -1.5278448647340985, -1.618349731219351, -1.5017671913400428, 1.6674371164316923, 3.029612056074141], 0.5, 0.5, 0.008, 0.2, 100)

2025-07-07 17:06:19,564 - gym_custom_envs_real_ur_drivers_URBasic_realTimeClientEvent - INFO - Program send to Robot:
servoj([-0.001534134185964591, -1.5278448647340985, -1.618349731219351, -1.5017671913400428, 1.6674371164316923, 3.029612056074141], 0.5, 0.5, 0.008, 0.2, 100)

2025-07-07 17:06:19,573 - gym_custom_envs_real_ur_drivers_URBasic_realTimeClientEvent - INFO - Program send to Robot:
servoj([-0.0015339823218665904, -1.5278448647340985, -1.618349731219351, -1.5017671913400428, 1.6674371164316923, 3.029612056074141], 0.5, 0.5, 0.008, 0.2, 100)

2025-07-07 17:06:19,579 - gym_custom_envs_real_ur_drivers_URBasic_realTimeClientEvent - INFO - Program send to Robot:
servoj([-0.003052621783232115, -1.5278448647340985, -1.618349731219351, -1.5017671913400428, 1.6674371164316923, 3.029612056074141], 0.5, 0.5, 0.008, 0.2, 100)

2025-07-07 17:06:19,599 - gym_custom_envs_real_ur_drivers_URBasic_realTimeClientEvent - INFO - Program send to Robot:
servoj([-0.0030678081778457702, -1.5278448647340985, -1.618349731219351, -1.5017671913400428, 1.6674371164316923, 3.029612056074141], 0.5, 0.5, 0.008, 0.2, 100)

2025-07-07 17:06:19,602 - gym_custom_envs_real_ur_drivers_URBasic_realTimeClientEvent - INFO - Program send to Robot:
servoj([-0.003067960041791907, -1.5278448647340985, -1.618349731219351, -1.5017671913400428, 1.6674371164316923, 3.029612056074141], 0.5, 0.5, 0.008, 0.2, 100)

2025-07-07 17:06:19,619 - gym_custom_envs_real_ur_drivers_URBasic_realTimeClientEvent - INFO - Program send to Robot:
servoj([-0.003067961560431368, -1.5278448647340985, -1.618349731219351, -1.5017671913400428, 1.6674371164316923, 3.029612056074141], 0.5, 0.5, 0.008, 0.2, 100)

2025-07-07 17:06:19,626 - gym_custom_envs_real_ur_drivers_URBasic_realTimeClientEvent - INFO - Program send to Robot:
servoj([-0.0030679615756177628, -1.5278448647340985, -1.618349731219351, -1.5017671913400428, 1.6674371164316923, 3.029612056074141], 0.5, 0.5, 0.008, 0.2, 100)

2025-07-07 17:06:19,638 - gym_custom_envs_real_ur_drivers_URBasic_realTimeClientEvent - INFO - Program send to Robot:
