2025-07-07 17:05:48,847 - gym_custom_envs_real_ur_drivers_URBasic_robotModelEvent - INFO - Init done
2025-07-07 17:05:49,348 - gym_custom_envs_real_ur_drivers_URBasic_realTimeClientEvent - INFO - Connected
2025-07-07 17:05:49,348 - gym_custom_envs_real_ur_drivers_URBasic_realTimeClientEvent - INFO - RT_CLient constructor done
2025-07-07 17:05:49,349 - gym_custom_envs_real_ur_drivers_URBasic_dataLogEvent - INFO - Data logging (not event logging) is disabled
2025-07-07 17:05:49,350 - gym_custom_envs_real_ur_drivers_URBasic_dataLogEvent - INFO - DataLog constructor done
2025-07-07 17:05:49,350 - gym_custom_envs_real_ur_drivers_URBasic_dataLogEvent - INFO - DataLog is stopped
2025-07-07 17:05:49,351 - gym_custom_envs_real_ur_drivers_URBasic_rtdeEvent - INFO - RTDE constructor done
2025-07-07 17:05:49,853 - gym_custom_envs_real_ur_drivers_URBasic_dashboardEvent - INFO - Connected
2025-07-07 17:05:49,854 - gym_custom_envs_real_ur_drivers_URBasic_dashboardEvent - INFO - UR Dashboard respond Connected: Universal Robots Dashboard Server
2025-07-07 17:05:49,854 - gym_custom_envs_real_ur_drivers_URBasic_dashboardEvent - INFO - Dashboard server constructor done
2025-07-07 17:05:49,855 - gym_custom_envs_real_ur_drivers_URBasic_robotConnectorEvent - INFO - Init done
2025-07-07 17:05:49,856 - gym_custom_envs_real_ur_drivers_URBasic_rtdeEvent - INFO - Controller version: 3.3.1-60
2025-07-07 17:05:49,860 - gym_custom_envs_real_ur_drivers_URBasic_rtdeEvent - INFO - RTDE started
2025-07-07 17:05:50,856 - gym_custom_envs_real_ur_drivers_URBasic_urScriptEvent - INFO - Init done!!!
2025-07-07 17:05:50,867 - gym_custom_envs_real_ur_drivers_URBasic_urScriptExtEvent - INFO - Init done
2025-07-07 17:05:52,460 - gym_custom_envs_real_ur_interfaceEvent - INFO - [] init done
2025-07-07 17:05:52,460 - gym_custom_envs_real_ur_drivers_URBasic_realTimeClientEvent - INFO - Program send to Robot:
end_freedrive_mode()

2025-07-07 17:05:55,113 - gym_custom_envs_real_ur_drivers_URBasic_realTimeClientEvent - INFO - Program send to Robot:
servoj([-0.1141167959059135, -1.5540633627698117, -1.6427738534379333, -1.498196274997773, 1.7177698135375976, 2.962254894477279], 0.5, 0.5, 0.008, 0.2, 100)

2025-07-07 17:05:55,137 - gym_custom_envs_real_ur_drivers_URBasic_realTimeClientEvent - INFO - Program send to Robot:
servoj([-0.11349534085866528, -1.554143858292954, -1.642889449807166, -1.4984608844618306, 1.7177698135375976, 2.9626092264639245], 0.5, 0.5, 0.008, 0.2, 100)

2025-07-07 17:05:55,160 - gym_custom_envs_real_ur_drivers_URBasic_realTimeClientEvent - INFO - Program send to Robot:
servoj([-0.11344721908246497, -1.5541121616085434, -1.6428864884961767, -1.4984561089595743, 1.7177339315414428, 2.962628556294396], 0.5, 0.5, 0.008, 0.2, 100)

2025-07-07 17:05:55,171 - gym_custom_envs_real_ur_drivers_URBasic_realTimeClientEvent - INFO - Program send to Robot:
servoj([-0.11346220070345936, -1.554139443599149, -1.6429007771966966, -1.4984785324176193, 1.7177218914031982, 2.9626315819340006], 0.5, 0.5, 0.008, 0.2, 100)

2025-07-07 17:05:55,187 - gym_custom_envs_real_ur_drivers_URBasic_realTimeClientEvent - INFO - Program send to Robot:
servoj([-0.11346889667659402, -1.5540992640395852, -1.6428873841002074, -1.498484961411477, 1.7177218914031982, 2.9626114924969857], 0.5, 0.5, 0.008, 0.2, 100)

2025-07-07 17:05:55,204 - gym_custom_envs_real_ur_drivers_URBasic_realTimeClientEvent - INFO - Program send to Robot:
servoj([-0.1140818549918176, -1.554064779616988, -1.6427964460921523, -1.4982089601456068, 1.7177339315414428, 2.962256661555698], 0.5, 0.5, 0.008, 0.2, 100)

2025-07-07 17:05:55,219 - gym_custom_envs_real_ur_drivers_URBasic_realTimeClientEvent - INFO - Program send to Robot:
servoj([-0.1140996818152896, -1.554056942192057, -1.642788014732454, -1.498204489171383, 1.717745852470398, 2.96222981046973], 0.5, 0.5, 0.008, 0.2, 100)

2025-07-07 17:05:55,235 - gym_custom_envs_real_ur_drivers_URBasic_realTimeClientEvent - INFO - Program send to Robot:
servoj([-0.11348704616966093, -1.554122997863049, -1.6428818557003337, -1.498452121770582, 1.7177818536758422, 2.9626062032344427], 0.5, 0.5, 0.008, 0.2, 100)

2025-07-07 17:05:55,251 - gym_custom_envs_real_ur_drivers_URBasic_realTimeClientEvent - INFO - Program send to Robot:
servoj([-0.1134371782553803, -1.5541265278596306, -1.6429150329661404, -1.4984601695323405, 1.7177099704742431, 2.9626144153987783], 0.5, 0.5, 0.008, 0.2, 100)

2025-07-07 17:05:55,268 - gym_custom_envs_real_ur_drivers_URBasic_realTimeClientEvent - INFO - Program send to Robot:
servoj([-0.11344880750288186, -1.5541327469950623, -1.6429208670059983, -1.4984849611543807, 1.7177218914031982, 2.962645109069244], 0.5, 0.5, 0.008, 0.2, 100)

2025-07-07 17:05:55,283 - gym_custom_envs_real_ur_drivers_URBasic_realTimeClientEvent - INFO - Program send to Robot:
servoj([-0.11346220007325528, -1.5541260504531886, -1.6428940807035985, -1.498464871601244, 1.7177218914031982, 2.9626384128426255], 0.5, 0.5, 0.008, 0.2, 100)

2025-07-07 17:05:55,299 - gym_custom_envs_real_ur_drivers_URBasic_realTimeClientEvent - INFO - Program send to Robot:
servoj([-0.11347394407218805, -1.5541188649362532, -1.642886499650684, -1.4984829233102206, 1.7177339315414428, 2.962628593982571], 0.5, 0.5, 0.008, 0.2, 100)

2025-07-07 17:05:55,316 - gym_custom_envs_real_ur_drivers_URBasic_realTimeClientEvent - INFO - Program send to Robot:
servoj([-0.11349594676238844, -1.5541107096901554, -1.642890563716251, -1.4984634543137716, 1.7177698135375976, 2.962626524684378], 0.5, 0.5, 0.008, 0.2, 100)

2025-07-07 17:05:55,332 - gym_custom_envs_real_ur_drivers_URBasic_realTimeClientEvent - INFO - Program send to Robot:
servoj([-0.11346220006682523, -1.5541260504538108, -1.6428806874979214, -1.4984785326747823, 1.7177218914031982, 2.9626181891041594], 0.5, 0.5, 0.008, 0.2, 100)

2025-07-07 17:05:55,348 - gym_custom_envs_real_ur_drivers_URBasic_realTimeClientEvent - INFO - Program send to Robot:
servoj([-0.11347894045041554, -1.554131776365233, -1.6428990195416233, -1.4984541150079094, 1.717745852470398, 2.962632467517304], 0.5, 0.5, 0.008, 0.2, 100)

2025-07-07 17:05:55,364 - gym_custom_envs_real_ur_drivers_URBasic_realTimeClientEvent - INFO - Program send to Robot:
servoj([-0.11346054976277614, -1.5541188649362594, -1.6429132882693904, -1.4984494375368775, 1.7177339315414428, 2.9619833479550945], 0.5, 0.5, 0.008, 0.2, 100)

2025-07-07 17:05:55,379 - gym_custom_envs_real_ur_drivers_URBasic_realTimeClientEvent - INFO - Program send to Robot:
servoj([-0.11345884734929611, -1.5541384740656061, -1.6428990195416233, -1.4984541150079094, 1.717745852470398, 2.9619604115816984], 0.5, 0.5, 0.008, 0.2, 100)

2025-07-07 17:05:55,401 - gym_custom_envs_real_ur_drivers_URBasic_realTimeClientEvent - INFO - Program send to Robot:
servoj([-0.11344545765846632, -1.5541337181570032, -1.64289584030714, -1.4984890187225508, 1.7176979303359985, 2.962617416862484], 0.5, 0.5, 0.008, 0.2, 100)

2025-07-07 17:05:55,411 - gym_custom_envs_real_ur_drivers_URBasic_realTimeClientEvent - INFO - Program send to Robot:
servoj([-0.11345385260810234, -1.5541121677815857, -1.6429063232285297, -1.4984628318462252, 1.7177339315414428, 2.962621829615321], 0.5, 0.5, 0.008, 0.2, 100)

2025-07-07 17:05:55,427 - gym_custom_envs_real_ur_drivers_URBasic_realTimeClientEvent - INFO - Program send to Robot:
servoj([-0.11347894045041554, -1.5541384740656061, -1.642878926440504, -1.4984407196071632, 1.717745852470398, 2.962652559946368], 0.5, 0.5, 0.008, 0.2, 100)

2025-07-07 17:05:55,450 - gym_custom_envs_real_ur_drivers_URBasic_realTimeClientEvent - INFO - Program send to Robot:
servoj([-0.11346724691744994, -1.5541389564002808, -1.6429063232285297, -1.4984494375368775, 1.7177339315414428, 2.9626085025118667], 0.5, 0.5, 0.008, 0.2, 100)

2025-07-07 17:05:55,468 - gym_custom_envs_real_ur_drivers_URBasic_realTimeClientEvent - INFO - Program send to Robot:
servoj([-0.11348228121674442, -1.5541375048776915, -1.642883864919367, -1.4984567555168877, 1.7177698135375976, 2.962633223481195], 0.5, 0.5, 0.008, 0.2, 100)

2025-07-07 17:05:55,483 - gym_custom_envs_real_ur_drivers_URBasic_realTimeClientEvent - INFO - Program send to Robot:
servoj([-0.11344715545342854, -1.5541526185958154, -1.6428798024960214, -1.4984764940417596, 1.7177339315414428, 2.962615199673261], 0.5, 0.5, 0.008, 0.2, 100)

2025-07-07 17:05:55,499 - gym_custom_envs_real_ur_drivers_URBasic_realTimeClientEvent - INFO - Program send to Robot:
servoj([-0.11347394407212374, -1.554132259245607, -1.642893196805369, -1.4984898883511073, 1.7177339315414428, 2.9626421222350503], 0.5, 0.5, 0.008, 0.2, 100)

2025-07-07 17:05:55,515 - gym_custom_envs_real_ur_drivers_URBasic_realTimeClientEvent - INFO - Program send to Robot:
servoj([-0.11348898001362842, -1.5541375048776915, -1.6428704673255992, -1.4984567555168877, 1.7177698135375976, 2.9625927627480833], 0.5, 0.5, 0.008, 0.2, 100)

2025-07-07 17:05:55,532 - gym_custom_envs_real_ur_drivers_URBasic_realTimeClientEvent - INFO - Program send to Robot:
servoj([-0.052155346788111956, -1.560058461279697, -1.653631289340721, -1.5232429223704418, 1.653631289340721, 2.9989324403164286], 0.5, 0.5, 0.008, 0.2, 100)

2025-07-07 17:05:55,539 - gym_custom_envs_real_ur_drivers_URBasic_realTimeClientEvent - INFO - Program send to Robot:
servoj([-0.052155346788111956, -1.560058461279697, -1.653631289340721, -1.5232429223704418, 1.653631289340721, 2.9989324403164286], 0.5, 0.5, 0.008, 0.2, 100)

2025-07-07 17:05:55,548 - gym_custom_envs_real_ur_drivers_URBasic_realTimeClientEvent - INFO - Program send to Robot:
servoj([-0.052155346788111956, -1.560058461279697, -1.653631289340721, -1.5232429223704418, 1.653631289340721, 2.9989324403164286], 0.5, 0.5, 0.008, 0.2, 100)

2025-07-07 17:05:55,563 - gym_custom_envs_real_ur_drivers_URBasic_realTimeClientEvent - INFO - Program send to Robot:
servoj([-0.052155346788111956, -1.560058461279697, -1.653631289340721, -1.5232429223704418, 1.653631289340721, 2.9989324403164286], 0.5, 0.5, 0.008, 0.2, 100)

2025-07-07 17:05:55,571 - gym_custom_envs_real_ur_drivers_URBasic_realTimeClientEvent - INFO - Program send to Robot:
servoj([-0.052155346788111956, -1.560058461279697, -1.653631289340721, -1.5232429223704418, 1.653631289340721, 2.9989324403164286], 0.5, 0.5, 0.008, 0.2, 100)

2025-07-07 17:05:55,587 - gym_custom_envs_real_ur_drivers_URBasic_realTimeClientEvent - INFO - Program send to Robot:
servoj([-0.052155346788111956, -1.560058461279697, -1.653631289340721, -1.5232429223704418, 1.653631289340721, 2.9989324403164286], 0.5, 0.5, 0.008, 0.2, 100)

2025-07-07 17:05:55,596 - gym_custom_envs_real_ur_drivers_URBasic_realTimeClientEvent - INFO - Program send to Robot:
servoj([-0.052155346788111956, -1.560058461279697, -1.653631289340721, -1.5232429223704418, 1.653631289340721, 2.9989324403164286], 0.5, 0.5, 0.008, 0.2, 100)

2025-07-07 17:05:55,603 - gym_custom_envs_real_ur_drivers_URBasic_realTimeClientEvent - INFO - Program send to Robot:
servoj([-0.052155346788111956, -1.560058461279697, -1.653631289340721, -1.5232429223704418, 1.653631289340721, 2.9989324403164286], 0.5, 0.5, 0.008, 0.2, 100)

2025-07-07 17:05:55,619 - gym_custom_envs_real_ur_drivers_URBasic_realTimeClientEvent - INFO - Program send to Robot:
servoj([-0.052155346788111956, -1.560058461279697, -1.653631289340721, -1.5232429223704418, 1.653631289340721, 2.9989324403164286], 0.5, 0.5, 0.008, 0.2, 100)

2025-07-07 17:05:55,627 - gym_custom_envs_real_ur_drivers_URBasic_realTimeClientEvent - INFO - Program send to Robot:
servoj([-0.052155346788111956, -1.560058461279697, -1.653631289340721, -1.5232429223704418, 1.653631289340721, 2.9989324403164286], 0.5, 0.5, 0.008, 0.2, 100)

2025-07-07 17:05:55,635 - gym_custom_envs_real_ur_drivers_URBasic_realTimeClientEvent - INFO - Program send to Robot:
servoj([-0.052155346788111956, -1.560058461279697, -1.653631289340721, -1.5232429223704418, 1.653631289340721, 2.9989324403164286], 0.5, 0.5, 0.008, 0.2, 100)

2025-07-07 17:05:55,643 - gym_custom_envs_real_ur_drivers_URBasic_realTimeClientEvent - INFO - Program send to Robot:
servoj([-0.052155346788111956, -1.560058461279697, -1.653631289340721, -1.5232429223704418, 1.653631289340721, 2.9989324403164286], 0.5, 0.5, 0.008, 0.2, 100)

2025-07-07 17:05:55,659 - gym_custom_envs_real_ur_drivers_URBasic_realTimeClientEvent - INFO - Program send to Robot:
servoj([-0.052155346788111956, -1.560058461279697, -1.653631289340721, -1.5232429223704418, 1.653631289340721, 2.9989324403164286], 0.5, 0.5, 0.008, 0.2, 100)

2025-07-07 17:05:55,668 - gym_custom_envs_real_ur_drivers_URBasic_realTimeClientEvent - INFO - Program send to Robot:
servoj([-0.052155346788111956, -1.560058461279697, -1.653631289340721, -1.5232429223704418, 1.653631289340721, 2.9989324403164286], 0.5, 0.5, 0.008, 0.2, 100)

2025-07-07 17:05:55,676 - gym_custom_envs_real_ur_drivers_URBasic_realTimeClientEvent - INFO - Program send to Robot:
servoj([-0.052155346788111956, -1.560058461279697, -1.653631289340721, -1.5232429223704418, 1.653631289340721, 2.9989324403164286], 0.5, 0.5, 0.008, 0.2, 100)

2025-07-07 17:05:55,686 - gym_custom_envs_real_ur_drivers_URBasic_realTimeClientEvent - INFO - Program send to Robot:
servoj([-0.052155346788111956, -1.560058461279697, -1.653631289340721, -1.5232429223704418, 1.653631289340721, 2.9989324403164286], 0.5, 0.5, 0.008, 0.2, 100)

2025-07-07 17:05:55,700 - gym_custom_envs_real_ur_drivers_URBasic_realTimeClientEvent - INFO - Program send to Robot:
servoj([-0.052155346788111956, -1.560058461279697, -1.653631289340721, -1.5232429223704418, 1.653631289340721, 2.9989324403164286], 0.5, 0.5, 0.008, 0.2, 100)

2025-07-07 17:05:55,707 - gym_custom_envs_real_ur_drivers_URBasic_realTimeClientEvent - INFO - Program send to Robot:
servoj([-0.052155346788111956, -1.560058461279697, -1.653631289340721, -1.5232429223704418, 1.653631289340721, 2.9989324403164286], 0.5, 0.5, 0.008, 0.2, 100)

2025-07-07 17:05:55,716 - gym_custom_envs_real_ur_drivers_URBasic_realTimeClientEvent - INFO - Program send to Robot:
servoj([-0.052155346788111956, -1.560058461279697, -1.653631289340721, -1.5232429223704418, 1.653631289340721, 2.9989324403164286], 0.5, 0.5, 0.008, 0.2, 100)

2025-07-07 17:05:55,724 - gym_custom_envs_real_ur_drivers_URBasic_realTimeClientEvent - INFO - Program send to Robot:
servoj([-0.052155346788111956, -1.560058461279697, -1.653631289340721, -1.5232429223704418, 1.653631289340721, 2.9989324403164286], 0.5, 0.5, 0.008, 0.2, 100)

2025-07-07 17:05:55,740 - gym_custom_envs_real_ur_drivers_URBasic_realTimeClientEvent - INFO - Program send to Robot:
servoj([-0.052155346788111956, -1.560058461279697, -1.653631289340721, -1.5232429223704418, 1.653631289340721, 2.9989324403164286], 0.5, 0.5, 0.008, 0.2, 100)

2025-07-07 17:05:55,748 - gym_custom_envs_real_ur_drivers_URBasic_realTimeClientEvent - INFO - Program send to Robot:
servoj([-0.052155346788111956, -1.560058461279697, -1.653631289340721, -1.5232429223704418, 1.653631289340721, 2.9989324403164286], 0.5, 0.5, 0.008, 0.2, 100)

2025-07-07 17:05:55,756 - gym_custom_envs_real_ur_drivers_URBasic_realTimeClientEvent - INFO - Program send to Robot:
servoj([-0.052155346788111956, -1.560058461279697, -1.653631289340721, -1.5232429223704418, 1.653631289340721, 2.9989324403164286], 0.5, 0.5, 0.008, 0.2, 100)

2025-07-07 17:05:55,764 - gym_custom_envs_real_ur_drivers_URBasic_realTimeClientEvent - INFO - Program send to Robot:
servoj([-0.052155346788111956, -1.560058461279697, -1.653631289340721, -1.5232429223704418, 1.653631289340721, 2.9989324403164286], 0.5, 0.5, 0.008, 0.2, 100)

2025-07-07 17:05:55,779 - gym_custom_envs_real_ur_drivers_URBasic_realTimeClientEvent - INFO - Program send to Robot:
servoj([-0.052155346788111956, -1.560058461279697, -1.653631289340721, -1.5232429223704418, 1.653631289340721, 2.9989324403164286], 0.5, 0.5, 0.008, 0.2, 100)

2025-07-07 17:05:55,787 - gym_custom_envs_real_ur_drivers_URBasic_realTimeClientEvent - INFO - Program send to Robot:
servoj([-0.052155346788111956, -1.560058461279697, -1.653631289340721, -1.5232429223704418, 1.653631289340721, 2.9989324403164286], 0.5, 0.5, 0.008, 0.2, 100)

2025-07-07 17:05:55,795 - gym_custom_envs_real_ur_drivers_URBasic_realTimeClientEvent - INFO - Program send to Robot:
servoj([-0.052155346788111956, -1.560058461279697, -1.653631289340721, -1.5232429223704418, 1.653631289340721, 2.9989324403164286], 0.5, 0.5, 0.008, 0.2, 100)

2025-07-07 17:05:55,811 - gym_custom_envs_real_ur_drivers_URBasic_realTimeClientEvent - INFO - Program send to Robot:
servoj([-0.052155346788111956, -1.560058461279697, -1.653631289340721, -1.5232429223704418, 1.653631289340721, 2.9989324403164286], 0.5, 0.5, 0.008, 0.2, 100)

2025-07-07 17:05:55,820 - gym_custom_envs_real_ur_drivers_URBasic_realTimeClientEvent - INFO - Program send to Robot:
servoj([-0.052155346788111956, -1.560058461279697, -1.653631289340721, -1.5232429223704418, 1.653631289340721, 2.9989324403164286], 0.5, 0.5, 0.008, 0.2, 100)

2025-07-07 17:05:55,828 - gym_custom_envs_real_ur_drivers_URBasic_realTimeClientEvent - INFO - Program send to Robot:
servoj([-0.052155346788111956, -1.560058461279697, -1.653631289340721, -1.5232429223704418, 1.653631289340721, 2.9989324403164286], 0.5, 0.5, 0.008, 0.2, 100)

2025-07-07 17:05:55,835 - gym_custom_envs_real_ur_drivers_URBasic_realTimeClientEvent - INFO - Program send to Robot:
servoj([-0.052155346788111956, -1.560058461279697, -1.653631289340721, -1.5232429223704418, 1.653631289340721, 2.9989324403164286], 0.5, 0.5, 0.008, 0.2, 100)

2025-07-07 17:05:55,851 - gym_custom_envs_real_ur_drivers_URBasic_realTimeClientEvent - INFO - Program send to Robot:
servoj([-0.052155346788111956, -1.560058461279697, -1.653631289340721, -1.5232429223704418, 1.653631289340721, 2.9989324403164286], 0.5, 0.5, 0.008, 0.2, 100)

2025-07-07 17:05:55,859 - gym_custom_envs_real_ur_drivers_URBasic_realTimeClientEvent - INFO - Program send to Robot:
servoj([-0.052155346788111956, -1.560058461279697, -1.653631289340721, -1.5232429223704418, 1.653631289340721, 2.9989324403164286], 0.5, 0.5, 0.008, 0.2, 100)

2025-07-07 17:05:55,867 - gym_custom_envs_real_ur_drivers_URBasic_realTimeClientEvent - INFO - Program send to Robot:
servoj([-0.052155346788111956, -1.560058461279697, -1.653631289340721, -1.5232429223704418, 1.653631289340721, 2.9989324403164286], 0.5, 0.5, 0.008, 0.2, 100)

2025-07-07 17:05:55,875 - gym_custom_envs_real_ur_drivers_URBasic_realTimeClientEvent - INFO - Program send to Robot:
servoj([-0.052155346788111956, -1.560058461279697, -1.653631289340721, -1.5232429223704418, 1.653631289340721, 2.9989324403164286], 0.5, 0.5, 0.008, 0.2, 100)

2025-07-07 17:05:55,892 - gym_custom_envs_real_ur_drivers_URBasic_realTimeClientEvent - INFO - Program send to Robot:
servoj([-0.052155346788111956, -1.560058461279697, -1.653631289340721, -1.5232429223704418, 1.653631289340721, 2.9989324403164286], 0.5, 0.5, 0.008, 0.2, 100)

2025-07-07 17:05:55,899 - gym_custom_envs_real_ur_drivers_URBasic_realTimeClientEvent - INFO - Program send to Robot:
servoj([-0.052155346788111956, -1.560058461279697, -1.653631289340721, -1.5232429223704418, 1.653631289340721, 2.9989324403164286], 0.5, 0.5, 0.008, 0.2, 100)

2025-07-07 17:05:55,915 - gym_custom_envs_real_ur_drivers_URBasic_realTimeClientEvent - INFO - Program send to Robot:
servoj([-0.052155346788111956, -1.560058461279697, -1.653631289340721, -1.5232429223704418, 1.653631289340721, 2.9989324403164286], 0.5, 0.5, 0.008, 0.2, 100)

2025-07-07 17:05:55,924 - gym_custom_envs_real_ur_drivers_URBasic_realTimeClientEvent - INFO - Program send to Robot:
servoj([-0.052155346788111956, -1.560058461279697, -1.653631289340721, -1.5232429223704418, 1.653631289340721, 2.9989324403164286], 0.5, 0.5, 0.008, 0.2, 100)

2025-07-07 17:05:55,932 - gym_custom_envs_real_ur_drivers_URBasic_realTimeClientEvent - INFO - Program send to Robot:
servoj([-0.052155346788111956, -1.560058461279697, -1.653631289340721, -1.5232429223704418, 1.653631289340721, 2.9989324403164286], 0.5, 0.5, 0.008, 0.2, 100)

2025-07-07 17:05:55,941 - gym_custom_envs_real_ur_drivers_URBasic_realTimeClientEvent - INFO - Program send to Robot:
servoj([-0.052155346788111956, -1.560058461279697, -1.653631289340721, -1.5232429223704418, 1.653631289340721, 2.9989324403164286], 0.5, 0.5, 0.008, 0.2, 100)

2025-07-07 17:05:55,957 - gym_custom_envs_real_ur_drivers_URBasic_realTimeClientEvent - INFO - Program send to Robot:
servoj([-0.052155346788111956, -1.560058461279697, -1.653631289340721, -1.5232429223704418, 1.653631289340721, 2.9989324403164286], 0.5, 0.5, 0.008, 0.2, 100)

2025-07-07 17:05:55,965 - gym_custom_envs_real_ur_drivers_URBasic_realTimeClientEvent - INFO - Program send to Robot:
servoj([-0.052155346788111956, -1.560058461279697, -1.653631289340721, -1.5232429223704418, 1.653631289340721, 2.9989324403164286], 0.5, 0.5, 0.008, 0.2, 100)

2025-07-07 17:05:55,971 - gym_custom_envs_real_ur_drivers_URBasic_realTimeClientEvent - INFO - Program send to Robot:
servoj([-0.052155346788111956, -1.560058461279697, -1.653631289340721, -1.5232429223704418, 1.653631289340721, 2.9989324403164286], 0.5, 0.5, 0.008, 0.2, 100)

2025-07-07 17:05:55,990 - gym_custom_envs_real_ur_drivers_URBasic_realTimeClientEvent - INFO - Program send to Robot:
servoj([-0.052155346788111956, -1.560058461279697, -1.653631289340721, -1.5232429223704418, 1.653631289340721, 2.9989324403164286], 0.5, 0.5, 0.008, 0.2, 100)

2025-07-07 17:05:55,995 - gym_custom_envs_real_ur_drivers_URBasic_realTimeClientEvent - INFO - Program send to Robot:
servoj([-0.052155346788111956, -1.560058461279697, -1.653631289340721, -1.5232429223704418, 1.653631289340721, 2.9989324403164286], 0.5, 0.5, 0.008, 0.2, 100)

2025-07-07 17:05:56,006 - gym_custom_envs_real_ur_drivers_URBasic_realTimeClientEvent - INFO - Program send to Robot:
servoj([-0.052155346788111956, -1.560058461279697, -1.653631289340721, -1.5232429223704418, 1.653631289340721, 2.9989324403164286], 0.5, 0.5, 0.008, 0.2, 100)

2025-07-07 17:05:56,019 - gym_custom_envs_real_ur_drivers_URBasic_realTimeClientEvent - INFO - Program send to Robot:
servoj([-0.052155346788111956, -1.560058461279697, -1.653631289340721, -1.5232429223704418, 1.653631289340721, 2.9989324403164286], 0.5, 0.5, 0.008, 0.2, 100)

2025-07-07 17:05:56,029 - gym_custom_envs_real_ur_drivers_URBasic_realTimeClientEvent - INFO - Program send to Robot:
servoj([-0.052155346788111956, -1.560058461279697, -1.653631289340721, -1.5232429223704418, 1.653631289340721, 2.9989324403164286], 0.5, 0.5, 0.008, 0.2, 100)

2025-07-07 17:05:56,038 - gym_custom_envs_real_ur_drivers_URBasic_realTimeClientEvent - INFO - Program send to Robot:
servoj([-0.052155346788111956, -1.560058461279697, -1.653631289340721, -1.5232429223704418, 1.653631289340721, 2.9989324403164286], 0.5, 0.5, 0.008, 0.2, 100)

2025-07-07 17:05:56,043 - gym_custom_envs_real_ur_drivers_URBasic_realTimeClientEvent - INFO - Program send to Robot:
servoj([-0.052155346788111956, -1.560058461279697, -1.653631289340721, -1.5232429223704418, 1.653631289340721, 2.9989324403164286], 0.5, 0.5, 0.008, 0.2, 100)

2025-07-07 17:05:56,064 - gym_custom_envs_real_ur_drivers_URBasic_realTimeClientEvent - INFO - Program send to Robot:
servoj([-0.052155346788111956, -1.560058461279697, -1.653631289340721, -1.5232429223704418, 1.653631289340721, 2.9989324403164286], 0.5, 0.5, 0.008, 0.2, 100)

2025-07-07 17:05:56,067 - gym_custom_envs_real_ur_drivers_URBasic_realTimeClientEvent - INFO - Program send to Robot:
servoj([-0.052155346788111956, -1.560058461279697, -1.653631289340721, -1.5232429223704418, 1.653631289340721, 2.9989324403164286], 0.5, 0.5, 0.008, 0.2, 100)

2025-07-07 17:05:56,084 - gym_custom_envs_real_ur_drivers_URBasic_realTimeClientEvent - INFO - Program send to Robot:
servoj([-0.052155346788111956, -1.560058461279697, -1.653631289340721, -1.5232429223704418, 1.653631289340721, 2.9989324403164286], 0.5, 0.5, 0.008, 0.2, 100)

2025-07-07 17:05:56,091 - gym_custom_envs_real_ur_drivers_URBasic_realTimeClientEvent - INFO - Program send to Robot:
servoj([-0.052155346788111956, -1.560058461279697, -1.653631289340721, -1.5232429223704418, 1.653631289340721, 2.9989324403164286], 0.5, 0.5, 0.008, 0.2, 100)

2025-07-07 17:05:56,104 - gym_custom_envs_real_ur_drivers_URBasic_realTimeClientEvent - INFO - Program send to Robot:
servoj([-0.052155346788111956, -1.560058461279697, -1.653631289340721, -1.5232429223704418, 1.653631289340721, 2.9989324403164286], 0.5, 0.5, 0.008, 0.2, 100)

2025-07-07 17:05:56,117 - gym_custom_envs_real_ur_drivers_URBasic_realTimeClientEvent - INFO - Program send to Robot:
servoj([-0.052155346788111956, -1.560058461279697, -1.653631289340721, -1.5232429223704418, 1.653631289340721, 2.9989324403164286], 0.5, 0.5, 0.008, 0.2, 100)

2025-07-07 17:05:56,127 - gym_custom_envs_real_ur_drivers_URBasic_realTimeClientEvent - INFO - Program send to Robot:
servoj([-0.052155346788111956, -1.560058461279697, -1.653631289340721, -1.5232429223704418, 1.653631289340721, 2.9989324403164286], 0.5, 0.5, 0.008, 0.2, 100)

2025-07-07 17:05:56,131 - gym_custom_envs_real_ur_drivers_URBasic_realTimeClientEvent - INFO - Program send to Robot:
servoj([-0.052155346788111956, -1.560058461279697, -1.653631289340721, -1.5232429223704418, 1.653631289340721, 2.9989324403164286], 0.5, 0.5, 0.008, 0.2, 100)

2025-07-07 17:05:56,151 - gym_custom_envs_real_ur_drivers_URBasic_realTimeClientEvent - INFO - Program send to Robot:
servoj([-0.052155346788111956, -1.560058461279697, -1.653631289340721, -1.5232429223704418, 1.653631289340721, 2.9989324403164286], 0.5, 0.5, 0.008, 0.2, 100)

2025-07-07 17:05:56,155 - gym_custom_envs_real_ur_drivers_URBasic_realTimeClientEvent - INFO - Program send to Robot:
servoj([-0.052155346788111956, -1.560058461279697, -1.653631289340721, -1.5232429223704418, 1.655149930320728, 2.9989324403164286], 0.5, 0.5, 0.008, 0.2, 100)

2025-07-07 17:05:56,166 - gym_custom_envs_real_ur_drivers_URBasic_realTimeClientEvent - INFO - Program send to Robot:
servoj([-0.052155346788111956, -1.560058461279697, -1.653631289340721, -1.5232429223704418, 1.655165116730528, 2.9989324403164286], 0.5, 0.5, 0.008, 0.2, 100)

2025-07-07 17:05:56,183 - gym_custom_envs_real_ur_drivers_URBasic_realTimeClientEvent - INFO - Program send to Robot:
servoj([-0.052155346788111956, -1.560058461279697, -1.653631289340721, -1.5232429223704418, 1.655165268594626, 2.9989324403164286], 0.5, 0.5, 0.008, 0.2, 100)

2025-07-07 17:05:56,187 - gym_custom_envs_real_ur_drivers_URBasic_realTimeClientEvent - INFO - Program send to Robot:
servoj([-0.052155346788111956, -1.560058461279697, -1.653631289340721, -1.5232429223704418, 1.65364662913326, 2.9989324403164286], 0.5, 0.5, 0.008, 0.2, 100)

2025-07-07 17:05:56,203 - gym_custom_envs_real_ur_drivers_URBasic_realTimeClientEvent - INFO - Program send to Robot:
servoj([-0.052155346788111956, -1.560058461279697, -1.653631289340721, -1.5232429223704418, 1.6536314427386463, 2.9989324403164286], 0.5, 0.5, 0.008, 0.2, 100)

2025-07-07 17:05:56,212 - gym_custom_envs_real_ur_drivers_URBasic_realTimeClientEvent - INFO - Program send to Robot:
servoj([-0.052155346788111956, -1.560058461279697, -1.653631289340721, -1.5232429223704418, 1.6536312908747002, 2.9989324403164286], 0.5, 0.5, 0.008, 0.2, 100)

2025-07-07 17:05:56,224 - gym_custom_envs_real_ur_drivers_URBasic_realTimeClientEvent - INFO - Program send to Robot:
servoj([-0.052155346788111956, -1.560058461279697, -1.653631289340721, -1.5232429223704418, 1.6536312893560607, 2.9989324403164286], 0.5, 0.5, 0.008, 0.2, 100)

2025-07-07 17:05:56,228 - gym_custom_envs_real_ur_drivers_URBasic_realTimeClientEvent - INFO - Program send to Robot:
servoj([-0.052155346788111956, -1.560058461279697, -1.653631289340721, -1.5232429223704418, 1.6536312893408744, 2.9989324403164286], 0.5, 0.5, 0.008, 0.2, 100)

2025-07-07 17:05:56,247 - gym_custom_envs_real_ur_drivers_URBasic_realTimeClientEvent - INFO - Program send to Robot:
servoj([-0.052155346788111956, -1.560058461279697, -1.653631289340721, -1.5232429223704418, 1.6536312893407226, 2.9989324403164286], 0.5, 0.5, 0.008, 0.2, 100)

2025-07-07 17:05:56,251 - gym_custom_envs_real_ur_drivers_URBasic_realTimeClientEvent - INFO - Program send to Robot:
servoj([-0.052155346788111956, -1.560058461279697, -1.653631289340721, -1.5232429223704418, 1.653631289340721, 2.9989324403164286], 0.5, 0.5, 0.008, 0.2, 100)

2025-07-07 17:05:56,260 - gym_custom_envs_real_ur_drivers_URBasic_realTimeClientEvent - INFO - Program send to Robot:
servoj([-0.052155346788111956, -1.560058461279697, -1.653631289340721, -1.5232429223704418, 1.653631289340721, 2.9989324403164286], 0.5, 0.5, 0.008, 0.2, 100)

2025-07-07 17:05:56,276 - gym_custom_envs_real_ur_drivers_URBasic_realTimeClientEvent - INFO - Program send to Robot:
servoj([-0.052155346788111956, -1.560058461279697, -1.653631289340721, -1.5232429223704418, 1.653631289340721, 2.9989324403164286], 0.5, 0.5, 0.008, 0.2, 100)

2025-07-07 17:05:56,283 - gym_custom_envs_real_ur_drivers_URBasic_realTimeClientEvent - INFO - Program send to Robot:
servoj([-0.052155346788111956, -1.560058461279697, -1.653631289340721, -1.5232429223704418, 1.653631289340721, 2.9989324403164286], 0.5, 0.5, 0.008, 0.2, 100)

2025-07-07 17:05:56,295 - gym_custom_envs_real_ur_drivers_URBasic_realTimeClientEvent - INFO - Program send to Robot:
servoj([-0.052155346788111956, -1.560058461279697, -1.653631289340721, -1.5232429223704418, 1.653631289340721, 2.9989324403164286], 0.5, 0.5, 0.008, 0.2, 100)

2025-07-07 17:05:56,308 - gym_custom_envs_real_ur_drivers_URBasic_realTimeClientEvent - INFO - Program send to Robot:
servoj([-0.052155346788111956, -1.560058461279697, -1.653631289340721, -1.5232429223704418, 1.653631289340721, 2.9989324403164286], 0.5, 0.5, 0.008, 0.2, 100)

2025-07-07 17:05:56,320 - gym_custom_envs_real_ur_drivers_URBasic_realTimeClientEvent - INFO - Program send to Robot:
servoj([-0.052155346788111956, -1.560058461279697, -1.653631289340721, -1.5232429223704418, 1.653631289340721, 2.997413799336422], 0.5, 0.5, 0.008, 0.2, 100)

2025-07-07 17:05:56,323 - gym_custom_envs_real_ur_drivers_URBasic_realTimeClientEvent - INFO - Program send to Robot:
servoj([-0.052155346788111956, -1.560058461279697, -1.653631289340721, -1.5232429223704418, 1.653631289340721, 2.997398612926622], 0.5, 0.5, 0.008, 0.2, 100)

2025-07-07 17:05:56,345 - gym_custom_envs_real_ur_drivers_URBasic_realTimeClientEvent - INFO - Program send to Robot:
servoj([-0.052155346788111956, -1.560058461279697, -1.653631289340721, -1.5232429223704418, 1.653631289340721, 2.9973984610625237], 0.5, 0.5, 0.008, 0.2, 100)

2025-07-07 17:05:56,356 - gym_custom_envs_real_ur_drivers_URBasic_realTimeClientEvent - INFO - Program send to Robot:
servoj([-0.052155346788111956, -1.560058461279697, -1.653631289340721, -1.5232429223704418, 1.653631289340721, 2.9973984595438825], 0.5, 0.5, 0.008, 0.2, 100)

2025-07-07 17:05:56,368 - gym_custom_envs_real_ur_drivers_URBasic_realTimeClientEvent - INFO - Program send to Robot:
servoj([-0.052155346788111956, -1.560058461279697, -1.653631289340721, -1.5232429223704418, 1.653631289340721, 2.9973984595286964], 0.5, 0.5, 0.008, 0.2, 100)

2025-07-07 17:05:56,372 - gym_custom_envs_real_ur_drivers_URBasic_realTimeClientEvent - INFO - Program send to Robot:
servoj([-0.052155346788111956, -1.560058461279697, -1.653631289340721, -1.5232429223704418, 1.653631289340721, 2.9973984595285446], 0.5, 0.5, 0.008, 0.2, 100)

2025-07-07 17:05:56,392 - gym_custom_envs_real_ur_drivers_URBasic_realTimeClientEvent - INFO - Program send to Robot:
servoj([-0.052155346788111956, -1.560058461279697, -1.655149930320728, -1.5232429223704418, 1.653631289340721, 2.997398459528543], 0.5, 0.5, 0.008, 0.2, 100)

2025-07-07 17:05:56,396 - gym_custom_envs_real_ur_drivers_URBasic_realTimeClientEvent - INFO - Program send to Robot:
servoj([-0.052155346788111956, -1.560058461279697, -1.655165116730528, -1.5232429223704418, 1.653631289340721, 2.997398459528543], 0.5, 0.5, 0.008, 0.2, 100)

2025-07-07 17:05:56,416 - gym_custom_envs_real_ur_drivers_URBasic_realTimeClientEvent - INFO - Program send to Robot:
servoj([-0.052155346788111956, -1.560058461279697, -1.6612398325146531, -1.5232429223704418, 1.655149930320728, 2.997398459528543], 0.5, 0.5, 0.008, 0.2, 100)

2025-07-07 17:05:56,420 - gym_custom_envs_real_ur_drivers_URBasic_realTimeClientEvent - INFO - Program send to Robot:
servoj([-0.052155346788111956, -1.560058461279697, -1.6613005796724942, -1.5232429223704418, 1.655165116730528, 2.997398459528543], 0.5, 0.5, 0.008, 0.2, 100)

2025-07-07 17:05:56,441 - gym_custom_envs_real_ur_drivers_URBasic_realTimeClientEvent - INFO - Program send to Robot:
servoj([-0.052155346788111956, -1.560058461279697, -1.6613011871440726, -1.5232429223704418, 1.655165268594626, 2.997398459528543], 0.5, 0.5, 0.008, 0.2, 100)

2025-07-07 17:05:56,443 - gym_custom_envs_real_ur_drivers_URBasic_realTimeClientEvent - INFO - Program send to Robot:
servoj([-0.05367398776811846, -1.560058461279697, -1.6673757571388161, -1.5232429223704418, 1.65364662913326, 2.997398459528543], 0.5, 0.5, 0.008, 0.2, 100)

2025-07-07 17:05:56,459 - gym_custom_envs_real_ur_drivers_URBasic_realTimeClientEvent - INFO - Program send to Robot:
servoj([-0.053689174177918526, -1.560058461279697, -1.6674365028387637, -1.5232429223704418, 1.6536314427386463, 2.997398459528543], 0.5, 0.5, 0.008, 0.2, 100)

2025-07-07 17:05:56,467 - gym_custom_envs_real_ur_drivers_URBasic_realTimeClientEvent - INFO - Program send to Robot:
servoj([-0.053689326042016525, -1.560058461279697, -1.667437110295763, -1.5232429223704418, 1.6536312908747002, 2.997398459528543], 0.5, 0.5, 0.008, 0.2, 100)

2025-07-07 17:05:56,483 - gym_custom_envs_real_ur_drivers_URBasic_realTimeClientEvent - INFO - Program send to Robot:
servoj([-0.05368932756065751, -1.560058461279697, -1.668955757350339, -1.5232429223704418, 1.6536312893560607, 2.997398459528543], 0.5, 0.5, 0.008, 0.2, 100)

2025-07-07 17:05:56,492 - gym_custom_envs_real_ur_drivers_URBasic_realTimeClientEvent - INFO - Program send to Robot:
servoj([-0.053689327575843916, -1.560058461279697, -1.6689709438208848, -1.5232429223704418, 1.6536312893408744, 2.997398459528543], 0.5, 0.5, 0.008, 0.2, 100)

2025-07-07 17:05:56,507 - gym_custom_envs_real_ur_drivers_URBasic_realTimeClientEvent - INFO - Program send to Robot:
servoj([-0.05368932757599578, -1.560058461279697, -1.6704897366655973, -1.5232429223704418, 1.6536312893407226, 2.997398459528543], 0.5, 0.5, 0.008, 0.2, 100)

2025-07-07 17:05:56,515 - gym_custom_envs_real_ur_drivers_URBasic_realTimeClientEvent - INFO - Program send to Robot:
servoj([-0.0536893275759973, -1.560058461279697, -1.6705049245940444, -1.5232429223704418, 1.653631289340721, 2.997398459528543], 0.5, 0.5, 0.008, 0.2, 100)

2025-07-07 17:05:56,531 - gym_custom_envs_real_ur_drivers_URBasic_realTimeClientEvent - INFO - Program send to Robot:
servoj([-0.053689327575997314, -1.560058461279697, -1.670505076473329, -1.5232429223704418, 1.653631289340721, 2.997398459528543], 0.5, 0.5, 0.008, 0.2, 100)

2025-07-07 17:05:56,539 - gym_custom_envs_real_ur_drivers_URBasic_realTimeClientEvent - INFO - Program send to Robot:
servoj([-0.053689327575997314, -1.560058461279697, -1.6705050779921218, -1.5232429223704418, 1.653631289340721, 2.997398459528543], 0.5, 0.5, 0.008, 0.2, 100)

2025-07-07 17:05:56,555 - gym_custom_envs_real_ur_drivers_URBasic_realTimeClientEvent - INFO - Program send to Robot:
servoj([-0.053689327575997314, -1.560058461279697, -1.6705050780073096, -1.5232429223704418, 1.652112648360714, 2.997398459528543], 0.5, 0.5, 0.008, 0.2, 100)

2025-07-07 17:05:56,572 - gym_custom_envs_real_ur_drivers_URBasic_realTimeClientEvent - INFO - Program send to Robot:
servoj([-0.053689327575997314, -1.560058461279697, -1.6705050780074615, -1.5232429223704418, 1.652097461950914, 2.9958798185485356], 0.5, 0.5, 0.008, 0.2, 100)

2025-07-07 17:05:56,579 - gym_custom_envs_real_ur_drivers_URBasic_realTimeClientEvent - INFO - Program send to Robot:
servoj([-0.053689327575997314, -1.560058461279697, -1.670505078007463, -1.5232429223704418, 1.652097310086816, 2.9958646321387357], 0.5, 0.5, 0.008, 0.2, 100)

2025-07-07 17:05:56,588 - gym_custom_envs_real_ur_drivers_URBasic_realTimeClientEvent - INFO - Program send to Robot:
servoj([-0.053689327575997314, -1.560058461279697, -1.670505078007463, -1.5232429223704418, 1.652097308568175, 2.9958644802746375], 0.5, 0.5, 0.008, 0.2, 100)

2025-07-07 17:05:56,596 - gym_custom_envs_real_ur_drivers_URBasic_realTimeClientEvent - INFO - Program send to Robot:
servoj([-0.053689327575997314, -1.560058461279697, -1.670505078007463, -1.5232429223704418, 1.6520973085529884, 2.9958644787559967], 0.5, 0.5, 0.008, 0.2, 100)

2025-07-07 17:05:56,612 - gym_custom_envs_real_ur_drivers_URBasic_realTimeClientEvent - INFO - Program send to Robot:
servoj([-0.053689327575997314, -1.560058461279697, -1.670505078007463, -1.5232429223704418, 1.6505786675728307, 2.99586447874081], 0.5, 0.5, 0.008, 0.2, 100)

2025-07-07 17:05:56,620 - gym_custom_envs_real_ur_drivers_URBasic_realTimeClientEvent - INFO - Program send to Robot:
servoj([-0.053689327575997314, -1.560058461279697, -1.670505078007463, -1.5232429223704418, 1.6505634811630292, 2.9958644787406583], 0.5, 0.5, 0.008, 0.2, 100)

2025-07-07 17:05:56,628 - gym_custom_envs_real_ur_drivers_URBasic_realTimeClientEvent - INFO - Program send to Robot:
servoj([-0.053689327575997314, -1.560058461279697, -1.670505078007463, -1.5232429223704418, 1.6505633292989312, 2.995864478740657], 0.5, 0.5, 0.008, 0.2, 100)

2025-07-07 17:05:56,635 - gym_custom_envs_real_ur_drivers_URBasic_realTimeClientEvent - INFO - Program send to Robot:
servoj([-0.053689327575997314, -1.560058461279697, -1.670505078007463, -1.5232429223704418, 1.6490446868002833, 2.995864478740657], 0.5, 0.5, 0.008, 0.2, 100)

2025-07-07 17:05:56,651 - gym_custom_envs_real_ur_drivers_URBasic_realTimeClientEvent - INFO - Program send to Robot:
servoj([-0.053689327575997314, -1.560058461279697, -1.670505078007463, -1.5232429223704418, 1.6490295003752968, 2.995864478740657], 0.5, 0.5, 0.008, 0.2, 100)

2025-07-07 17:05:56,659 - gym_custom_envs_real_ur_drivers_URBasic_realTimeClientEvent - INFO - Program send to Robot:
servoj([-0.053689327575997314, -1.560058461279697, -1.670505078007463, -1.5232429223704418, 1.6490293485110468, 2.995864478740657], 0.5, 0.5, 0.008, 0.2, 100)

2025-07-07 17:05:56,669 - gym_custom_envs_real_ur_drivers_URBasic_realTimeClientEvent - INFO - Program send to Robot:
servoj([-0.053689327575997314, -1.560058461279697, -1.6720237189874698, -1.5232429223704418, 1.6490293469924044, 2.995864478740657], 0.5, 0.5, 0.008, 0.2, 100)

2025-07-07 17:05:56,676 - gym_custom_envs_real_ur_drivers_URBasic_realTimeClientEvent - INFO - Program send to Robot:
servoj([-0.053689327575997314, -1.560058461279697, -1.67203890539727, -1.5232429223704418, 1.649029346977218, 2.995864478740657], 0.5, 0.5, 0.008, 0.2, 100)

2025-07-07 17:05:56,693 - gym_custom_envs_real_ur_drivers_URBasic_realTimeClientEvent - INFO - Program send to Robot:
servoj([-0.053689327575997314, -1.560058461279697, -1.672039057261368, -1.5232429223704418, 1.649029346977066, 2.995864478740657], 0.5, 0.5, 0.008, 0.2, 100)

2025-07-07 17:05:56,699 - gym_custom_envs_real_ur_drivers_URBasic_realTimeClientEvent - INFO - Program send to Robot:
servoj([-0.053689327575997314, -1.560058461279697, -1.673557699760016, -1.5232429223704418, 1.6490293469770645, 2.9943458377606507], 0.5, 0.5, 0.008, 0.2, 100)

2025-07-07 17:05:56,709 - gym_custom_envs_real_ur_drivers_URBasic_realTimeClientEvent - INFO - Program send to Robot:
servoj([-0.053689327575997314, -1.560058461279697, -1.6735728861850023, -1.5232429223704418, 1.6490293469770645, 2.9943306513508503], 0.5, 0.5, 0.008, 0.2, 100)

2025-07-07 17:05:56,723 - gym_custom_envs_real_ur_drivers_URBasic_realTimeClientEvent - INFO - Program send to Robot:
servoj([-0.053689327575997314, -1.560058461279697, -1.6735730380492522, -1.5232429223704418, 1.6490293469770645, 2.9943304994867526], 0.5, 0.5, 0.008, 0.2, 100)

2025-07-07 17:05:56,733 - gym_custom_envs_real_ur_drivers_URBasic_realTimeClientEvent - INFO - Program send to Robot:
servoj([-0.05520796855600426, -1.5615771022597036, -1.6735730395678947, -1.5232429223704418, 1.6505479879570715, 2.9943304979681113], 0.5, 0.5, 0.008, 0.2, 100)

2025-07-07 17:05:56,741 - gym_custom_envs_real_ur_drivers_URBasic_realTimeClientEvent - INFO - Program send to Robot:
servoj([-0.05522315496580433, -1.5615922886695037, -1.6735730395830812, -1.5232429223704418, 1.6505631743668716, 2.9943304979529253], 0.5, 0.5, 0.008, 0.2, 100)

2025-07-07 17:05:56,748 - gym_custom_envs_real_ur_drivers_URBasic_realTimeClientEvent - INFO - Program send to Robot:
servoj([-0.05522330682990233, -1.5615924405336017, -1.6735730395832331, -1.5232429223704418, 1.6505633262309696, 2.9943304979527734], 0.5, 0.5, 0.008, 0.2, 100)

2025-07-07 17:05:56,766 - gym_custom_envs_real_ur_drivers_URBasic_realTimeClientEvent - INFO - Program send to Robot:
servoj([-0.05522330834854331, -1.5615924420522427, -1.6720543986032277, -1.5232429223704418, 1.6490446867696036, 2.9943304979527716], 0.5, 0.5, 0.008, 0.2, 100)

2025-07-07 17:05:56,771 - gym_custom_envs_real_ur_drivers_URBasic_realTimeClientEvent - INFO - Program send to Robot:
servoj([-0.05522330836372972, -1.5615924420674292, -1.6720392121934275, -1.5232429223704418, 1.64902950037499, 2.9943304979527716], 0.5, 0.5, 0.008, 0.2, 100)

2025-07-07 17:05:56,782 - gym_custom_envs_real_ur_drivers_URBasic_realTimeClientEvent - INFO - Program send to Robot:
servoj([-0.05522330836388158, -1.561592442067581, -1.6720390603293296, -1.5232429223704418, 1.6490293485110439, 2.9943304979527716], 0.5, 0.5, 0.008, 0.2, 100)

2025-07-07 17:05:56,796 - gym_custom_envs_real_ur_drivers_URBasic_realTimeClientEvent - INFO - Program send to Robot:
servoj([-0.05370466738387616, -1.5615924420675824, -1.6720390588106886, -1.5232429223704418, 1.6490293469924044, 2.9943304979527716], 0.5, 0.5, 0.008, 0.2, 100)

2025-07-07 17:05:56,807 - gym_custom_envs_real_ur_drivers_URBasic_realTimeClientEvent - INFO - Program send to Robot:
servoj([-0.0536894809740761, -1.5615924420675826, -1.672039058795502, -1.5232429223704418, 1.649029346977218, 2.9943304979527716], 0.5, 0.5, 0.008, 0.2, 100)

2025-07-07 17:05:56,816 - gym_custom_envs_real_ur_drivers_URBasic_realTimeClientEvent - INFO - Program send to Robot:
servoj([-0.053689329109978104, -1.5615924420675826, -1.6720390587953502, -1.5232429223704418, 1.649029346977066, 2.9943304979527716], 0.5, 0.5, 0.008, 0.2, 100)

2025-07-07 17:05:56,820 - gym_custom_envs_real_ur_drivers_URBasic_realTimeClientEvent - INFO - Program send to Robot:
servoj([-0.05368932759133712, -1.5615924420675826, -1.6720390587953489, -1.5232429223704418, 1.6490293469770645, 2.9943304979527716], 0.5, 0.5, 0.008, 0.2, 100)

2025-07-07 17:05:56,835 - gym_custom_envs_real_ur_drivers_URBasic_realTimeClientEvent - INFO - Program send to Robot:
servoj([-0.05368932757615071, -1.5631110830475896, -1.6720390587953489, -1.5232429223704418, 1.6490293469770645, 2.9943304979527716], 0.5, 0.5, 0.008, 0.2, 100)

2025-07-07 17:05:56,844 - gym_custom_envs_real_ur_drivers_URBasic_realTimeClientEvent - INFO - Program send to Robot:
servoj([-0.05368932757599885, -1.5631262694573895, -1.6720390587953489, -1.5232429223704418, 1.6490293469770645, 2.9943304979527716], 0.5, 0.5, 0.008, 0.2, 100)

2025-07-07 17:05:56,854 - gym_custom_envs_real_ur_drivers_URBasic_realTimeClientEvent - INFO - Program send to Robot:
servoj([-0.05368932757599733, -1.5631264213214875, -1.6720390587953489, -1.5232429223704418, 1.6490293469770645, 2.9943304979527716], 0.5, 0.5, 0.008, 0.2, 100)

2025-07-07 17:05:56,868 - gym_custom_envs_real_ur_drivers_URBasic_realTimeClientEvent - INFO - Program send to Robot:
servoj([-0.053689327575997314, -1.5631264228401285, -1.6720390587953489, -1.5232429223704418, 1.6505479879570715, 2.9943304979527716], 0.5, 0.5, 0.008, 0.2, 100)

2025-07-07 17:05:56,878 - gym_custom_envs_real_ur_drivers_URBasic_realTimeClientEvent - INFO - Program send to Robot:
servoj([-0.053689327575997314, -1.563126422855315, -1.6720390587953489, -1.5232429223704418, 1.6505631743668716, 2.9943304979527716], 0.5, 0.5, 0.008, 0.2, 100)

2025-07-07 17:05:56,883 - gym_custom_envs_real_ur_drivers_URBasic_realTimeClientEvent - INFO - Program send to Robot:
servoj([-0.053689327575997314, -1.5631264228554669, -1.6720390587953489, -1.5232429223704418, 1.6505633262309696, 2.9943304979527716], 0.5, 0.5, 0.008, 0.2, 100)

2025-07-07 17:05:56,891 - gym_custom_envs_real_ur_drivers_URBasic_realTimeClientEvent - INFO - Program send to Robot:
servoj([-0.053689327575997314, -1.5631264228554684, -1.6720390587953489, -1.5232429223704418, 1.6505633277496106, 2.9943304979527716], 0.5, 0.5, 0.008, 0.2, 100)

2025-07-07 17:05:56,908 - gym_custom_envs_real_ur_drivers_URBasic_realTimeClientEvent - INFO - Program send to Robot:
servoj([-0.053689327575997314, -1.5631264228554684, -1.6720390587953489, -1.5232429223704418, 1.650563327764797, 2.9943304979527716], 0.5, 0.5, 0.008, 0.2, 100)

2025-07-07 17:05:56,915 - gym_custom_envs_real_ur_drivers_URBasic_realTimeClientEvent - INFO - Program send to Robot:
servoj([-0.053689327575997314, -1.5631264228554684, -1.6720390587953489, -1.5232429223704418, 1.650563327764949, 2.9943304979527716], 0.5, 0.5, 0.008, 0.2, 100)

2025-07-07 17:05:56,927 - gym_custom_envs_real_ur_drivers_URBasic_realTimeClientEvent - INFO - Program send to Robot:
servoj([-0.053689327575997314, -1.5631264228554684, -1.6720390587953489, -1.5232429223704418, 1.6520819687449562, 2.9943304979527716], 0.5, 0.5, 0.008, 0.2, 100)

2025-07-07 17:05:56,939 - gym_custom_envs_real_ur_drivers_URBasic_realTimeClientEvent - INFO - Program send to Robot:
servoj([-0.053689327575997314, -1.5631264228554684, -1.6720390587953489, -1.5232429223704418, 1.6520971551547563, 2.9943304979527716], 0.5, 0.5, 0.008, 0.2, 100)

2025-07-07 17:05:56,953 - gym_custom_envs_real_ur_drivers_URBasic_realTimeClientEvent - INFO - Program send to Robot:
servoj([-0.053689327575997314, -1.5631264228554684, -1.6720390587953489, -1.5232429223704418, 1.6520973070188543, 2.9943304979527716], 0.5, 0.5, 0.008, 0.2, 100)

2025-07-07 17:05:56,955 - gym_custom_envs_real_ur_drivers_URBasic_realTimeClientEvent - INFO - Program send to Robot:
servoj([-0.053689327575997314, -1.5631264228554684, -1.6720390587953489, -1.5232429223704418, 1.6520973085374953, 2.9943304979527716], 0.5, 0.5, 0.008, 0.2, 100)

2025-07-07 17:05:56,976 - gym_custom_envs_real_ur_drivers_URBasic_realTimeClientEvent - INFO - Program send to Robot:
servoj([-0.053689327575997314, -1.5631264228554684, -1.6720390587953489, -1.5232429223704418, 1.6520973085526818, 2.9943304979527716], 0.5, 0.5, 0.008, 0.2, 100)

2025-07-07 17:05:56,979 - gym_custom_envs_real_ur_drivers_URBasic_realTimeClientEvent - INFO - Program send to Robot:
servoj([-0.053689327575997314, -1.5631264228554684, -1.6720390587953489, -1.5232429223704418, 1.6520973085528337, 2.9943304979527716], 0.5, 0.5, 0.008, 0.2, 100)

2025-07-07 17:05:57,000 - gym_custom_envs_real_ur_drivers_URBasic_realTimeClientEvent - INFO - Program send to Robot:
servoj([-0.053689327575997314, -1.5631264228554684, -1.6720390587953489, -1.5232429223704418, 1.653615949532842, 2.9943304979527716], 0.5, 0.5, 0.008, 0.2, 100)

2025-07-07 17:05:57,003 - gym_custom_envs_real_ur_drivers_URBasic_realTimeClientEvent - INFO - Program send to Robot:
servoj([-0.053689327575997314, -1.5631264228554684, -1.6720390587953489, -1.5232429223704418, 1.653631135942642, 2.9943304979527716], 0.5, 0.5, 0.008, 0.2, 100)

2025-07-07 17:05:57,024 - gym_custom_envs_real_ur_drivers_URBasic_realTimeClientEvent - INFO - Program send to Robot:
servoj([-0.053689327575997314, -1.5631264228554684, -1.6720390587953489, -1.5232429223704418, 1.655149928786747, 2.9943304979527716], 0.5, 0.5, 0.008, 0.2, 100)

2025-07-07 17:05:57,027 - gym_custom_envs_real_ur_drivers_URBasic_realTimeClientEvent - INFO - Program send to Robot:
servoj([-0.053689327575997314, -1.5631264228554684, -1.6720390587953489, -1.5232429223704418, 1.6551651167151882, 2.9943304979527716], 0.5, 0.5, 0.008, 0.2, 100)

2025-07-07 17:05:57,049 - gym_custom_envs_real_ur_drivers_URBasic_realTimeClientEvent - INFO - Program send to Robot:
servoj([-0.053689327575997314, -1.5631264228554684, -1.6720390587953489, -1.5232429223704418, 1.6551652685944727, 2.9943304979527716], 0.5, 0.5, 0.008, 0.2, 100)

2025-07-07 17:05:57,060 - gym_custom_envs_real_ur_drivers_URBasic_realTimeClientEvent - INFO - Program send to Robot:
servoj([-0.053689327575997314, -1.5631264228554684, -1.6720390587953489, -1.5232429223704418, 1.6551652701132655, 2.995849138932778], 0.5, 0.5, 0.008, 0.2, 100)

2025-07-07 17:05:57,072 - gym_custom_envs_real_ur_drivers_URBasic_realTimeClientEvent - INFO - Program send to Robot:
servoj([-0.053689327575997314, -1.5631264228554684, -1.6720390587953489, -1.5232429223704418, 1.6551652701284534, 2.995864325342578], 0.5, 0.5, 0.008, 0.2, 100)

2025-07-07 17:05:57,076 - gym_custom_envs_real_ur_drivers_URBasic_realTimeClientEvent - INFO - Program send to Robot:
servoj([-0.053689327575997314, -1.5631264228554684, -1.6720390587953489, -1.5232429223704418, 1.6551652701286053, 2.995864477206676], 0.5, 0.5, 0.008, 0.2, 100)

2025-07-07 17:05:57,095 - gym_custom_envs_real_ur_drivers_URBasic_realTimeClientEvent - INFO - Program send to Robot:
servoj([-0.053689327575997314, -1.5616077818754615, -1.6720390587953489, -1.5232429223704418, 1.6551652701286068, 2.994345837745311], 0.5, 0.5, 0.008, 0.2, 100)

2025-07-07 17:05:57,100 - gym_custom_envs_real_ur_drivers_URBasic_realTimeClientEvent - INFO - Program send to Robot:
servoj([-0.053689327575997314, -1.5615925954656613, -1.6720390587953489, -1.5232429223704418, 1.6551652701286068, 2.994330651350697], 0.5, 0.5, 0.008, 0.2, 100)

2025-07-07 17:05:57,119 - gym_custom_envs_real_ur_drivers_URBasic_realTimeClientEvent - INFO - Program send to Robot:
servoj([-0.053689327575997314, -1.5615924436015634, -1.6720390587953489, -1.5232429223704418, 1.6551652701286068, 2.995849140466757], 0.5, 0.5, 0.008, 0.2, 100)

2025-07-07 17:05:57,124 - gym_custom_envs_real_ur_drivers_URBasic_realTimeClientEvent - INFO - Program send to Robot:
servoj([-0.053689327575997314, -1.5615924420829224, -1.6720390587953489, -1.5232429223704418, 1.6551652701286068, 2.995864325357918], 0.5, 0.5, 0.008, 0.2, 100)

2025-07-07 17:05:57,144 - gym_custom_envs_real_ur_drivers_URBasic_realTimeClientEvent - INFO - Program send to Robot:
servoj([-0.053689327575997314, -1.5615924420677358, -1.6720390587953489, -1.5232429223704418, 1.6551652701286068, 2.9958644772068292], 0.5, 0.5, 0.008, 0.2, 100)

2025-07-07 17:05:57,148 - gym_custom_envs_real_ur_drivers_URBasic_realTimeClientEvent - INFO - Program send to Robot:
servoj([-0.053689327575997314, -1.561592442067584, -1.6720390587953489, -1.5217242813904348, 1.6551652701286068, 2.9958644787253186], 0.5, 0.5, 0.008, 0.2, 100)

2025-07-07 17:05:57,168 - gym_custom_envs_real_ur_drivers_URBasic_realTimeClientEvent - INFO - Program send to Robot:
servoj([-0.053689327575997314, -1.5615924420675826, -1.6720390587953489, -1.5217090949806347, 1.6551652701286068, 2.9958644787405033], 0.5, 0.5, 0.008, 0.2, 100)

2025-07-07 17:05:57,172 - gym_custom_envs_real_ur_drivers_URBasic_realTimeClientEvent - INFO - Program send to Robot:
servoj([-0.053689327575997314, -1.5615924420675826, -1.6720390587953489, -1.5217089431165367, 1.6551652701286068, 2.995864478740655], 0.5, 0.5, 0.008, 0.2, 100)

2025-07-07 17:05:57,192 - gym_custom_envs_real_ur_drivers_URBasic_realTimeClientEvent - INFO - Program send to Robot:
servoj([-0.053689327575997314, -1.5615924420675826, -1.6720390587953489, -1.5232275825779027, 1.6566839111086138, 2.995864478740657], 0.5, 0.5, 0.008, 0.2, 100)

2025-07-07 17:05:57,196 - gym_custom_envs_real_ur_drivers_URBasic_realTimeClientEvent - INFO - Program send to Robot:
servoj([-0.053689327575997314, -1.5615924420675826, -1.6720390587953489, -1.5232427689725163, 1.656699097518414, 2.995864478740657], 0.5, 0.5, 0.008, 0.2, 100)

2025-07-07 17:05:57,215 - gym_custom_envs_real_ur_drivers_URBasic_realTimeClientEvent - INFO - Program send to Robot:
servoj([-0.053689327575997314, -1.5615924420675826, -1.6720390587953489, -1.5232429208364624, 1.656699249382512, 2.995864478740657], 0.5, 0.5, 0.008, 0.2, 100)

2025-07-07 17:05:57,219 - gym_custom_envs_real_ur_drivers_URBasic_realTimeClientEvent - INFO - Program send to Robot:
servoj([-0.053689327575997314, -1.5615924420675826, -1.6720390587953489, -1.5232429223551018, 1.6566992509011529, 2.995864478740657], 0.5, 0.5, 0.008, 0.2, 100)

2025-07-07 17:05:57,228 - gym_custom_envs_real_ur_drivers_URBasic_realTimeClientEvent - INFO - Program send to Robot:
servoj([-0.053689327575997314, -1.5615924420675826, -1.6720390587953489, -1.5232429223702884, 1.6566992509163392, 2.995864478740657], 0.5, 0.5, 0.008, 0.2, 100)

2025-07-07 17:05:57,243 - gym_custom_envs_real_ur_drivers_URBasic_realTimeClientEvent - INFO - Program send to Robot:
servoj([-0.053689327575997314, -1.5615924420675826, -1.6720390587953489, -1.5232429223704402, 1.656699250916491, 2.995864478740657], 0.5, 0.5, 0.008, 0.2, 100)

2025-07-07 17:05:57,251 - gym_custom_envs_real_ur_drivers_URBasic_realTimeClientEvent - INFO - Program send to Robot:
servoj([-0.05217068659599081, -1.5615924420675826, -1.6720390587953489, -1.5232429223704418, 1.6582178918964996, 2.995864478740657], 0.5, 0.5, 0.008, 0.2, 100)

2025-07-07 17:05:57,263 - gym_custom_envs_real_ur_drivers_URBasic_realTimeClientEvent - INFO - Program send to Robot:
servoj([-0.05215550018619075, -1.5615924420675826, -1.6720390587953489, -1.5232429223704418, 1.6582330783062997, 2.995864478740657], 0.5, 0.5, 0.008, 0.2, 100)

2025-07-07 17:05:57,276 - gym_custom_envs_real_ur_drivers_URBasic_realTimeClientEvent - INFO - Program send to Robot:
servoj([-0.052155348322092746, -1.5615924420675826, -1.6720390587953489, -1.5232429223704418, 1.6597518711504038, 2.995864478740657], 0.5, 0.5, 0.008, 0.2, 100)

2025-07-07 17:05:57,288 - gym_custom_envs_real_ur_drivers_URBasic_realTimeClientEvent - INFO - Program send to Robot:
servoj([-0.05215534680345177, -1.5615924420675826, -1.6720390587953489, -1.5232429223704418, 1.6597670590788447, 2.995864478740657], 0.5, 0.5, 0.008, 0.2, 100)

2025-07-07 17:05:57,292 - gym_custom_envs_real_ur_drivers_URBasic_realTimeClientEvent - INFO - Program send to Robot:
servoj([-0.052155346788265354, -1.5615924420675826, -1.6720390587953489, -1.5232429223704418, 1.6597672109581292, 2.995864478740657], 0.5, 0.5, 0.008, 0.2, 100)

2025-07-07 17:05:57,313 - gym_custom_envs_real_ur_drivers_URBasic_realTimeClientEvent - INFO - Program send to Robot:
servoj([-0.052155346788113496, -1.5615924420675826, -1.6720390587953489, -1.5232429223704418, 1.659767212476922, 2.997383119720664], 0.5, 0.5, 0.008, 0.2, 100)

2025-07-07 17:05:57,324 - gym_custom_envs_real_ur_drivers_URBasic_realTimeClientEvent - INFO - Program send to Robot:
servoj([-0.05215534678811198, -1.5615924420675826, -1.6720390587953489, -1.5232429223704418, 1.65976721249211, 2.997398306130464], 0.5, 0.5, 0.008, 0.2, 100)

2025-07-07 17:05:57,336 - gym_custom_envs_real_ur_drivers_URBasic_realTimeClientEvent - INFO - Program send to Robot:
servoj([-0.052155346788111956, -1.5615924420675826, -1.6720390587953489, -1.5232429223704418, 1.6597672124922618, 2.9973984579945623], 0.5, 0.5, 0.008, 0.2, 100)

2025-07-07 17:05:57,339 - gym_custom_envs_real_ur_drivers_URBasic_realTimeClientEvent - INFO - Program send to Robot:
servoj([-0.052155346788111956, -1.5615924420675826, -1.6720390587953489, -1.5232429223704418, 1.6612858534722703, 2.997398459513203], 0.5, 0.5, 0.008, 0.2, 100)

2025-07-07 17:05:57,360 - gym_custom_envs_real_ur_drivers_URBasic_realTimeClientEvent - INFO - Program send to Robot:
servoj([-0.052155346788111956, -1.5615924420675826, -1.6720390587953489, -1.5232429223704418, 1.6613010398820705, 2.9973984595283896], 0.5, 0.5, 0.008, 0.2, 100)

2025-07-07 17:05:57,364 - gym_custom_envs_real_ur_drivers_URBasic_realTimeClientEvent - INFO - Program send to Robot:
servoj([-0.052155346788111956, -1.5615924420675826, -1.6720390587953489, -1.5232429223704418, 1.6613011917461684, 2.9973984595285414], 0.5, 0.5, 0.008, 0.2, 100)

2025-07-07 17:05:57,382 - gym_custom_envs_real_ur_drivers_URBasic_realTimeClientEvent - INFO - Program send to Robot:
servoj([-0.052155346788111956, -1.5615924420675826, -1.6720390587953489, -1.5232429223704418, 1.6628198342448162, 2.997398459528543], 0.5, 0.5, 0.008, 0.2, 100)

2025-07-07 17:05:57,388 - gym_custom_envs_real_ur_drivers_URBasic_realTimeClientEvent - INFO - Program send to Robot:
servoj([-0.052155346788111956, -1.5615924420675826, -1.6720390587953489, -1.5232429223704418, 1.6628350206698026, 2.997398459528543], 0.5, 0.5, 0.008, 0.2, 100)

2025-07-07 17:05:57,395 - gym_custom_envs_real_ur_drivers_URBasic_realTimeClientEvent - INFO - Program send to Robot:
servoj([-0.052155346788111956, -1.5615924420675826, -1.6720390587953489, -1.5232429223704418, 1.6628351725340524, 2.997398459528543], 0.5, 0.5, 0.008, 0.2, 100)

2025-07-07 17:05:57,411 - gym_custom_envs_real_ur_drivers_URBasic_realTimeClientEvent - INFO - Program send to Robot:
servoj([-0.052155346788111956, -1.5615924420675826, -1.6720390587953489, -1.5232429223704418, 1.665872456012709, 2.997398459528543], 0.5, 0.5, 0.008, 0.2, 100)

2025-07-07 17:05:57,419 - gym_custom_envs_real_ur_drivers_URBasic_realTimeClientEvent - INFO - Program send to Robot:
servoj([-0.052155346788111956, -1.5615924420675826, -1.6720390587953489, -1.5232429223704418, 1.6659028288474955, 2.997398459528543], 0.5, 0.5, 0.008, 0.2, 100)

2025-07-07 17:05:57,431 - gym_custom_envs_real_ur_drivers_URBasic_realTimeClientEvent - INFO - Program send to Robot:
servoj([-0.052155346788111956, -1.5615924420675826, -1.6720390587953489, -1.5232429223704418, 1.6659031325758433, 2.997398459528543], 0.5, 0.5, 0.008, 0.2, 100)

2025-07-07 17:05:57,443 - gym_custom_envs_real_ur_drivers_URBasic_realTimeClientEvent - INFO - Program send to Robot:
servoj([-0.052155346788111956, -1.560073801087576, -1.6720390587953489, -1.5232429223704418, 1.6674217765931338, 2.997398459528543], 0.5, 0.5, 0.008, 0.2, 100)

2025-07-07 17:05:57,454 - gym_custom_envs_real_ur_drivers_URBasic_realTimeClientEvent - INFO - Program send to Robot:
servoj([-0.052155346788111956, -1.560058614677776, -1.6720390587953489, -1.5232429223704418, 1.6674369630333068, 2.997398459528543], 0.5, 0.5, 0.008, 0.2, 100)

2025-07-07 17:05:57,460 - gym_custom_envs_real_ur_drivers_URBasic_realTimeClientEvent - INFO - Program send to Robot:
servoj([-0.052155346788111956, -1.560058462813678, -1.6720390587953489, -1.5232429223704418, 1.6674371148977085, 2.997398459528543], 0.5, 0.5, 0.008, 0.2, 100)

2025-07-07 17:05:57,468 - gym_custom_envs_real_ur_drivers_URBasic_realTimeClientEvent - INFO - Program send to Robot:
servoj([-0.052155346788111956, -1.560058461295037, -1.6720390587953489, -1.5232429223704418, 1.6674371164163526, 2.997398459528543], 0.5, 0.5, 0.008, 0.2, 100)

2025-07-07 17:05:57,486 - gym_custom_envs_real_ur_drivers_URBasic_realTimeClientEvent - INFO - Program send to Robot:
servoj([-0.052155346788111956, -1.5600584612798505, -1.6720390587953489, -1.5232429223704418, 1.667437116431539, 2.997398459528543], 0.5, 0.5, 0.008, 0.2, 100)

2025-07-07 17:05:57,492 - gym_custom_envs_real_ur_drivers_URBasic_realTimeClientEvent - INFO - Program send to Robot:
servoj([-0.052155346788111956, -1.5600584612796986, -1.6720390587953489, -1.5232429223704418, 1.6674371164316908, 2.997398459528543], 0.5, 0.5, 0.008, 0.2, 100)

2025-07-07 17:05:57,502 - gym_custom_envs_real_ur_drivers_URBasic_realTimeClientEvent - INFO - Program send to Robot:
servoj([-0.052155346788111956, -1.5585398202996903, -1.6720390587953489, -1.5232429223704418, 1.6674371164316923, 2.997398459528543], 0.5, 0.5, 0.008, 0.2, 100)

2025-07-07 17:05:57,515 - gym_custom_envs_real_ur_drivers_URBasic_realTimeClientEvent - INFO - Program send to Robot:
servoj([-0.052155346788111956, -1.5585246338898904, -1.6720390587953489, -1.5232429223704418, 1.6674371164316923, 2.997398459528543], 0.5, 0.5, 0.008, 0.2, 100)

2025-07-07 17:05:57,525 - gym_custom_envs_real_ur_drivers_URBasic_realTimeClientEvent - INFO - Program send to Robot:
servoj([-0.052155346788111956, -1.5585244820257924, -1.6720390587953489, -1.5232429223704418, 1.6674371164316923, 2.997398459528543], 0.5, 0.5, 0.008, 0.2, 100)

2025-07-07 17:05:57,534 - gym_custom_envs_real_ur_drivers_URBasic_realTimeClientEvent - INFO - Program send to Robot:
servoj([-0.052155346788111956, -1.5570058395271447, -1.6720390587953489, -1.5232429223704418, 1.6674371164316923, 2.997398459528543], 0.5, 0.5, 0.008, 0.2, 100)

2025-07-07 17:05:57,539 - gym_custom_envs_real_ur_drivers_URBasic_realTimeClientEvent - INFO - Program send to Robot:
servoj([-0.052155346788111956, -1.556990653102158, -1.6720390587953489, -1.5232429223704418, 1.6674371164316923, 2.997398459528543], 0.5, 0.5, 0.008, 0.2, 100)

2025-07-07 17:05:57,560 - gym_custom_envs_real_ur_drivers_URBasic_realTimeClientEvent - INFO - Program send to Robot:
servoj([-0.052155346788111956, -1.5569905012379082, -1.6720390587953489, -1.5232429223704418, 1.6674371164316923, 2.997398459528543], 0.5, 0.5, 0.008, 0.2, 100)

2025-07-07 17:05:57,563 - gym_custom_envs_real_ur_drivers_URBasic_realTimeClientEvent - INFO - Program send to Robot:
servoj([-0.052155346788111956, -1.5554718587392589, -1.6720390587953489, -1.5232429223704418, 1.6674371164316923, 2.997398459528543], 0.5, 0.5, 0.008, 0.2, 100)

2025-07-07 17:05:57,579 - gym_custom_envs_real_ur_drivers_URBasic_realTimeClientEvent - INFO - Program send to Robot:
servoj([-0.052155346788111956, -1.5554566723142722, -1.6720390587953489, -1.5232429223704418, 1.6674371164316923, 2.997398459528543], 0.5, 0.5, 0.008, 0.2, 100)

2025-07-07 17:05:57,587 - gym_custom_envs_real_ur_drivers_URBasic_realTimeClientEvent - INFO - Program send to Robot:
servoj([-0.052155346788111956, -1.5554565204500224, -1.6720390587953489, -1.5232429223704418, 1.6674371164316923, 2.997398459528543], 0.5, 0.5, 0.008, 0.2, 100)

2025-07-07 17:05:57,599 - gym_custom_envs_real_ur_drivers_URBasic_realTimeClientEvent - INFO - Program send to Robot:
servoj([-0.052155346788111956, -1.5554565189313798, -1.6720390587953489, -1.5232429223704418, 1.6674371164316923, 2.997398459528543], 0.5, 0.5, 0.008, 0.2, 100)

2025-07-07 17:05:57,612 - gym_custom_envs_real_ur_drivers_URBasic_realTimeClientEvent - INFO - Program send to Robot:
servoj([-0.052155346788111956, -1.5554565189161935, -1.6720390587953489, -1.5232429223704418, 1.6674371164316923, 2.997398459528543], 0.5, 0.5, 0.008, 0.2, 100)

2025-07-07 17:05:57,622 - gym_custom_envs_real_ur_drivers_URBasic_realTimeClientEvent - INFO - Program send to Robot:
servoj([-0.052155346788111956, -1.5554565189160416, -1.6720390587953489, -1.5232429223704418, 1.6674371164316923, 2.997398459528543], 0.5, 0.5, 0.008, 0.2, 100)

2025-07-07 17:05:57,628 - gym_custom_envs_real_ur_drivers_URBasic_realTimeClientEvent - INFO - Program send to Robot:
servoj([-0.052155346788111956, -1.55545651891604, -1.6720390587953489, -1.5232429223704418, 1.6674371164316923, 2.997398459528543], 0.5, 0.5, 0.008, 0.2, 100)

2025-07-07 17:05:57,636 - gym_custom_envs_real_ur_drivers_URBasic_realTimeClientEvent - INFO - Program send to Robot:
servoj([-0.052155346788111956, -1.55545651891604, -1.6720390587953489, -1.5232429223704418, 1.6674371164316923, 2.997398459528543], 0.5, 0.5, 0.008, 0.2, 100)

2025-07-07 17:05:57,652 - gym_custom_envs_real_ur_drivers_URBasic_realTimeClientEvent - INFO - Program send to Robot:
servoj([-0.052155346788111956, -1.55545651891604, -1.6720390587953489, -1.5232429223704418, 1.6674371164316923, 2.997398459528543], 0.5, 0.5, 0.008, 0.2, 100)

2025-07-07 17:05:57,660 - gym_custom_envs_real_ur_drivers_URBasic_realTimeClientEvent - INFO - Program send to Robot:
servoj([-0.052155346788111956, -1.55545651891604, -1.6720390587953489, -1.5232429223704418, 1.6674371164316923, 2.997398459528543], 0.5, 0.5, 0.008, 0.2, 100)

2025-07-07 17:05:57,671 - gym_custom_envs_real_ur_drivers_URBasic_realTimeClientEvent - INFO - Program send to Robot:
servoj([-0.052155346788111956, -1.55545651891604, -1.6720390587953489, -1.5232429223704418, 1.6674371164316923, 2.997398459528543], 0.5, 0.5, 0.008, 0.2, 100)

2025-07-07 17:05:57,685 - gym_custom_envs_real_ur_drivers_URBasic_realTimeClientEvent - INFO - Program send to Robot:
servoj([-0.052155346788111956, -1.55545651891604, -1.6720390587953489, -1.5232429223704418, 1.6674371164316923, 2.997398459528543], 0.5, 0.5, 0.008, 0.2, 100)

2025-07-07 17:05:57,696 - gym_custom_envs_real_ur_drivers_URBasic_realTimeClientEvent - INFO - Program send to Robot:
servoj([-0.052155346788111956, -1.55545651891604, -1.6720390587953489, -1.5232429223704418, 1.6674371164316923, 2.997398459528543], 0.5, 0.5, 0.008, 0.2, 100)

2025-07-07 17:05:57,700 - gym_custom_envs_real_ur_drivers_URBasic_realTimeClientEvent - INFO - Program send to Robot:
servoj([-0.052155346788111956, -1.55545651891604, -1.6720390587953489, -1.5232429223704418, 1.6674371164316923, 2.997398459528543], 0.5, 0.5, 0.008, 0.2, 100)

2025-07-07 17:05:57,719 - gym_custom_envs_real_ur_drivers_URBasic_realTimeClientEvent - INFO - Program send to Robot:
servoj([-0.052155346788111956, -1.55545651891604, -1.6720390587953489, -1.5232429223704418, 1.6674371164316923, 2.997398459528543], 0.5, 0.5, 0.008, 0.2, 100)

2025-07-07 17:05:57,724 - gym_custom_envs_real_ur_drivers_URBasic_realTimeClientEvent - INFO - Program send to Robot:
servoj([-0.052155346788111956, -1.55545651891604, -1.6720390587953489, -1.5232429223704418, 1.6674371164316923, 2.9989171005085495], 0.5, 0.5, 0.008, 0.2, 100)

2025-07-07 17:05:57,742 - gym_custom_envs_real_ur_drivers_URBasic_realTimeClientEvent - INFO - Program send to Robot:
servoj([-0.052155346788111956, -1.55545651891604, -1.6720390587953489, -1.5232429223704418, 1.6674371164316923, 2.99893228691835], 0.5, 0.5, 0.008, 0.2, 100)

2025-07-07 17:05:57,750 - gym_custom_envs_real_ur_drivers_URBasic_realTimeClientEvent - INFO - Program send to Robot:
servoj([-0.052155346788111956, -1.55545651891604, -1.6720390587953489, -1.5232429223704418, 1.6674371164316923, 2.9989324387824476], 0.5, 0.5, 0.008, 0.2, 100)

2025-07-07 17:05:57,755 - gym_custom_envs_real_ur_drivers_URBasic_realTimeClientEvent - INFO - Program send to Robot:
servoj([-0.052155346788111956, -1.55545651891604, -1.6720390587953489, -1.5232429223704418, 1.6674371164316923, 2.998932440301089], 0.5, 0.5, 0.008, 0.2, 100)

2025-07-07 17:05:57,774 - gym_custom_envs_real_ur_drivers_URBasic_realTimeClientEvent - INFO - Program send to Robot:
servoj([-0.052155346788111956, -1.55545651891604, -1.6720390587953489, -1.5232429223704418, 1.6674371164316923, 2.998932440316275], 0.5, 0.5, 0.008, 0.2, 100)

2025-07-07 17:05:57,780 - gym_custom_envs_real_ur_drivers_URBasic_realTimeClientEvent - INFO - Program send to Robot:
servoj([-0.052155346788111956, -1.55545651891604, -1.6720390587953489, -1.5232429223704418, 1.6674371164316923, 2.998932440316427], 0.5, 0.5, 0.008, 0.2, 100)

2025-07-07 17:05:57,789 - gym_custom_envs_real_ur_drivers_URBasic_realTimeClientEvent - INFO - Program send to Robot:
servoj([-0.052155346788111956, -1.55545651891604, -1.6720390587953489, -1.5232429223704418, 1.6674371164316923, 2.9989324403164286], 0.5, 0.5, 0.008, 0.2, 100)

2025-07-07 17:05:57,803 - gym_custom_envs_real_ur_drivers_URBasic_realTimeClientEvent - INFO - Program send to Robot:
servoj([-0.052155346788111956, -1.55545651891604, -1.6720390587953489, -1.5232429223704418, 1.6674371164316923, 2.9989324403164286], 0.5, 0.5, 0.008, 0.2, 100)

2025-07-07 17:05:57,815 - gym_custom_envs_real_ur_drivers_URBasic_realTimeClientEvent - INFO - Program send to Robot:
servoj([-0.052155346788111956, -1.55545651891604, -1.6720390587953489, -1.5232429223704418, 1.6674371164316923, 2.9989324403164286], 0.5, 0.5, 0.008, 0.2, 100)

2025-07-07 17:05:57,819 - gym_custom_envs_real_ur_drivers_URBasic_realTimeClientEvent - INFO - Program send to Robot:
servoj([-0.052155346788111956, -1.55545651891604, -1.6720390587953489, -1.5232429223704418, 1.6674371164316923, 2.9989324403164286], 0.5, 0.5, 0.008, 0.2, 100)

2025-07-07 17:05:57,828 - gym_custom_envs_real_ur_drivers_URBasic_realTimeClientEvent - INFO - Program send to Robot:
servoj([-0.052155346788111956, -1.55545651891604, -1.6720390587953489, -1.5232429223704418, 1.6674371164316923, 2.9989324403164286], 0.5, 0.5, 0.008, 0.2, 100)

2025-07-07 17:05:57,846 - gym_custom_envs_real_ur_drivers_URBasic_realTimeClientEvent - INFO - Program send to Robot:
servoj([-0.052155346788111956, -1.55545651891604, -1.6720390587953489, -1.5232429223704418, 1.6674371164316923, 2.9989324403164286], 0.5, 0.5, 0.008, 0.2, 100)

2025-07-07 17:05:57,850 - gym_custom_envs_real_ur_drivers_URBasic_rtdeEvent - INFO - Total packages: 1000
2025-07-07 17:05:57,852 - gym_custom_envs_real_ur_drivers_URBasic_realTimeClientEvent - INFO - Program send to Robot:
servoj([-0.052155346788111956, -1.55545651891604, -1.6720390587953489, -1.5232429223704418, 1.6674371164316923, 2.997413799336422], 0.5, 0.5, 0.008, 0.2, 100)

2025-07-07 17:05:57,862 - gym_custom_envs_real_ur_drivers_URBasic_realTimeClientEvent - INFO - Program send to Robot:
servoj([-0.052155346788111956, -1.55545651891604, -1.6720390587953489, -1.5232429223704418, 1.6674371164316923, 2.997398612926622], 0.5, 0.5, 0.008, 0.2, 100)

2025-07-07 17:05:57,877 - gym_custom_envs_real_ur_drivers_URBasic_realTimeClientEvent - INFO - Program send to Robot:
servoj([-0.052155346788111956, -1.55545651891604, -1.6720390587953489, -1.5232429223704418, 1.6674371164316923, 2.9973984610625237], 0.5, 0.5, 0.008, 0.2, 100)

2025-07-07 17:05:57,885 - gym_custom_envs_real_ur_drivers_URBasic_realTimeClientEvent - INFO - Program send to Robot:
servoj([-0.052155346788111956, -1.55545651891604, -1.6720390587953489, -1.5232429223704418, 1.6674371164316923, 2.9989171005238893], 0.5, 0.5, 0.008, 0.2, 100)

2025-07-07 17:05:57,892 - gym_custom_envs_real_ur_drivers_URBasic_realTimeClientEvent - INFO - Program send to Robot:
servoj([-0.052155346788111956, -1.55545651891604, -1.6720390587953489, -1.5232429223704418, 1.6674371164316923, 2.998932286918503], 0.5, 0.5, 0.008, 0.2, 100)

2025-07-07 17:05:57,900 - gym_custom_envs_real_ur_drivers_URBasic_realTimeClientEvent - INFO - Program send to Robot:
servoj([-0.052155346788111956, -1.55545651891604, -1.6720390587953489, -1.5232429223704418, 1.6674371164316923, 2.9989324387824494], 0.5, 0.5, 0.008, 0.2, 100)

2025-07-07 17:05:57,916 - gym_custom_envs_real_ur_drivers_URBasic_realTimeClientEvent - INFO - Program send to Robot:
servoj([-0.05063670580810501, -1.55545651891604, -1.6720390587953489, -1.5232429223704418, 1.6674371164316923, 2.998932440301089], 0.5, 0.5, 0.008, 0.2, 100)

2025-07-07 17:05:57,923 - gym_custom_envs_real_ur_drivers_URBasic_realTimeClientEvent - INFO - Program send to Robot:
servoj([-0.05062151939830494, -1.55545651891604, -1.6720390587953489, -1.5232429223704418, 1.6674371164316923, 2.998932440316275], 0.5, 0.5, 0.008, 0.2, 100)

2025-07-07 17:05:57,932 - gym_custom_envs_real_ur_drivers_URBasic_realTimeClientEvent - INFO - Program send to Robot:
servoj([-0.05062136753420694, -1.55545651891604, -1.6720390587953489, -1.5232429223704418, 1.6674371164316923, 2.998932440316427], 0.5, 0.5, 0.008, 0.2, 100)

2025-07-07 17:05:57,947 - gym_custom_envs_real_ur_drivers_URBasic_realTimeClientEvent - INFO - Program send to Robot:
servoj([-0.04910272503555902, -1.55545651891604, -1.6720390587953489, -1.5232429223704418, 1.6689557574116984, 2.9989324403164286], 0.5, 0.5, 0.008, 0.2, 100)

2025-07-07 17:05:57,958 - gym_custom_envs_real_ur_drivers_URBasic_realTimeClientEvent - INFO - Program send to Robot:
servoj([-0.04908753861057254, -1.55545651891604, -1.6720390587953489, -1.5232429223704418, 1.6689709438214986, 2.9989324403164286], 0.5, 0.5, 0.008, 0.2, 100)

2025-07-07 17:05:57,966 - gym_custom_envs_real_ur_drivers_URBasic_realTimeClientEvent - INFO - Program send to Robot:
servoj([-0.049087386746322674, -1.55545651891604, -1.6720390587953489, -1.5232429223704418, 1.6689710956855965, 2.9989324403164286], 0.5, 0.5, 0.008, 0.2, 100)

2025-07-07 17:05:57,971 - gym_custom_envs_real_ur_drivers_URBasic_realTimeClientEvent - INFO - Program send to Robot:
servoj([-0.04908738522768018, -1.55545651891604, -1.6720390587953489, -1.5232429223704418, 1.6689710972042375, 2.9989324403164286], 0.5, 0.5, 0.008, 0.2, 100)

2025-07-07 17:05:57,990 - gym_custom_envs_real_ur_drivers_URBasic_realTimeClientEvent - INFO - Program send to Robot:
servoj([-0.04908738521249375, -1.55545651891604, -1.6720390587953489, -1.5232429223704418, 1.6689710972194238, 2.9989324403164286], 0.5, 0.5, 0.008, 0.2, 100)

2025-07-07 17:05:57,995 - gym_custom_envs_real_ur_drivers_URBasic_realTimeClientEvent - INFO - Program send to Robot:
servoj([-0.049087385212341884, -1.55545651891604, -1.6720390587953489, -1.5232429223704418, 1.6689710972195757, 2.9989324403164286], 0.5, 0.5, 0.008, 0.2, 100)

2025-07-07 17:05:58,006 - gym_custom_envs_real_ur_drivers_URBasic_realTimeClientEvent - INFO - Program send to Robot:
servoj([-0.049087385212340365, -1.55545651891604, -1.6720390587953489, -1.5232429223704418, 1.6689710972195773, 2.9989324403164286], 0.5, 0.5, 0.008, 0.2, 100)

2025-07-07 17:05:58,020 - gym_custom_envs_real_ur_drivers_URBasic_realTimeClientEvent - INFO - Program send to Robot:
servoj([-0.04756874423233384, -1.55545651891604, -1.6720390587953489, -1.5232429223704418, 1.672008379179591, 2.9989324403164286], 0.5, 0.5, 0.008, 0.2, 100)

2025-07-07 17:05:58,030 - gym_custom_envs_real_ur_drivers_URBasic_realTimeClientEvent - INFO - Program send to Robot:
servoj([-0.04755355782253378, -1.55545651891604, -1.6720390587953489, -1.5232429223704418, 1.6720387519991913, 2.9989324403164286], 0.5, 0.5, 0.008, 0.2, 100)

2025-07-07 17:05:58,039 - gym_custom_envs_real_ur_drivers_URBasic_realTimeClientEvent - INFO - Program send to Robot:
servoj([-0.047553405958435775, -1.55545651891604, -1.6720390587953489, -1.5232429223704418, 1.6720390557273872, 2.9989324403164286], 0.5, 0.5, 0.008, 0.2, 100)

2025-07-07 17:05:58,044 - gym_custom_envs_real_ur_drivers_URBasic_realTimeClientEvent - INFO - Program send to Robot:
servoj([-0.0475534044397948, -1.55545651891604, -1.6720390587953489, -1.5232429223704418, 1.6750763407246831, 2.9989324403164286], 0.5, 0.5, 0.008, 0.2, 100)

2025-07-07 17:05:58,059 - gym_custom_envs_real_ur_drivers_URBasic_realTimeClientEvent - INFO - Program send to Robot:
servoj([-0.04755340442460839, -1.55545651891604, -1.6720390587953489, -1.5232429223704418, 1.675106713574656, 2.9989324403164286], 0.5, 0.5, 0.008, 0.2, 100)

2025-07-07 17:05:58,067 - gym_custom_envs_real_ur_drivers_URBasic_realTimeClientEvent - INFO - Program send to Robot:
servoj([-0.047553404424456526, -1.55545651891604, -1.6720390587953489, -1.5232429223704418, 1.6751070173031557, 2.9989324403164286], 0.5, 0.5, 0.008, 0.2, 100)

2025-07-07 17:05:58,080 - gym_custom_envs_real_ur_drivers_URBasic_realTimeClientEvent - INFO - Program send to Robot:
servoj([-0.047553404424455006, -1.55545651891604, -1.6720390587953489, -1.5232429223704418, 1.6751070203404408, 2.9989324403164286], 0.5, 0.5, 0.008, 0.2, 100)

2025-07-07 17:05:58,092 - gym_custom_envs_real_ur_drivers_URBasic_realTimeClientEvent - INFO - Program send to Robot:
servoj([-0.04755340442445499, -1.55545651891604, -1.6720390587953489, -1.5232429223704418, 1.6751070203708136, 2.9989324403164286], 0.5, 0.5, 0.008, 0.2, 100)

2025-07-07 17:05:58,104 - gym_custom_envs_real_ur_drivers_URBasic_realTimeClientEvent - INFO - Program send to Robot:
servoj([-0.04755340442445499, -1.55545651891604, -1.6720390587953489, -1.5232429223704418, 1.6751070203711174, 2.9989324403164286], 0.5, 0.5, 0.008, 0.2, 100)

2025-07-07 17:05:58,107 - gym_custom_envs_real_ur_drivers_URBasic_realTimeClientEvent - INFO - Program send to Robot:
servoj([-0.04755340442445499, -1.55545651891604, -1.6720390587953489, -1.5232429223704418, 1.6751070203711205, 2.9989324403164286], 0.5, 0.5, 0.008, 0.2, 100)

2025-07-07 17:05:58,128 - gym_custom_envs_real_ur_drivers_URBasic_realTimeClientEvent - INFO - Program send to Robot:
servoj([-0.04755340442445499, -1.55545651891604, -1.6720390587953489, -1.5232429223704418, 1.6751070203711205, 2.9989324403164286], 0.5, 0.5, 0.008, 0.2, 100)

2025-07-07 17:05:58,131 - gym_custom_envs_real_ur_drivers_URBasic_realTimeClientEvent - INFO - Program send to Robot:
servoj([-0.04755340442445499, -1.55545651891604, -1.6720390587953489, -1.5232429223704418, 1.6751070203711205, 2.9989324403164286], 0.5, 0.5, 0.008, 0.2, 100)

2025-07-07 17:05:58,152 - gym_custom_envs_real_ur_drivers_URBasic_realTimeClientEvent - INFO - Program send to Robot:
servoj([-0.04755340442445499, -1.55545651891604, -1.6720390587953489, -1.5232429223704418, 1.6751070203711205, 2.9989324403164286], 0.5, 0.5, 0.008, 0.2, 100)

2025-07-07 17:05:58,155 - gym_custom_envs_real_ur_drivers_URBasic_realTimeClientEvent - INFO - Program send to Robot:
servoj([-0.04755340442445499, -1.55545651891604, -1.6720390587953489, -1.5232429223704418, 1.6751070203711205, 2.9989324403164286], 0.5, 0.5, 0.008, 0.2, 100)

2025-07-07 17:05:58,177 - gym_custom_envs_real_ur_drivers_URBasic_realTimeClientEvent - INFO - Program send to Robot:
servoj([-0.04755340442445499, -1.55545651891604, -1.6720390587953489, -1.5232429223704418, 1.6751070203711205, 2.9989324403164286], 0.5, 0.5, 0.008, 0.2, 100)

2025-07-07 17:05:58,188 - gym_custom_envs_real_ur_drivers_URBasic_realTimeClientEvent - INFO - Program send to Robot:
servoj([-0.04755340442445499, -1.55545651891604, -1.6720390587953489, -1.5232429223704418, 1.6751070203711205, 2.9989324403164286], 0.5, 0.5, 0.008, 0.2, 100)

2025-07-07 17:05:58,195 - gym_custom_envs_real_ur_drivers_URBasic_realTimeClientEvent - INFO - Program send to Robot:
servoj([-0.04755340442445499, -1.55545651891604, -1.6720390587953489, -1.5232429223704418, 1.6751070203711205, 2.9989324403164286], 0.5, 0.5, 0.008, 0.2, 100)

2025-07-07 17:05:58,203 - gym_custom_envs_real_ur_drivers_URBasic_realTimeClientEvent - INFO - Program send to Robot:
servoj([-0.04755340442445499, -1.55545651891604, -1.6720390587953489, -1.5232429223704418, 1.6751070203711205, 2.9989324403164286], 0.5, 0.5, 0.008, 0.2, 100)

2025-07-07 17:05:58,220 - gym_custom_envs_real_ur_drivers_URBasic_realTimeClientEvent - INFO - Program send to Robot:
servoj([-0.04755340442445499, -1.55545651891604, -1.6720390587953489, -1.5232429223704418, 1.6751070203711205, 2.9989324403164286], 0.5, 0.5, 0.008, 0.2, 100)

2025-07-07 17:05:58,227 - gym_custom_envs_real_ur_drivers_URBasic_realTimeClientEvent - INFO - Program send to Robot:
servoj([-0.04755340442445499, -1.55545651891604, -1.6720390587953489, -1.5232429223704418, 1.6751070203711205, 2.9989324403164286], 0.5, 0.5, 0.008, 0.2, 100)

2025-07-07 17:05:58,248 - gym_custom_envs_real_ur_drivers_URBasic_realTimeClientEvent - INFO - Program send to Robot:
servoj([-0.04755340442445499, -1.55545651891604, -1.6720390587953489, -1.5232429223704418, 1.6751070203711205, 2.9989324403164286], 0.5, 0.5, 0.008, 0.2, 100)

2025-07-07 17:05:58,251 - gym_custom_envs_real_ur_drivers_URBasic_realTimeClientEvent - INFO - Program send to Robot:
servoj([-0.04755340442445499, -1.55545651891604, -1.6720390587953489, -1.5232429223704418, 1.6751070203711205, 2.9989324403164286], 0.5, 0.5, 0.008, 0.2, 100)

2025-07-07 17:05:58,272 - gym_custom_envs_real_ur_drivers_URBasic_realTimeClientEvent - INFO - Program send to Robot:
servoj([-0.04755340442445499, -1.55545651891604, -1.6720390587953489, -1.5232429223704418, 1.6751070203711205, 2.9989324403164286], 0.5, 0.5, 0.008, 0.2, 100)

2025-07-07 17:05:58,275 - gym_custom_envs_real_ur_drivers_URBasic_realTimeClientEvent - INFO - Program send to Robot:
servoj([-0.04755340442445499, -1.55545651891604, -1.6720390587953489, -1.5232429223704418, 1.6751070203711205, 2.9989324403164286], 0.5, 0.5, 0.008, 0.2, 100)

2025-07-07 17:05:58,297 - gym_custom_envs_real_ur_drivers_URBasic_realTimeClientEvent - INFO - Program send to Robot:
servoj([-0.04755340442445499, -1.55545651891604, -1.6720390587953489, -1.5232429223704418, 1.6751070203711205, 2.9989324403164286], 0.5, 0.5, 0.008, 0.2, 100)

2025-07-07 17:05:58,299 - gym_custom_envs_real_ur_drivers_URBasic_realTimeClientEvent - INFO - Program send to Robot:
servoj([-0.04755340442445499, -1.55545651891604, -1.6720390587953489, -1.5232429223704418, 1.6751070203711205, 2.997413799336422], 0.5, 0.5, 0.008, 0.2, 100)

2025-07-07 17:05:58,315 - gym_custom_envs_real_ur_drivers_URBasic_realTimeClientEvent - INFO - Program send to Robot:
servoj([-0.04755340442445499, -1.55545651891604, -1.6720390587953489, -1.5232429223704418, 1.6751070203711205, 2.997398612926622], 0.5, 0.5, 0.008, 0.2, 100)

2025-07-07 17:05:58,323 - gym_custom_envs_real_ur_drivers_URBasic_realTimeClientEvent - INFO - Program send to Robot:
servoj([-0.04755340442445499, -1.55545651891604, -1.6720390587953489, -1.5232429223704418, 1.6751070203711205, 2.9973984610625237], 0.5, 0.5, 0.008, 0.2, 100)

2025-07-07 17:05:58,339 - gym_custom_envs_real_ur_drivers_URBasic_realTimeClientEvent - INFO - Program send to Robot:
servoj([-0.04755340442445499, -1.55545651891604, -1.6720390587953489, -1.5232429223704418, 1.6751070203711205, 2.9989171005238893], 0.5, 0.5, 0.008, 0.2, 100)

2025-07-07 17:05:58,347 - gym_custom_envs_real_ur_drivers_URBasic_realTimeClientEvent - INFO - Program send to Robot:
servoj([-0.04755340442445499, -1.55545651891604, -1.6720390587953489, -1.5232429223704418, 1.6751070203711205, 2.998932286918503], 0.5, 0.5, 0.008, 0.2, 100)

2025-07-07 17:05:58,363 - gym_custom_envs_real_ur_drivers_URBasic_realTimeClientEvent - INFO - Program send to Robot:
servoj([-0.04755340442445499, -1.55545651891604, -1.6720390587953489, -1.5232429223704418, 1.6751070203711205, 2.9974137978024427], 0.5, 0.5, 0.008, 0.2, 100)

2025-07-07 17:05:58,371 - gym_custom_envs_real_ur_drivers_URBasic_realTimeClientEvent - INFO - Program send to Robot:
servoj([-0.04755340442445499, -1.55545651891604, -1.6720390587953489, -1.5232429223704418, 1.6751070203711205, 2.9973986129112817], 0.5, 0.5, 0.008, 0.2, 100)

2025-07-07 17:05:58,392 - gym_custom_envs_real_ur_drivers_URBasic_realTimeClientEvent - INFO - Program send to Robot:
servoj([-0.04755340442445499, -1.55545651891604, -1.6720390587953489, -1.5232429223704418, 1.6751070203711205, 2.9973984610623705], 0.5, 0.5, 0.008, 0.2, 100)

2025-07-07 17:05:58,395 - gym_custom_envs_real_ur_drivers_URBasic_realTimeClientEvent - INFO - Program send to Robot:
servoj([-0.04755340442445499, -1.55545651891604, -1.6720390587953489, -1.5232429223704418, 1.6751070203711205, 2.997398459543881], 0.5, 0.5, 0.008, 0.2, 100)

2025-07-07 17:05:58,411 - gym_custom_envs_real_ur_drivers_URBasic_realTimeClientEvent - INFO - Program send to Robot:
servoj([-0.04755340442445499, -1.55545651891604, -1.6720390587953489, -1.5232429223704418, 1.6751070203711205, 2.9973984595286964], 0.5, 0.5, 0.008, 0.2, 100)

2025-07-07 17:05:58,419 - gym_custom_envs_real_ur_drivers_URBasic_realTimeClientEvent - INFO - Program send to Robot:
servoj([-0.04755340442445499, -1.55545651891604, -1.6720390587953489, -1.5232429223704418, 1.6751070203711205, 2.9973984595285446], 0.5, 0.5, 0.008, 0.2, 100)

2025-07-07 17:05:58,435 - gym_custom_envs_real_ur_drivers_URBasic_realTimeClientEvent - INFO - Program send to Robot:
servoj([-0.04755340442445499, -1.55545651891604, -1.6720390587953489, -1.5232429223704418, 1.6751070203711205, 2.997398459528543], 0.5, 0.5, 0.008, 0.2, 100)

2025-07-07 17:05:58,452 - gym_custom_envs_real_ur_drivers_URBasic_realTimeClientEvent - INFO - Program send to Robot:
servoj([-0.04755340442445499, -1.55545651891604, -1.6720390587953489, -1.5232429223704418, 1.6751070203711205, 2.997398459528543], 0.5, 0.5, 0.008, 0.2, 100)

2025-07-07 17:05:58,460 - gym_custom_envs_real_ur_drivers_URBasic_realTimeClientEvent - INFO - Program send to Robot:
servoj([-0.04755340442445499, -1.55545651891604, -1.6720390587953489, -1.5232429223704418, 1.6751070203711205, 2.997398459528543], 0.5, 0.5, 0.008, 0.2, 100)

2025-07-07 17:05:58,467 - gym_custom_envs_real_ur_drivers_URBasic_realTimeClientEvent - INFO - Program send to Robot:
servoj([-0.04755340442445499, -1.55545651891604, -1.6720390587953489, -1.5232429223704418, 1.6751070203711205, 2.997398459528543], 0.5, 0.5, 0.008, 0.2, 100)

2025-07-07 17:05:58,475 - gym_custom_envs_real_ur_drivers_URBasic_realTimeClientEvent - INFO - Program send to Robot:
servoj([-0.04755340442445499, -1.55545651891604, -1.6720390587953489, -1.5232429223704418, 1.6751070203711205, 2.997398459528543], 0.5, 0.5, 0.008, 0.2, 100)

2025-07-07 17:05:58,492 - gym_custom_envs_real_ur_drivers_URBasic_realTimeClientEvent - INFO - Program send to Robot:
servoj([-0.04755340442445499, -1.55545651891604, -1.6720390587953489, -1.5232429223704418, 1.6751070203711205, 2.9989171005085495], 0.5, 0.5, 0.008, 0.2, 100)

2025-07-07 17:05:58,500 - gym_custom_envs_real_ur_drivers_URBasic_realTimeClientEvent - INFO - Program send to Robot:
servoj([-0.04755340442445499, -1.55545651891604, -1.6720390587953489, -1.5232429223704418, 1.6751070203711205, 2.99893228691835], 0.5, 0.5, 0.008, 0.2, 100)

2025-07-07 17:05:58,508 - gym_custom_envs_real_ur_drivers_URBasic_realTimeClientEvent - INFO - Program send to Robot:
servoj([-0.04755340442445499, -1.55545651891604, -1.6720390587953489, -1.5232429223704418, 1.6751070203711205, 2.9989324387824476], 0.5, 0.5, 0.008, 0.2, 100)

2025-07-07 17:05:58,523 - gym_custom_envs_real_ur_drivers_URBasic_realTimeClientEvent - INFO - Program send to Robot:
servoj([-0.04755340442445499, -1.55545651891604, -1.6720390587953489, -1.5232429223704418, 1.6751070203711205, 2.998932440301089], 0.5, 0.5, 0.008, 0.2, 100)

2025-07-07 17:05:58,531 - gym_custom_envs_real_ur_drivers_URBasic_realTimeClientEvent - INFO - Program send to Robot:
servoj([-0.04755340442445499, -1.55545651891604, -1.6720390587953489, -1.5232429223704418, 1.6751070203711205, 2.998932440316275], 0.5, 0.5, 0.008, 0.2, 100)

2025-07-07 17:05:58,548 - gym_custom_envs_real_ur_drivers_URBasic_realTimeClientEvent - INFO - Program send to Robot:
servoj([-0.04755340442445499, -1.55545651891604, -1.6720390587953489, -1.5232429223704418, 1.6751070203711205, 2.998932440316427], 0.5, 0.5, 0.008, 0.2, 100)

2025-07-07 17:05:58,556 - gym_custom_envs_real_ur_drivers_URBasic_realTimeClientEvent - INFO - Program send to Robot:
servoj([-0.04755340442445499, -1.55545651891604, -1.6720390587953489, -1.5232429223704418, 1.6751070203711205, 2.9989324403164286], 0.5, 0.5, 0.008, 0.2, 100)

2025-07-07 17:05:58,564 - gym_custom_envs_real_ur_drivers_URBasic_realTimeClientEvent - INFO - Program send to Robot:
servoj([-0.04755340442445499, -1.55545651891604, -1.6720390587953489, -1.5232429223704418, 1.6751070203711205, 2.9989324403164286], 0.5, 0.5, 0.008, 0.2, 100)

2025-07-07 17:05:58,573 - gym_custom_envs_real_ur_drivers_URBasic_realTimeClientEvent - INFO - Program send to Robot:
servoj([-0.04755340442445499, -1.55545651891604, -1.6720390587953489, -1.5232429223704418, 1.6751070203711205, 2.9989324403164286], 0.5, 0.5, 0.008, 0.2, 100)

2025-07-07 17:05:58,589 - gym_custom_envs_real_ur_drivers_URBasic_realTimeClientEvent - INFO - Program send to Robot:
servoj([-0.04755340442445499, -1.55545651891604, -1.6720390587953489, -1.5232429223704418, 1.6751070203711205, 2.9989324403164286], 0.5, 0.5, 0.008, 0.2, 100)

2025-07-07 17:05:58,597 - gym_custom_envs_real_ur_drivers_URBasic_realTimeClientEvent - INFO - Program send to Robot:
servoj([-0.04755340442445499, -1.55545651891604, -1.6720390587953489, -1.5232429223704418, 1.6751070203711205, 2.9989324403164286], 0.5, 0.5, 0.008, 0.2, 100)

2025-07-07 17:05:58,604 - gym_custom_envs_real_ur_drivers_URBasic_realTimeClientEvent - INFO - Program send to Robot:
servoj([-0.04755340442445499, -1.55545651891604, -1.6720390587953489, -1.5232429223704418, 1.6751070203711205, 2.9989324403164286], 0.5, 0.5, 0.008, 0.2, 100)

2025-07-07 17:05:58,613 - gym_custom_envs_real_ur_drivers_URBasic_realTimeClientEvent - INFO - Program send to Robot:
servoj([-0.04755340442445499, -1.55545651891604, -1.6720390587953489, -1.5232429223704418, 1.6751070203711205, 2.9989324403164286], 0.5, 0.5, 0.008, 0.2, 100)

2025-07-07 17:05:58,627 - gym_custom_envs_real_ur_drivers_URBasic_realTimeClientEvent - INFO - Program send to Robot:
servoj([-0.04755340442445499, -1.55545651891604, -1.6720390587953489, -1.5232429223704418, 1.6751070203711205, 2.9989324403164286], 0.5, 0.5, 0.008, 0.2, 100)

2025-07-07 17:05:58,637 - gym_custom_envs_real_ur_drivers_URBasic_realTimeClientEvent - INFO - Program send to Robot:
servoj([-0.04755340442445499, -1.55545651891604, -1.6720390587953489, -1.5232429223704418, 1.6751070203711205, 2.9989324403164286], 0.5, 0.5, 0.008, 0.2, 100)

2025-07-07 17:05:58,645 - gym_custom_envs_real_ur_drivers_URBasic_realTimeClientEvent - INFO - Program send to Robot:
servoj([-0.04755340442445499, -1.55545651891604, -1.6720390587953489, -1.5232429223704418, 1.6751070203711205, 2.9989324403164286], 0.5, 0.5, 0.008, 0.2, 100)

2025-07-07 17:05:58,661 - gym_custom_envs_real_ur_drivers_URBasic_realTimeClientEvent - INFO - Program send to Robot:
servoj([-0.04755340442445499, -1.55545651891604, -1.6720390587953489, -1.5232429223704418, 1.6766256613511266, 2.9989324403164286], 0.5, 0.5, 0.008, 0.2, 100)

2025-07-07 17:05:58,670 - gym_custom_envs_real_ur_drivers_URBasic_realTimeClientEvent - INFO - Program send to Robot:
servoj([-0.04755340442445499, -1.55545651891604, -1.6720390587953489, -1.5232429223704418, 1.6766408477609267, 2.9989324403164286], 0.5, 0.5, 0.008, 0.2, 100)

2025-07-07 17:05:58,675 - gym_custom_envs_real_ur_drivers_URBasic_realTimeClientEvent - INFO - Program send to Robot:
servoj([-0.04755340442445499, -1.55545651891604, -1.6720390587953489, -1.5232429223704418, 1.6766409996250247, 2.9989324403164286], 0.5, 0.5, 0.008, 0.2, 100)

2025-07-07 17:05:58,695 - gym_custom_envs_real_ur_drivers_URBasic_realTimeClientEvent - INFO - Program send to Robot:
servoj([-0.04603476344444805, -1.55545651891604, -1.6720390587953489, -1.5232429223704418, 1.6766410011436657, 2.9989324403164286], 0.5, 0.5, 0.008, 0.2, 100)

2025-07-07 17:05:58,700 - gym_custom_envs_real_ur_drivers_URBasic_realTimeClientEvent - INFO - Program send to Robot:
servoj([-0.04601957703464798, -1.55545651891604, -1.6720390587953489, -1.5232429223704418, 1.676641001158852, 2.9989324403164286], 0.5, 0.5, 0.008, 0.2, 100)

2025-07-07 17:05:58,715 - gym_custom_envs_real_ur_drivers_URBasic_realTimeClientEvent - INFO - Program send to Robot:
servoj([-0.044500784190543034, -1.55545651891604, -1.6720390587953489, -1.5232429223704418, 1.6766410011590038, 2.9989324403164286], 0.5, 0.5, 0.008, 0.2, 100)

2025-07-07 17:05:58,724 - gym_custom_envs_real_ur_drivers_URBasic_realTimeClientEvent - INFO - Program send to Robot:
servoj([-0.04448559626210199, -1.55545651891604, -1.6720390587953489, -1.5232429223704418, 1.6766410011590054, 2.9989324403164286], 0.5, 0.5, 0.008, 0.2, 100)

2025-07-07 17:05:58,734 - gym_custom_envs_real_ur_drivers_URBasic_realTimeClientEvent - INFO - Program send to Robot:
servoj([-0.044485444382817575, -1.55545651891604, -1.6720390587953489, -1.5232429223704418, 1.6766410011590054, 2.9989324403164286], 0.5, 0.5, 0.008, 0.2, 100)

2025-07-07 17:05:58,748 - gym_custom_envs_real_ur_drivers_URBasic_realTimeClientEvent - INFO - Program send to Robot:
servoj([-0.042966801884018226, -1.55545651891604, -1.6720390587953489, -1.5232429223704418, 1.6766410011590054, 2.9989324403164286], 0.5, 0.5, 0.008, 0.2, 100)

2025-07-07 17:05:58,757 - gym_custom_envs_real_ur_drivers_URBasic_realTimeClientEvent - INFO - Program send to Robot:
servoj([-0.04295161545903023, -1.55545651891604, -1.6720390587953489, -1.5232429223704418, 1.6766410011590054, 2.9989324403164286], 0.5, 0.5, 0.008, 0.2, 100)

2025-07-07 17:05:58,765 - gym_custom_envs_real_ur_drivers_URBasic_realTimeClientEvent - INFO - Program send to Robot:
servoj([-0.04295146359478035, -1.55545651891604, -1.6720390587953489, -1.5232429223704418, 1.6766410011590054, 2.9989324403164286], 0.5, 0.5, 0.008, 0.2, 100)

2025-07-07 17:05:58,772 - gym_custom_envs_real_ur_drivers_URBasic_realTimeClientEvent - INFO - Program send to Robot:
servoj([-0.042951462076137856, -1.55545651891604, -1.6720390587953489, -1.5232429223704418, 1.6766410011590054, 2.9989324403164286], 0.5, 0.5, 0.008, 0.2, 100)

2025-07-07 17:05:58,789 - gym_custom_envs_real_ur_drivers_URBasic_realTimeClientEvent - INFO - Program send to Robot:
servoj([-0.04295146206095143, -1.55545651891604, -1.6720390587953489, -1.5232429223704418, 1.6781596421390124, 2.9989324403164286], 0.5, 0.5, 0.008, 0.2, 100)

2025-07-07 17:05:58,795 - gym_custom_envs_real_ur_drivers_URBasic_realTimeClientEvent - INFO - Program send to Robot:
servoj([-0.04295146206079956, -1.55545651891604, -1.6720390587953489, -1.5232429223704418, 1.6781748285488125, 2.9989324403164286], 0.5, 0.5, 0.008, 0.2, 100)

2025-07-07 17:05:58,805 - gym_custom_envs_real_ur_drivers_URBasic_realTimeClientEvent - INFO - Program send to Robot:
servoj([-0.04295146206079804, -1.55545651891604, -1.6720390587953489, -1.5232429223704418, 1.6781749804129105, 2.9989324403164286], 0.5, 0.5, 0.008, 0.2, 100)

2025-07-07 17:05:58,819 - gym_custom_envs_real_ur_drivers_URBasic_realTimeClientEvent - INFO - Program send to Robot:
servoj([-0.04295146206079803, -1.55545651891604, -1.6720390587953489, -1.5232429223704418, 1.6781749819315515, 2.9989324403164286], 0.5, 0.5, 0.008, 0.2, 100)

2025-07-07 17:05:58,830 - gym_custom_envs_real_ur_drivers_URBasic_realTimeClientEvent - INFO - Program send to Robot:
servoj([-0.04295146206079803, -1.55545651891604, -1.6720390587953489, -1.5232429223704418, 1.6781749819467378, 2.9989324403164286], 0.5, 0.5, 0.008, 0.2, 100)

2025-07-07 17:05:58,835 - gym_custom_envs_real_ur_drivers_URBasic_realTimeClientEvent - INFO - Program send to Robot:
servoj([-0.04295146206079803, -1.55545651891604, -1.6720390587953489, -1.5232429223704418, 1.6781749819468896, 2.9989324403164286], 0.5, 0.5, 0.008, 0.2, 100)

2025-07-07 17:05:58,843 - gym_custom_envs_real_ur_drivers_URBasic_realTimeClientEvent - INFO - Program send to Robot:
servoj([-0.04295146206079803, -1.55545651891604, -1.6720390587953489, -1.5232429223704418, 1.6781749819468912, 2.9989324403164286], 0.5, 0.5, 0.008, 0.2, 100)

2025-07-07 17:05:58,861 - gym_custom_envs_real_ur_drivers_URBasic_realTimeClientEvent - INFO - Program send to Robot:
servoj([-0.04295146206079803, -1.55545651891604, -1.6720390587953489, -1.5232429223704418, 1.6781749819468912, 2.9989324403164286], 0.5, 0.5, 0.008, 0.2, 100)

2025-07-07 17:05:58,867 - gym_custom_envs_real_ur_drivers_URBasic_realTimeClientEvent - INFO - Program send to Robot:
servoj([-0.04295146206079803, -1.55545651891604, -1.6720390587953489, -1.5232429223704418, 1.6781749819468912, 2.9989324403164286], 0.5, 0.5, 0.008, 0.2, 100)

2025-07-07 17:05:58,876 - gym_custom_envs_real_ur_drivers_URBasic_realTimeClientEvent - INFO - Program send to Robot:
servoj([-0.04295146206079803, -1.55545651891604, -1.6720390587953489, -1.5232429223704418, 1.6781749819468912, 2.9989324403164286], 0.5, 0.5, 0.008, 0.2, 100)

2025-07-07 17:05:58,884 - gym_custom_envs_real_ur_drivers_URBasic_realTimeClientEvent - INFO - Program send to Robot:
servoj([-0.04295146206079803, -1.55545651891604, -1.6720390587953489, -1.5232429223704418, 1.6781749819468912, 2.9989324403164286], 0.5, 0.5, 0.008, 0.2, 100)

2025-07-07 17:05:58,900 - gym_custom_envs_real_ur_drivers_URBasic_realTimeClientEvent - INFO - Program send to Robot:
servoj([-0.04295146206079803, -1.55545651891604, -1.6720390587953489, -1.5232429223704418, 1.6781749819468912, 2.9989324403164286], 0.5, 0.5, 0.008, 0.2, 100)

2025-07-07 17:05:58,908 - gym_custom_envs_real_ur_drivers_URBasic_realTimeClientEvent - INFO - Program send to Robot:
servoj([-0.041432821080791084, -1.55545651891604, -1.6720390587953489, -1.5232429223704418, 1.6781749819468912, 2.9989324403164286], 0.5, 0.5, 0.008, 0.2, 100)

2025-07-07 17:05:58,915 - gym_custom_envs_real_ur_drivers_URBasic_realTimeClientEvent - INFO - Program send to Robot:
servoj([-0.041417634670991015, -1.55545651891604, -1.6720390587953489, -1.5232429223704418, 1.6781749819468912, 2.9989324403164286], 0.5, 0.5, 0.008, 0.2, 100)

2025-07-07 17:05:58,933 - gym_custom_envs_real_ur_drivers_URBasic_realTimeClientEvent - INFO - Program send to Robot:
servoj([-0.041417482806893016, -1.55545651891604, -1.6720390587953489, -1.5232429223704418, 1.6781749819468912, 2.9989324403164286], 0.5, 0.5, 0.008, 0.2, 100)

2025-07-07 17:05:58,939 - gym_custom_envs_real_ur_drivers_URBasic_realTimeClientEvent - INFO - Program send to Robot:
servoj([-0.04141748128825203, -1.55545651891604, -1.6720390587953489, -1.5232429223704418, 1.6781749819468912, 2.9989324403164286], 0.5, 0.5, 0.008, 0.2, 100)

2025-07-07 17:05:58,949 - gym_custom_envs_real_ur_drivers_URBasic_realTimeClientEvent - INFO - Program send to Robot:
servoj([-0.041417481273065625, -1.55545651891604, -1.6720390587953489, -1.5232429223704418, 1.6781749819468912, 2.9989324403164286], 0.5, 0.5, 0.008, 0.2, 100)

2025-07-07 17:05:58,964 - gym_custom_envs_real_ur_drivers_URBasic_realTimeClientEvent - INFO - Program send to Robot:
servoj([-0.04141748127291376, -1.55545651891604, -1.6720390587953489, -1.5232429223704418, 1.6781749819468912, 2.9989324403164286], 0.5, 0.5, 0.008, 0.2, 100)

2025-07-07 17:05:58,973 - gym_custom_envs_real_ur_drivers_URBasic_realTimeClientEvent - INFO - Program send to Robot:
servoj([-0.04141748127291224, -1.55545651891604, -1.6720390587953489, -1.5232429223704418, 1.6781749819468912, 2.9989324403164286], 0.5, 0.5, 0.008, 0.2, 100)

2025-07-07 17:05:58,981 - gym_custom_envs_real_ur_drivers_URBasic_realTimeClientEvent - INFO - Program send to Robot:
servoj([-0.04141748127291223, -1.55545651891604, -1.6720390587953489, -1.5232429223704418, 1.6781749819468912, 2.9989324403164286], 0.5, 0.5, 0.008, 0.2, 100)

2025-07-07 17:05:58,987 - gym_custom_envs_real_ur_drivers_URBasic_realTimeClientEvent - INFO - Program send to Robot:
servoj([-0.04141748127291223, -1.55545651891604, -1.6720390587953489, -1.5232429223704418, 1.6781749819468912, 2.9989324403164286], 0.5, 0.5, 0.008, 0.2, 100)

2025-07-07 17:05:59,005 - gym_custom_envs_real_ur_drivers_URBasic_realTimeClientEvent - INFO - Program send to Robot:
servoj([-0.04141748127291223, -1.55545651891604, -1.6720390587953489, -1.5232429223704418, 1.6781749819468912, 2.9989324403164286], 0.5, 0.5, 0.008, 0.2, 100)

2025-07-07 17:05:59,011 - gym_custom_envs_real_ur_drivers_URBasic_realTimeClientEvent - INFO - Program send to Robot:
servoj([-0.04141748127291223, -1.55545651891604, -1.6720390587953489, -1.5232429223704418, 1.6781749819468912, 2.9989324403164286], 0.5, 0.5, 0.008, 0.2, 100)

2025-07-07 17:05:59,022 - gym_custom_envs_real_ur_drivers_URBasic_realTimeClientEvent - INFO - Program send to Robot:
servoj([-0.04141748127291223, -1.55545651891604, -1.6720390587953489, -1.5232429223704418, 1.6781749819468912, 2.9989324403164286], 0.5, 0.5, 0.008, 0.2, 100)

2025-07-07 17:05:59,036 - gym_custom_envs_real_ur_drivers_URBasic_realTimeClientEvent - INFO - Program send to Robot:
servoj([-0.04141748127291223, -1.5539378779360333, -1.6720390587953489, -1.5232429223704418, 1.6781749819468912, 2.9989324403164286], 0.5, 0.5, 0.008, 0.2, 100)

2025-07-07 17:05:59,046 - gym_custom_envs_real_ur_drivers_URBasic_realTimeClientEvent - INFO - Program send to Robot:
servoj([-0.04141748127291223, -1.5539226915262332, -1.6720390587953489, -1.5232429223704418, 1.6781749819468912, 2.9989324403164286], 0.5, 0.5, 0.008, 0.2, 100)

2025-07-07 17:05:59,055 - gym_custom_envs_real_ur_drivers_URBasic_realTimeClientEvent - INFO - Program send to Robot:
