2025-07-07 17:10:15,930 - gym_custom_envs_real_ur_drivers_URBasic_robotModelEvent - INFO - Init done
2025-07-07 17:10:16,431 - gym_custom_envs_real_ur_drivers_URBasic_realTimeClientEvent - INFO - Connected
2025-07-07 17:10:16,431 - gym_custom_envs_real_ur_drivers_URBasic_realTimeClientEvent - INFO - RT_CLient constructor done
2025-07-07 17:10:16,432 - gym_custom_envs_real_ur_drivers_URBasic_dataLogEvent - INFO - Data logging (not event logging) is disabled
2025-07-07 17:10:16,433 - gym_custom_envs_real_ur_drivers_URBasic_dataLogEvent - INFO - DataLog constructor done
2025-07-07 17:10:16,434 - gym_custom_envs_real_ur_drivers_URBasic_dataLogEvent - INFO - DataLog is stopped
2025-07-07 17:10:16,434 - gym_custom_envs_real_ur_drivers_URBasic_rtdeEvent - INFO - RTDE constructor done
2025-07-07 17:10:16,936 - gym_custom_envs_real_ur_drivers_URBasic_dashboardEvent - INFO - Connected
2025-07-07 17:10:16,937 - gym_custom_envs_real_ur_drivers_URBasic_dashboardEvent - INFO - UR Dashboard respond Connected: Universal Robots Dashboard Server
2025-07-07 17:10:16,937 - gym_custom_envs_real_ur_drivers_URBasic_dashboardEvent - INFO - Dashboard server constructor done
2025-07-07 17:10:16,937 - gym_custom_envs_real_ur_drivers_URBasic_robotConnectorEvent - INFO - Init done
2025-07-07 17:10:17,047 - gym_custom_envs_real_ur_drivers_URBasic_rtdeEvent - INFO - Controller version: 3.3.1-60
2025-07-07 17:10:17,051 - gym_custom_envs_real_ur_drivers_URBasic_rtdeEvent - INFO - RTDE started
2025-07-07 17:10:17,939 - gym_custom_envs_real_ur_drivers_URBasic_urScriptEvent - INFO - Init done!!!
2025-07-07 17:10:17,954 - gym_custom_envs_real_ur_drivers_URBasic_urScriptExtEvent - INFO - Init done
2025-07-07 17:10:19,575 - gym_custom_envs_real_ur_interfaceEvent - INFO - [] init done
2025-07-07 17:10:19,576 - gym_custom_envs_real_ur_drivers_URBasic_realTimeClientEvent - INFO - Program send to Robot:
end_freedrive_mode()

2025-07-07 17:10:21,978 - gym_custom_envs_real_ur_drivers_URBasic_realTimeClientEvent - INFO - Program send to Robot:
servoj([-0.14797116914858038, -1.5308882391564396, -1.4876128898636856, -1.5616812871769181, 1.7540519330965403, 2.749087326714982], 0.5, 0.5, 0.01, 0.1, 80)

2025-07-07 17:10:21,994 - gym_custom_envs_real_ur_drivers_URBasic_realTimeClientEvent - INFO - Program send to Robot:
servoj([-0.1480193297015589, -1.530870005431811, -1.4876403832033134, -1.561671790319186, 1.7540325652803428, 2.7484199209689257], 0.5, 0.5, 0.01, 0.1, 80)

2025-07-07 17:10:22,010 - gym_custom_envs_real_ur_drivers_URBasic_realTimeClientEvent - INFO - Program send to Robot:
servoj([-0.14800740877260382, -1.5308595620183847, -1.4876513690628361, -1.5617026517346497, 1.7540726085337564, 2.7484243772422015], 0.5, 0.5, 0.01, 0.1, 80)

2025-07-07 17:10:22,030 - gym_custom_envs_real_ur_drivers_URBasic_realTimeClientEvent - INFO - Program send to Robot:
servoj([-0.14798356691469366, -1.5308680793165983, -1.4876325018126737, -1.5617022985198392, 1.7542393959660447, 2.747771886287951], 0.5, 0.5, 0.01, 0.1, 80)

2025-07-07 17:10:22,043 - gym_custom_envs_real_ur_drivers_URBasic_realTimeClientEvent - INFO - Program send to Robot:
servoj([-0.14797116914858038, -1.5308674115043304, -1.4876128898636856, -1.5616812871769181, 1.7542515986017946, 2.747745720181976], 0.5, 0.5, 0.01, 0.1, 80)

2025-07-07 17:10:22,058 - gym_custom_envs_real_ur_drivers_URBasic_realTimeClientEvent - INFO - Program send to Robot:
servoj([-0.14798356691469366, -1.531076277050766, -1.4876120824240773, -1.561692088825541, 1.7542820281457765, 2.7473499057575754], 0.5, 0.5, 0.01, 0.1, 80)

2025-07-07 17:10:22,078 - gym_custom_envs_real_ur_drivers_URBasic_realTimeClientEvent - INFO - Program send to Robot:
servoj([-0.14789964357484991, -1.5310327434975042, -1.4876583864193322, -1.5616802278838853, 1.754208910760367, 2.74736102185375], 0.5, 0.5, 0.01, 0.1, 80)

2025-07-07 17:10:22,091 - gym_custom_envs_real_ur_drivers_URBasic_realTimeClientEvent - INFO - Program send to Robot:
servoj([-0.14757587114443, -1.5309538596031544, -1.487679495690272, -1.5616550119912151, 1.7542525982272066, 2.7470166751187666], 0.5, 0.5, 0.01, 0.1, 80)

2025-07-07 17:10:22,106 - gym_custom_envs_real_ur_drivers_URBasic_realTimeClientEvent - INFO - Program send to Robot:
servoj([-0.14725305238832648, -1.5308239616711175, -1.4878238715979542, -1.5617016586278771, 1.7540809292935493, 2.747134475597016], 0.5, 0.5, 0.01, 0.1, 80)

2025-07-07 17:10:22,127 - gym_custom_envs_real_ur_drivers_URBasic_realTimeClientEvent - INFO - Program send to Robot:
servoj([-0.1469059149371546, -1.5307131769734232, -1.487887386893743, -1.5616144437060964, 1.7542401647328394, 2.746800548091248], 0.5, 0.5, 0.01, 0.1, 80)

2025-07-07 17:10:22,138 - gym_custom_envs_real_ur_drivers_URBasic_realTimeClientEvent - INFO - Program send to Robot:
servoj([-0.1462955633746546, -1.5304340567303183, -1.488101224384982, -1.5616155511888665, 1.7542181497608964, 2.7470481896184626], 0.5, 0.5, 0.01, 0.1, 80)

2025-07-07 17:10:22,154 - gym_custom_envs_real_ur_drivers_URBasic_realTimeClientEvent - INFO - Program send to Robot:
servoj([-0.1457925001727503, -1.530493093302154, -1.4883598606320643, -1.5612858456639946, 1.75429316996707, 2.746793703839239], 0.5, 0.5, 0.01, 0.1, 80)

2025-07-07 17:10:22,174 - gym_custom_envs_real_ur_drivers_URBasic_realTimeClientEvent - INFO - Program send to Robot:
servoj([-0.14502622285951788, -1.5301573527815513, -1.488778529306115, -1.5612619117978193, 1.7541658885813742, 2.747162191239285], 0.5, 0.5, 0.01, 0.1, 80)

2025-07-07 17:10:22,186 - gym_custom_envs_real_ur_drivers_URBasic_realTimeClientEvent - INFO - Program send to Robot:
servoj([-0.14416410127748663, -1.5298963256127072, -1.4891015538080892, -1.5611150878266518, 1.7551975351310338, 2.7470900780834016], 0.5, 0.5, 0.01, 0.1, 80)

2025-07-07 17:10:22,202 - gym_custom_envs_real_ur_drivers_URBasic_realTimeClientEvent - INFO - Program send to Robot:
servoj([-0.1431346098529261, -1.5294828864677041, -1.4895990925247213, -1.5610577874183424, 1.7549639727620001, 2.7475244130626386], 0.5, 0.5, 0.01, 0.1, 80)

2025-07-07 17:10:22,223 - gym_custom_envs_real_ur_drivers_URBasic_realTimeClientEvent - INFO - Program send to Robot:
servoj([-0.14192582765688116, -1.5290810675546267, -1.4901288591125361, -1.5608546811623756, 1.756432878619429, 2.7476221226568267], 0.5, 0.5, 0.01, 0.1, 80)

2025-07-07 17:10:22,245 - gym_custom_envs_real_ur_drivers_URBasic_realTimeClientEvent - INFO - Program send to Robot:
servoj([-0.13975860277284796, -1.5282484757782588, -1.4913649047292057, -1.5606462837990038, 1.7580292880826736, 2.7473002291300035], 0.5, 0.5, 0.01, 0.1, 80)

2025-07-07 17:10:22,258 - gym_custom_envs_real_ur_drivers_URBasic_realTimeClientEvent - INFO - Program send to Robot:
servoj([-0.13809491792787726, -1.5276171409963497, -1.4920919512545563, -1.5603743320807582, 1.757888570041626, 2.7479922885769237], 0.5, 0.5, 0.01, 0.1, 80)

2025-07-07 17:10:22,277 - gym_custom_envs_real_ur_drivers_URBasic_realTimeClientEvent - INFO - Program send to Robot:
servoj([-0.13622714677919562, -1.5271492020600586, -1.4929529803390786, -1.5602320514948764, 1.759441643767063, 2.7473727155752465], 0.5, 0.5, 0.01, 0.1, 80)

2025-07-07 17:10:22,293 - gym_custom_envs_real_ur_drivers_URBasic_realTimeClientEvent - INFO - Program send to Robot:
servoj([-0.13402463594545538, -1.5263591809332795, -1.4939286061719088, -1.5600846626837819, 1.7591971358027172, 2.7481437812693885], 0.5, 0.5, 0.01, 0.1, 80)

2025-07-07 17:10:22,306 - gym_custom_envs_real_ur_drivers_URBasic_realTimeClientEvent - INFO - Program send to Robot:
servoj([-0.1317978064166468, -1.525754115712193, -1.4949570321371262, -1.5596059720664905, 1.7597624754729464, 2.7473497286381785], 0.5, 0.5, 0.01, 0.1, 80)

2025-07-07 17:10:22,322 - gym_custom_envs_real_ur_drivers_URBasic_realTimeClientEvent - INFO - Program send to Robot:
servoj([-0.12953521410097296, -1.524911865635272, -1.4959567812771433, -1.5593510677126732, 1.759613033812396, 2.7481609706406744], 0.5, 0.5, 0.01, 0.1, 80)

2025-07-07 17:10:22,342 - gym_custom_envs_real_ur_drivers_URBasic_realTimeClientEvent - INFO - Program send to Robot:
servoj([-0.12703324953188116, -1.5242261586401928, -1.497076040318116, -1.5584497629998388, 1.7598394140643059, 2.748081748776896], 0.5, 0.5, 0.01, 0.1, 80)

2025-07-07 17:10:22,354 - gym_custom_envs_real_ur_drivers_URBasic_realTimeClientEvent - INFO - Program send to Robot:
servoj([-0.12453128496278935, -1.5233324408006537, -1.4982651782446978, -1.5581203979900513, 1.7598029959448265, 2.748954131303438], 0.5, 0.5, 0.01, 0.1, 80)

2025-07-07 17:10:22,370 - gym_custom_envs_real_ur_drivers_URBasic_realTimeClientEvent - INFO - Program send to Robot:
servoj([-0.12182571092714482, -1.5225389931528954, -1.499644388817576, -1.557649265354641, 1.7596512803615563, 2.7493526658283916], 0.5, 0.5, 0.01, 0.1, 80)

2025-07-07 17:10:22,391 - gym_custom_envs_real_ur_drivers_URBasic_realTimeClientEvent - INFO - Program send to Robot:
servoj([0.15033011721279266, -1.4281361119873979, -1.6260196336247985, -1.5217089431169968, 1.7594759637045239, 2.8255926143539263], 0.5, 0.5, 0.01, 0.1, 80)

2025-07-07 17:10:22,395 - gym_custom_envs_real_ur_drivers_URBasic_realTimeClientEvent - INFO - Program send to Robot:
servoj([0.15033011721279266, -1.4281361135061907, -1.6260196351434395, -1.5217089415979004, 1.7594759637048276, 2.825592611316037], 0.5, 0.5, 0.01, 0.1, 80)

2025-07-07 17:10:22,414 - gym_custom_envs_real_ur_drivers_URBasic_realTimeClientEvent - INFO - Program send to Robot:
servoj([0.15033011721279266, -1.4296547545013853, -1.6260196351586258, -1.5186716596226961, 1.7594759637048307, 2.825592611285658], 0.5, 0.5, 0.01, 0.1, 80)

2025-07-07 17:10:22,418 - gym_custom_envs_real_ur_drivers_URBasic_realTimeClientEvent - INFO - Program send to Robot:
servoj([0.15033011721279266, -1.4296699409113374, -1.6260196351587777, -1.518641286802944, 1.7594759637048307, 2.825592611285354], 0.5, 0.5, 0.01, 0.1, 80)

2025-07-07 17:10:22,434 - gym_custom_envs_real_ur_drivers_URBasic_realTimeClientEvent - INFO - Program send to Robot:
servoj([0.15033011721279266, -1.4296700927754369, -1.6275382761387862, -1.5156037011147327, 1.7594759637048307, 2.825592611285351], 0.5, 0.5, 0.01, 0.1, 80)

2025-07-07 17:10:22,442 - gym_custom_envs_real_ur_drivers_URBasic_realTimeClientEvent - INFO - Program send to Robot:
servoj([0.15033011721279266, -1.4296700942940779, -1.6275534625485863, -1.5155733252578507, 1.7594759637048307, 2.825592611285351], 0.5, 0.5, 0.01, 0.1, 80)

2025-07-07 17:10:22,458 - gym_custom_envs_real_ur_drivers_URBasic_realTimeClientEvent - INFO - Program send to Robot:
servoj([0.15033011721279266, -1.4296700943092644, -1.6275536144126843, -1.5155730214992817, 1.7594759637048307, 2.825592611285351], 0.5, 0.5, 0.01, 0.1, 80)

2025-07-07 17:10:22,466 - gym_custom_envs_real_ur_drivers_URBasic_realTimeClientEvent - INFO - Program send to Robot:
servoj([0.15033011721279266, -1.4296700943094163, -1.6275536159313253, -1.515573018461696, 1.7594759637048307, 2.825592611285351], 0.5, 0.5, 0.01, 0.1, 80)

2025-07-07 17:10:22,482 - gym_custom_envs_real_ur_drivers_URBasic_realTimeClientEvent - INFO - Program send to Robot:
servoj([0.15033011721279266, -1.4296700943094176, -1.6275536159465116, -1.5155730184313203, 1.7594759637048307, 2.825592611285351], 0.5, 0.5, 0.01, 0.1, 80)

2025-07-07 17:10:22,489 - gym_custom_envs_real_ur_drivers_URBasic_realTimeClientEvent - INFO - Program send to Robot:
servoj([0.15033011721279266, -1.4296700943094176, -1.6275536159466635, -1.5155730184310165, 1.7594759637048307, 2.825592611285351], 0.5, 0.5, 0.01, 0.1, 80)

2025-07-07 17:10:22,506 - gym_custom_envs_real_ur_drivers_URBasic_realTimeClientEvent - INFO - Program send to Robot:
servoj([0.15033011721279266, -1.4296700943094176, -1.626034974966658, -1.5140543774510067, 1.7594759637048307, 2.825592611285351], 0.5, 0.5, 0.01, 0.1, 80)

2025-07-07 17:10:22,513 - gym_custom_envs_real_ur_drivers_URBasic_realTimeClientEvent - INFO - Program send to Robot:
servoj([0.15033011721279266, -1.4296700943094176, -1.626019788556858, -1.5140391910412065, 1.7594759637048307, 2.825592611285351], 0.5, 0.5, 0.01, 0.1, 80)

2025-07-07 17:10:22,535 - gym_custom_envs_real_ur_drivers_URBasic_realTimeClientEvent - INFO - Program send to Robot:
servoj([0.15033011721279266, -1.4311887352894241, -1.62601963669276, -1.5140390391771086, 1.7594759637048307, 2.825592611285351], 0.5, 0.5, 0.01, 0.1, 80)

2025-07-07 17:10:22,538 - gym_custom_envs_real_ur_drivers_URBasic_realTimeClientEvent - INFO - Program send to Robot:
servoj([0.15033011721279266, -1.4312039216992243, -1.626019635174119, -1.5140390376584676, 1.7594759637048307, 2.825592611285351], 0.5, 0.5, 0.01, 0.1, 80)

2025-07-07 17:10:22,559 - gym_custom_envs_real_ur_drivers_URBasic_realTimeClientEvent - INFO - Program send to Robot:
servoj([0.15033011721279266, -1.4312040735633222, -1.6260196351589327, -1.5140390376432813, 1.7594759637048307, 2.825592611285351], 0.5, 0.5, 0.01, 0.1, 80)

2025-07-07 17:10:22,562 - gym_custom_envs_real_ur_drivers_URBasic_realTimeClientEvent - INFO - Program send to Robot:
servoj([0.15033011721279266, -1.4312040750819632, -1.6260196351587808, -1.5140390376431294, 1.7594759637048307, 2.825592611285351], 0.5, 0.5, 0.01, 0.1, 80)

2025-07-07 17:10:22,578 - gym_custom_envs_real_ur_drivers_URBasic_realTimeClientEvent - INFO - Program send to Robot:
servoj([0.15033011721279266, -1.4312040750971498, -1.6260196351587792, -1.5140390376431279, 1.7594759637048307, 2.825592611285351], 0.5, 0.5, 0.01, 0.1, 80)

2025-07-07 17:10:22,585 - gym_custom_envs_real_ur_drivers_URBasic_realTimeClientEvent - INFO - Program send to Robot:
servoj([0.15033011721279266, -1.4312040750973016, -1.6260196351587792, -1.5140390376431279, 1.7594759637048307, 2.825592611285351], 0.5, 0.5, 0.01, 0.1, 80)

2025-07-07 17:10:22,602 - gym_custom_envs_real_ur_drivers_URBasic_realTimeClientEvent - INFO - Program send to Robot:
servoj([0.15033011721279266, -1.431204075097303, -1.6260196351587792, -1.5140390376431279, 1.7594759637048307, 2.825592611285351], 0.5, 0.5, 0.01, 0.1, 80)

2025-07-07 17:10:22,609 - gym_custom_envs_real_ur_drivers_URBasic_realTimeClientEvent - INFO - Program send to Robot:
servoj([0.15033011721279266, -1.4312040750973032, -1.6260196351587792, -1.5140390376431279, 1.7594759637048307, 2.825592611285351], 0.5, 0.5, 0.01, 0.1, 80)

2025-07-07 17:10:22,626 - gym_custom_envs_real_ur_drivers_URBasic_realTimeClientEvent - INFO - Program send to Robot:
servoj([0.15033011721279266, -1.4312040750973032, -1.6260196351587792, -1.5140390376431279, 1.7594759637048307, 2.825592611285351], 0.5, 0.5, 0.01, 0.1, 80)

2025-07-07 17:10:22,633 - gym_custom_envs_real_ur_drivers_URBasic_realTimeClientEvent - INFO - Program send to Robot:
servoj([0.15033011721279266, -1.4312040750973032, -1.6260196351587792, -1.5140390376431279, 1.7594759637048307, 2.825592611285351], 0.5, 0.5, 0.01, 0.1, 80)

2025-07-07 17:10:22,655 - gym_custom_envs_real_ur_drivers_URBasic_realTimeClientEvent - INFO - Program send to Robot:
servoj([0.15033011721279266, -1.4312040750973032, -1.6260196351587792, -1.5140390376431279, 1.7594759637048307, 2.825592611285351], 0.5, 0.5, 0.01, 0.1, 80)

2025-07-07 17:10:22,659 - gym_custom_envs_real_ur_drivers_URBasic_realTimeClientEvent - INFO - Program send to Robot:
servoj([0.14881147623278615, -1.4312040750973032, -1.6275382761387862, -1.5140390376431279, 1.7594759637048307, 2.825592611285351], 0.5, 0.5, 0.01, 0.1, 80)

2025-07-07 17:10:22,679 - gym_custom_envs_real_ur_drivers_URBasic_realTimeClientEvent - INFO - Program send to Robot:
servoj([0.14879628982298607, -1.4312040750973032, -1.6275534625485863, -1.5140390376431279, 1.7594759637048307, 2.825592611285351], 0.5, 0.5, 0.01, 0.1, 80)

2025-07-07 17:10:22,682 - gym_custom_envs_real_ur_drivers_URBasic_realTimeClientEvent - INFO - Program send to Robot:
servoj([0.14879613795888808, -1.4312040750973032, -1.6275536144126843, -1.5140390376431279, 1.7594759637048307, 2.825592611285351], 0.5, 0.5, 0.01, 0.1, 80)

2025-07-07 17:10:22,698 - gym_custom_envs_real_ur_drivers_URBasic_realTimeClientEvent - INFO - Program send to Robot:
servoj([0.14879613644024708, -1.4312040750973032, -1.6260349749513183, -1.5140390376431279, 1.7594759637048307, 2.825592611285351], 0.5, 0.5, 0.01, 0.1, 80)

2025-07-07 17:10:22,706 - gym_custom_envs_real_ur_drivers_URBasic_realTimeClientEvent - INFO - Program send to Robot:
servoj([0.14879613642506068, -1.4312040750973032, -1.6260197885567047, -1.5140390376431279, 1.7594759637048307, 2.825592611285351], 0.5, 0.5, 0.01, 0.1, 80)

2025-07-07 17:10:22,722 - gym_custom_envs_real_ur_drivers_URBasic_realTimeClientEvent - INFO - Program send to Robot:
servoj([0.14879613642490883, -1.4312040750973032, -1.6260196366927584, -1.5140390376431279, 1.7594759637048307, 2.827111252265358], 0.5, 0.5, 0.01, 0.1, 80)

2025-07-07 17:10:22,738 - gym_custom_envs_real_ur_drivers_URBasic_realTimeClientEvent - INFO - Program send to Robot:
servoj([0.1487961364249073, -1.4312040750973032, -1.626019635174119, -1.5140390376431279, 1.7594759637048307, 2.827126438675158], 0.5, 0.5, 0.01, 0.1, 80)

2025-07-07 17:10:22,746 - gym_custom_envs_real_ur_drivers_URBasic_realTimeClientEvent - INFO - Program send to Robot:
servoj([0.1487961364249073, -1.4312040750973032, -1.6260196351589327, -1.5140390376431279, 1.7594759637048307, 2.827126590539256], 0.5, 0.5, 0.01, 0.1, 80)

2025-07-07 17:10:22,762 - gym_custom_envs_real_ur_drivers_URBasic_realTimeClientEvent - INFO - Program send to Robot:
servoj([0.1487961364249073, -1.4312040750973032, -1.6275382761387878, -1.5155576786231346, 1.7594759637048307, 2.8286452330379035], 0.5, 0.5, 0.01, 0.1, 80)

2025-07-07 17:10:22,770 - gym_custom_envs_real_ur_drivers_URBasic_realTimeClientEvent - INFO - Program send to Robot:
servoj([0.1487961364249073, -1.4312040750973032, -1.6275534625485863, -1.5155728650329345, 1.7594759637048307, 2.82866041946289], 0.5, 0.5, 0.01, 0.1, 80)

2025-07-07 17:10:22,777 - gym_custom_envs_real_ur_drivers_URBasic_realTimeClientEvent - INFO - Program send to Robot:
servoj([0.1487961364249073, -1.4312040750973032, -1.6275536144126843, -1.5155730168970327, 1.7594759637048307, 2.82866057132714], 0.5, 0.5, 0.01, 0.1, 80)

2025-07-07 17:10:22,794 - gym_custom_envs_real_ur_drivers_URBasic_realTimeClientEvent - INFO - Program send to Robot:
servoj([0.1487961364249073, -1.4312040750973032, -1.6275536159313253, -1.5155730184156737, 1.7594759637048307, 2.8286605728457825], 0.5, 0.5, 0.01, 0.1, 80)

2025-07-07 17:10:22,802 - gym_custom_envs_real_ur_drivers_URBasic_realTimeClientEvent - INFO - Program send to Robot:
servoj([0.1487961364249073, -1.4312040750973032, -1.6275536159465116, -1.51557301843086, 1.7594759637048307, 2.8286605728609686], 0.5, 0.5, 0.01, 0.1, 80)

2025-07-07 17:10:22,818 - gym_custom_envs_real_ur_drivers_URBasic_realTimeClientEvent - INFO - Program send to Robot:
servoj([0.14727749544490037, -1.4312040750973032, -1.6275536159466635, -1.5155730184310119, 1.7594759637048307, 2.8301792138411277], 0.5, 0.5, 0.01, 0.1, 80)

2025-07-07 17:10:22,826 - gym_custom_envs_real_ur_drivers_URBasic_realTimeClientEvent - INFO - Program send to Robot:
servoj([0.1472623090351003, -1.4312040750973032, -1.627553615946665, -1.5155730184310134, 1.7594759637048307, 2.8301944002509294], 0.5, 0.5, 0.01, 0.1, 80)

2025-07-07 17:10:22,842 - gym_custom_envs_real_ur_drivers_URBasic_realTimeClientEvent - INFO - Program send to Robot:
servoj([0.1472621571710023, -1.4312040750973032, -1.627553615946665, -1.5155730184310134, 1.7594759637048307, 2.8301945521150276], 0.5, 0.5, 0.01, 0.1, 80)

2025-07-07 17:10:22,850 - gym_custom_envs_real_ur_drivers_URBasic_realTimeClientEvent - INFO - Program send to Robot:
servoj([0.1472621556523613, -1.4312040750973032, -1.629072256926672, -1.5155730184310134, 1.7594759637048307, 2.831713194613675], 0.5, 0.5, 0.01, 0.1, 80)

2025-07-07 17:10:22,858 - gym_custom_envs_real_ur_drivers_URBasic_realTimeClientEvent - INFO - Program send to Robot:
servoj([0.1472621556371749, -1.4312040750973032, -1.6290874433364722, -1.5155730184310134, 1.7594759637048307, 2.8317283810386615], 0.5, 0.5, 0.01, 0.1, 80)

2025-07-07 17:10:22,875 - gym_custom_envs_real_ur_drivers_URBasic_realTimeClientEvent - INFO - Program send to Robot:
servoj([0.14726215563702305, -1.4312040750973032, -1.6290875952005701, -1.5155730184310134, 1.7594759637048307, 2.8317285329029116], 0.5, 0.5, 0.01, 0.1, 80)

2025-07-07 17:10:22,882 - gym_custom_envs_real_ur_drivers_URBasic_realTimeClientEvent - INFO - Program send to Robot:
servoj([0.14574351465701457, -1.43272271607731, -1.629087596719211, -1.5155730184310134, 1.7579573227248237, 2.831728534421554], 0.5, 0.5, 0.01, 0.1, 80)

2025-07-07 17:10:22,890 - gym_custom_envs_real_ur_drivers_URBasic_realTimeClientEvent - INFO - Program send to Robot:
servoj([0.1457283282472145, -1.4327379024871099, -1.6290875967343974, -1.5155730184310134, 1.7579421363150238, 2.8317285344367407], 0.5, 0.5, 0.01, 0.1, 80)

2025-07-07 17:10:22,898 - gym_custom_envs_real_ur_drivers_URBasic_realTimeClientEvent - INFO - Program send to Robot:
servoj([0.14572817638311647, -1.4327380543512078, -1.6290875967345493, -1.5155730184310134, 1.7579419844509256, 2.8317285344368925], 0.5, 0.5, 0.01, 0.1, 80)

2025-07-07 17:10:22,914 - gym_custom_envs_real_ur_drivers_URBasic_realTimeClientEvent - INFO - Program send to Robot:
servoj([0.14269089290446205, -1.4327380558698488, -1.6290875967345508, -1.5155730184310134, 1.7579419829322847, 2.8332471754169], 0.5, 0.5, 0.01, 0.1, 80)

2025-07-07 17:10:22,921 - gym_custom_envs_real_ur_drivers_URBasic_realTimeClientEvent - INFO - Program send to Robot:
servoj([0.1426605200696755, -1.4327380558850353, -1.6290875967345508, -1.5155730184310134, 1.7579419829170984, 2.8332623618267], 0.5, 0.5, 0.01, 0.1, 80)

2025-07-07 17:10:22,938 - gym_custom_envs_real_ur_drivers_URBasic_realTimeClientEvent - INFO - Program send to Robot:
servoj([0.14266021634132764, -1.4327380558851872, -1.6290875967345508, -1.5155730184310134, 1.7579419829169465, 2.8332625136907983], 0.5, 0.5, 0.01, 0.1, 80)

2025-07-07 17:10:22,945 - gym_custom_envs_real_ur_drivers_URBasic_realTimeClientEvent - INFO - Program send to Robot:
servoj([0.13810429036402377, -1.4327380558851888, -1.6290875967345508, -1.5155730184310134, 1.757941982916945, 2.833262515209439], 0.5, 0.5, 0.01, 0.1, 80)

2025-07-07 17:10:22,962 - gym_custom_envs_real_ur_drivers_URBasic_realTimeClientEvent - INFO - Program send to Robot:
servoj([0.13805873110425074, -1.4327380558851888, -1.6290875967345508, -1.5155730184310134, 1.757941982916945, 2.8332625152246256], 0.5, 0.5, 0.01, 0.1, 80)

2025-07-07 17:10:22,970 - gym_custom_envs_real_ur_drivers_URBasic_realTimeClientEvent - INFO - Program send to Robot:
servoj([0.138058275511653, -1.4327380558851888, -1.6290875967345508, -1.5155730184310134, 1.757941982916945, 2.8332625152247775], 0.5, 0.5, 0.01, 0.1, 80)

2025-07-07 17:10:22,986 - gym_custom_envs_real_ur_drivers_URBasic_realTimeClientEvent - INFO - Program send to Robot:
servoj([0.12894642507568624, -1.4327380558851888, -1.6275689557545439, -1.5155730184310134, 1.756423341936938, 2.834781156204786], 0.5, 0.5, 0.01, 0.1, 80)

2025-07-07 17:10:22,994 - gym_custom_envs_real_ur_drivers_URBasic_realTimeClientEvent - INFO - Program send to Robot:
servoj([0.12885530657132654, -1.4327380558851888, -1.627553769344744, -1.5155730184310134, 1.7564081555271378, 2.834796342614586], 0.5, 0.5, 0.01, 0.1, 80)

2025-07-07 17:10:23,002 - gym_custom_envs_real_ur_drivers_URBasic_realTimeClientEvent - INFO - Program send to Robot:
servoj([0.12885439538628296, -1.4327380558851888, -1.6275536174806458, -1.5155730184310134, 1.7564080036630398, 2.834796494478684], 0.5, 0.5, 0.01, 0.1, 80)

2025-07-07 17:10:23,018 - gym_custom_envs_real_ur_drivers_URBasic_realTimeClientEvent - INFO - Program send to Robot:
servoj([0.11974254039439218, -1.4327380558851888, -1.6260349749819978, -1.5155730184310134, 1.7579266431244058, 2.834796495997325], 0.5, 0.5, 0.01, 0.1, 80)

2025-07-07 17:10:23,026 - gym_custom_envs_real_ur_drivers_URBasic_realTimeClientEvent - INFO - Program send to Robot:
servoj([0.11965142184447328, -1.4327380558851888, -1.6260197885570113, -1.5155730184310134, 1.7579418295190194, 2.8347964960125114], 0.5, 0.5, 0.01, 0.1, 80)

2025-07-07 17:10:23,035 - gym_custom_envs_real_ur_drivers_URBasic_realTimeClientEvent - INFO - Program send to Robot:
servoj([0.11965051065897409, -1.4327380558851888, -1.6260196366927615, -1.5155730184310134, 1.7579419813829658, 2.8347964960126633], 0.5, 0.5, 0.01, 0.1, 80)

2025-07-07 17:10:23,041 - gym_custom_envs_real_ur_drivers_URBasic_realTimeClientEvent - INFO - Program send to Robot:
servoj([0.11205729664708482, -1.4327380558851888, -1.626019635174119, -1.5155730184310134, 1.7579419829016052, 2.8347964960126646], 0.5, 0.5, 0.01, 0.1, 80)

2025-07-07 17:10:23,058 - gym_custom_envs_real_ur_drivers_URBasic_realTimeClientEvent - INFO - Program send to Robot:
servoj([0.11198136450696593, -1.4327380558851888, -1.6260196351589327, -1.5155730184310134, 1.7579419829167915, 2.8347964960126646], 0.5, 0.5, 0.01, 0.1, 80)

2025-07-07 17:10:23,066 - gym_custom_envs_real_ur_drivers_URBasic_realTimeClientEvent - INFO - Program send to Robot:
servoj([0.11198060518556474, -1.4327380558851888, -1.6260196351587808, -1.5155730184310134, 1.7579419829169434, 2.8347964960126646], 0.5, 0.5, 0.01, 0.1, 80)

2025-07-07 17:10:23,082 - gym_custom_envs_real_ur_drivers_URBasic_realTimeClientEvent - INFO - Program send to Robot:
servoj([0.10286875171231037, -1.4357753378452025, -1.6260196351587792, -1.5170916594110202, 1.757941982916945, 2.8363151369926713], 0.5, 0.5, 0.01, 0.1, 80)

2025-07-07 17:10:23,090 - gym_custom_envs_real_ur_drivers_URBasic_realTimeClientEvent - INFO - Program send to Robot:
servoj([0.10277763317757783, -1.4358057106648026, -1.6260196351587792, -1.5171068458208203, 1.757941982916945, 2.8363303234024717], 0.5, 0.5, 0.01, 0.1, 80)

2025-07-07 17:10:23,106 - gym_custom_envs_real_ur_drivers_URBasic_realTimeClientEvent - INFO - Program send to Robot:
servoj([0.09366487611218972, -1.4418805783130255, -1.6260196351587792, -1.5186256386649253, 1.757941982916945, 2.8378491162465767], 0.5, 0.5, 0.01, 0.1, 80)

2025-07-07 17:10:23,122 - gym_custom_envs_real_ur_drivers_URBasic_realTimeClientEvent - INFO - Program send to Robot:
servoj([0.09357374854153584, -1.4419413269895078, -1.6260196351587792, -1.5186408265933662, 1.757941982916945, 2.837864304175018], 0.5, 0.5, 0.01, 0.1, 80)

2025-07-07 17:10:23,130 - gym_custom_envs_real_ur_drivers_URBasic_realTimeClientEvent - INFO - Program send to Robot:
servoj([0.0935728372658293, -1.4419419344762727, -1.6260196351587792, -1.5186409784726507, 1.757941982916945, 2.837864456054302], 0.5, 0.5, 0.01, 0.1, 80)

2025-07-07 17:10:23,138 - gym_custom_envs_real_ur_drivers_URBasic_realTimeClientEvent - INFO - Program send to Robot:
servoj([0.0829423412930245, -1.4464978634911607, -1.6260196351587792, -1.5201596209714503, 1.759460623896952, 2.8424203805131154], 0.5, 0.5, 0.01, 0.1, 80)

2025-07-07 17:10:23,146 - gym_custom_envs_real_ur_drivers_URBasic_realTimeClientEvent - INFO - Program send to Robot:
servoj([0.08283603633329645, -1.4465434227813097, -1.6260196351587792, -1.5201748073964383, 1.759475810306752, 2.8424659397577035], 0.5, 0.5, 0.01, 0.1, 80)

2025-07-07 17:10:23,162 - gym_custom_envs_real_ur_drivers_URBasic_realTimeClientEvent - INFO - Program send to Robot:
servoj([0.08283497328369917, -1.4465438783742113, -1.6260196351587792, -1.5201749592606881, 1.75947596217085, 2.8424663953501494], 0.5, 0.5, 0.01, 0.1, 80)

2025-07-07 17:10:23,170 - gym_custom_envs_real_ur_drivers_URBasic_realTimeClientEvent - INFO - Program send to Robot:
servoj([0.07524175775316935, -1.4495811648901538, -1.6275382761387862, -1.5201749607793307, 1.759475963689491, 2.8485409638261014], 0.5, 0.5, 0.01, 0.1, 80)

2025-07-07 17:10:23,178 - gym_custom_envs_real_ur_drivers_URBasic_realTimeClientEvent - INFO - Program send to Robot:
servoj([0.07516582559786406, -1.4496115377553132, -1.6275534625485863, -1.5201749607945172, 1.7594759637046773, 2.8486017095108607], 0.5, 0.5, 0.01, 0.1, 80)

2025-07-07 17:10:23,186 - gym_custom_envs_real_ur_drivers_URBasic_realTimeClientEvent - INFO - Program send to Robot:
servoj([0.075165066276311, -1.4496118414839647, -1.6275536144126843, -1.520174960794669, 1.7594759637048292, 2.848602316967708], 0.5, 0.5, 0.01, 0.1, 80)

2025-07-07 17:10:23,202 - gym_custom_envs_real_ur_drivers_URBasic_realTimeClientEvent - INFO - Program send to Robot:
servoj([0.06605321280305469, -1.451130485501258, -1.6275536159313253, -1.523212242754684, 1.7594759637048307, 2.8546768869623036], 0.5, 0.5, 0.01, 0.1, 80)

2025-07-07 17:10:23,210 - gym_custom_envs_real_ur_drivers_URBasic_realTimeClientEvent - INFO - Program send to Robot:
servoj([0.06596209426832213, -1.4511456719414308, -1.6275536159465116, -1.5232426155742842, 1.7594759637048307, 2.8547376326622493], 0.5, 0.5, 0.01, 0.1, 80)

2025-07-07 17:10:23,219 - gym_custom_envs_real_ur_drivers_URBasic_realTimeClientEvent - INFO - Program send to Robot:
servoj([0.0659611830829748, -1.4511458238058326, -1.6275536159466635, -1.5232429193024801, 1.7594759637048307, 2.8547382401192487], 0.5, 0.5, 0.01, 0.1, 80)

2025-07-07 17:10:23,226 - gym_custom_envs_real_ur_drivers_URBasic_realTimeClientEvent - INFO - Program send to Robot:
servoj([0.06596117397112132, -1.4511458253244767, -1.627553615946665, -1.523242922339762, 1.7594759637048307, 2.854738246193819], 0.5, 0.5, 0.01, 0.1, 80)

2025-07-07 17:10:23,244 - gym_custom_envs_real_ur_drivers_URBasic_realTimeClientEvent - INFO - Program send to Robot:
servoj([0.05988660995997589, -1.4541831072996767, -1.627553615946665, -1.523242922370135, 1.7594759637048307, 2.8608128101745915], 0.5, 0.5, 0.01, 0.1, 80)

2025-07-07 17:10:23,250 - gym_custom_envs_real_ur_drivers_URBasic_realTimeClientEvent - INFO - Program send to Robot:
servoj([0.05982586431986444, -1.4542134801194286, -1.627553615946665, -1.5232429223704387, 1.7594759637048307, 2.860873555814399], 0.5, 0.5, 0.01, 0.1, 80)

2025-07-07 17:10:23,260 - gym_custom_envs_real_ur_drivers_URBasic_realTimeClientEvent - INFO - Program send to Robot:
servoj([0.05982525686346332, -1.4542137838476261, -1.627553615946665, -1.5232429223704418, 1.7594759637048307, 2.8608741632707972], 0.5, 0.5, 0.01, 0.1, 80)

2025-07-07 17:10:23,274 - gym_custom_envs_real_ur_drivers_URBasic_realTimeClientEvent - INFO - Program send to Robot:
servoj([0.056787968828885864, -1.4557324278649149, -1.627553615946665, -1.5232429223704418, 1.7594759637048307, 2.8669487332653887], 0.5, 0.5, 0.01, 0.1, 80)

2025-07-07 17:10:23,283 - gym_custom_envs_real_ur_drivers_URBasic_realTimeClientEvent - INFO - Program send to Robot:
servoj([0.05675759594854009, -1.4557476143050878, -1.627553615946665, -1.5232429223704418, 1.7594759637048307, 2.867009478965335], 0.5, 0.5, 0.01, 0.1, 80)

2025-07-07 17:10:23,291 - gym_custom_envs_real_ur_drivers_URBasic_realTimeClientEvent - INFO - Program send to Robot:
servoj([0.05675729221973663, -1.4557477661694895, -1.627553615946665, -1.5232429223704418, 1.7594759637048307, 2.8670100864223342], 0.5, 0.5, 0.01, 0.1, 80)

2025-07-07 17:10:23,298 - gym_custom_envs_real_ur_drivers_URBasic_realTimeClientEvent - INFO - Program send to Robot:
servoj([0.055238648202441655, -1.4572664086681406, -1.626034974966658, -1.5232429223704418, 1.7594759637048307, 2.8700473744569175], 0.5, 0.5, 0.01, 0.1, 80)

2025-07-07 17:10:23,314 - gym_custom_envs_real_ur_drivers_URBasic_realTimeClientEvent - INFO - Program send to Robot:
servoj([0.0552234617622687, -1.457281595093127, -1.626019788556858, -1.5232429223704418, 1.7594759637048307, 2.8700777473372634], 0.5, 0.5, 0.01, 0.1, 80)

2025-07-07 17:10:23,322 - gym_custom_envs_real_ur_drivers_URBasic_realTimeClientEvent - INFO - Program send to Robot:
servoj([0.05522330989786697, -1.4572817469573769, -1.62601963669276, -1.5232429223704418, 1.7594759637048307, 2.870078051066067], 0.5, 0.5, 0.01, 0.1, 80)

2025-07-07 17:10:23,331 - gym_custom_envs_real_ur_drivers_URBasic_realTimeClientEvent - INFO - Program send to Robot:
servoj([0.05522330837922296, -1.4588003894560262, -1.6245009941941129, -1.5232429223704418, 1.7594759637048307, 2.8746339770433753], 0.5, 0.5, 0.01, 0.1, 80)

2025-07-07 17:10:23,339 - gym_custom_envs_real_ur_drivers_URBasic_realTimeClientEvent - INFO - Program send to Robot:
servoj([0.055223308364036515, -1.4588155758810126, -1.6244858077691264, -1.5232429223704418, 1.7594759637048307, 2.8746795363031485], 0.5, 0.5, 0.01, 0.1, 80)

2025-07-07 17:10:23,355 - gym_custom_envs_real_ur_drivers_URBasic_realTimeClientEvent - INFO - Program send to Robot:
servoj([0.05522330836388465, -1.4588157277452625, -1.6244856559048766, -1.5232429223704418, 1.7594759637048307, 2.874679991895746], 0.5, 0.5, 0.01, 0.1, 80)

2025-07-07 17:10:23,364 - gym_custom_envs_real_ur_drivers_URBasic_realTimeClientEvent - INFO - Program send to Robot:
servoj([0.053704667383876185, -1.4603343702439118, -1.622967013406227, -1.5232429223704418, 1.7594759637048307, 2.876198637431679], 0.5, 0.5, 0.01, 0.1, 80)

2025-07-07 17:10:23,369 - gym_custom_envs_real_ur_drivers_URBasic_realTimeClientEvent - INFO - Program send to Robot:
servoj([0.0536894809740761, -1.4603495566688982, -1.6229518269812406, -1.5232429223704418, 1.7594759637048307, 2.876213823887038], 0.5, 0.5, 0.01, 0.1, 80)

2025-07-07 17:10:23,380 - gym_custom_envs_real_ur_drivers_URBasic_realTimeClientEvent - INFO - Program send to Robot:
servoj([0.053689329109978104, -1.460349708533148, -1.6229516751169908, -1.5232429223704418, 1.7594759637048307, 2.876213975751592], 0.5, 0.5, 0.01, 0.1, 80)

2025-07-07 17:10:23,394 - gym_custom_envs_real_ur_drivers_URBasic_realTimeClientEvent - INFO - Program send to Robot:
servoj([0.05217068661133062, -1.4603497100517906, -1.6214330326183413, -1.5232429223704418, 1.7594759637048307, 2.876213977270237], 0.5, 0.5, 0.01, 0.1, 80)

2025-07-07 17:10:23,404 - gym_custom_envs_real_ur_drivers_URBasic_realTimeClientEvent - INFO - Program send to Robot:
servoj([0.05215550018634415, -1.4603497100669771, -1.6214178461933548, -1.5232429223704418, 1.7594759637048307, 2.8762139772854236], 0.5, 0.5, 0.01, 0.1, 80)

2025-07-07 17:10:23,412 - gym_custom_envs_real_ur_drivers_URBasic_realTimeClientEvent - INFO - Program send to Robot:
servoj([0.05215534832209428, -1.460349710067129, -1.621417694329105, -1.5232429223704418, 1.7594759637048307, 2.8762139772855755], 0.5, 0.5, 0.01, 0.1, 80)

2025-07-07 17:10:23,427 - gym_custom_envs_real_ur_drivers_URBasic_realTimeClientEvent - INFO - Program send to Robot:
servoj([0.04911806484343789, -1.461868351047137, -1.6214176928104624, -1.5232429223704418, 1.7594759637048307, 2.8762139772855773], 0.5, 0.5, 0.01, 0.1, 80)

2025-07-07 17:10:23,435 - gym_custom_envs_real_ur_drivers_URBasic_realTimeClientEvent - INFO - Program send to Robot:
servoj([0.049087692008651325, -1.4618835374569372, -1.621417692795276, -1.5232429223704418, 1.7594759637048307, 2.8762139772855773], 0.5, 0.5, 0.01, 0.1, 80)

2025-07-07 17:10:23,442 - gym_custom_envs_real_ur_drivers_URBasic_realTimeClientEvent - INFO - Program send to Robot:
servoj([0.049087388280303464, -1.4618836893210352, -1.621417692795124, -1.5232429223704418, 1.7594759637048307, 2.8762139772855773], 0.5, 0.5, 0.01, 0.1, 80)

2025-07-07 17:10:23,451 - gym_custom_envs_real_ur_drivers_URBasic_realTimeClientEvent - INFO - Program send to Robot:
servoj([0.04908738524301998, -1.4618836908396762, -1.6214176927951227, -1.5232429223704418, 1.7594759637048307, 2.8762139772855773], 0.5, 0.5, 0.01, 0.1, 80)

2025-07-07 17:10:23,466 - gym_custom_envs_real_ur_drivers_URBasic_realTimeClientEvent - INFO - Program send to Robot:
servoj([0.044531462272626755, -1.4634023318348695, -1.619899051815116, -1.5232429223704418, 1.7609946046848368, 2.8762139772855773], 0.5, 0.5, 0.01, 0.1, 80)

2025-07-07 17:10:23,475 - gym_custom_envs_real_ur_drivers_URBasic_realTimeClientEvent - INFO - Program send to Robot:
servoj([0.044485903042922825, -1.4634175182448212, -1.6198838654053158, -1.5232429223704418, 1.761009791094637, 2.8762139772855773], 0.5, 0.5, 0.01, 0.1, 80)

2025-07-07 17:10:23,484 - gym_custom_envs_real_ur_drivers_URBasic_realTimeClientEvent - INFO - Program send to Robot:
servoj([0.044485447450625784, -1.4634176701089208, -1.6198837135412179, -1.5232429223704418, 1.761009942958735, 2.8762139772855773], 0.5, 0.5, 0.01, 0.1, 80)

2025-07-07 17:10:23,500 - gym_custom_envs_real_ur_drivers_URBasic_realTimeClientEvent - INFO - Program send to Robot:
servoj([0.04144816093468936, -1.4664549535875753, -1.6198837120225769, -1.5232429223704418, 1.761009944477376, 2.8762139772855773], 0.5, 0.5, 0.01, 0.1, 80)

2025-07-07 17:10:23,509 - gym_custom_envs_real_ur_drivers_URBasic_realTimeClientEvent - INFO - Program send to Robot:
servoj([0.04141778806953, -1.4664853264223618, -1.6198837120073903, -1.5232429223704418, 1.7610099444925624, 2.8762139772855773], 0.5, 0.5, 0.01, 0.1, 80)

2025-07-07 17:10:23,514 - gym_custom_envs_real_ur_drivers_URBasic_realTimeClientEvent - INFO - Program send to Robot:
servoj([0.041417484340878406, -1.4664856301507099, -1.6198837120072385, -1.5232429223704418, 1.761009944492714, 2.8762139772855773], 0.5, 0.5, 0.01, 0.1, 80)

2025-07-07 17:10:23,529 - gym_custom_envs_real_ur_drivers_URBasic_realTimeClientEvent - INFO - Program send to Robot:
servoj([0.03838019934357844, -1.469522915148007, -1.619883712007237, -1.5232429223704418, 1.7610099444927156, 2.8762139772855773], 0.5, 0.5, 0.01, 0.1, 80)

2025-07-07 17:10:23,537 - gym_custom_envs_real_ur_drivers_URBasic_realTimeClientEvent - INFO - Program send to Robot:
servoj([0.038349826493605445, -1.46955328799798, -1.619883712007237, -1.5232429223704418, 1.7610099444927156, 2.8762139772855773], 0.5, 0.5, 0.01, 0.1, 80)

2025-07-07 17:10:23,548 - gym_custom_envs_real_ur_drivers_URBasic_realTimeClientEvent - INFO - Program send to Robot:
servoj([0.03834952276510571, -1.4695535917264797, -1.619883712007237, -1.5232429223704418, 1.7610099444927156, 2.8762139772855773], 0.5, 0.5, 0.01, 0.1, 80)

2025-07-07 17:10:23,562 - gym_custom_envs_real_ur_drivers_URBasic_realTimeClientEvent - INFO - Program send to Robot:
servoj([0.03379359678780031, -1.4710722357437713, -1.619883712007237, -1.5232429223704418, 1.7610099444927156, 2.8762139772855773], 0.5, 0.5, 0.01, 0.1, 80)

2025-07-07 17:10:23,572 - gym_custom_envs_real_ur_drivers_URBasic_realTimeClientEvent - INFO - Program send to Robot:
servoj([0.03374803752802726, -1.471087422183944, -1.619883712007237, -1.5232429223704418, 1.7610099444927156, 2.8762139772855773], 0.5, 0.5, 0.01, 0.1, 80)

2025-07-07 17:10:23,580 - gym_custom_envs_real_ur_drivers_URBasic_realTimeClientEvent - INFO - Program send to Robot:
servoj([0.03374758193542953, -1.4710875740483458, -1.619883712007237, -1.5232429223704418, 1.7610099444927156, 2.8762139772855773], 0.5, 0.5, 0.01, 0.1, 80)

2025-07-07 17:10:23,586 - gym_custom_envs_real_ur_drivers_URBasic_realTimeClientEvent - INFO - Program send to Robot:
servoj([0.030710295419490108, -1.4710875755669899, -1.619883712007237, -1.5232429223704418, 1.7610099444927156, 2.8762139772855773], 0.5, 0.5, 0.01, 0.1, 80)

2025-07-07 17:10:23,605 - gym_custom_envs_real_ur_drivers_URBasic_realTimeClientEvent - INFO - Program send to Robot:
servoj([0.03067992255433071, -1.4710875755821764, -1.619883712007237, -1.5232429223704418, 1.7610099444927156, 2.8762139772855773], 0.5, 0.5, 0.01, 0.1, 80)

2025-07-07 17:10:23,610 - gym_custom_envs_real_ur_drivers_URBasic_realTimeClientEvent - INFO - Program send to Robot:
servoj([0.030679618825679118, -1.4710875755823283, -1.619883712007237, -1.5232429223704418, 1.7610099444927156, 2.8762139772855773], 0.5, 0.5, 0.01, 0.1, 80)

2025-07-07 17:10:23,621 - gym_custom_envs_real_ur_drivers_URBasic_realTimeClientEvent - INFO - Program send to Robot:
servoj([0.02612369284837221, -1.4726062165623364, -1.619883712007237, -1.5232429223704418, 1.7610099444927156, 2.8762139772855773], 0.5, 0.5, 0.01, 0.1, 80)

2025-07-07 17:10:23,634 - gym_custom_envs_real_ur_drivers_URBasic_realTimeClientEvent - INFO - Program send to Robot:
servoj([0.02607813358859914, -1.4726214029721365, -1.619883712007237, -1.5232429223704418, 1.7610099444927156, 2.8762139772855773], 0.5, 0.5, 0.01, 0.1, 80)

2025-07-07 17:10:23,646 - gym_custom_envs_real_ur_drivers_URBasic_realTimeClientEvent - INFO - Program send to Robot:
servoj([0.02607767799600141, -1.4726215548362345, -1.619883712007237, -1.5232429223704418, 1.7610099444927156, 2.8762139772855773], 0.5, 0.5, 0.01, 0.1, 80)

2025-07-07 17:10:23,650 - gym_custom_envs_real_ur_drivers_URBasic_realTimeClientEvent - INFO - Program send to Robot:
servoj([0.023040391480061984, -1.4726215563548755, -1.619883712007237, -1.5232429223704418, 1.7625285854727224, 2.8762139772855773], 0.5, 0.5, 0.01, 0.1, 80)

2025-07-07 17:10:23,670 - gym_custom_envs_real_ur_drivers_URBasic_realTimeClientEvent - INFO - Program send to Robot:
servoj([0.02301001861490259, -1.472621556370062, -1.619883712007237, -1.5232429223704418, 1.7625437718825225, 2.8762139772855773], 0.5, 0.5, 0.01, 0.1, 80)

2025-07-07 17:10:23,674 - gym_custom_envs_real_ur_drivers_URBasic_realTimeClientEvent - INFO - Program send to Robot:
servoj([0.023009714886250997, -1.4726215563702139, -1.619883712007237, -1.5232429223704418, 1.7625439237466205, 2.8762139772855773], 0.5, 0.5, 0.01, 0.1, 80)

2025-07-07 17:10:23,693 - gym_custom_envs_real_ur_drivers_URBasic_realTimeClientEvent - INFO - Program send to Robot:
servoj([0.01997242988895059, -1.4741401973502224, -1.61836507102723, -1.5232429223704418, 1.7625439252652615, 2.8762139772855773], 0.5, 0.5, 0.01, 0.1, 80)

2025-07-07 17:10:23,698 - gym_custom_envs_real_ur_drivers_URBasic_realTimeClientEvent - INFO - Program send to Robot:
servoj([0.019942057038977584, -1.4741553837600223, -1.61834988461743, -1.5232429223704418, 1.762543925280448, 2.8762139772855773], 0.5, 0.5, 0.01, 0.1, 80)

2025-07-07 17:10:23,706 - gym_custom_envs_real_ur_drivers_URBasic_realTimeClientEvent - INFO - Program send to Robot:
servoj([0.019941753310477855, -1.4741555356241205, -1.618349732753332, -1.5232429223704418, 1.7625439252805999, 2.8762139772855773], 0.5, 0.5, 0.01, 0.1, 80)

2025-07-07 17:10:23,721 - gym_custom_envs_real_ur_drivers_URBasic_realTimeClientEvent - INFO - Program send to Robot:
servoj([0.01994175027319286, -1.4741555371427613, -1.618349731234691, -1.5232429223704418, 1.7625439252806012, 2.8762139772855773], 0.5, 0.5, 0.01, 0.1, 80)

2025-07-07 17:10:23,729 - gym_custom_envs_real_ur_drivers_URBasic_realTimeClientEvent - INFO - Program send to Robot:
servoj([0.01994175024282001, -1.4741555371579478, -1.6183497312195045, -1.5232429223704418, 1.7625439252806014, 2.8762139772855773], 0.5, 0.5, 0.01, 0.1, 80)

2025-07-07 17:10:23,741 - gym_custom_envs_real_ur_drivers_URBasic_realTimeClientEvent - INFO - Program send to Robot:
servoj([0.01994175024251628, -1.4741555371580997, -1.6183497312193527, -1.5232429223704418, 1.7625439252806014, 2.8762139772855773], 0.5, 0.5, 0.01, 0.1, 80)

2025-07-07 17:10:23,754 - gym_custom_envs_real_ur_drivers_URBasic_realTimeClientEvent - INFO - Program send to Robot:
servoj([0.01842310926250674, -1.4741555371581012, -1.618349731219351, -1.5232429223704418, 1.7625439252806014, 2.8762139772855773], 0.5, 0.5, 0.01, 0.1, 80)

2025-07-07 17:10:23,766 - gym_custom_envs_real_ur_drivers_URBasic_realTimeClientEvent - INFO - Program send to Robot:
servoj([0.01840792285270664, -1.4741555371581012, -1.618349731219351, -1.5232429223704418, 1.7625439252806014, 2.8762139772855773], 0.5, 0.5, 0.01, 0.1, 80)

2025-07-07 17:10:23,770 - gym_custom_envs_real_ur_drivers_URBasic_realTimeClientEvent - INFO - Program send to Robot:
servoj([0.01840777098860864, -1.4741555371581012, -1.618349731219351, -1.5232429223704418, 1.7625439252806014, 2.8762139772855773], 0.5, 0.5, 0.01, 0.1, 80)

2025-07-07 17:10:23,789 - gym_custom_envs_real_ur_drivers_URBasic_realTimeClientEvent - INFO - Program send to Robot:
servoj([0.01840776946996766, -1.475674178138108, -1.616831090239345, -1.5232429223704418, 1.7625439252806014, 2.8762139772855773], 0.5, 0.5, 0.01, 0.1, 80)

2025-07-07 17:10:23,797 - gym_custom_envs_real_ur_drivers_URBasic_realTimeClientEvent - INFO - Program send to Robot:
servoj([0.018407769454781252, -1.4756893645479081, -1.616815903829545, -1.5232429223704418, 1.7625439252806014, 2.8762139772855773], 0.5, 0.5, 0.01, 0.1, 80)

2025-07-07 17:10:23,803 - gym_custom_envs_real_ur_drivers_URBasic_realTimeClientEvent - INFO - Program send to Robot:
servoj([0.018407769454629387, -1.475689516412006, -1.616815751965447, -1.5232429223704418, 1.7625439252806014, 2.8762139772855773], 0.5, 0.5, 0.01, 0.1, 80)

2025-07-07 17:10:23,820 - gym_custom_envs_real_ur_drivers_URBasic_realTimeClientEvent - INFO - Program send to Robot:
servoj([0.015370487494613979, -1.4772081589106538, -1.615297109466799, -1.5232429223704418, 1.7625439252806014, 2.8762139772855773], 0.5, 0.5, 0.01, 0.1, 80)

2025-07-07 17:10:23,826 - gym_custom_envs_real_ur_drivers_URBasic_realTimeClientEvent - INFO - Program send to Robot:
servoj([0.015340114675013825, -1.4772233453356403, -1.6152819230418125, -1.5232429223704418, 1.7625439252806014, 2.8762139772855773], 0.5, 0.5, 0.01, 0.1, 80)

2025-07-07 17:10:23,837 - gym_custom_envs_real_ur_drivers_URBasic_realTimeClientEvent - INFO - Program send to Robot:
servoj([0.015339810946817824, -1.47722349719989, -1.6152817711775627, -1.5232429223704418, 1.7625439252806014, 2.8762139772855773], 0.5, 0.5, 0.01, 0.1, 80)

2025-07-07 17:10:23,850 - gym_custom_envs_real_ur_drivers_URBasic_realTimeClientEvent - INFO - Program send to Robot:
servoj([0.012302525949522415, -1.4787421396985396, -1.6137631286789131, -1.5247615633504485, 1.7625439252806014, 2.877732618265584], 0.5, 0.5, 0.01, 0.1, 80)

2025-07-07 17:10:23,861 - gym_custom_envs_real_ur_drivers_URBasic_realTimeClientEvent - INFO - Program send to Robot:
servoj([0.012272153099549462, -1.478757326123526, -1.6137479422539267, -1.5247767497602485, 1.7625439252806014, 2.877747804675384], 0.5, 0.5, 0.01, 0.1, 80)

2025-07-07 17:10:23,869 - gym_custom_envs_real_ur_drivers_URBasic_realTimeClientEvent - INFO - Program send to Robot:
servoj([0.012271849371049732, -1.478757477987776, -1.6137477903896769, -1.5247769016243466, 1.7625439252806014, 2.877747956539482], 0.5, 0.5, 0.01, 0.1, 80)

2025-07-07 17:10:23,874 - gym_custom_envs_real_ur_drivers_URBasic_realTimeClientEvent - INFO - Program send to Robot:
servoj([0.0077159233937443405, -1.4802761204864252, -1.6107105069110206, -1.5247769031429876, 1.7625439252806014, 2.876229317078116], 0.5, 0.5, 0.01, 0.1, 80)

2025-07-07 17:10:23,890 - gym_custom_envs_real_ur_drivers_URBasic_realTimeClientEvent - INFO - Program send to Robot:
servoj([0.007670364133971286, -1.4802913069114116, -1.610680134076234, -1.524776903158174, 1.7625439252806014, 2.8762141306835027], 0.5, 0.5, 0.01, 0.1, 80)

2025-07-07 17:10:23,899 - gym_custom_envs_real_ur_drivers_URBasic_realTimeClientEvent - INFO - Program send to Robot:
servoj([0.007669908541373556, -1.4802914587756615, -1.6106798303478862, -1.5247769031583258, 1.7625439252806014, 2.8762139788195564], 0.5, 0.5, 0.01, 0.1, 80)

2025-07-07 17:10:23,908 - gym_custom_envs_real_ur_drivers_URBasic_realTimeClientEvent - INFO - Program send to Robot:
servoj([0.0031139810454271846, -1.480291460294304, -1.6076425453505896, -1.5247769031583274, 1.7625439252806014, 2.8777326182809237], 0.5, 0.5, 0.01, 0.1, 80)

2025-07-07 17:10:23,922 - gym_custom_envs_real_ur_drivers_URBasic_realTimeClientEvent - INFO - Program send to Robot:
servoj([0.003068421770467721, -1.4802914603094905, -1.6076121725006167, -1.5247769031583274, 1.7625439252806014, 2.8777478046755376], 0.5, 0.5, 0.01, 0.1, 80)

2025-07-07 17:10:23,932 - gym_custom_envs_real_ur_drivers_URBasic_realTimeClientEvent - INFO - Program send to Robot:
servoj([0.0030679661777181263, -1.4802914603096424, -1.607611868772117, -1.5247769031583274, 1.7625439252806014, 2.8777479565394835], 0.5, 0.5, 0.01, 0.1, 80)

2025-07-07 17:10:23,939 - gym_custom_envs_real_ur_drivers_URBasic_realTimeClientEvent - INFO - Program send to Robot:
servoj([-0.0014879613182297632, -1.4818101012896503, -1.603055942794811, -1.5247769031583274, 1.7610252843005947, 2.8823038809981436], 0.5, 0.5, 0.01, 0.1, 80)

2025-07-07 17:10:23,945 - gym_custom_envs_real_ur_drivers_URBasic_realTimeClientEvent - INFO - Program send to Robot:
servoj([-0.001533520593189242, -1.4818252876994504, -1.603010383535038, -1.5247769031583274, 1.7610100978907945, 2.8823494402427303], 0.5, 0.5, 0.01, 0.1, 80)

2025-07-07 17:10:23,963 - gym_custom_envs_real_ur_drivers_URBasic_realTimeClientEvent - INFO - Program send to Robot:
servoj([-0.0015339761859388369, -1.4818254395635484, -1.6030099279424401, -1.5247769031583274, 1.7610099460266966, 2.8823498958351763], 0.5, 0.5, 0.01, 0.1, 80)

2025-07-07 17:10:23,970 - gym_custom_envs_real_ur_drivers_URBasic_realTimeClientEvent - INFO - Program send to Robot:
servoj([-0.0030526217218728377, -1.4818254410821894, -1.5999726414265014, -1.5247769031583274, 1.7610099445080556, 2.8838685413711067], 0.5, 0.5, 0.01, 0.1, 80)

2025-07-07 17:10:23,979 - gym_custom_envs_real_ur_drivers_URBasic_realTimeClientEvent - INFO - Program send to Robot:
servoj([-0.0030678081772321777, -1.481825441097376, -1.599942268561342, -1.5247769031583274, 1.761009944492869, 2.883883727826466], 0.5, 0.5, 0.01, 0.1, 80)

2025-07-07 17:10:23,988 - gym_custom_envs_real_ur_drivers_URBasic_realTimeClientEvent - INFO - Program send to Robot:
servoj([-0.003067960041785771, -1.4818254410975278, -1.5999419648326905, -1.5247769031583274, 1.7610099444927172, 2.88388387969102], 0.5, 0.5, 0.01, 0.1, 80)

2025-07-07 17:10:24,004 - gym_custom_envs_real_ur_drivers_URBasic_realTimeClientEvent - INFO - Program send to Robot:
servoj([-0.004586602540438251, -1.4818254410975293, -1.5953860388553829, -1.5247769031583274, 1.7610099444927156, 2.883883881209665], 0.5, 0.5, 0.01, 0.1, 80)

2025-07-07 17:10:24,012 - gym_custom_envs_real_ur_drivers_URBasic_realTimeClientEvent - INFO - Program send to Robot:
servoj([-0.0046017889654247765, -1.4818254410975293, -1.5953404795956099, -1.5247769031583274, 1.7610099444927156, 2.8838838812248517], 0.5, 0.5, 0.01, 0.1, 80)

2025-07-07 17:10:24,018 - gym_custom_envs_real_ur_drivers_URBasic_realTimeClientEvent - INFO - Program send to Robot:
servoj([-0.004601940829674641, -1.4818254410975293, -1.5953400240030122, -1.5247769031583274, 1.7610099444927156, 2.8838838812250036], 0.5, 0.5, 0.01, 0.1, 80)

2025-07-07 17:10:24,036 - gym_custom_envs_real_ur_drivers_URBasic_realTimeClientEvent - INFO - Program send to Robot:
servoj([-0.009157865288337534, -1.483344082077536, -1.5907840965070663, -1.5247769031583274, 1.7610099444927156, 2.8838838812250054], 0.5, 0.5, 0.01, 0.1, 80)

2025-07-07 17:10:24,042 - gym_custom_envs_real_ur_drivers_URBasic_realTimeClientEvent - INFO - Program send to Robot:
servoj([-0.009203424532924163, -1.483359268487336, -1.5907385372321068, -1.5247769031583274, 1.7610099444927156, 2.8838838812250054], 0.5, 0.5, 0.01, 0.1, 80)

2025-07-07 17:10:24,051 - gym_custom_envs_real_ur_drivers_URBasic_realTimeClientEvent - INFO - Program send to Robot:
servoj([-0.00920388012537003, -1.483359420351434, -1.5907380816393573, -1.5247769031583274, 1.7610099444927156, 2.8838838812250054], 0.5, 0.5, 0.01, 0.1, 80)

2025-07-07 17:10:24,066 - gym_custom_envs_real_ur_drivers_URBasic_realTimeClientEvent - INFO - Program send to Robot:
servoj([-0.01375980762131488, -1.483359421870075, -1.586182154143409, -1.5247769031583274, 1.7610099444927156, 2.8838838812250054], 0.5, 0.5, 0.01, 0.1, 80)

2025-07-07 17:10:24,075 - gym_custom_envs_real_ur_drivers_URBasic_realTimeClientEvent - INFO - Program send to Robot:
servoj([-0.01380536689627433, -1.4833594218852615, -1.5861365948684494, -1.5247769031583274, 1.7610099444927156, 2.8838838812250054], 0.5, 0.5, 0.01, 0.1, 80)

2025-07-07 17:10:24,083 - gym_custom_envs_real_ur_drivers_URBasic_realTimeClientEvent - INFO - Program send to Robot:
servoj([-0.013805822489023924, -1.4833594218854134, -1.5861361392756999, -1.5247769031583274, 1.7610099444927156, 2.8838838812250054], 0.5, 0.5, 0.01, 0.1, 80)

2025-07-07 17:10:24,090 - gym_custom_envs_real_ur_drivers_URBasic_realTimeClientEvent - INFO - Program send to Robot:
servoj([-0.01380582704495142, -1.483359421885415, -1.5861361347197722, -1.5247769031583274, 1.7610099444927156, 2.8838838812250054], 0.5, 0.5, 0.01, 0.1, 80)

2025-07-07 17:10:24,108 - gym_custom_envs_real_ur_drivers_URBasic_realTimeClientEvent - INFO - Program send to Robot:
servoj([-0.021399031990544538, -1.4894339858054424, -1.581580211734193, -1.5262955441383341, 1.7610099444927156, 2.8838838812250054], 0.5, 0.5, 0.01, 0.1, 80)

2025-07-07 17:10:24,116 - gym_custom_envs_real_ur_drivers_URBasic_realTimeClientEvent - INFO - Program send to Robot:
servoj([-0.02147496404000047, -1.4894947314446425, -1.5815346525043372, -1.5263107305481343, 1.7610099444927156, 2.8838838812250054], 0.5, 0.5, 0.01, 0.1, 80)

2025-07-07 17:10:24,125 - gym_custom_envs_real_ur_drivers_URBasic_realTimeClientEvent - INFO - Program send to Robot:
servoj([-0.02147572336049503, -1.4894953389010346, -1.5815341969120387, -1.5263108824122322, 1.7610099444927156, 2.8838838812250054], 0.5, 0.5, 0.01, 0.1, 80)

2025-07-07 17:10:24,138 - gym_custom_envs_real_ur_drivers_URBasic_realTimeClientEvent - INFO - Program send to Robot:
servoj([-0.03210621781374727, -1.4970885498756323, -1.576978269416095, -1.5263108839308732, 1.7610099444927156, 2.8838838812250054], 0.5, 0.5, 0.01, 0.1, 80)

2025-07-07 17:10:24,148 - gym_custom_envs_real_ur_drivers_URBasic_realTimeClientEvent - INFO - Program send to Robot:
servoj([-0.032212522758279793, -1.4971644819853782, -1.5769327101411355, -1.5263108839460595, 1.7610099444927156, 2.8838838812250054], 0.5, 0.5, 0.01, 0.1, 80)

2025-07-07 17:10:24,155 - gym_custom_envs_real_ur_drivers_URBasic_realTimeClientEvent - INFO - Program send to Robot:
servoj([-0.03221358580772512, -1.4971652413064758, -1.576932254548386, -1.5263108839462114, 1.7610099444927156, 2.8838838812250054], 0.5, 0.5, 0.01, 0.1, 80)

2025-07-07 17:10:24,161 - gym_custom_envs_real_ur_drivers_URBasic_realTimeClientEvent - INFO - Program send to Robot:
servoj([-0.045881365258280744, -1.501721171839707, -1.5738949680324452, -1.5278295249262197, 1.7610099444927156, 2.882365240244999], 0.5, 0.5, 0.01, 0.1, 80)

2025-07-07 17:10:24,178 - gym_custom_envs_real_ur_drivers_URBasic_realTimeClientEvent - INFO - Program send to Robot:
servoj([-0.046018043052786305, -1.5017667311450393, -1.5738645951672858, -1.5278447113360198, 1.7610099444927156, 2.8823500538351987], 0.5, 0.5, 0.01, 0.1, 80)

2025-07-07 17:10:24,186 - gym_custom_envs_real_ur_drivers_URBasic_realTimeClientEvent - INFO - Program send to Robot:
servoj([-0.046019409830731356, -1.5017671867380926, -1.5738642914386343, -1.5278448632001178, 1.7610099444927156, 2.882349901971101], 0.5, 0.5, 0.01, 0.1, 80)

2025-07-07 17:10:24,194 - gym_custom_envs_real_ur_drivers_URBasic_realTimeClientEvent - INFO - Program send to Robot:
servoj([-0.055131269378551596, -1.5048044732540367, -1.570827006441334, -1.532400787658779, 1.7610099444927156, 2.8823499004524598], 0.5, 0.5, 0.01, 0.1, 80)

2025-07-07 17:10:24,202 - gym_custom_envs_real_ur_drivers_URBasic_realTimeClientEvent - INFO - Program send to Robot:
servoj([-0.0552223879740298, -1.504834846119196, -1.570796633591361, -1.5324463469033656, 1.7610099444927156, 2.8823499004372732], 0.5, 0.5, 0.01, 0.1, 80)

2025-07-07 17:10:24,219 - gym_custom_envs_real_ur_drivers_URBasic_realTimeClientEvent - INFO - Program send to Robot:
servoj([-0.055223299159984585, -1.5048351498478478, -1.5707963298628613, -1.5324468024958116, 1.7610099444927156, 2.882349900437122], 0.5, 0.5, 0.01, 0.1, 80)

2025-07-07 17:10:24,228 - gym_custom_envs_real_ur_drivers_URBasic_realTimeClientEvent - INFO - Program send to Robot:
servoj([-0.06281651317187797, -1.5063537938651412, -1.5707963268255762, -1.5370027299917566, 1.7610099444927156, 2.88234990043712], 0.5, 0.5, 0.01, 0.1, 80)

2025-07-07 17:10:24,234 - gym_custom_envs_real_ur_drivers_URBasic_realTimeClientEvent - INFO - Program send to Robot:
servoj([-0.0628924453119969, -1.5063689803053142, -1.5707963267952034, -1.5370482892667159, 1.7610099444927156, 2.88234990043712], 0.5, 0.5, 0.01, 0.1, 80)

2025-07-07 17:10:24,243 - gym_custom_envs_real_ur_drivers_URBasic_realTimeClientEvent - INFO - Program send to Robot:
servoj([-0.0628932046333981, -1.506369132169716, -1.5707963267948997, -1.5370487448594654, 1.7610099444927156, 2.88234990043712], 0.5, 0.5, 0.01, 0.1, 80)

2025-07-07 17:10:24,258 - gym_custom_envs_real_ur_drivers_URBasic_realTimeClientEvent - INFO - Program send to Robot:
servoj([-0.06896777614663945, -1.51092505662838, -1.5707963267948968, -1.5416046723554133, 1.7594913035127095, 2.88234990043712], 0.5, 0.5, 0.01, 0.1, 80)

2025-07-07 17:10:24,268 - gym_custom_envs_real_ur_drivers_URBasic_realTimeClientEvent - INFO - Program send to Robot:
servoj([-0.06902852186177186, -1.5109706158729665, -1.5707963267948966, -1.5416502316303728, 1.7594761171029096, 2.88234990043712], 0.5, 0.5, 0.01, 0.1, 80)

2025-07-07 17:10:24,275 - gym_custom_envs_real_ur_drivers_URBasic_realTimeClientEvent - INFO - Program send to Robot:
servoj([-0.06902912931892319, -1.5109710714654125, -1.5707963267948966, -1.5416506872231224, 1.7594759652388117, 2.88234990043712], 0.5, 0.5, 0.01, 0.1, 80)

2025-07-07 17:10:24,291 - gym_custom_envs_real_ur_drivers_URBasic_realTimeClientEvent - INFO - Program send to Robot:
servoj([-0.0751036993135216, -1.5155269989613573, -1.5707963267948966, -1.5431693327590565, 1.7594759637201707, 2.879312618477106], 0.5, 0.5, 0.01, 0.1, 80)

2025-07-07 17:10:24,298 - gym_custom_envs_real_ur_drivers_URBasic_realTimeClientEvent - INFO - Program send to Robot:
servoj([-0.07516444501346758, -1.5155725582363169, -1.5707963267948966, -1.543184519214416, 1.7594759637049842, 2.879282245657506], 0.5, 0.5, 0.01, 0.1, 80)

2025-07-07 17:10:24,306 - gym_custom_envs_real_ur_drivers_URBasic_realTimeClientEvent - INFO - Program send to Robot:
servoj([-0.07516505247046704, -1.5155730138290664, -1.5707963267948966, -1.5431846710789696, 1.7594759637048323, 2.87928194192931], 0.5, 0.5, 0.01, 0.1, 80)

2025-07-07 17:10:24,314 - gym_custom_envs_real_ur_drivers_URBasic_realTimeClientEvent - INFO - Program send to Robot:
servoj([-0.07516505854503704, -1.515573018384994, -1.5707963267948966, -1.543184672597615, 1.7594759637048307, 2.879281938892028], 0.5, 0.5, 0.01, 0.1, 80)

2025-07-07 17:10:24,329 - gym_custom_envs_real_ur_drivers_URBasic_realTimeClientEvent - INFO - Program send to Robot:
servoj([-0.08275826350581658, -1.5186103003905669, -1.5707963267948966, -1.5431846726128016, 1.7594759637048307, 2.8777632978816485], 0.5, 0.5, 0.01, 0.1, 80)

2025-07-07 17:10:24,339 - gym_custom_envs_real_ur_drivers_URBasic_realTimeClientEvent - INFO - Program send to Robot:
servoj([-0.08283419555542437, -1.5186406732106228, -1.5707963267948966, -1.5431846726129534, 1.7594759637048307, 2.8777481114715444], 0.5, 0.5, 0.01, 0.1, 80)

2025-07-07 17:10:24,348 - gym_custom_envs_real_ur_drivers_URBasic_realTimeClientEvent - INFO - Program send to Robot:
servoj([-0.08283495487592045, -1.5186409769388232, -1.5707963267948966, -1.543184672612955, 1.7594759637048307, 2.8777479596074436], 0.5, 0.5, 0.01, 0.1, 80)

2025-07-07 17:10:24,354 - gym_custom_envs_real_ur_drivers_URBasic_realTimeClientEvent - INFO - Program send to Robot:
servoj([-0.08890952638915275, -1.5186409799761054, -1.5707963267948966, -1.5447033135929618, 1.7594759637048307, 2.8762293171087956], 0.5, 0.5, 0.01, 0.1, 80)

2025-07-07 17:10:24,372 - gym_custom_envs_real_ur_drivers_URBasic_realTimeClientEvent - INFO - Program send to Robot:
servoj([-0.08897027210428507, -1.5186409800064782, -1.5707963267948966, -1.5447185000027617, 1.7594759637048307, 2.876214130683809], 0.5, 0.5, 0.01, 0.1, 80)

2025-07-07 17:10:24,378 - gym_custom_envs_real_ur_drivers_URBasic_realTimeClientEvent - INFO - Program send to Robot:
servoj([-0.0889708795614364, -1.5186409800067817, -1.5707963267948966, -1.5447186518668599, 1.7594759637048307, 2.8762139788195595], 0.5, 0.5, 0.01, 0.1, 80)

2025-07-07 17:10:24,388 - gym_custom_envs_real_ur_drivers_URBasic_realTimeClientEvent - INFO - Program send to Robot:
servoj([-0.09656409053604176, -1.5201596209867916, -1.5707963267948966, -1.5447186533855009, 1.7579573227248237, 2.8746953363209102], 0.5, 0.5, 0.01, 0.1, 80)

2025-07-07 17:10:24,402 - gym_custom_envs_real_ur_drivers_URBasic_realTimeClientEvent - INFO - Program send to Robot:
servoj([-0.0966400226457878, -1.5201748073965917, -1.5707963267948966, -1.5447186534006871, 1.7579421363150238, 2.874680149895924], 0.5, 0.5, 0.01, 0.1, 80)

2025-07-07 17:10:24,411 - gym_custom_envs_real_ur_drivers_URBasic_realTimeClientEvent - INFO - Program send to Robot:
servoj([-0.09664078196688526, -1.5201749592606897, -1.5707963267948966, -1.544718653400839, 1.7579419844509256, 2.8746799980316737], 0.5, 0.5, 0.01, 0.1, 80)

2025-07-07 17:10:24,420 - gym_custom_envs_real_ur_drivers_URBasic_realTimeClientEvent - INFO - Program send to Robot:
servoj([-0.10271535348012358, -1.5232122427393442, -1.5707963267948966, -1.5432000124208338, 1.7579419829322847, 2.874679996513031], 0.5, 0.5, 0.01, 0.1, 80)

2025-07-07 17:10:24,436 - gym_custom_envs_real_ur_drivers_URBasic_realTimeClientEvent - INFO - Program send to Robot:
servoj([-0.10277609919525596, -1.5232426155741308, -1.5707963267948966, -1.5431848260110337, 1.7579419829170984, 2.874679996497845], 0.5, 0.5, 0.01, 0.1, 80)

2025-07-07 17:10:24,444 - gym_custom_envs_real_ur_drivers_URBasic_realTimeClientEvent - INFO - Program send to Robot:
servoj([-0.10277670665240729, -1.5232429193024786, -1.5707963267948966, -1.5431846741469357, 1.7579419829169465, 2.8746799964976932], 0.5, 0.5, 0.01, 0.1, 80)

2025-07-07 17:10:24,451 - gym_custom_envs_real_ur_drivers_URBasic_realTimeClientEvent - INFO - Program send to Robot:
servoj([-0.11036991762701265, -1.5262802042997756, -1.5707963267948966, -1.5431846726282947, 1.756423341936938, 2.8746799964976915], 0.5, 0.5, 0.01, 0.1, 80)

2025-07-07 17:10:24,469 - gym_custom_envs_real_ur_drivers_URBasic_realTimeClientEvent - INFO - Program send to Robot:
servoj([-0.1104458497367587, -1.5263105771497485, -1.5707963267948966, -1.5431846726131084, 1.7564081555271378, 2.8746799964976915], 0.5, 0.5, 0.01, 0.1, 80)

2025-07-07 17:10:24,473 - gym_custom_envs_real_ur_drivers_URBasic_realTimeClientEvent - INFO - Program send to Robot:
servoj([-0.11044660905785617, -1.5263108808782484, -1.5707963267948966, -1.5431846726129566, 1.7564080036630398, 2.8746799964976915], 0.5, 0.5, 0.01, 0.1, 80)

2025-07-07 17:10:24,490 - gym_custom_envs_real_ur_drivers_URBasic_realTimeClientEvent - INFO - Program send to Robot:
servoj([-0.11955846253110791, -1.5263108839155333, -1.5692776858148896, -1.543184672612955, 1.7564080021443988, 2.8746799964976915], 0.5, 0.5, 0.01, 0.1, 80)

2025-07-07 17:10:24,498 - gym_custom_envs_real_ur_drivers_URBasic_realTimeClientEvent - INFO - Program send to Robot:
servoj([-0.11964958106584044, -1.526310883945906, -1.5692624994050897, -1.543184672612955, 1.7564080021292126, 2.8746799964976915], 0.5, 0.5, 0.01, 0.1, 80)

2025-07-07 17:10:24,509 - gym_custom_envs_real_ur_drivers_URBasic_realTimeClientEvent - INFO - Program send to Robot:
servoj([-0.11965049225118776, -1.5263108839462098, -1.5692623475409917, -1.543184672612955, 1.7564080021290607, 2.8746799964976915], 0.5, 0.5, 0.01, 0.1, 80)

2025-07-07 17:10:24,522 - gym_custom_envs_real_ur_drivers_URBasic_realTimeClientEvent - INFO - Program send to Robot:
servoj([-0.13028098822308853, -1.5278295249262197, -1.5692623460223507, -1.543184672612955, 1.7548893611490521, 2.8731613555176847], 0.5, 0.5, 0.01, 0.1, 80)

2025-07-07 17:10:24,533 - gym_custom_envs_real_ur_drivers_URBasic_realTimeClientEvent - INFO - Program send to Robot:
servoj([-0.13038729318280753, -1.5278447113360198, -1.5692623460071642, -1.543184672612955, 1.754874174739252, 2.873146169107885], 0.5, 0.5, 0.01, 0.1, 80)

2025-07-07 17:10:24,540 - gym_custom_envs_real_ur_drivers_URBasic_realTimeClientEvent - INFO - Program send to Robot:
servoj([-0.13038835623240472, -1.5278448632001178, -1.5692623460070123, -1.543184672612955, 1.754874022875154, 2.8731460172437866], 0.5, 0.5, 0.01, 0.1, 80)

2025-07-07 17:10:24,546 - gym_custom_envs_real_ur_drivers_URBasic_realTimeClientEvent - INFO - Program send to Robot:
servoj([-0.14101885372294842, -1.5278448647187588, -1.5692623460070108, -1.543184672612955, 1.75639266233652, 2.867071451805119], 0.5, 0.5, 0.01, 0.1, 80)

2025-07-07 17:10:24,565 - gym_custom_envs_real_ur_drivers_URBasic_realTimeClientEvent - INFO - Program send to Robot:
servoj([-0.14112515869785386, -1.527844864733945, -1.5692623460070108, -1.543184672612955, 1.7564078487311336, 2.867010706150732], 0.5, 0.5, 0.01, 0.1, 80)

2025-07-07 17:10:24,570 - gym_custom_envs_real_ur_drivers_URBasic_realTimeClientEvent - INFO - Program send to Robot:
servoj([-0.14112622174760292, -1.527844864734097, -1.5692623460070108, -1.543184672612955, 1.75640800059508, 2.867010098694188], 0.5, 0.5, 0.01, 0.1, 80)

2025-07-07 17:10:24,590 - gym_custom_envs_real_ur_drivers_URBasic_realTimeClientEvent - INFO - Program send to Robot:
servoj([-0.15023807825814076, -1.5293635057141055, -1.5692623460070108, -1.543184672612955, 1.7564080021137194, 2.860935528699595], 0.5, 0.5, 0.01, 0.1, 80)

2025-07-07 17:10:24,594 - gym_custom_envs_real_ur_drivers_URBasic_realTimeClientEvent - INFO - Program send to Robot:
servoj([-0.15032919682324614, -1.5293786921239056, -1.5692623460070108, -1.543184672612955, 1.7564080021289057, 2.8608747829996495], 0.5, 0.5, 0.01, 0.1, 80)

2025-07-07 17:10:24,615 - gym_custom_envs_real_ur_drivers_URBasic_realTimeClientEvent - INFO - Program send to Robot:
servoj([-0.16096059486894493, -1.532416125948017, -1.5692623460070108, -1.543184672612955, 1.7564080021290576, 2.8547996116226226], 0.5, 0.5, 0.01, 0.1, 80)

2025-07-07 17:10:24,618 - gym_custom_envs_real_ur_drivers_URBasic_realTimeClientEvent - INFO - Program send to Robot:
servoj([-0.16106690884940192, -1.532446500286258, -1.5692623460070108, -1.543184672612955, 1.7564080021290591, 2.8547388599088523], 0.5, 0.5, 0.01, 0.1, 80)

2025-07-07 17:10:24,634 - gym_custom_envs_real_ur_drivers_URBasic_realTimeClientEvent - INFO - Program send to Robot:
servoj([-0.1610679719892065, -1.5324468040296404, -1.5692623460070108, -1.543184672612955, 1.7564080021290591, 2.854738252391715], 0.5, 0.5, 0.01, 0.1, 80)

2025-07-07 17:10:24,642 - gym_custom_envs_real_ur_drivers_URBasic_realTimeClientEvent - INFO - Program send to Robot:
servoj([-0.1701798285006453, -1.5324468070670743, -1.5692623460070108, -1.543184672612955, 1.7548893611490521, 2.848663682396517], 0.5, 0.5, 0.01, 0.1, 80)

2025-07-07 17:10:24,652 - gym_custom_envs_real_ur_drivers_URBasic_realTimeClientEvent - INFO - Program send to Robot:
servoj([-0.1702709470657597, -1.5324468070974486, -1.5692623460070108, -1.543184672612955, 1.754874174739252, 2.848602936696565], 0.5, 0.5, 0.01, 0.1, 80)

2025-07-07 17:10:24,666 - gym_custom_envs_real_ur_drivers_URBasic_realTimeClientEvent - INFO - Program send to Robot:
servoj([-0.17027185825141083, -1.5324468070977524, -1.5692623460070108, -1.543184672612955, 1.754874022875154, 2.8486023292395655], 0.5, 0.5, 0.01, 0.1, 80)

2025-07-07 17:10:24,676 - gym_custom_envs_real_ur_drivers_URBasic_realTimeClientEvent - INFO - Program send to Robot:
servoj([-0.1793837132433077, -1.5339654480777623, -1.5692623460070108, -1.543184672612955, 1.754874021356513, 2.842527759244968], 0.5, 0.5, 0.01, 0.1, 80)

2025-07-07 17:10:24,681 - gym_custom_envs_real_ur_drivers_URBasic_realTimeClientEvent - INFO - Program send to Robot:
servoj([-0.17947483179322668, -1.5339806344875622, -1.5692623460070108, -1.543184672612955, 1.7548740213413268, 2.842467013545022], 0.5, 0.5, 0.01, 0.1, 80)

2025-07-07 17:10:24,690 - gym_custom_envs_real_ur_drivers_URBasic_realTimeClientEvent - INFO - Program send to Robot:
servoj([-0.17947574297872587, -1.5339807863516601, -1.5692623460070108, -1.543184672612955, 1.7548740213411749, 2.8424664060880227], 0.5, 0.5, 0.01, 0.1, 80)

2025-07-07 17:10:24,710 - gym_custom_envs_real_ur_drivers_URBasic_realTimeClientEvent - INFO - Program send to Robot:
servoj([-0.18706895699061515, -1.5339807878703011, -1.5692623460070108, -1.543184672612955, 1.7548740213411733, 2.839429118053439], 0.5, 0.5, 0.01, 0.1, 80)

2025-07-07 17:10:24,714 - gym_custom_envs_real_ur_drivers_URBasic_realTimeClientEvent - INFO - Program send to Robot:
servoj([-0.18714488913073404, -1.5339807878854876, -1.5692623460070108, -1.543184672612955, 1.7548740213411733, 2.839398745173093], 0.5, 0.5, 0.01, 0.1, 80)

2025-07-07 17:10:24,731 - gym_custom_envs_real_ur_drivers_URBasic_realTimeClientEvent - INFO - Program send to Robot:
servoj([-0.18714564845213522, -1.5339807878856395, -1.5692623460070108, -1.543184672612955, 1.7548740213411733, 2.8393984414442897], 0.5, 0.5, 0.01, 0.1, 80)

2025-07-07 17:10:24,738 - gym_custom_envs_real_ur_drivers_URBasic_realTimeClientEvent - INFO - Program send to Robot:
servoj([-0.19625750192539002, -1.533980787885641, -1.5692623460070108, -1.543184672612955, 1.7548740213411733, 2.8348425154669807], 0.5, 0.5, 0.01, 0.1, 80)

2025-07-07 17:10:24,750 - gym_custom_envs_real_ur_drivers_URBasic_realTimeClientEvent - INFO - Program send to Robot:
servoj([-0.19634862046012255, -1.533980787885641, -1.5692623460070108, -1.543184672612955, 1.7548740213411733, 2.834796956207208], 0.5, 0.5, 0.01, 0.1, 80)

2025-07-07 17:10:24,762 - gym_custom_envs_real_ur_drivers_URBasic_realTimeClientEvent - INFO - Program send to Robot:
servoj([-0.1963495316454699, -1.533980787885641, -1.5692623460070108, -1.543184672612955, 1.7548740213411733, 2.83479650061461], 0.5, 0.5, 0.01, 0.1, 80)

2025-07-07 17:10:24,773 - gym_custom_envs_real_ur_drivers_URBasic_realTimeClientEvent - INFO - Program send to Robot:
servoj([-0.20698002761737067, -1.535499428865648, -1.5692623460070108, -1.543184672612955, 1.7548740213411733, 2.831759214098671], 0.5, 0.5, 0.01, 0.1, 80)

2025-07-07 17:10:24,778 - gym_custom_envs_real_ur_drivers_URBasic_realTimeClientEvent - INFO - Program send to Robot:
servoj([-0.20708633257708967, -1.535514615275448, -1.5692623460070108, -1.543184672612955, 1.7548740213411733, 2.8317288412335118], 0.5, 0.5, 0.01, 0.1, 80)

2025-07-07 17:10:24,786 - gym_custom_envs_real_ur_drivers_URBasic_realTimeClientEvent - INFO - Program send to Robot:
servoj([-0.20708739562668685, -1.5355147671395462, -1.5692623460070108, -1.543184672612955, 1.7548740213411733, 2.83172853750486], 0.5, 0.5, 0.01, 0.1, 80)

2025-07-07 17:10:24,802 - gym_custom_envs_real_ur_drivers_URBasic_realTimeClientEvent - INFO - Program send to Robot:
servoj([-0.21468061115721668, -1.537033409638194, -1.5707809869870177, -1.543184672612955, 1.7548740213411733, 2.8256539705475463], 0.5, 0.5, 0.01, 0.1, 80)

2025-07-07 17:10:24,810 - gym_custom_envs_real_ur_drivers_URBasic_realTimeClientEvent - INFO - Program send to Robot:
servoj([-0.21475654331252197, -1.5370485960631803, -1.5707961733968179, -1.543184672612955, 1.7548740213411733, 2.825593224877973], 0.5, 0.5, 0.01, 0.1, 80)

2025-07-07 17:10:24,821 - gym_custom_envs_real_ur_drivers_URBasic_realTimeClientEvent - INFO - Program send to Robot:
servoj([-0.21475730263407503, -1.5370487479274302, -1.5707963252609158, -1.543184672612955, 1.7548740213411733, 2.825592617421277], 0.5, 0.5, 0.01, 0.1, 80)

2025-07-07 17:10:24,834 - gym_custom_envs_real_ur_drivers_URBasic_realTimeClientEvent - INFO - Program send to Robot:
servoj([-0.22538779708733828, -1.5400860314060865, -1.5692776857995498, -1.543184672612955, 1.7548740213411733, 2.8195180474266834], 0.5, 0.5, 0.01, 0.1, 80)

2025-07-07 17:10:24,846 - gym_custom_envs_real_ur_drivers_URBasic_realTimeClientEvent - INFO - Program send to Robot:
servoj([-0.22549410203187092, -1.540116404240873, -1.5692624994049362, -1.543184672612955, 1.7548740213411733, 2.8194573017267373], 0.5, 0.5, 0.01, 0.1, 80)

2025-07-07 17:10:24,850 - gym_custom_envs_real_ur_drivers_URBasic_realTimeClientEvent - INFO - Program send to Robot:
servoj([-0.22549516508131623, -1.5401167079692208, -1.5692623475409901, -1.543184672612955, 1.7548740213411733, 2.819456694269738], 0.5, 0.5, 0.01, 0.1, 80)

2025-07-07 17:10:24,871 - gym_custom_envs_real_ur_drivers_URBasic_realTimeClientEvent - INFO - Program send to Robot:
servoj([-0.23460702159185104, -1.541635351986511, -1.5692623460223507, -1.543184672612955, 1.7548740213411733, 2.8133821242751407], 0.5, 0.5, 0.01, 0.1, 80)

2025-07-07 17:10:24,874 - gym_custom_envs_real_ur_drivers_URBasic_realTimeClientEvent - INFO - Program send to Robot:
servoj([-0.2346981401569564, -1.5416505384266836, -1.5692623460071642, -1.543184672612955, 1.7548740213411733, 2.813321378575195], 0.5, 0.5, 0.01, 0.1, 80)

2025-07-07 17:10:24,894 - gym_custom_envs_real_ur_drivers_URBasic_realTimeClientEvent - INFO - Program send to Robot:
servoj([-0.23469905134260743, -1.5416506902910854, -1.5692623460070123, -1.543184672612955, 1.7548740213411733, 2.8133207711181956], 0.5, 0.5, 0.01, 0.1, 80)

2025-07-07 17:10:24,898 - gym_custom_envs_real_ur_drivers_URBasic_realTimeClientEvent - INFO - Program send to Robot:
servoj([-0.24532954731451168, -1.5431693327897362, -1.5692623460070108, -1.543184672612955, 1.7548740213411733, 2.8057275601435916], 0.5, 0.5, 0.01, 0.1, 80)

2025-07-07 17:10:24,917 - gym_custom_envs_real_ur_drivers_URBasic_realTimeClientEvent - INFO - Program send to Robot:
servoj([-0.24543585227423073, -1.5431845192147227, -1.5692623460070108, -1.543184672612955, 1.7548740213411733, 2.8056516280338455], 0.5, 0.5, 0.01, 0.1, 80)

2025-07-07 17:10:24,921 - gym_custom_envs_real_ur_drivers_URBasic_realTimeClientEvent - INFO - Program send to Robot:
servoj([-0.24543691532382791, -1.5431846710789725, -1.5692623460070108, -1.543184672612955, 1.7548740213411733, 2.805650868712748], 0.5, 0.5, 0.01, 0.1, 80)

2025-07-07 17:10:24,941 - gym_custom_envs_real_ur_drivers_URBasic_realTimeClientEvent - INFO - Program send to Robot:
servoj([-0.2530301308543577, -1.543184672597615, -1.5692623460070108, -1.543184672612955, 1.7548740213411733, 2.798057656219503], 0.5, 0.5, 0.01, 0.1, 80)

2025-07-07 17:10:24,946 - gym_custom_envs_real_ur_drivers_URBasic_realTimeClientEvent - INFO - Program send to Robot:
servoj([-0.25310606300966304, -1.5431846726128016, -1.5692623460070108, -1.543184672612955, 1.7548740213411733, 2.797981724094571], 0.5, 0.5, 0.01, 0.1, 80)

2025-07-07 17:10:24,954 - gym_custom_envs_real_ur_drivers_URBasic_realTimeClientEvent - INFO - Program send to Robot:
servoj([-0.25310682233121606, -1.5431846726129534, -1.5692623460070108, -1.543184672612955, 1.7548740213411733, 2.7979809647733216], 0.5, 0.5, 0.01, 0.1, 80)

2025-07-07 17:10:24,970 - gym_custom_envs_real_ur_drivers_URBasic_realTimeClientEvent - INFO - Program send to Robot:
servoj([-0.2622186758044724, -1.5477405955529755, -1.5692623460070108, -1.543184672612955, 1.7533553803611663, 2.7919063932600814], 0.5, 0.5, 0.01, 0.1, 80)

2025-07-07 17:10:24,977 - gym_custom_envs_real_ur_drivers_URBasic_realTimeClientEvent - INFO - Program send to Robot:
servoj([-0.2623097943392049, -1.5477861547823757, -1.5692623460070108, -1.543184672612955, 1.7533401939513662, 2.791845647544949], 0.5, 0.5, 0.01, 0.1, 80)

2025-07-07 17:10:24,985 - gym_custom_envs_real_ur_drivers_URBasic_realTimeClientEvent - INFO - Program send to Robot:
servoj([-0.26231070552455227, -1.5477866103746696, -1.5692623460070108, -1.543184672612955, 1.7533400420872682, 2.791845040087798], 0.5, 0.5, 0.01, 0.1, 80)

2025-07-07 17:10:25,002 - gym_custom_envs_real_ur_drivers_URBasic_realTimeClientEvent - INFO - Program send to Robot:
servoj([-0.2714225605164466, -1.5523425378706128, -1.5692623460070108, -1.543184672612955, 1.7533400405686272, 2.785770470093199], 0.5, 0.5, 0.01, 0.1, 80)

2025-07-07 17:10:25,013 - gym_custom_envs_real_ur_drivers_URBasic_realTimeClientEvent - INFO - Program send to Robot:
servoj([-0.27151367906636553, -1.5523880971455724, -1.5692623460070108, -1.543184672612955, 1.7533400405534407, 2.7857097243932527], 0.5, 0.5, 0.01, 0.1, 80)

2025-07-07 17:10:25,018 - gym_custom_envs_real_ur_drivers_URBasic_realTimeClientEvent - INFO - Program send to Robot:
servoj([-0.2715145902518647, -1.5523885527383219, -1.5692623460070108, -1.543184672612955, 1.753340040553289, 2.7857091169362533], 0.5, 0.5, 0.01, 0.1, 80)

2025-07-07 17:10:25,026 - gym_custom_envs_real_ur_drivers_URBasic_realTimeClientEvent - INFO - Program send to Robot:
servoj([-0.282145086223767, -1.5554258392542628, -1.5692623460070108, -1.543184672612955, 1.7533400405532875, 2.779634546941657], 0.5, 0.5, 0.01, 0.1, 80)

2025-07-07 17:10:25,041 - gym_custom_envs_real_ur_drivers_URBasic_rtdeEvent - INFO - Total packages: 1000
2025-07-07 17:10:25,041 - gym_custom_envs_real_ur_drivers_URBasic_realTimeClientEvent - INFO - Program send to Robot:
servoj([-0.282251391183486, -1.5554562121194222, -1.5692623460070108, -1.543184672612955, 1.7533400405532875, 2.779573801241711], 0.5, 0.5, 0.01, 0.1, 80)

2025-07-07 17:10:25,050 - gym_custom_envs_real_ur_drivers_URBasic_realTimeClientEvent - INFO - Program send to Robot:
servoj([-0.2822524542330832, -1.555456515848074, -1.5692623460070108, -1.543184672612955, 1.7533400405532875, 2.7795731937847115], 0.5, 0.5, 0.01, 0.1, 80)

2025-07-07 17:10:25,061 - gym_custom_envs_real_ur_drivers_URBasic_realTimeClientEvent - INFO - Program send to Robot:
servoj([-0.2928829517236269, -1.5554565188853604, -1.5692623460070108, -1.543184672612955, 1.7533400405532875, 2.771979982810107], 0.5, 0.5, 0.01, 0.1, 80)

2025-07-07 17:10:25,074 - gym_custom_envs_real_ur_drivers_URBasic_realTimeClientEvent - INFO - Program send to Robot:
servoj([-0.2929892566985323, -1.5554565189157332, -1.5692623460070108, -1.543184672612955, 1.7533400405532875, 2.771904050700361], 0.5, 0.5, 0.01, 0.1, 80)

2025-07-07 17:10:25,086 - gym_custom_envs_real_ur_drivers_URBasic_realTimeClientEvent - INFO - Program send to Robot:
servoj([-0.2929903197482814, -1.555456518916037, -1.5692623460070108, -1.543184672612955, 1.7533400405532875, 2.771903291379264], 0.5, 0.5, 0.01, 0.1, 80)

2025-07-07 17:10:25,090 - gym_custom_envs_real_ur_drivers_URBasic_realTimeClientEvent - INFO - Program send to Robot:
servoj([-0.30210217625881924, -1.556975159896047, -1.5692623460070108, -1.543184672612955, 1.7533400405532875, 2.764310078886019], 0.5, 0.5, 0.01, 0.1, 80)

2025-07-07 17:10:25,109 - gym_custom_envs_real_ur_drivers_URBasic_realTimeClientEvent - INFO - Program send to Robot:
servoj([-0.3021932948239246, -1.5569903463058472, -1.5692623460070108, -1.543184672612955, 1.7533400405532875, 2.7642341467610865], 0.5, 0.5, 0.01, 0.1, 80)

2025-07-07 17:10:25,115 - gym_custom_envs_real_ur_drivers_URBasic_realTimeClientEvent - INFO - Program send to Robot:
servoj([-0.3021942060095757, -1.5569904981699452, -1.5692623460070108, -1.543184672612955, 1.7533400405532875, 2.764233387439837], 0.5, 0.5, 0.01, 0.1, 80)

2025-07-07 17:10:25,133 - gym_custom_envs_real_ur_drivers_URBasic_realTimeClientEvent - INFO - Program send to Robot:
servoj([-0.3097874200214665, -1.5569904996885862, -1.5707809869870177, -1.543184672612955, 1.7533400405532875, 2.7566401749465905], 0.5, 0.5, 0.01, 0.1, 80)

2025-07-07 17:10:25,141 - gym_custom_envs_real_ur_drivers_URBasic_realTimeClientEvent - INFO - Program send to Robot:
servoj([-0.3098633521615854, -1.5569904997037725, -1.5707961733968179, -1.543184672612955, 1.7533400405532875, 2.756564242821658], 0.5, 0.5, 0.01, 0.1, 80)

2025-07-07 17:10:25,146 - gym_custom_envs_real_ur_drivers_URBasic_realTimeClientEvent - INFO - Program send to Robot:
servoj([-0.3098641114829866, -1.5569904997039243, -1.5707963252609158, -1.543184672612955, 1.7533400405532875, 2.7565634835004085], 0.5, 0.5, 0.01, 0.1, 80)

2025-07-07 17:10:25,165 - gym_custom_envs_real_ur_drivers_URBasic_realTimeClientEvent - INFO - Program send to Robot:
servoj([-0.3174573239762344, -1.5585091406839326, -1.5707963267795568, -1.543184672612955, 1.7533400405532875, 2.7535261939471827], 0.5, 0.5, 0.01, 0.1, 80)

2025-07-07 17:10:25,170 - gym_custom_envs_real_ur_drivers_URBasic_realTimeClientEvent - INFO - Program send to Robot:
servoj([-0.31753325610116684, -1.5585243270937328, -1.5707963267947433, -1.543184672612955, 1.7533400405532875, 2.7534958210516502], 0.5, 0.5, 0.01, 0.1, 80)

2025-07-07 17:10:25,180 - gym_custom_envs_real_ur_drivers_URBasic_realTimeClientEvent - INFO - Program send to Robot:
servoj([-0.31753401542241616, -1.5585244789578308, -1.5707963267948952, -1.543184672612955, 1.7533400405532875, 2.753495517322695], 0.5, 0.5, 0.01, 0.1, 80)

2025-07-07 17:10:25,195 - gym_custom_envs_real_ur_drivers_URBasic_realTimeClientEvent - INFO - Program send to Robot:
servoj([-0.3266458688956695, -1.561561762436485, -1.5707963267948966, -1.543184672612955, 1.7518213995732814, 2.750458232325392], 0.5, 0.5, 0.01, 0.1, 80)

2025-07-07 17:10:25,206 - gym_custom_envs_real_ur_drivers_URBasic_realTimeClientEvent - INFO - Program send to Robot:
servoj([-0.326736987430402, -1.5615921352712716, -1.5707963267948966, -1.543184672612955, 1.7518062131634813, 2.750427859475419], 0.5, 0.5, 0.01, 0.1, 80)

2025-07-07 17:10:25,210 - gym_custom_envs_real_ur_drivers_URBasic_realTimeClientEvent - INFO - Program send to Robot:
servoj([-0.32673789861574937, -1.5615924389996194, -1.5707963267948966, -1.543184672612955, 1.7518060612993833, 2.7504275557469193], 0.5, 0.5, 0.01, 0.1, 80)

2025-07-07 17:10:25,229 - gym_custom_envs_real_ur_drivers_URBasic_realTimeClientEvent - INFO - Program send to Robot:
servoj([-0.33433111262763665, -1.56311108301691, -1.5707963267948966, -1.543184672612955, 1.7518060597807423, 2.745871629769614], 0.5, 0.5, 0.01, 0.1, 80)

2025-07-07 17:10:25,236 - gym_custom_envs_real_ur_drivers_URBasic_realTimeClientEvent - INFO - Program send to Robot:
servoj([-0.33440704476775557, -1.5631262694570829, -1.5707963267948966, -1.543184672612955, 1.7518060597655558, 2.7458260705098407], 0.5, 0.5, 0.01, 0.1, 80)

2025-07-07 17:10:25,242 - gym_custom_envs_real_ur_drivers_URBasic_realTimeClientEvent - INFO - Program send to Robot:
servoj([-0.3344078040891567, -1.5631264213214846, -1.5707963267948966, -1.543184672612955, 1.751806059765404, 2.7458256149172433], 0.5, 0.5, 0.01, 0.1, 80)

2025-07-07 17:10:25,260 - gym_custom_envs_real_ur_drivers_URBasic_realTimeClientEvent - INFO - Program send to Robot:
servoj([-0.33896373462239116, -1.5646450638201352, -1.5707963267948966, -1.543184672612955, 1.7518060597654026, 2.7412696874212967], 0.5, 0.5, 0.01, 0.1, 80)

2025-07-07 17:10:25,266 - gym_custom_envs_real_ur_drivers_URBasic_realTimeClientEvent - INFO - Program send to Robot:
servoj([-0.3390092939277235, -1.564660250245122, -1.5707963267948966, -1.543184672612955, 1.7518060597654026, 2.7412241281463374], 0.5, 0.5, 0.01, 0.1, 80)

2025-07-07 17:10:25,275 - gym_custom_envs_real_ur_drivers_URBasic_realTimeClientEvent - INFO - Program send to Robot:
servoj([-0.3390097495207768, -1.5646604021093717, -1.5707963267948966, -1.543184672612955, 1.7518060597654026, 2.7412236725535877], 0.5, 0.5, 0.01, 0.1, 80)

2025-07-07 17:10:25,290 - gym_custom_envs_real_ur_drivers_URBasic_realTimeClientEvent - INFO - Program send to Robot:
servoj([-0.3450843179967342, -1.564660403628014, -1.5707963267948966, -1.543184672612955, 1.7502874187853958, 2.735149104077633], 0.5, 0.5, 0.01, 0.1, 80)

2025-07-07 17:10:25,299 - gym_custom_envs_real_ur_drivers_URBasic_realTimeClientEvent - INFO - Program send to Robot:
servoj([-0.34514506368149384, -1.5646604036432006, -1.5707963267948966, -1.543184672612955, 1.7502722323755957, 2.7350883583928733], 0.5, 0.5, 0.01, 0.1, 80)

2025-07-07 17:10:25,308 - gym_custom_envs_real_ur_drivers_URBasic_realTimeClientEvent - INFO - Program send to Robot:
servoj([-0.34514567113834144, -1.5646604036433525, -1.5707963267948966, -1.543184672612955, 1.7502720805114977, 2.735087750936026], 0.5, 0.5, 0.01, 0.1, 80)

2025-07-07 17:10:25,313 - gym_custom_envs_real_ur_drivers_URBasic_realTimeClientEvent - INFO - Program send to Robot:
servoj([-0.3512202411329372, -1.564660403643354, -1.5707963267948966, -1.543184672612955, 1.7487534380128498, 2.7274945399614237], 0.5, 0.5, 0.01, 0.1, 80)

2025-07-07 17:10:25,333 - gym_custom_envs_real_ur_drivers_URBasic_realTimeClientEvent - INFO - Program send to Robot:
servoj([-0.35128098683288317, -1.564660403643354, -1.5707963267948966, -1.543184672612955, 1.7487382515878633, 2.7274186078516776], 0.5, 0.5, 0.01, 0.1, 80)

2025-07-07 17:10:25,338 - gym_custom_envs_real_ur_drivers_URBasic_realTimeClientEvent - INFO - Program send to Robot:
servoj([-0.35128159428988265, -1.564660403643354, -1.5707963267948966, -1.543184672612955, 1.7487380997236133, 2.72741784853058], 0.5, 0.5, 0.01, 0.1, 80)

2025-07-07 17:10:25,348 - gym_custom_envs_real_ur_drivers_URBasic_realTimeClientEvent - INFO - Program send to Robot:
servoj([-0.3573561642844795, -1.5692163265833745, -1.5707963267948966, -1.543184672612955, 1.745700816244957, 2.722861917997349], 0.5, 0.5, 0.01, 0.1, 80)

2025-07-07 17:10:25,362 - gym_custom_envs_real_ur_drivers_URBasic_realTimeClientEvent - INFO - Program send to Robot:
servoj([-0.3574169099844255, -1.5692618858127747, -1.5707963267948966, -1.543184672612955, 1.7456704434101704, 2.7228163586920164], 0.5, 0.5, 0.01, 0.1, 80)

2025-07-07 17:10:25,371 - gym_custom_envs_real_ur_drivers_URBasic_realTimeClientEvent - INFO - Program send to Robot:
servoj([-0.35741751744142497, -1.5692623414050686, -1.5707963267948966, -1.543184672612955, 1.7456701396818224, 2.722815903098963], 0.5, 0.5, 0.01, 0.1, 80)

2025-07-07 17:10:25,379 - gym_custom_envs_real_ur_drivers_URBasic_realTimeClientEvent - INFO - Program send to Robot:
servoj([-0.3634920874360223, -1.5707809869409983, -1.5707963267948966, -1.543184672612955, 1.744151495664532, 2.719778616583019], 0.5, 0.5, 0.01, 0.1, 80)

2025-07-07 17:10:25,386 - gym_custom_envs_real_ur_drivers_URBasic_realTimeClientEvent - INFO - Program send to Robot:
servoj([-0.36355283313596826, -1.5707961733963576, -1.5707963267948966, -1.543184672612955, 1.7441363092243591, 2.7197482437178597], 0.5, 0.5, 0.01, 0.1, 80)

2025-07-07 17:10:25,403 - gym_custom_envs_real_ur_drivers_URBasic_realTimeClientEvent - INFO - Program send to Robot:
servoj([-0.3635534405929677, -1.5707963252609112, -1.5707963267948966, -1.543184672612955, 1.7441361573599574, 2.719747939989208], 0.5, 0.5, 0.01, 0.1, 80)

2025-07-07 17:10:25,409 - gym_custom_envs_real_ur_drivers_URBasic_realTimeClientEvent - INFO - Program send to Robot:
servoj([-0.3696280105875646, -1.5723149677595634, -1.5707963267948966, -1.543184672612955, 1.7441361558413133, 2.7197479369519213], 0.5, 0.5, 0.01, 0.1, 80)

2025-07-07 17:10:25,419 - gym_custom_envs_real_ur_drivers_URBasic_realTimeClientEvent - INFO - Program send to Robot:
servoj([-0.3696887562875106, -1.5723301541845498, -1.5707963267948966, -1.543184672612955, 1.744136155826127, 2.7197479369215487], 0.5, 0.5, 0.01, 0.1, 80)

2025-07-07 17:10:25,434 - gym_custom_envs_real_ur_drivers_URBasic_realTimeClientEvent - INFO - Program send to Robot:
servoj([-0.36968936374451006, -1.5723303060487996, -1.5707963267948966, -1.543184672612955, 1.7441361558259751, 2.719747936921245], 0.5, 0.5, 0.01, 0.1, 80)

2025-07-07 17:10:25,445 - gym_custom_envs_real_ur_drivers_URBasic_realTimeClientEvent - INFO - Program send to Robot:
servoj([-0.3757639337391074, -1.5738489485474492, -1.5707963267948966, -1.543184672612955, 1.7441361558259736, 2.718229295941235], 0.5, 0.5, 0.01, 0.1, 80)

2025-07-07 17:10:25,452 - gym_custom_envs_real_ur_drivers_URBasic_realTimeClientEvent - INFO - Program send to Robot:
servoj([-0.37582467943905334, -1.5738641349724356, -1.5707963267948966, -1.543184672612955, 1.7441361558259736, 2.718214109531435], 0.5, 0.5, 0.01, 0.1, 80)

2025-07-07 17:10:25,457 - gym_custom_envs_real_ur_drivers_URBasic_realTimeClientEvent - INFO - Program send to Robot:
servoj([-0.37582528689605277, -1.5738642868366857, -1.5707963267948966, -1.543184672612955, 1.7441361558259736, 2.718213957667337], 0.5, 0.5, 0.01, 0.1, 80)

2025-07-07 17:10:25,476 - gym_custom_envs_real_ur_drivers_URBasic_realTimeClientEvent - INFO - Program send to Robot:
servoj([-0.37886257493063624, -1.5753829293353347, -1.5707963267948966, -1.543184672612955, 1.7410988738659607, 2.718213956148696], 0.5, 0.5, 0.01, 0.1, 80)

2025-07-07 17:10:25,481 - gym_custom_envs_real_ur_drivers_URBasic_realTimeClientEvent - INFO - Program send to Robot:
servoj([-0.3788929478109821, -1.5753981157603214, -1.5707963267948966, -1.543184672612955, 1.7410685010463605, 2.7182139561335097], 0.5, 0.5, 0.01, 0.1, 80)

2025-07-07 17:10:25,491 - gym_custom_envs_real_ur_drivers_URBasic_realTimeClientEvent - INFO - Program send to Robot:
servoj([-0.37889325153978554, -1.5753982676245712, -1.5707963267948966, -1.543184672612955, 1.7410681973181645, 2.718213956133358], 0.5, 0.5, 0.01, 0.1, 80)

2025-07-07 17:10:25,506 - gym_custom_envs_real_ur_drivers_URBasic_realTimeClientEvent - INFO - Program send to Robot:
servoj([-0.38344917751709395, -1.5753982691432138, -1.5707963267948966, -1.543184672612955, 1.7365122713408616, 2.718213956133356], 0.5, 0.5, 0.01, 0.1, 80)

2025-07-07 17:10:25,515 - gym_custom_envs_real_ur_drivers_URBasic_realTimeClientEvent - INFO - Program send to Robot:
servoj([-0.383494736776867, -1.5753982691584, -1.5707963267948966, -1.543184672612955, 1.7364667120810886, 2.718213956133356], 0.5, 0.5, 0.01, 0.1, 80)

2025-07-07 17:10:25,525 - gym_custom_envs_real_ur_drivers_URBasic_realTimeClientEvent - INFO - Program send to Robot:
servoj([-0.3834951923694648, -1.575398269158552, -1.5707963267948966, -1.543184672612955, 1.736466256488491, 2.718213956133356], 0.5, 0.5, 0.01, 0.1, 80)

2025-07-07 17:10:25,531 - gym_custom_envs_real_ur_drivers_URBasic_realTimeClientEvent - INFO - Program send to Robot:
servoj([-0.38349519692539075, -1.5753982691585535, -1.5707963267948966, -1.543184672612955, 1.7364662519325649, 2.718213956133356], 0.5, 0.5, 0.01, 0.1, 80)

2025-07-07 17:10:25,546 - gym_custom_envs_real_ur_drivers_URBasic_realTimeClientEvent - INFO - Program send to Robot:
servoj([-0.3895697608909774, -1.5753982691585535, -1.5707963267948966, -1.543184672612955, 1.7319103289469855, 2.718213956133356], 0.5, 0.5, 0.01, 0.1, 80)

2025-07-07 17:10:25,555 - gym_custom_envs_real_ur_drivers_URBasic_realTimeClientEvent - INFO - Program send to Robot:
servoj([-0.38963050653063325, -1.5753982691585535, -1.5707963267948966, -1.543184672612955, 1.7318647697171299, 2.718213956133356], 0.5, 0.5, 0.01, 0.1, 80)

2025-07-07 17:10:25,566 - gym_custom_envs_real_ur_drivers_URBasic_realTimeClientEvent - INFO - Program send to Robot:
servoj([-0.3896311139870298, -1.5753982691585535, -1.5707963267948966, -1.543184672612955, 1.7318643141248313, 2.718213956133356], 0.5, 0.5, 0.01, 0.1, 80)

2025-07-07 17:10:25,579 - gym_custom_envs_real_ur_drivers_URBasic_realTimeClientEvent - INFO - Program send to Robot:
servoj([-0.39722432496162763, -1.5753982691585535, -1.5707963267948966, -1.543184672612955, 1.7257897456488815, 2.7151766741733425], 0.5, 0.5, 0.01, 0.1, 80)

2025-07-07 17:10:25,589 - gym_custom_envs_real_ur_drivers_URBasic_realTimeClientEvent - INFO - Program send to Robot:
servoj([-0.39730025707137356, -1.5753982691585535, -1.5707963267948966, -1.543184672612955, 1.7257289999641219, 2.7151463013537427], 0.5, 0.5, 0.01, 0.1, 80)

2025-07-07 17:10:25,596 - gym_custom_envs_real_ur_drivers_URBasic_realTimeClientEvent - INFO - Program send to Robot:
servoj([-0.39730101639247106, -1.5753982691585535, -1.5707963267948966, -1.543184672612955, 1.7257283925072744, 2.7151459976255468], 0.5, 0.5, 0.01, 0.1, 80)

2025-07-07 17:10:25,602 - gym_custom_envs_real_ur_drivers_URBasic_realTimeClientEvent - INFO - Program send to Robot:
servoj([-0.4033755879057089, -1.5753982691585535, -1.5707963267948966, -1.543184672612955, 1.7196538225126783, 2.7105900716482445], 0.5, 0.5, 0.01, 0.1, 80)

2025-07-07 17:10:25,620 - gym_custom_envs_real_ur_drivers_URBasic_realTimeClientEvent - INFO - Program send to Robot:
servoj([-0.40343633362084125, -1.5753982691585535, -1.5707963267948966, -1.543184672612955, 1.7195930768127323, 2.7105445123884713], 0.5, 0.5, 0.01, 0.1, 80)

2025-07-07 17:10:25,626 - gym_custom_envs_real_ur_drivers_URBasic_realTimeClientEvent - INFO - Program send to Robot:
servoj([-0.4034369410779926, -1.5753982691585535, -1.5707963267948966, -1.543184672612955, 1.7195924693557327, 2.7105440567958734], 0.5, 0.5, 0.01, 0.1, 80)

2025-07-07 17:10:25,635 - gym_custom_envs_real_ur_drivers_URBasic_realTimeClientEvent - INFO - Program send to Robot:
servoj([-0.4110301520525984, -1.5769169101385603, -1.5707963267948966, -1.543184672612955, 1.7150365403411427, 2.707506770279934], 0.5, 0.5, 0.01, 0.1, 80)

2025-07-07 17:10:25,650 - gym_custom_envs_real_ur_drivers_URBasic_realTimeClientEvent - INFO - Program send to Robot:
servoj([-0.41110608416234445, -1.5769320965483604, -1.5707963267948966, -1.543184672612955, 1.714990981050997, 2.7074763974147746], 0.5, 0.5, 0.01, 0.1, 80)

2025-07-07 17:10:25,659 - gym_custom_envs_real_ur_drivers_URBasic_realTimeClientEvent - INFO - Program send to Robot:
servoj([-0.4111068434834419, -1.5769322484124584, -1.5707963267948966, -1.543184672612955, 1.7149905254580953, 2.707476093686123], 0.5, 0.5, 0.01, 0.1, 80)

2025-07-07 17:10:25,668 - gym_custom_envs_real_ur_drivers_URBasic_realTimeClientEvent - INFO - Program send to Robot:
servoj([-0.4171814149966798, -1.5784508909111061, -1.5707963267948966, -1.543184672612955, 1.7089159569821395, 2.7059574496688295], 0.5, 0.5, 0.01, 0.1, 80)

2025-07-07 17:10:25,673 - gym_custom_envs_real_ur_drivers_URBasic_realTimeClientEvent - INFO - Program send to Robot:
servoj([-0.4172421607118122, -1.5784660773360926, -1.5707963267948966, -1.543184672612955, 1.70885521129738, 2.7059422632286565], 0.5, 0.5, 0.01, 0.1, 80)

2025-07-07 17:10:25,693 - gym_custom_envs_real_ur_drivers_URBasic_realTimeClientEvent - INFO - Program send to Robot:
servoj([-0.4172427681689635, -1.5784662292003424, -1.5707963267948966, -1.543184672612955, 1.7088546038405323, 2.7059421113642546], 0.5, 0.5, 0.01, 0.1, 80)

2025-07-07 17:10:25,698 - gym_custom_envs_real_ur_drivers_URBasic_realTimeClientEvent - INFO - Program send to Robot:
servoj([-0.42483597914356885, -1.578466230718985, -1.5723149677749033, -1.5447033135929618, 1.704298674825943, 2.7059421098456107], 0.5, 0.5, 0.01, 0.1, 80)

2025-07-07 17:10:25,708 - gym_custom_envs_real_ur_drivers_URBasic_realTimeClientEvent - INFO - Program send to Robot:
servoj([-0.4249119112533149, -1.5784662307341712, -1.5723301541847035, -1.5447185000027617, 1.7042531155357972, 2.705942109830424], 0.5, 0.5, 0.01, 0.1, 80)

2025-07-07 17:10:25,721 - gym_custom_envs_real_ur_drivers_URBasic_realTimeClientEvent - INFO - Program send to Robot:
servoj([-0.4249126705744124, -1.5784662307343231, -1.5723303060488014, -1.5447186518668599, 1.7042526599428955, 2.7059421098302723], 0.5, 0.5, 0.01, 0.1, 80)

2025-07-07 17:10:25,732 - gym_custom_envs_real_ur_drivers_URBasic_realTimeClientEvent - INFO - Program send to Robot:
servoj([-0.43098724208765066, -1.5784662307343247, -1.5723303075674424, -1.5447186533855009, 1.6996967324469467, 2.705942109830271], 0.5, 0.5, 0.01, 0.1, 80)

2025-07-07 17:10:25,740 - gym_custom_envs_real_ur_drivers_URBasic_realTimeClientEvent - INFO - Program send to Robot:
servoj([-0.43104798780278303, -1.5784662307343247, -1.572330307582629, -1.5447186534006871, 1.6996511731719872, 2.705942109830271], 0.5, 0.5, 0.01, 0.1, 80)

2025-07-07 17:10:25,746 - gym_custom_envs_real_ur_drivers_URBasic_realTimeClientEvent - INFO - Program send to Robot:
servoj([-0.4310485952599344, -1.5784662307343247, -1.5723303075827808, -1.544718653400839, 1.6996507175792377, 2.705942109830271], 0.5, 0.5, 0.01, 0.1, 80)

2025-07-07 17:10:25,766 - gym_custom_envs_real_ur_drivers_URBasic_realTimeClientEvent - INFO - Program send to Robot:
servoj([-0.4371231652545328, -1.5784662307343247, -1.5738489485627893, -1.5432000124208338, 1.6981320720433033, 2.705942109830271], 0.5, 0.5, 0.01, 0.1, 80)

2025-07-07 17:10:25,770 - gym_custom_envs_real_ur_drivers_URBasic_realTimeClientEvent - INFO - Program send to Robot:
servoj([-0.4371839109544788, -1.5784662307343247, -1.5738641349725893, -1.5431848260110337, 1.6981168855879438, 2.705942109830271], 0.5, 0.5, 0.01, 0.1, 80)

2025-07-07 17:10:25,786 - gym_custom_envs_real_ur_drivers_URBasic_realTimeClientEvent - INFO - Program send to Robot:
servoj([-0.43718451841147826, -1.5784662307343247, -1.5738642868366872, -1.5431846741469357, 1.6981167337233902, 2.705942109830271], 0.5, 0.5, 0.01, 0.1, 80)

2025-07-07 17:10:25,794 - gym_custom_envs_real_ur_drivers_URBasic_realTimeClientEvent - INFO - Program send to Robot:
servoj([-0.44325908840607553, -1.5784662307343247, -1.5738642883553282, -1.5431846726282947, 1.6981167322047448, 2.705942109830271], 0.5, 0.5, 0.01, 0.1, 80)

2025-07-07 17:10:25,806 - gym_custom_envs_real_ur_drivers_URBasic_realTimeClientEvent - INFO - Program send to Robot:
servoj([-0.44331983410602155, -1.5784662307343247, -1.5738642883705147, -1.5431846726131084, 1.6981167321895583, 2.705942109830271], 0.5, 0.5, 0.01, 0.1, 80)

2025-07-07 17:10:25,818 - gym_custom_envs_real_ur_drivers_URBasic_realTimeClientEvent - INFO - Program send to Robot:
servoj([-0.443320441563021, -1.5784662307343247, -1.5738642883706666, -1.5431846726129566, 1.6981167321894064, 2.705942109830271], 0.5, 0.5, 0.01, 0.1, 80)

2025-07-07 17:10:25,830 - gym_custom_envs_real_ur_drivers_URBasic_realTimeClientEvent - INFO - Program send to Robot:
servoj([-0.4478763705776114, -1.5784662307343247, -1.5738642883706682, -1.543184672612955, 1.6981167321894048, 2.705942109830271], 0.5, 0.5, 0.01, 0.1, 80)

2025-07-07 17:10:25,833 - gym_custom_envs_real_ur_drivers_URBasic_realTimeClientEvent - INFO - Program send to Robot:
servoj([-0.4479219298677573, -1.5784662307343247, -1.5738642883706682, -1.543184672612955, 1.6981167321894048, 2.705942109830271], 0.5, 0.5, 0.01, 0.1, 80)

2025-07-07 17:10:25,854 - gym_custom_envs_real_ur_drivers_URBasic_realTimeClientEvent - INFO - Program send to Robot:
servoj([-0.44792238546065877, -1.5784662307343247, -1.5738642883706682, -1.543184672612955, 1.6981167321894048, 2.705942109830271], 0.5, 0.5, 0.01, 0.1, 80)

2025-07-07 17:10:25,858 - gym_custom_envs_real_ur_drivers_URBasic_realTimeClientEvent - INFO - Program send to Robot:
servoj([-0.4524783129566082, -1.5784662307343247, -1.5738642883706682, -1.543184672612955, 1.6965980912093979, 2.705942109830271], 0.5, 0.5, 0.01, 0.1, 80)

2025-07-07 17:10:25,878 - gym_custom_envs_real_ur_drivers_URBasic_realTimeClientEvent - INFO - Program send to Robot:
servoj([-0.4525238722315677, -1.5784662307343247, -1.5738642883706682, -1.543184672612955, 1.6965829047995977, 2.705942109830271], 0.5, 0.5, 0.01, 0.1, 80)

2025-07-07 17:10:25,882 - gym_custom_envs_real_ur_drivers_URBasic_realTimeClientEvent - INFO - Program send to Robot:
servoj([-0.4525243278243173, -1.5784662307343247, -1.5738642883706682, -1.543184672612955, 1.6965827529354998, 2.705942109830271], 0.5, 0.5, 0.01, 0.1, 80)

2025-07-07 17:10:25,903 - gym_custom_envs_real_ur_drivers_URBasic_realTimeClientEvent - INFO - Program send to Robot:
servoj([-0.4585988963002716, -1.5799848717143317, -1.5738642883706682, -1.543184672612955, 1.6965827514168588, 2.705942109830271], 0.5, 0.5, 0.01, 0.1, 80)

2025-07-07 17:10:25,906 - gym_custom_envs_real_ur_drivers_URBasic_realTimeClientEvent - INFO - Program send to Robot:
servoj([-0.4586596419850312, -1.5800000581241318, -1.5738642883706682, -1.543184672612955, 1.6965827514016725, 2.705942109830271], 0.5, 0.5, 0.01, 0.1, 80)

2025-07-07 17:10:25,922 - gym_custom_envs_real_ur_drivers_URBasic_realTimeClientEvent - INFO - Program send to Robot:
