2025-07-07 17:00:20,051 - gym_custom_envs_real_ur_drivers_URBasic_robotModelEvent - INFO - Init done
2025-07-07 17:00:20,552 - gym_custom_envs_real_ur_drivers_URBasic_realTimeClientEvent - INFO - Connected
2025-07-07 17:00:20,552 - gym_custom_envs_real_ur_drivers_URBasic_realTimeClientEvent - INFO - RT_CLient constructor done
2025-07-07 17:00:20,553 - gym_custom_envs_real_ur_drivers_URBasic_dataLogEvent - INFO - Data logging (not event logging) is disabled
2025-07-07 17:00:20,553 - gym_custom_envs_real_ur_drivers_URBasic_dataLogEvent - INFO - DataLog constructor done
2025-07-07 17:00:20,554 - gym_custom_envs_real_ur_drivers_URBasic_dataLogEvent - INFO - DataLog is stopped
2025-07-07 17:00:20,555 - gym_custom_envs_real_ur_drivers_URBasic_rtdeEvent - INFO - RTDE constructor done
2025-07-07 17:00:20,948 - gym_custom_envs_real_ur_drivers_URBasic_rtdeEvent - INFO - Controller version: 3.3.1-60
2025-07-07 17:00:20,950 - gym_custom_envs_real_ur_drivers_URBasic_rtdeEvent - INFO - RTDE started
2025-07-07 17:00:21,057 - gym_custom_envs_real_ur_drivers_URBasic_dashboardEvent - INFO - Connected
2025-07-07 17:00:21,058 - gym_custom_envs_real_ur_drivers_URBasic_dashboardEvent - INFO - UR Dashboard respond Connected: Universal Robots Dashboard Server
2025-07-07 17:00:21,058 - gym_custom_envs_real_ur_drivers_URBasic_dashboardEvent - INFO - Dashboard server constructor done
2025-07-07 17:00:21,058 - gym_custom_envs_real_ur_drivers_URBasic_robotConnectorEvent - INFO - Init done
2025-07-07 17:00:21,058 - gym_custom_envs_real_ur_drivers_URBasic_urScriptEvent - INFO - Init done!!!
2025-07-07 17:00:21,071 - gym_custom_envs_real_ur_drivers_URBasic_urScriptExtEvent - INFO - Init done
2025-07-07 17:00:23,087 - gym_custom_envs_real_ur_interfaceEvent - INFO - [] init done
2025-07-07 17:00:23,087 - gym_custom_envs_real_ur_drivers_URBasic_realTimeClientEvent - INFO - Program send to Robot:
end_freedrive_mode()

2025-07-07 17:00:25,712 - gym_custom_envs_real_ur_drivers_URBasic_realTimeClientEvent - INFO - Program send to Robot:
servoj([0.05519295237163024, -1.5694862524615687, -1.626937137159315, -1.422632760200379, 1.7250366705049127, 2.804527353570341], 0.5, 0.5, 0.01, 0.2, 100)

2025-07-07 17:00:25,728 - gym_custom_envs_real_ur_drivers_URBasic_realTimeClientEvent - INFO - Program send to Robot:
servoj([0.055205449819537185, -1.5695100943194789, -1.626957335533442, -1.4226124270717344, 1.7250173437650935, 2.804534518583489], 0.5, 0.5, 0.01, 0.2, 100)

2025-07-07 17:00:25,745 - gym_custom_envs_real_ur_drivers_URBasic_realTimeClientEvent - INFO - Program send to Robot:
servoj([0.05814258831852744, -1.569522015248434, -1.6264429860546394, -1.4226431959964532, 1.724999550551101, 2.806970809503155], 0.5, 0.5, 0.01, 0.2, 100)

2025-07-07 17:00:25,759 - gym_custom_envs_real_ur_drivers_URBasic_realTimeClientEvent - INFO - Program send to Robot:
servoj([0.05818078898788612, -1.569533936177389, -1.6264195280856188, -1.4225924187500212, 1.7250142786090816, 2.806966485635268], 0.5, 0.5, 0.01, 0.2, 100)

2025-07-07 17:00:25,777 - gym_custom_envs_real_ur_drivers_URBasic_realTimeClientEvent - INFO - Program send to Robot:
servoj([0.06012784891478763, -1.5676502880246566, -1.627513719046909, -1.4235417815433473, 1.7257678827593095, 2.807425308227539], 0.5, 0.5, 0.01, 0.2, 100)

2025-07-07 17:00:25,791 - gym_custom_envs_real_ur_drivers_URBasic_realTimeClientEvent - INFO - Program send to Robot:
servoj([0.06012191997330934, -1.56763947692159, -1.6274746309635826, -1.423617512089874, 1.7257672674080486, 2.807437229156494], 0.5, 0.5, 0.01, 0.2, 100)

2025-07-07 17:00:25,807 - gym_custom_envs_real_ur_drivers_URBasic_realTimeClientEvent - INFO - Program send to Robot:
servoj([0.06154304519080074, -1.5659800851059877, -1.6283625200310061, -1.4243765470510361, 1.7264394928084505, 2.807580757141113], 0.5, 0.5, 0.01, 0.2, 100)

2025-07-07 17:00:25,824 - gym_custom_envs_real_ur_drivers_URBasic_realTimeClientEvent - INFO - Program send to Robot:
servoj([0.061578876755646196, -1.5661092839374304, -1.6283357737689683, -1.4243495936722117, 1.7263962789227254, 2.8076525211334227], 0.5, 0.5, 0.01, 0.2, 100)

2025-07-07 17:00:25,841 - gym_custom_envs_real_ur_drivers_URBasic_realTimeClientEvent - INFO - Program send to Robot:
servoj([0.06173380081109603, -1.5651631736308227, -1.6283478001915297, -1.4244408870200518, 1.7267718427489982, 2.80793981552124], 0.5, 0.5, 0.01, 0.2, 100)

2025-07-07 17:00:25,855 - gym_custom_envs_real_ur_drivers_URBasic_realTimeClientEvent - INFO - Program send to Robot:
servoj([0.06191531794409889, -1.5657234026515594, -1.6281157286629155, -1.4241292604983737, 1.726539421312664, 2.8085024833679197], 0.5, 0.5, 0.01, 0.2, 100)

2025-07-07 17:00:25,874 - gym_custom_envs_real_ur_drivers_URBasic_realTimeClientEvent - INFO - Program send to Robot:
servoj([0.06215696466456918, -1.5649546412268314, -1.6285020012244298, -1.4245234798582749, 1.726778778803393, 2.8090651512145994], 0.5, 0.5, 0.01, 0.2, 100)

2025-07-07 17:00:25,888 - gym_custom_envs_real_ur_drivers_URBasic_realTimeClientEvent - INFO - Program send to Robot:
servoj([0.06231405662766196, -1.56564504521443, -1.6281917525397014, -1.4242280279680466, 1.7265440457168488, 2.809747505187988], 0.5, 0.5, 0.01, 0.2, 100)

2025-07-07 17:00:25,903 - gym_custom_envs_real_ur_drivers_URBasic_realTimeClientEvent - INFO - Program send to Robot:
servoj([0.0628071703438593, -1.565894367994514, -1.6280389246991906, -1.4240585190260677, 1.7264483611087345, 2.8105137825012205], 0.5, 0.5, 0.01, 0.2, 100)

2025-07-07 17:00:25,921 - gym_custom_envs_real_ur_drivers_URBasic_realTimeClientEvent - INFO - Program send to Robot:
servoj([0.0630968033169779, -1.5668090844587432, -1.6274607973569106, -1.4235850330341926, 1.726057287402533, 2.8116269588470457], 0.5, 0.5, 0.01, 0.2, 100)

2025-07-07 17:00:25,936 - gym_custom_envs_real_ur_drivers_URBasic_realTimeClientEvent - INFO - Program send to Robot:
servoj([0.0638301626937127, -1.5678478251146584, -1.6269063233740846, -1.423050206343182, 1.7257070972589452, 2.812739896774292], 0.5, 0.5, 0.01, 0.2, 100)

2025-07-07 17:00:25,951 - gym_custom_envs_real_ur_drivers_URBasic_realTimeClientEvent - INFO - Program send to Robot:
servoj([0.0642581118447451, -1.5691357586603063, -1.626256110998696, -1.4224231103434217, 1.725131435370039, 2.8142364501953123], 0.5, 0.5, 0.01, 0.2, 100)

2025-07-07 17:00:25,969 - gym_custom_envs_real_ur_drivers_URBasic_realTimeClientEvent - INFO - Program send to Robot:
servoj([0.0647092204566039, -1.5704806841178147, -1.6254666700310312, -1.421767738867548, 1.7246381346961945, 2.815756607055664], 0.5, 0.5, 0.01, 0.2, 100)

2025-07-07 17:00:25,985 - gym_custom_envs_real_ur_drivers_URBasic_realTimeClientEvent - INFO - Program send to Robot:
servoj([0.06527810221105466, -1.572160729160292, -1.6245724929077827, -1.4208588141426914, 1.7239622112436077, 2.8176599025726317], 0.5, 0.5, 0.01, 0.2, 100)

2025-07-07 17:00:25,999 - gym_custom_envs_real_ur_drivers_URBasic_realTimeClientEvent - INFO - Program send to Robot:
servoj([0.06580231857547394, -1.5742310535595585, -1.6236286378248432, -1.4200251595708402, 1.7233322840842065, 2.8194435119628904], 0.5, 0.5, 0.01, 0.2, 100)

2025-07-07 17:00:26,018 - gym_custom_envs_real_ur_drivers_URBasic_realTimeClientEvent - INFO - Program send to Robot:
servoj([0.06639042281948845, -1.5760637081083555, -1.6227154023704, -1.4190332097274971, 1.7226095594378508, 2.8214786529541014], 0.5, 0.5, 0.01, 0.2, 100)

2025-07-07 17:00:26,033 - gym_custom_envs_real_ur_drivers_URBasic_realTimeClientEvent - INFO - Program send to Robot:
servoj([0.06747563464595538, -1.5778318335487953, -1.6221494271550874, -1.4181795293002948, 1.7219235328568052, 2.823477792739868], 0.5, 0.5, 0.01, 0.2, 100)

2025-07-07 17:00:26,047 - gym_custom_envs_real_ur_drivers_URBasic_realTimeClientEvent - INFO - Program send to Robot:
servoj([0.06807955295097927, -1.579593265090394, -1.6212476892478047, -1.4172878170452703, 1.7212382816515497, 2.825393009185791], 0.5, 0.5, 0.01, 0.2, 100)

2025-07-07 17:00:26,066 - gym_custom_envs_real_ur_drivers_URBasic_realTimeClientEvent - INFO - Program send to Robot:
servoj([0.06866351727845807, -1.5813655389287413, -1.6198527729924777, -1.4164442684597565, 1.7205275458652736, 2.8273199081420897], 0.5, 0.5, 0.01, 0.2, 100)

2025-07-07 17:00:26,082 - gym_custom_envs_real_ur_drivers_URBasic_realTimeClientEvent - INFO - Program send to Robot:
servoj([0.06926908226744585, -1.5831934938500563, -1.6188466992056527, -1.4156373285458066, 1.7198012774696165, 2.829391288757324], 0.5, 0.5, 0.01, 0.2, 100)

2025-07-07 17:00:26,095 - gym_custom_envs_real_ur_drivers_URBasic_realTimeClientEvent - INFO - Program send to Robot:
servoj([0.0705485522161959, -1.5853599017338353, -1.6181493152199287, -1.4144909964273726, 1.7189892404126341, 2.8312702655792235], 0.5, 0.5, 0.01, 0.2, 100)

2025-07-07 17:00:26,112 - gym_custom_envs_real_ur_drivers_URBasic_realTimeClientEvent - INFO - Program send to Robot:
servoj([0.1027767112543573, -1.6766410011590058, -1.5692623444731835, -1.368310862793992, 1.6827769243105486, 2.934505248759212], 0.5, 0.5, 0.01, 0.2, 100)

2025-07-07 17:00:26,119 - gym_custom_envs_real_ur_drivers_URBasic_realTimeClientEvent - INFO - Program send to Robot:
servoj([0.1027767127729983, -1.6766410011590058, -1.5692623459916726, -1.368310862793992, 1.6827769243105486, 2.9345052472405713], 0.5, 0.5, 0.01, 0.2, 100)

2025-07-07 17:00:26,132 - gym_custom_envs_real_ur_drivers_URBasic_realTimeClientEvent - INFO - Program send to Robot:
servoj([0.10581399474819815, -1.6766410011590058, -1.5692623460068575, -1.368310862793992, 1.6827769243105486, 2.9360238882053915], 0.5, 0.5, 0.01, 0.2, 100)

2025-07-07 17:00:26,144 - gym_custom_envs_real_ur_drivers_URBasic_realTimeClientEvent - INFO - Program send to Robot:
servoj([0.10584436756795015, -1.6766410011590058, -1.5692623460070092, -1.368310862793992, 1.6827769243105486, 2.9360390746150395], 0.5, 0.5, 0.01, 0.2, 100)

2025-07-07 17:00:26,156 - gym_custom_envs_real_ur_drivers_URBasic_realTimeClientEvent - INFO - Program send to Robot:
servoj([0.10584467129614768, -1.6766410011590058, -1.5692623460070108, -1.368310862793992, 1.6827769243105486, 2.9360392264791364], 0.5, 0.5, 0.01, 0.2, 100)

2025-07-07 17:00:26,158 - gym_custom_envs_real_ur_drivers_URBasic_realTimeClientEvent - INFO - Program send to Robot:
servoj([0.10888195629344309, -1.6766410011590058, -1.5692623460070108, -1.368310862793992, 1.6827769243105486, 2.9345205870177704], 0.5, 0.5, 0.01, 0.2, 100)

2025-07-07 17:00:26,180 - gym_custom_envs_real_ur_drivers_URBasic_realTimeClientEvent - INFO - Program send to Robot:
servoj([0.10891232914341605, -1.6766410011590058, -1.5692623460070108, -1.368310862793992, 1.6827769243105486, 2.9345054006231566], 0.5, 0.5, 0.01, 0.2, 100)

2025-07-07 17:00:26,183 - gym_custom_envs_real_ur_drivers_URBasic_realTimeClientEvent - INFO - Program send to Robot:
servoj([0.10891263287191578, -1.6766410011590058, -1.5692623460070108, -1.368310862793992, 1.6827769243105486, 2.9345052487592107], 0.5, 0.5, 0.01, 0.2, 100)

2025-07-07 17:00:26,205 - gym_custom_envs_real_ur_drivers_URBasic_realTimeClientEvent - INFO - Program send to Robot:
servoj([0.11043127688920773, -1.6766410011590058, -1.5692623460070108, -1.368310862793992, 1.6827769243105486, 2.9345052472405713], 0.5, 0.5, 0.01, 0.2, 100)

2025-07-07 17:00:26,216 - gym_custom_envs_real_ur_drivers_URBasic_realTimeClientEvent - INFO - Program send to Robot:
servoj([0.11044646332938066, -1.6766410011590058, -1.5692623460070108, -1.368310862793992, 1.6827769243105486, 2.9345052472253847], 0.5, 0.5, 0.01, 0.2, 100)

2025-07-07 17:00:26,223 - gym_custom_envs_real_ur_drivers_URBasic_realTimeClientEvent - INFO - Program send to Robot:
servoj([0.11044661519378238, -1.6766410011590058, -1.5692623460070108, -1.368310862793992, 1.6827769243105486, 2.934505247225233], 0.5, 0.5, 0.01, 0.2, 100)

2025-07-07 17:00:26,231 - gym_custom_envs_real_ur_drivers_URBasic_realTimeClientEvent - INFO - Program send to Robot:
servoj([0.1104466167124264, -1.6766410011590058, -1.5692623460070108, -1.368310862793992, 1.6827769243105486, 2.9345052472252315], 0.5, 0.5, 0.01, 0.2, 100)

2025-07-07 17:00:26,248 - gym_custom_envs_real_ur_drivers_URBasic_realTimeClientEvent - INFO - Program send to Robot:
servoj([0.11044661672761284, -1.6766410011590058, -1.5692623460070108, -1.368310862793992, 1.6827769243105486, 2.9345052472252315], 0.5, 0.5, 0.01, 0.2, 100)

2025-07-07 17:00:26,255 - gym_custom_envs_real_ur_drivers_URBasic_realTimeClientEvent - INFO - Program send to Robot:
servoj([0.11044661672776471, -1.6766410011590058, -1.5692623460070108, -1.368310862793992, 1.6842955652905556, 2.9345052472252315], 0.5, 0.5, 0.01, 0.2, 100)

2025-07-07 17:00:26,277 - gym_custom_envs_real_ur_drivers_URBasic_realTimeClientEvent - INFO - Program send to Robot:
servoj([0.11044661672776622, -1.6766410011590058, -1.5692623460070108, -1.368310862793992, 1.6843107517003555, 2.9345052472252315], 0.5, 0.5, 0.01, 0.2, 100)

2025-07-07 17:00:26,287 - gym_custom_envs_real_ur_drivers_URBasic_realTimeClientEvent - INFO - Program send to Robot:
servoj([0.11196525770777274, -1.6766410011590058, -1.5707809869870177, -1.368310862793992, 1.6843109035644535, 2.9345052472252315], 0.5, 0.5, 0.01, 0.2, 100)

2025-07-07 17:00:26,295 - gym_custom_envs_real_ur_drivers_URBasic_realTimeClientEvent - INFO - Program send to Robot:
servoj([0.11198044411757281, -1.6766410011590058, -1.5707961733968179, -1.368310862793992, 1.6843109050830944, 2.9345052472252315], 0.5, 0.5, 0.01, 0.2, 100)

2025-07-07 17:00:26,303 - gym_custom_envs_real_ur_drivers_URBasic_realTimeClientEvent - INFO - Program send to Robot:
servoj([0.1119805959816708, -1.6766410011590058, -1.5707963252609158, -1.368310862793992, 1.684310905098281, 2.9345052472252315], 0.5, 0.5, 0.01, 0.2, 100)

2025-07-07 17:00:26,319 - gym_custom_envs_real_ur_drivers_URBasic_realTimeClientEvent - INFO - Program send to Robot:
servoj([0.11501787946032568, -1.6766410011590058, -1.5707963267795568, -1.368310862793992, 1.6843109050984328, 2.9345052472252315], 0.5, 0.5, 0.01, 0.2, 100)

2025-07-07 17:00:26,336 - gym_custom_envs_real_ur_drivers_URBasic_realTimeClientEvent - INFO - Program send to Robot:
servoj([0.11504825229511223, -1.6766410011590058, -1.5707963267947433, -1.368310862793992, 1.6843109050984344, 2.9345052472252315], 0.5, 0.5, 0.01, 0.2, 100)

2025-07-07 17:00:26,343 - gym_custom_envs_real_ur_drivers_URBasic_realTimeClientEvent - INFO - Program send to Robot:
servoj([0.11504855602346009, -1.6766410011590058, -1.5707963267948952, -1.368310862793992, 1.6843109050984344, 2.9345052472252315], 0.5, 0.5, 0.01, 0.2, 100)

2025-07-07 17:00:26,351 - gym_custom_envs_real_ur_drivers_URBasic_realTimeClientEvent - INFO - Program send to Robot:
servoj([0.11656720004075007, -1.6766410011590058, -1.5707963267948966, -1.368310862793992, 1.6858295460784405, 2.9360238882052383], 0.5, 0.5, 0.01, 0.2, 100)

2025-07-07 17:00:26,361 - gym_custom_envs_real_ur_drivers_URBasic_realTimeClientEvent - INFO - Program send to Robot:
servoj([0.11658238648092296, -1.6766410011590058, -1.5707963267948966, -1.368310862793992, 1.6858447324882404, 2.936039074615038], 0.5, 0.5, 0.01, 0.2, 100)

2025-07-07 17:00:26,376 - gym_custom_envs_real_ur_drivers_URBasic_realTimeClientEvent - INFO - Program send to Robot:
servoj([0.1165825383453247, -1.6766410011590058, -1.5707963267948966, -1.368310862793992, 1.6858448843523386, 2.9360392264791364], 0.5, 0.5, 0.01, 0.2, 100)

2025-07-07 17:00:26,383 - gym_custom_envs_real_ur_drivers_URBasic_realTimeClientEvent - INFO - Program send to Robot:
servoj([0.11810118084397567, -1.6766410011590058, -1.5723149677749033, -1.368310862793992, 1.6858448858709796, 2.936039227997777], 0.5, 0.5, 0.01, 0.2, 100)

2025-07-07 17:00:26,391 - gym_custom_envs_real_ur_drivers_URBasic_realTimeClientEvent - INFO - Program send to Robot:
servoj([0.11811636726896217, -1.6766410011590058, -1.5723301541847035, -1.368310862793992, 1.6858448858861659, 2.9360392280129637], 0.5, 0.5, 0.01, 0.2, 100)

2025-07-07 17:00:26,399 - gym_custom_envs_real_ur_drivers_URBasic_realTimeClientEvent - INFO - Program send to Robot:
servoj([0.11811651913321204, -1.6766410011590058, -1.5723303060488014, -1.368310862793992, 1.6858448858863178, 2.9360392280131156], 0.5, 0.5, 0.01, 0.2, 100)

2025-07-07 17:00:26,415 - gym_custom_envs_real_ur_drivers_URBasic_realTimeClientEvent - INFO - Program send to Robot:
servoj([0.11811652065185453, -1.6766410011590058, -1.5723303075674424, -1.368310862793992, 1.6858448858863193, 2.93452058703311], 0.5, 0.5, 0.01, 0.2, 100)

2025-07-07 17:00:26,423 - gym_custom_envs_real_ur_drivers_URBasic_realTimeClientEvent - INFO - Program send to Robot:
servoj([0.11811652066704097, -1.6766410011590058, -1.572330307582629, -1.368310862793992, 1.6858448858863193, 2.9345054006233102], 0.5, 0.5, 0.01, 0.2, 100)

2025-07-07 17:00:26,439 - gym_custom_envs_real_ur_drivers_URBasic_realTimeClientEvent - INFO - Program send to Robot:
servoj([0.11811652066719283, -1.6766410011590058, -1.5723303075827808, -1.368310862793992, 1.6858448858863193, 2.934505248759212], 0.5, 0.5, 0.01, 0.2, 100)

2025-07-07 17:00:26,456 - gym_custom_envs_real_ur_drivers_URBasic_realTimeClientEvent - INFO - Program send to Robot:
servoj([0.11811652066719434, -1.6766410011590058, -1.5723303075827824, -1.368310862793992, 1.6858448858863193, 2.936023888220578], 0.5, 0.5, 0.01, 0.2, 100)

2025-07-07 17:00:26,463 - gym_custom_envs_real_ur_drivers_URBasic_realTimeClientEvent - INFO - Program send to Robot:
servoj([0.11811652066719436, -1.6766410011590058, -1.5723303075827824, -1.368310862793992, 1.6858448858863193, 2.9360390746151914], 0.5, 0.5, 0.01, 0.2, 100)

2025-07-07 17:00:26,471 - gym_custom_envs_real_ur_drivers_URBasic_realTimeClientEvent - INFO - Program send to Robot:
servoj([0.11811652066719436, -1.6766410011590058, -1.5723303075827824, -1.368310862793992, 1.6858448858863193, 2.9360392264791377], 0.5, 0.5, 0.01, 0.2, 100)

2025-07-07 17:00:26,480 - gym_custom_envs_real_ur_drivers_URBasic_realTimeClientEvent - INFO - Program send to Robot:
servoj([0.11811652066719436, -1.675122360178999, -1.5708116666027756, -1.368310862793992, 1.6843262449063132, 2.936039227997777], 0.5, 0.5, 0.01, 0.2, 100)

2025-07-07 17:00:26,496 - gym_custom_envs_real_ur_drivers_URBasic_realTimeClientEvent - INFO - Program send to Robot:
servoj([0.11811652066719436, -1.675107173769199, -1.5707964801929755, -1.368310862793992, 1.684311058496513, 2.9360392280129637], 0.5, 0.5, 0.01, 0.2, 100)

2025-07-07 17:00:26,503 - gym_custom_envs_real_ur_drivers_URBasic_realTimeClientEvent - INFO - Program send to Robot:
servoj([0.11811652066719436, -1.675107021905101, -1.5707963283288775, -1.368310862793992, 1.6843109066324151, 2.9360392280131156], 0.5, 0.5, 0.01, 0.2, 100)

2025-07-07 17:00:26,511 - gym_custom_envs_real_ur_drivers_URBasic_realTimeClientEvent - INFO - Program send to Robot:
servoj([0.1196351616472013, -1.67510702038646, -1.5707963268102365, -1.368310862793992, 1.6843109051137741, 2.936039228013117], 0.5, 0.5, 0.01, 0.2, 100)

2025-07-07 17:00:26,528 - gym_custom_envs_real_ur_drivers_URBasic_realTimeClientEvent - INFO - Program send to Robot:
servoj([0.11965034805700137, -1.6751070203712737, -1.57079632679505, -1.368310862793992, 1.6843109050985878, 2.936039228013117], 0.5, 0.5, 0.01, 0.2, 100)

2025-07-07 17:00:26,536 - gym_custom_envs_real_ur_drivers_URBasic_realTimeClientEvent - INFO - Program send to Robot:
servoj([0.11965049992109937, -1.6751070203711218, -1.5707963267948981, -1.368310862793992, 1.684310905098436, 2.936039228013117], 0.5, 0.5, 0.01, 0.2, 100)

2025-07-07 17:00:26,543 - gym_custom_envs_real_ur_drivers_URBasic_realTimeClientEvent - INFO - Program send to Robot:
servoj([0.12116914241974686, -1.6751070203711202, -1.5707963267948968, -1.368310862793992, 1.6827922641184274, 2.936039228013117], 0.5, 0.5, 0.01, 0.2, 100)

2025-07-07 17:00:26,560 - gym_custom_envs_real_ur_drivers_URBasic_realTimeClientEvent - INFO - Program send to Robot:
servoj([0.12118432884473333, -1.6751070203711202, -1.5707963267948966, -1.368310862793992, 1.6827770777086273, 2.936039228013117], 0.5, 0.5, 0.01, 0.2, 100)

2025-07-07 17:00:26,576 - gym_custom_envs_real_ur_drivers_URBasic_realTimeClientEvent - INFO - Program send to Robot:
servoj([0.1211844807089832, -1.6735883793911133, -1.5692776858148896, -1.3667922218139852, 1.6812582848645226, 2.933001946053104], 0.5, 0.5, 0.01, 0.2, 100)

2025-07-07 17:00:26,583 - gym_custom_envs_real_ur_drivers_URBasic_realTimeClientEvent - INFO - Program send to Robot:
servoj([0.12118448222762569, -1.6735731929813131, -1.5692624994050897, -1.3667770354041853, 1.6812430969360814, 2.932971573233504], 0.5, 0.5, 0.01, 0.2, 100)

2025-07-07 17:00:26,591 - gym_custom_envs_real_ur_drivers_URBasic_realTimeClientEvent - INFO - Program send to Robot:
servoj([0.12118448224281213, -1.6735730411172152, -1.5692623475409917, -1.366776883540087, 1.6812429450567972, 2.9329712695053076], 0.5, 0.5, 0.01, 0.2, 100)

2025-07-07 17:00:26,599 - gym_custom_envs_real_ur_drivers_URBasic_realTimeClientEvent - INFO - Program send to Robot:
servoj([0.12118448224296399, -1.6735730395985742, -1.5692623460223507, -1.366776882021446, 1.6812429435380043, 2.9329712664680256], 0.5, 0.5, 0.01, 0.2, 100)

2025-07-07 17:00:26,615 - gym_custom_envs_real_ur_drivers_URBasic_realTimeClientEvent - INFO - Program send to Robot:
servoj([0.1211844822429655, -1.6735730395833879, -1.5662250640471511, -1.363739600046246, 1.6782056615628023, 2.9314526254576463], 0.5, 0.5, 0.01, 0.2, 100)

2025-07-07 17:00:26,622 - gym_custom_envs_real_ur_drivers_URBasic_realTimeClientEvent - INFO - Program send to Robot:
servoj([0.12118448224296552, -1.673573039583236, -1.5661946912273992, -1.3637092272264941, 1.6781752887430503, 2.9314374390475426], 0.5, 0.5, 0.01, 0.2, 100)

2025-07-07 17:00:26,631 - gym_custom_envs_real_ur_drivers_URBasic_realTimeClientEvent - INFO - Program send to Robot:
servoj([0.12118448224296552, -1.6735730395832344, -1.5661943874992017, -1.3637089234982966, 1.6781749850148528, 2.9314372871834413], 0.5, 0.5, 0.01, 0.2, 100)

2025-07-07 17:00:26,647 - gym_custom_envs_real_ur_drivers_URBasic_realTimeClientEvent - INFO - Program send to Robot:
servoj([0.12118448224296552, -1.6735730395832344, -1.560119820541892, -1.3561157155609809, 1.6781749819775709, 2.9314372856648006], 0.5, 0.5, 0.01, 0.2, 100)

2025-07-07 17:00:26,655 - gym_custom_envs_real_ur_drivers_URBasic_realTimeClientEvent - INFO - Program send to Robot:
servoj([0.12118448224296552, -1.6735730395832344, -1.5600590748723189, -1.3560397834816076, 1.678174981947198, 2.931437285649614], 0.5, 0.5, 0.01, 0.2, 100)

2025-07-07 17:00:26,663 - gym_custom_envs_real_ur_drivers_URBasic_realTimeClientEvent - INFO - Program send to Robot:
servoj([0.12118448224296552, -1.6735730395832344, -1.560058467415623, -1.3560390241608138, 1.6781749819468943, 2.931437285649462], 0.5, 0.5, 0.01, 0.2, 100)

2025-07-07 17:00:26,671 - gym_custom_envs_real_ur_drivers_URBasic_realTimeClientEvent - INFO - Program send to Robot:
servoj([0.12118448224296552, -1.6735730395832344, -1.5570211793810431, -1.349964452647579, 1.6796936229268982, 2.931437285649461], 0.5, 0.5, 0.01, 0.2, 100)

2025-07-07 17:00:26,688 - gym_custom_envs_real_ur_drivers_URBasic_realTimeClientEvent - INFO - Program send to Robot:
servoj([0.12118448224296552, -1.6735730395832344, -1.5569908065006972, -1.3499037069324467, 1.6797088093366983, 2.931437285649461], 0.5, 0.5, 0.01, 0.2, 100)

2025-07-07 17:00:26,696 - gym_custom_envs_real_ur_drivers_URBasic_realTimeClientEvent - INFO - Program send to Robot:
servoj([0.12118448224296552, -1.6735730395832344, -1.5569905027718938, -1.3499030994752952, 1.6797089612007963, 2.931437285649461], 0.5, 0.5, 0.01, 0.2, 100)

2025-07-07 17:00:26,703 - gym_custom_envs_real_ur_drivers_URBasic_realTimeClientEvent - INFO - Program send to Robot:
servoj([0.12118448224296552, -1.6735730395832344, -1.5569904997346058, -1.3453471704607032, 1.6797089627194373, 2.931437285649461], 0.5, 0.5, 0.01, 0.2, 100)

2025-07-07 17:00:26,712 - gym_custom_envs_real_ur_drivers_URBasic_realTimeClientEvent - INFO - Program send to Robot:
servoj([0.12118448224296552, -1.6735730395832344, -1.556990499704233, -1.3453016111705574, 1.6797089627346236, 2.931437285649461], 0.5, 0.5, 0.01, 0.2, 100)

2025-07-07 17:00:26,728 - gym_custom_envs_real_ur_drivers_URBasic_realTimeClientEvent - INFO - Program send to Robot:
servoj([0.12118448224296552, -1.6735730395832344, -1.5569904997039292, -1.345301155577656, 1.6797089627347754, 2.931437285649461], 0.5, 0.5, 0.01, 0.2, 100)

2025-07-07 17:00:26,735 - gym_custom_envs_real_ur_drivers_URBasic_realTimeClientEvent - INFO - Program send to Robot:
servoj([0.12118448224296552, -1.6735730395832344, -1.5569904997039261, -1.3407452280817063, 1.679708962734777, 2.931437285649461], 0.5, 0.5, 0.01, 0.2, 100)

2025-07-07 17:00:26,743 - gym_custom_envs_real_ur_drivers_URBasic_realTimeClientEvent - INFO - Program send to Robot:
servoj([0.12118448224296552, -1.6735730395832344, -1.5569904997039261, -1.3406996688067467, 1.679708962734777, 2.931437285649461], 0.5, 0.5, 0.01, 0.2, 100)

2025-07-07 17:00:26,760 - gym_custom_envs_real_ur_drivers_URBasic_realTimeClientEvent - INFO - Program send to Robot:
servoj([0.12118448224296552, -1.6735730395832344, -1.5569904997039261, -1.3406992132139972, 1.679708962734777, 2.931437285649461], 0.5, 0.5, 0.01, 0.2, 100)

2025-07-07 17:00:26,767 - gym_custom_envs_real_ur_drivers_URBasic_realTimeClientEvent - INFO - Program send to Robot:
servoj([0.12118448224296552, -1.6735730395832344, -1.5569904997039261, -1.3376619266980563, 1.681227603714784, 2.9299186446694536], 0.5, 0.5, 0.01, 0.2, 100)

2025-07-07 17:00:26,775 - gym_custom_envs_real_ur_drivers_URBasic_realTimeClientEvent - INFO - Program send to Robot:
servoj([0.12118448224296552, -1.6735730395832344, -1.5569904997039261, -1.337631553832897, 1.681242790124584, 2.9299034582596533], 0.5, 0.5, 0.01, 0.2, 100)

2025-07-07 17:00:26,783 - gym_custom_envs_real_ur_drivers_URBasic_realTimeClientEvent - INFO - Program send to Robot:
servoj([0.12118448224296552, -1.6735730395832344, -1.5569904997039261, -1.3376312501042453, 1.681242941988682, 2.9299033063955555], 0.5, 0.5, 0.01, 0.2, 100)

2025-07-07 17:00:26,799 - gym_custom_envs_real_ur_drivers_URBasic_realTimeClientEvent - INFO - Program send to Robot:
servoj([0.12118448224296552, -1.6735730395832344, -1.5554718587239191, -1.3330753241269384, 1.681242943507323, 2.9299033048769143], 0.5, 0.5, 0.01, 0.2, 100)

2025-07-07 17:00:26,809 - gym_custom_envs_real_ur_drivers_URBasic_realTimeClientEvent - INFO - Program send to Robot:
servoj([0.12118448224296552, -1.6735730395832344, -1.555456672314119, -1.3330297648671654, 1.6812429435225096, 2.929903304861728], 0.5, 0.5, 0.01, 0.2, 100)

2025-07-07 17:00:26,817 - gym_custom_envs_real_ur_drivers_URBasic_realTimeClientEvent - INFO - Program send to Robot:
servoj([0.12118448224296552, -1.6735730395832344, -1.555456520450021, -1.3330293092745678, 1.6812429435226615, 2.929903304861576], 0.5, 0.5, 0.01, 0.2, 100)

2025-07-07 17:00:26,823 - gym_custom_envs_real_ur_drivers_URBasic_realTimeClientEvent - INFO - Program send to Robot:
servoj([0.12118448224296552, -1.6735730395832344, -1.55545651893138, -1.3330293047186417, 1.6812429435226628, 2.9299033048615746], 0.5, 0.5, 0.01, 0.2, 100)

2025-07-07 17:00:26,842 - gym_custom_envs_real_ur_drivers_URBasic_realTimeClientEvent - INFO - Program send to Robot:
servoj([0.12118448224296552, -1.6735730395832344, -1.5554565189161937, -1.328473381733062, 1.6812429435226628, 2.9299033048615746], 0.5, 0.5, 0.01, 0.2, 100)

2025-07-07 17:00:26,847 - gym_custom_envs_real_ur_drivers_URBasic_realTimeClientEvent - INFO - Program send to Robot:
servoj([0.12118448224296552, -1.6735730395832344, -1.5554565189160419, -1.3284278225032062, 1.6812429435226628, 2.9299033048615746], 0.5, 0.5, 0.01, 0.2, 100)

2025-07-07 17:00:26,857 - gym_custom_envs_real_ur_drivers_URBasic_realTimeClientEvent - INFO - Program send to Robot:
servoj([0.12118448224296552, -1.6735730395832344, -1.5554565189160403, -1.3284273669109077, 1.6812429435226628, 2.9299033048615746], 0.5, 0.5, 0.01, 0.2, 100)

2025-07-07 17:00:26,872 - gym_custom_envs_real_ur_drivers_URBasic_realTimeClientEvent - INFO - Program send to Robot:
servoj([0.12118448224296552, -1.6735730395832344, -1.5554565189160403, -1.3208341574549505, 1.6827615845026695, 2.9299033048615746], 0.5, 0.5, 0.01, 0.2, 100)

2025-07-07 17:00:26,882 - gym_custom_envs_real_ur_drivers_URBasic_realTimeClientEvent - INFO - Program send to Robot:
servoj([0.12118448224296552, -1.6735730395832344, -1.5554565189160403, -1.320758225360391, 1.6827767709124697, 2.9299033048615746], 0.5, 0.5, 0.01, 0.2, 100)

2025-07-07 17:00:26,889 - gym_custom_envs_real_ur_drivers_URBasic_realTimeClientEvent - INFO - Program send to Robot:
servoj([0.12118448224296552, -1.6735730395832344, -1.5554565189160403, -1.3207574660394454, 1.6827769227765677, 2.9299033048615746], 0.5, 0.5, 0.01, 0.2, 100)

2025-07-07 17:00:26,895 - gym_custom_envs_real_ur_drivers_URBasic_realTimeClientEvent - INFO - Program send to Robot:
servoj([0.12118448224296552, -1.6735730395832344, -1.5569751598960473, -1.314682894526209, 1.6827769242952086, 2.9299033048615746], 0.5, 0.5, 0.01, 0.2, 100)

2025-07-07 17:00:26,914 - gym_custom_envs_real_ur_drivers_URBasic_realTimeClientEvent - INFO - Program send to Robot:
servoj([0.12118448224296552, -1.6735730395832344, -1.5569903463058474, -1.3146221488110765, 1.6827769243103952, 2.9299033048615746], 0.5, 0.5, 0.01, 0.2, 100)

2025-07-07 17:00:26,920 - gym_custom_envs_real_ur_drivers_URBasic_realTimeClientEvent - INFO - Program send to Robot:
servoj([0.12118448224296552, -1.6735730395832344, -1.5569904981699454, -1.3146215413539253, 1.682776924310547, 2.9299033048615746], 0.5, 0.5, 0.01, 0.2, 100)

2025-07-07 17:00:26,930 - gym_custom_envs_real_ur_drivers_URBasic_realTimeClientEvent - INFO - Program send to Robot:
servoj([0.12118448224296552, -1.6735730395832344, -1.5569904996885864, -1.3100656123393337, 1.6842955652905556, 2.928384663881568], 0.5, 0.5, 0.01, 0.2, 100)

2025-07-07 17:00:26,943 - gym_custom_envs_real_ur_drivers_URBasic_realTimeClientEvent - INFO - Program send to Robot:
servoj([0.12118448224296552, -1.6735730395832344, -1.5569904997037727, -1.3100200530491877, 1.6843107517003555, 2.928369477471768], 0.5, 0.5, 0.01, 0.2, 100)

2025-07-07 17:00:26,954 - gym_custom_envs_real_ur_drivers_URBasic_realTimeClientEvent - INFO - Program send to Robot:
servoj([0.12118448224296552, -1.6735730395832344, -1.5569904997039246, -1.3100195974562863, 1.6843109035644535, 2.9283693256076697], 0.5, 0.5, 0.01, 0.2, 100)

2025-07-07 17:00:26,959 - gym_custom_envs_real_ur_drivers_URBasic_realTimeClientEvent - INFO - Program send to Robot:
servoj([0.12118448224296552, -1.6735730395832344, -1.5585091406839322, -1.3069823109403436, 1.6858295460631005, 2.9298879650690357], 0.5, 0.5, 0.01, 0.2, 100)

2025-07-07 17:00:26,978 - gym_custom_envs_real_ur_drivers_URBasic_realTimeClientEvent - INFO - Program send to Robot:
servoj([0.12118448224296552, -1.6735730395832344, -1.5585243270937323, -1.3069519380751842, 1.6858447324880872, 2.929903151463649], 0.5, 0.5, 0.01, 0.2, 100)

2025-07-07 17:00:26,986 - gym_custom_envs_real_ur_drivers_URBasic_realTimeClientEvent - INFO - Program send to Robot:
servoj([0.12118448224296552, -1.6735730395832344, -1.5585244789578303, -1.3069516343465326, 1.685844884352337, 2.9299033033275954], 0.5, 0.5, 0.01, 0.2, 100)

2025-07-07 17:00:26,991 - gym_custom_envs_real_ur_drivers_URBasic_realTimeClientEvent - INFO - Program send to Robot:
servoj([0.12118448224296552, -1.6735730395832344, -1.5600431214564783, -1.3054329903292392, 1.6858448858709794, 2.929903304846235], 0.5, 0.5, 0.01, 0.2, 100)

2025-07-07 17:00:27,009 - gym_custom_envs_real_ur_drivers_URBasic_realTimeClientEvent - INFO - Program send to Robot:
servoj([0.12118448224296552, -1.6735730395832344, -1.5600583078814647, -1.3054178038890663, 1.6858448858861659, 2.929903304861421], 0.5, 0.5, 0.01, 0.2, 100)

2025-07-07 17:00:27,015 - gym_custom_envs_real_ur_drivers_URBasic_realTimeClientEvent - INFO - Program send to Robot:
servoj([0.12118448224296552, -1.6735730395832344, -1.5600584597457146, -1.3054176520246645, 1.6858448858863178, 2.929903304861573], 0.5, 0.5, 0.01, 0.2, 100)

2025-07-07 17:00:27,025 - gym_custom_envs_real_ur_drivers_URBasic_realTimeClientEvent - INFO - Program send to Robot:
servoj([0.12118448224296552, -1.6720543986032277, -1.5615771022443639, -1.3054176505060207, 1.6858448858863193, 2.9299033048615746], 0.5, 0.5, 0.01, 0.2, 100)

2025-07-07 17:00:27,039 - gym_custom_envs_real_ur_drivers_URBasic_realTimeClientEvent - INFO - Program send to Robot:
servoj([0.12118448224296552, -1.6720392121934275, -1.5615922886693503, -1.3054176504908341, 1.6858448858863193, 2.9299033048615746], 0.5, 0.5, 0.01, 0.2, 100)

2025-07-07 17:00:27,049 - gym_custom_envs_real_ur_drivers_URBasic_realTimeClientEvent - INFO - Program send to Robot:
servoj([0.12118448224296552, -1.6720390603293296, -1.5615924405336001, -1.3054176504906823, 1.6858448858863193, 2.9299033048615746], 0.5, 0.5, 0.01, 0.2, 100)

2025-07-07 17:00:27,058 - gym_custom_envs_real_ur_drivers_URBasic_realTimeClientEvent - INFO - Program send to Robot:
servoj([0.12118448224296552, -1.6720390588106886, -1.5615924420522427, -1.3054176504906807, 1.6843262449063132, 2.9299033048615746], 0.5, 0.5, 0.01, 0.2, 100)

2025-07-07 17:00:27,063 - gym_custom_envs_real_ur_drivers_URBasic_realTimeClientEvent - INFO - Program send to Robot:
servoj([0.12118448224296552, -1.672039058795502, -1.5615924420674292, -1.3054176504906807, 1.684311058496513, 2.9299033048615746], 0.5, 0.5, 0.01, 0.2, 100)

2025-07-07 17:00:27,081 - gym_custom_envs_real_ur_drivers_URBasic_realTimeClientEvent - INFO - Program send to Robot:
servoj([0.12118448224296552, -1.6720390587953502, -1.561592442067581, -1.3054176504906807, 1.6843109066324151, 2.9299033048615746], 0.5, 0.5, 0.01, 0.2, 100)

2025-07-07 17:00:27,086 - gym_custom_envs_real_ur_drivers_URBasic_realTimeClientEvent - INFO - Program send to Robot:
servoj([0.12118448224296552, -1.6720390587953489, -1.5615924420675824, -1.3054176504906807, 1.6827922641337671, 2.9299033048615746], 0.5, 0.5, 0.01, 0.2, 100)

2025-07-07 17:00:27,096 - gym_custom_envs_real_ur_drivers_URBasic_realTimeClientEvent - INFO - Program send to Robot:
servoj([0.12118448224296552, -1.6720390587953489, -1.5615924420675826, -1.3054176504906807, 1.6827770777087807, 2.9299033048615746], 0.5, 0.5, 0.01, 0.2, 100)

2025-07-07 17:00:27,111 - gym_custom_envs_real_ur_drivers_URBasic_realTimeClientEvent - INFO - Program send to Robot:
servoj([0.12118448224296552, -1.6720390587953489, -1.5615924420675826, -1.3054176504906807, 1.6827769258445309, 2.9299033048615746], 0.5, 0.5, 0.01, 0.2, 100)

2025-07-07 17:00:27,120 - gym_custom_envs_real_ur_drivers_URBasic_realTimeClientEvent - INFO - Program send to Robot:
servoj([0.12118448224296552, -1.6705204178153423, -1.5615924420675826, -1.3054176504906807, 1.6812582833458816, 2.9299033048615746], 0.5, 0.5, 0.01, 0.2, 100)

2025-07-07 17:00:27,128 - gym_custom_envs_real_ur_drivers_URBasic_realTimeClientEvent - INFO - Program send to Robot:
servoj([0.12118448224296552, -1.6705052314055422, -1.5615924420675826, -1.3054176504906807, 1.6812430969208951, 2.9299033048615746], 0.5, 0.5, 0.01, 0.2, 100)

2025-07-07 17:00:27,135 - gym_custom_envs_real_ur_drivers_URBasic_realTimeClientEvent - INFO - Program send to Robot:
servoj([0.12118448224296552, -1.6705050795414442, -1.5615924420675826, -1.3054176504906807, 1.6812429450566453, 2.9299033048615746], 0.5, 0.5, 0.01, 0.2, 100)

2025-07-07 17:00:27,151 - gym_custom_envs_real_ur_drivers_URBasic_realTimeClientEvent - INFO - Program send to Robot:
servoj([0.12118448224296552, -1.6689864370427965, -1.5615924420675826, -1.3054176504906807, 1.6812429435380027, 2.9299033048615746], 0.5, 0.5, 0.01, 0.2, 100)

2025-07-07 17:00:27,159 - gym_custom_envs_real_ur_drivers_URBasic_realTimeClientEvent - INFO - Program send to Robot:
servoj([0.12118448224296552, -1.66897125061781, -1.5615924420675826, -1.3054176504906807, 1.6812429435228162, 2.9299033048615746], 0.5, 0.5, 0.01, 0.2, 100)

2025-07-07 17:00:27,167 - gym_custom_envs_real_ur_drivers_URBasic_realTimeClientEvent - INFO - Program send to Robot:
servoj([0.12118448224296552, -1.66897109875356, -1.5615924420675826, -1.3054176504906807, 1.6812429435226643, 2.9299033048615746], 0.5, 0.5, 0.01, 0.2, 100)

2025-07-07 17:00:27,176 - gym_custom_envs_real_ur_drivers_URBasic_realTimeClientEvent - INFO - Program send to Robot:
servoj([0.12118448224296552, -1.6689710972349177, -1.5615924420675826, -1.3054176504906807, 1.681242943522663, 2.9299033048615746], 0.5, 0.5, 0.01, 0.2, 100)

2025-07-07 17:00:27,192 - gym_custom_envs_real_ur_drivers_URBasic_realTimeClientEvent - INFO - Program send to Robot:
servoj([0.12118448224296552, -1.6689710972197311, -1.5615924420675826, -1.3054176504906807, 1.6812429435226628, 2.9299033048615746], 0.5, 0.5, 0.01, 0.2, 100)

2025-07-07 17:00:27,200 - gym_custom_envs_real_ur_drivers_URBasic_realTimeClientEvent - INFO - Program send to Robot:
servoj([0.12118448224296552, -1.6689710972195793, -1.5615924420675826, -1.3054176504906807, 1.6812429435226628, 2.9299033048615746], 0.5, 0.5, 0.01, 0.2, 100)

2025-07-07 17:00:27,207 - gym_custom_envs_real_ur_drivers_URBasic_realTimeClientEvent - INFO - Program send to Robot:
servoj([0.12118448224296552, -1.6689710972195777, -1.5615924420675826, -1.3054176504906807, 1.6812429435226628, 2.9299033048615746], 0.5, 0.5, 0.01, 0.2, 100)

2025-07-07 17:00:27,225 - gym_custom_envs_real_ur_drivers_URBasic_realTimeClientEvent - INFO - Program send to Robot:
servoj([0.12118448224296552, -1.6689710972195777, -1.5615924420675826, -1.3069362914706875, 1.6812429435226628, 2.9299033048615746], 0.5, 0.5, 0.01, 0.2, 100)

2025-07-07 17:00:27,231 - gym_custom_envs_real_ur_drivers_URBasic_realTimeClientEvent - INFO - Program send to Robot:
servoj([0.12118448224296552, -1.6689710972195777, -1.5615924420675826, -1.3069514778804876, 1.6812429435226628, 2.9299033048615746], 0.5, 0.5, 0.01, 0.2, 100)

2025-07-07 17:00:27,240 - gym_custom_envs_real_ur_drivers_URBasic_realTimeClientEvent - INFO - Program send to Robot:
servoj([0.12118448224296552, -1.6689710972195777, -1.5615924420675826, -1.3069516297445856, 1.6812429435226628, 2.9299033048615746], 0.5, 0.5, 0.01, 0.2, 100)

2025-07-07 17:00:27,255 - gym_custom_envs_real_ur_drivers_URBasic_realTimeClientEvent - INFO - Program send to Robot:
servoj([0.12118448224296552, -1.6689710972195777, -1.5631110830475896, -1.3069516312632266, 1.6812429435226628, 2.9299033048615746], 0.5, 0.5, 0.01, 0.2, 100)

2025-07-07 17:00:27,263 - gym_custom_envs_real_ur_drivers_URBasic_realTimeClientEvent - INFO - Program send to Robot:
servoj([0.12118448224296552, -1.6689710972195777, -1.5631262694573895, -1.3069516312784129, 1.6812429435226628, 2.9299033048615746], 0.5, 0.5, 0.01, 0.2, 100)

2025-07-07 17:00:27,271 - gym_custom_envs_real_ur_drivers_URBasic_realTimeClientEvent - INFO - Program send to Robot:
servoj([0.12118448224296552, -1.6689710972195777, -1.5631264213214875, -1.3069516312785647, 1.6812429435226628, 2.9299033048615746], 0.5, 0.5, 0.01, 0.2, 100)

2025-07-07 17:00:27,278 - gym_custom_envs_real_ur_drivers_URBasic_realTimeClientEvent - INFO - Program send to Robot:
servoj([0.12118448224296552, -1.6674524562395707, -1.5646450638201355, -1.3054329902985595, 1.6827615845026695, 2.928384663881568], 0.5, 0.5, 0.01, 0.2, 100)

2025-07-07 17:00:27,295 - gym_custom_envs_real_ur_drivers_URBasic_realTimeClientEvent - INFO - Program send to Robot:
servoj([0.12118448224296552, -1.6674372698297708, -1.5646602502451221, -1.3054178038887594, 1.6827767709124697, 2.928369477471768], 0.5, 0.5, 0.01, 0.2, 100)

2025-07-07 17:00:27,303 - gym_custom_envs_real_ur_drivers_URBasic_realTimeClientEvent - INFO - Program send to Robot:
servoj([0.12118448224296552, -1.6674371179656726, -1.564660402109372, -1.3054176520246614, 1.6827769227765677, 2.9283693256076697], 0.5, 0.5, 0.01, 0.2, 100)

2025-07-07 17:00:27,312 - gym_custom_envs_real_ur_drivers_URBasic_realTimeClientEvent - INFO - Program send to Robot:
servoj([0.12118448224296552, -1.6674371164470316, -1.5661790446080213, -1.3054176505060204, 1.6812582833152019, 2.928369324089029], 0.5, 0.5, 0.01, 0.2, 100)

2025-07-07 17:00:27,320 - gym_custom_envs_real_ur_drivers_URBasic_realTimeClientEvent - INFO - Program send to Robot:
servoj([0.12118448224296552, -1.6674371164318453, -1.566194231033008, -1.3054176504908341, 1.6812430969205883, 2.9283693240738424], 0.5, 0.5, 0.01, 0.2, 100)

2025-07-07 17:00:27,335 - gym_custom_envs_real_ur_drivers_URBasic_realTimeClientEvent - INFO - Program send to Robot:
servoj([0.12118448224296552, -1.6674371164316935, -1.5661943828972578, -1.3054176504906823, 1.6812429450566422, 2.9283693240736905], 0.5, 0.5, 0.01, 0.2, 100)

2025-07-07 17:00:27,343 - gym_custom_envs_real_ur_drivers_URBasic_realTimeClientEvent - INFO - Program send to Robot:
servoj([0.12118448224296552, -1.667437116431692, -1.5646757434358933, -1.3054176504906807, 1.6812429435380027, 2.9283693240736888], 0.5, 0.5, 0.01, 0.2, 100)

2025-07-07 17:00:27,351 - gym_custom_envs_real_ur_drivers_URBasic_realTimeClientEvent - INFO - Program send to Robot:
servoj([0.12118448224296552, -1.667437116431692, -1.5646605570412797, -1.3054176504906807, 1.6812429435228162, 2.9283693240736888], 0.5, 0.5, 0.01, 0.2, 100)

2025-07-07 17:00:27,359 - gym_custom_envs_real_ur_drivers_URBasic_realTimeClientEvent - INFO - Program send to Robot:
servoj([0.12118448224296552, -1.667437116431692, -1.5646604051773334, -1.3054176504906807, 1.6812429435226643, 2.9283693240736888], 0.5, 0.5, 0.01, 0.2, 100)

2025-07-07 17:00:27,375 - gym_custom_envs_real_ur_drivers_URBasic_realTimeClientEvent - INFO - Program send to Robot:
servoj([0.12118448224296552, -1.667437116431692, -1.566179044638701, -1.3054176504906807, 1.681242943522663, 2.9298879650536955], 0.5, 0.5, 0.01, 0.2, 100)

2025-07-07 17:00:27,383 - gym_custom_envs_real_ur_drivers_URBasic_realTimeClientEvent - INFO - Program send to Robot:
servoj([0.12118448224296552, -1.667437116431692, -1.5661942310333146, -1.3054176504906807, 1.6812429435226628, 2.929903151463496], 0.5, 0.5, 0.01, 0.2, 100)

2025-07-07 17:00:27,391 - gym_custom_envs_real_ur_drivers_URBasic_realTimeClientEvent - INFO - Program send to Robot:
servoj([0.12118448224296552, -1.667437116431692, -1.5661943828972609, -1.3054176504906807, 1.6812429435226628, 2.9299033033275936], 0.5, 0.5, 0.01, 0.2, 100)

2025-07-07 17:00:27,407 - gym_custom_envs_real_ur_drivers_URBasic_realTimeClientEvent - INFO - Program send to Robot:
servoj([0.12118448224296552, -1.6659184754516851, -1.5661943844159003, -1.3038990095106737, 1.6812429435226628, 2.929903304846235], 0.5, 0.5, 0.01, 0.2, 100)

2025-07-07 17:00:27,415 - gym_custom_envs_real_ur_drivers_URBasic_realTimeClientEvent - INFO - Program send to Robot:
servoj([0.12118448224296552, -1.665903289041885, -1.5661943844310866, -1.3038838231008736, 1.6812429435226628, 2.929903304861421], 0.5, 0.5, 0.01, 0.2, 100)

2025-07-07 17:00:27,423 - gym_custom_envs_real_ur_drivers_URBasic_realTimeClientEvent - INFO - Program send to Robot:
servoj([0.12118448224296552, -1.665903137177787, -1.5661943844312385, -1.3038836712367756, 1.6812429435226628, 2.929903304861573], 0.5, 0.5, 0.01, 0.2, 100)

2025-07-07 17:00:27,431 - gym_custom_envs_real_ur_drivers_URBasic_realTimeClientEvent - INFO - Program send to Robot:
servoj([0.12118448224296552, -1.665903135659146, -1.56619438443124, -1.3038836697181346, 1.6812429435226628, 2.9299033048615746], 0.5, 0.5, 0.01, 0.2, 100)

2025-07-07 17:00:27,447 - gym_custom_envs_real_ur_drivers_URBasic_realTimeClientEvent - INFO - Program send to Robot:
servoj([0.12118448224296552, -1.6659031356439598, -1.564675743451233, -1.3038836697029483, 1.6812429435226628, 2.9314219458415818], 0.5, 0.5, 0.01, 0.2, 100)

2025-07-07 17:00:27,455 - gym_custom_envs_real_ur_drivers_URBasic_realTimeClientEvent - INFO - Program send to Robot:
servoj([0.12118448224296552, -1.6659031356438079, -1.564660557041433, -1.3038836697027965, 1.6812429435226628, 2.9314371322513817], 0.5, 0.5, 0.01, 0.2, 100)

2025-07-07 17:00:27,463 - gym_custom_envs_real_ur_drivers_URBasic_realTimeClientEvent - INFO - Program send to Robot:
servoj([0.12118448224296552, -1.6659031356438063, -1.564660405177335, -1.303883669702795, 1.6812429435226628, 2.93143728411548], 0.5, 0.5, 0.01, 0.2, 100)

2025-07-07 17:00:27,470 - gym_custom_envs_real_ur_drivers_URBasic_realTimeClientEvent - INFO - Program send to Robot:
servoj([0.12118448224296552, -1.6659031356438063, -1.564660403658694, -1.3023650287227881, 1.6812429435226628, 2.9329559266141274], 0.5, 0.5, 0.01, 0.2, 100)

2025-07-07 17:00:27,487 - gym_custom_envs_real_ur_drivers_URBasic_realTimeClientEvent - INFO - Program send to Robot:
servoj([0.12118448224296552, -1.6659031356438063, -1.5646604036435077, -1.302349842312988, 1.6812429435226628, 2.932971113039114], 0.5, 0.5, 0.01, 0.2, 100)

2025-07-07 17:00:27,495 - gym_custom_envs_real_ur_drivers_URBasic_realTimeClientEvent - INFO - Program send to Robot:
servoj([0.12118448224296552, -1.6659031356438063, -1.5646604036433558, -1.30234969044889, 1.6812429435226628, 2.932971264903364], 0.5, 0.5, 0.01, 0.2, 100)

2025-07-07 17:00:27,503 - gym_custom_envs_real_ur_drivers_URBasic_realTimeClientEvent - INFO - Program send to Robot:
servoj([0.12118448224296552, -1.6659031356438063, -1.5631417626633473, -1.3008310479502423, 1.6812429435226628, 2.9344899074020128], 0.5, 0.5, 0.01, 0.2, 100)

2025-07-07 17:00:27,519 - gym_custom_envs_real_ur_drivers_URBasic_realTimeClientEvent - INFO - Program send to Robot:
servoj([0.12118448224296552, -1.6659031356438063, -1.5631265762535471, -1.3008158615252559, 1.6812429435226628, 2.934505093826999], 0.5, 0.5, 0.01, 0.2, 100)

2025-07-07 17:00:27,527 - gym_custom_envs_real_ur_drivers_URBasic_realTimeClientEvent - INFO - Program send to Robot:
servoj([0.12118448224296552, -1.6659031356438063, -1.5631264243894492, -1.300815709661006, 1.6812429435226628, 2.9345052456912493], 0.5, 0.5, 0.01, 0.2, 100)

2025-07-07 17:00:27,545 - gym_custom_envs_real_ur_drivers_URBasic_realTimeClientEvent - INFO - Program send to Robot:
servoj([0.12270312322297246, -1.6659031356438063, -1.5631264228708082, -1.2962597852023432, 1.6812429435226628, 2.9345052472098914], 0.5, 0.5, 0.01, 0.2, 100)

2025-07-07 17:00:27,559 - gym_custom_envs_real_ur_drivers_URBasic_realTimeClientEvent - INFO - Program send to Robot:
servoj([0.12271830963277253, -1.6659031356438063, -1.5631264228556219, -1.2962142259577565, 1.6812429435226628, 2.934505247225078], 0.5, 0.5, 0.01, 0.2, 100)

2025-07-07 17:00:27,566 - gym_custom_envs_real_ur_drivers_URBasic_realTimeClientEvent - INFO - Program send to Robot:
servoj([0.12271846149687053, -1.6659031356438063, -1.56312642285547, -1.2916578474252902, 1.6812429435226628, 2.9345052472252298], 0.5, 0.5, 0.01, 0.2, 100)

2025-07-07 17:00:27,574 - gym_custom_envs_real_ur_drivers_URBasic_realTimeClientEvent - INFO - Program send to Robot:
servoj([0.12271846301551151, -1.6659031356438063, -1.5631264228554684, -1.2916122836399655, 1.6812429435226628, 2.9345052472252315], 0.5, 0.5, 0.01, 0.2, 100)

2025-07-07 17:00:27,582 - gym_custom_envs_real_ur_drivers_URBasic_realTimeClientEvent - INFO - Program send to Robot:
servoj([0.12271846303069792, -1.6659031356438063, -1.5631264228554684, -1.2916118280021123, 1.6812429435226628, 2.9345052472252315], 0.5, 0.5, 0.01, 0.2, 100)

2025-07-07 17:00:27,599 - gym_custom_envs_real_ur_drivers_URBasic_realTimeClientEvent - INFO - Program send to Robot:
servoj([0.12271846303084978, -1.6659031356438063, -1.5646450638354754, -1.290093182465727, 1.6797243025426558, 2.9345052472252315], 0.5, 0.5, 0.01, 0.2, 100)

2025-07-07 17:00:27,607 - gym_custom_envs_real_ur_drivers_URBasic_realTimeClientEvent - INFO - Program send to Robot:
servoj([0.1227184630308513, -1.6659031356438063, -1.5646602502452753, -1.2900779960103632, 1.679709116132856, 2.9345052472252315], 0.5, 0.5, 0.01, 0.2, 100)

2025-07-07 17:00:27,615 - gym_custom_envs_real_ur_drivers_URBasic_realTimeClientEvent - INFO - Program send to Robot:
servoj([0.12271846303085132, -1.6659031356438063, -1.5646604021093735, -1.2900778441458096, 1.679708964268758, 2.9345052472252315], 0.5, 0.5, 0.01, 0.2, 100)

2025-07-07 17:00:27,623 - gym_custom_envs_real_ur_drivers_URBasic_realTimeClientEvent - INFO - Program send to Robot:
servoj([0.12271846303085132, -1.6659031356438063, -1.5646604036280145, -1.290077842627164, 1.679708962750117, 2.9345052472252315], 0.5, 0.5, 0.01, 0.2, 100)

2025-07-07 17:00:27,640 - gym_custom_envs_real_ur_drivers_URBasic_realTimeClientEvent - INFO - Program send to Robot:
servoj([0.12271846303085132, -1.6659031356438063, -1.5646604036432008, -1.2915964835919842, 1.6751530397949104, 2.9299493242852113], 0.5, 0.5, 0.01, 0.2, 100)

2025-07-07 17:00:27,647 - gym_custom_envs_real_ur_drivers_URBasic_realTimeClientEvent - INFO - Program send to Robot:
servoj([0.12271846303085132, -1.6659031356438063, -1.5646604036433527, -1.2916116700016325, 1.6751074805653583, 2.929903765055811], 0.5, 0.5, 0.01, 0.2, 100)

2025-07-07 17:00:27,663 - gym_custom_envs_real_ur_drivers_URBasic_realTimeClientEvent - INFO - Program send to Robot:
servoj([0.12423710401085827, -1.6659031356438063, -1.5646604036433542, -1.2916118218657289, 1.6735883839930559, 2.92838466848351], 0.5, 0.5, 0.01, 0.2, 100)

2025-07-07 17:00:27,679 - gym_custom_envs_real_ur_drivers_URBasic_realTimeClientEvent - INFO - Program send to Robot:
servoj([0.12425229042065834, -1.6659031356438063, -1.5646604036433542, -1.2916118233843699, 1.6735731930273328, 2.928369477517787], 0.5, 0.5, 0.01, 0.2, 100)

2025-07-07 17:00:27,688 - gym_custom_envs_real_ur_drivers_URBasic_realTimeClientEvent - INFO - Program send to Robot:
servoj([0.12425244228475633, -1.6659031356438063, -1.5646604036433542, -1.2916118233995564, 1.6735730411176757, 2.92836932560813], 0.5, 0.5, 0.01, 0.2, 100)

2025-07-07 17:00:27,695 - gym_custom_envs_real_ur_drivers_URBasic_realTimeClientEvent - INFO - Program send to Robot:
servoj([0.12425244380339732, -1.6659031356438063, -1.5661790446233612, -1.2916118233997083, 1.6705357576385653, 2.92533204212902], 0.5, 0.5, 0.01, 0.2, 100)

2025-07-07 17:00:27,711 - gym_custom_envs_real_ur_drivers_URBasic_realTimeClientEvent - INFO - Program send to Robot:
servoj([0.12425244381858373, -1.6659031356438063, -1.5661942310331614, -1.2916118233997098, 1.670505384803774, 2.9253016692942286], 0.5, 0.5, 0.01, 0.2, 100)

2025-07-07 17:00:27,719 - gym_custom_envs_real_ur_drivers_URBasic_realTimeClientEvent - INFO - Program send to Robot:
servoj([0.1242524438187356, -1.6659031356438063, -1.5661943828972593, -1.2916118233997098, 1.6705050810754263, 2.925301365565881], 0.5, 0.5, 0.01, 0.2, 100)

2025-07-07 17:00:27,741 - gym_custom_envs_real_ur_drivers_URBasic_realTimeClientEvent - INFO - Program send to Robot:
servoj([0.12425244381873711, -1.6659031356438063, -1.5692316663759134, -1.2916118233997098, 1.6659491550981227, 2.916189516648557], 0.5, 0.5, 0.01, 0.2, 100)

2025-07-07 17:00:27,751 - gym_custom_envs_real_ur_drivers_URBasic_realTimeClientEvent - INFO - Program send to Robot:
servoj([0.12425244381873712, -1.6659031356438063, -1.5692620392107, -1.2916118233997098, 1.6659035958383497, 2.9160983981593835], 0.5, 0.5, 0.01, 0.2, 100)

2025-07-07 17:00:27,758 - gym_custom_envs_real_ur_drivers_URBasic_realTimeClientEvent - INFO - Program send to Robot:
servoj([0.12425244381873712, -1.6659031356438063, -1.5738182658790685, -1.2916118233997098, 1.6583099353457182, 2.900911077174424], 0.5, 0.5, 0.01, 0.2, 100)

2025-07-07 17:00:27,767 - gym_custom_envs_real_ur_drivers_URBasic_realTimeClientEvent - INFO - Program send to Robot:
servoj([0.12425244381873712, -1.6659031356438063, -1.5738638281457522, -1.2916118233997098, 1.658233998740792, 2.900759203964574], 0.5, 0.5, 0.01, 0.2, 100)

2025-07-07 17:00:27,783 - gym_custom_envs_real_ur_drivers_URBasic_realTimeClientEvent - INFO - Program send to Robot:
servoj([0.12425244381873712, -1.6659031356438063, -1.573864283768419, -1.2916118233997098, 1.6582332393747425, 2.9007576852324757], 0.5, 0.5, 0.01, 0.2, 100)

2025-07-07 17:00:27,791 - gym_custom_envs_real_ur_drivers_URBasic_realTimeClientEvent - INFO - Program send to Robot:
servoj([0.12577108479874363, -1.6659031356438063, -1.5753829293046517, -1.2916118233997098, 1.6536773088410612, 2.8840526192650797], 0.5, 0.5, 0.01, 0.2, 100)

2025-07-07 17:00:27,807 - gym_custom_envs_real_ur_drivers_URBasic_realTimeClientEvent - INFO - Program send to Robot:
servoj([0.1257862712085437, -1.6659031356438063, -1.575398115760014, -1.2916118233997098, 1.6536317495357244, 2.883885568605406], 0.5, 0.5, 0.01, 0.2, 100)

2025-07-07 17:00:27,815 - gym_custom_envs_real_ur_drivers_URBasic_realTimeClientEvent - INFO - Program send to Robot:
servoj([0.1257864230726417, -1.6659031356438063, -1.5753982676245677, -1.2916118233997098, 1.653631293942671, 2.883883898098809], 0.5, 0.5, 0.01, 0.2, 100)

2025-07-07 17:00:27,830 - gym_custom_envs_real_ur_drivers_URBasic_realTimeClientEvent - INFO - Program send to Robot:
servoj([0.12578642459128267, -1.6659031356438063, -1.57691691012322, -1.2916118233997098, 1.6521126484067334, 2.867178830613669], 0.5, 0.5, 0.01, 0.2, 100)

2025-07-07 17:00:27,839 - gym_custom_envs_real_ur_drivers_URBasic_realTimeClientEvent - INFO - Program send to Robot:
servoj([0.12578642460646908, -1.6659031356438063, -1.5769320965482068, -1.2916118233997098, 1.6520974619513742, 2.8670117799388177], 0.5, 0.5, 0.01, 0.2, 100)

2025-07-07 17:00:27,847 - gym_custom_envs_real_ur_drivers_URBasic_realTimeClientEvent - INFO - Program send to Robot:
servoj([0.12578642460662096, -1.6659031356438063, -1.5769322484124566, -1.2916118233997098, 1.6520973100868206, 2.867010109432069], 0.5, 0.5, 0.01, 0.2, 100)

2025-07-07 17:00:27,863 - gym_custom_envs_real_ur_drivers_URBasic_realTimeClientEvent - INFO - Program send to Robot:
servoj([0.12578642460662248, -1.6659031356438063, -1.5784508909111061, -1.290093182419703, 1.652097308568175, 2.8563796058669544], 0.5, 0.5, 0.01, 0.2, 100)

2025-07-07 17:00:27,871 - gym_custom_envs_real_ur_drivers_URBasic_realTimeClientEvent - INFO - Program send to Robot:
servoj([0.12578642460662248, -1.6659031356438063, -1.5784660773360926, -1.290077996009903, 1.6520973085529884, 2.8562733008313033], 0.5, 0.5, 0.01, 0.2, 100)

2025-07-07 17:00:27,884 - gym_custom_envs_real_ur_drivers_URBasic_realTimeClientEvent - INFO - Program send to Robot:
servoj([0.12578642460662248, -1.6659031356438063, -1.5784662292003424, -1.290077844145805, 1.6520973085528365, 2.8562722377809466], 0.5, 0.5, 0.01, 0.2, 100)

2025-07-07 17:00:27,895 - gym_custom_envs_real_ur_drivers_URBasic_realTimeClientEvent - INFO - Program send to Robot:
servoj([0.12578642460662248, -1.6659031356438063, -1.579984871698992, -1.290077842627164, 1.6520973085528352, 2.8501976632304156], 0.5, 0.5, 0.01, 0.2, 100)

2025-07-07 17:00:27,909 - gym_custom_envs_real_ur_drivers_URBasic_realTimeClientEvent - INFO - Program send to Robot:
servoj([0.12578642460662248, -1.6659031356438063, -1.5800000581239784, -1.2900778426119774, 1.6520973085528352, 2.8501369174849103], 0.5, 0.5, 0.01, 0.2, 100)

2025-07-07 17:00:27,919 - gym_custom_envs_real_ur_drivers_URBasic_realTimeClientEvent - INFO - Program send to Robot:
servoj([0.12578642460662248, -1.6659031356438063, -1.581518850968235, -1.2900778426118256, 1.6520973085528352, 2.848617669047449], 0.5, 0.5, 0.01, 0.2, 100)

2025-07-07 17:00:27,926 - gym_custom_envs_real_ur_drivers_URBasic_realTimeClientEvent - INFO - Program send to Robot:
servoj([0.12578642460662248, -1.6659031356438063, -1.5815340388966777, -1.2900778426118242, 1.6520973085528352, 2.8486024765630744], 0.5, 0.5, 0.01, 0.2, 100)

2025-07-07 17:00:27,935 - gym_custom_envs_real_ur_drivers_URBasic_realTimeClientEvent - INFO - Program send to Robot:
servoj([0.12578642460662248, -1.6659031356438063, -1.581534190775962, -1.290077842611824, 1.6520973085528352, 2.8486023246382306], 0.5, 0.5, 0.01, 0.2, 100)

2025-07-07 17:00:27,956 - gym_custom_envs_real_ur_drivers_URBasic_realTimeClientEvent - INFO - Program send to Robot:
servoj([0.12730506558662943, -1.6659031356438063, -1.5830528332747618, -1.290077842611824, 1.6520973085528352, 2.8470836821389747], 0.5, 0.5, 0.01, 0.2, 100)

2025-07-07 17:00:27,959 - gym_custom_envs_real_ur_drivers_URBasic_realTimeClientEvent - INFO - Program send to Robot:
servoj([0.12732025199642952, -1.6659031356438063, -1.5830680196997498, -1.290077842611824, 1.6520973085528352, 2.8470684957139825], 0.5, 0.5, 0.01, 0.2, 100)

2025-07-07 17:00:27,980 - gym_custom_envs_real_ur_drivers_URBasic_realTimeClientEvent - INFO - Program send to Robot:
servoj([0.1273204038605275, -1.6659031356438063, -1.5830681715639996, -1.290077842611824, 1.6520973085528352, 2.8470683438497324], 0.5, 0.5, 0.01, 0.2, 100)

2025-07-07 17:00:27,982 - gym_custom_envs_real_ur_drivers_URBasic_realTimeClientEvent - INFO - Program send to Robot:
servoj([0.1273204053791685, -1.6659031356438063, -1.5830681730826421, -1.290077842611824, 1.6536159495328422, 2.845549701351083], 0.5, 0.5, 0.01, 0.2, 100)

2025-07-07 17:00:28,004 - gym_custom_envs_real_ur_drivers_URBasic_realTimeClientEvent - INFO - Program send to Robot:
servoj([0.1273204053943549, -1.6659031356438063, -1.5830681730978287, -1.290077842611824, 1.653631135942642, 2.8455345149260967], 0.5, 0.5, 0.01, 0.2, 100)

2025-07-07 17:00:28,006 - gym_custom_envs_real_ur_drivers_URBasic_realTimeClientEvent - INFO - Program send to Robot:
servoj([0.12732040539450676, -1.6659031356438063, -1.5830681730979805, -1.290077842611824, 1.65363128780674, 2.8455343630618466], 0.5, 0.5, 0.01, 0.2, 100)

2025-07-07 17:00:28,029 - gym_custom_envs_real_ur_drivers_URBasic_realTimeClientEvent - INFO - Program send to Robot:
servoj([0.12732040539450828, -1.6659031356438063, -1.5845868140779882, -1.2885592016318175, 1.653631289325381, 2.847053002523211], 0.5, 0.5, 0.01, 0.2, 100)

2025-07-07 17:00:28,039 - gym_custom_envs_real_ur_drivers_URBasic_realTimeClientEvent - INFO - Program send to Robot:
servoj([0.12732040539450828, -1.6659031356438063, -1.584602000487788, -1.2885440152220176, 1.6536312893405676, 2.8470681889178246], 0.5, 0.5, 0.01, 0.2, 100)

2025-07-07 17:00:28,046 - gym_custom_envs_real_ur_drivers_URBasic_realTimeClientEvent - INFO - Program send to Robot:
servoj([0.12732040539450828, -1.6659031356438063, -1.5861207933318933, -1.2885438633579196, 1.6536312893407195, 2.847068340781771], 0.5, 0.5, 0.01, 0.2, 100)

2025-07-07 17:00:28,055 - gym_custom_envs_real_ur_drivers_URBasic_realTimeClientEvent - INFO - Program send to Robot:
servoj([0.12732040539450828, -1.6659031356438063, -1.5861359812603342, -1.2885438618392786, 1.653631289340721, 2.8470683423004104], 0.5, 0.5, 0.01, 0.2, 100)

2025-07-07 17:00:28,063 - gym_custom_envs_real_ur_drivers_URBasic_realTimeClientEvent - INFO - Program send to Robot:
servoj([0.12732040539450828, -1.6659031356438063, -1.5861361331396187, -1.288543861824092, 1.653631289340721, 2.8470683423155965], 0.5, 0.5, 0.01, 0.2, 100)

2025-07-07 17:00:28,078 - gym_custom_envs_real_ur_drivers_URBasic_realTimeClientEvent - INFO - Program send to Robot:
servoj([0.12883904637451477, -1.6659031356438063, -1.5861361346584115, -1.2855065798639265, 1.653631289340721, 2.8470683423157483], 0.5, 0.5, 0.01, 0.2, 100)

2025-07-07 17:00:28,087 - gym_custom_envs_real_ur_drivers_URBasic_realTimeClientEvent - INFO - Program send to Robot:
servoj([0.12885423278431485, -1.6659031356438063, -1.5861361346735994, -1.2854762070443249, 1.653631289340721, 2.84706834231575], 0.5, 0.5, 0.01, 0.2, 100)

2025-07-07 17:00:28,099 - gym_custom_envs_real_ur_drivers_URBasic_realTimeClientEvent - INFO - Program send to Robot:
servoj([0.12885438464841284, -1.6659031356438063, -1.5861361346737513, -1.285475903316129, 1.653631289340721, 2.84706834231575], 0.5, 0.5, 0.01, 0.2, 100)

2025-07-07 17:00:28,110 - gym_custom_envs_real_ur_drivers_URBasic_realTimeClientEvent - INFO - Program send to Robot:
servoj([0.12885438616705383, -1.6659031356438063, -1.5861361346737528, -1.2763640543988064, 1.653631289340721, 2.84706834231575], 0.5, 0.5, 0.01, 0.2, 100)

2025-07-07 17:00:28,122 - gym_custom_envs_real_ur_drivers_URBasic_realTimeClientEvent - INFO - Program send to Robot:
servoj([0.12885438618224024, -1.6659031356438063, -1.5861361346737528, -1.2762729359096332, 1.653631289340721, 2.84706834231575], 0.5, 0.5, 0.01, 0.2, 100)

2025-07-07 17:00:28,126 - gym_custom_envs_real_ur_drivers_URBasic_realTimeClientEvent - INFO - Program send to Robot:
servoj([0.1288543861823921, -1.6659031356438063, -1.5861361346737528, -1.2762720247247414, 1.653631289340721, 2.84706834231575], 0.5, 0.5, 0.01, 0.2, 100)

2025-07-07 17:00:28,148 - gym_custom_envs_real_ur_drivers_URBasic_realTimeClientEvent - INFO - Program send to Robot:
servoj([0.13189166814240752, -1.6659031356438063, -1.5876547756537598, -1.2580483238528108, 1.653631289340721, 2.84706834231575], 0.5, 0.5, 0.01, 0.2, 100)

2025-07-07 17:00:28,151 - gym_custom_envs_real_ur_drivers_URBasic_realTimeClientEvent - INFO - Program send to Robot:
servoj([0.1319220409620077, -1.6659031356438063, -1.58766996206356, -1.2578660868440916, 1.653631289340721, 2.84706834231575], 0.5, 0.5, 0.01, 0.2, 100)

2025-07-07 17:00:28,172 - gym_custom_envs_real_ur_drivers_URBasic_realTimeClientEvent - INFO - Program send to Robot:
servoj([0.13192234469020367, -1.6659031356438063, -1.5876701139276579, -1.2578642644740043, 1.653631289340721, 2.84706834231575], 0.5, 0.5, 0.01, 0.2, 100)

2025-07-07 17:00:28,174 - gym_custom_envs_real_ur_drivers_URBasic_realTimeClientEvent - INFO - Program send to Robot:
servoj([0.13192234772748565, -1.6659031356438063, -1.5922260383863187, -1.2305287086101813, 1.653631289340721, 2.8455497013357434], 0.5, 0.5, 0.01, 0.2, 100)

2025-07-07 17:00:28,195 - gym_custom_envs_real_ur_drivers_URBasic_realTimeClientEvent - INFO - Program send to Robot:
servoj([0.13192234775785847, -1.6659031356438063, -1.5922715976309052, -1.230255353051543, 1.653631289340721, 2.845534514925943], 0.5, 0.5, 0.01, 0.2, 100)

2025-07-07 17:00:28,198 - gym_custom_envs_real_ur_drivers_URBasic_realTimeClientEvent - INFO - Program send to Robot:
servoj([0.1319223477581622, -1.6659031356438063, -1.5922720532233512, -1.2302526194959567, 1.653631289340721, 2.8455343630618453], 0.5, 0.5, 0.01, 0.2, 100)

2025-07-07 17:00:28,219 - gym_custom_envs_real_ur_drivers_URBasic_realTimeClientEvent - INFO - Program send to Robot:
servoj([0.13495962971817865, -1.6659031356438063, -1.6013839036593163, -1.1983611315802587, 1.653631289340721, 2.845534361543204], 0.5, 0.5, 0.01, 0.2, 100)

2025-07-07 17:00:28,222 - gym_custom_envs_real_ur_drivers_URBasic_realTimeClientEvent - INFO - Program send to Robot:
servoj([0.13499000253777882, -1.6659031356438063, -1.601475022163676, -1.1980422167011016, 1.653631289340721, 2.845534361528018], 0.5, 0.5, 0.01, 0.2, 100)

2025-07-07 17:00:28,242 - gym_custom_envs_real_ur_drivers_URBasic_realTimeClientEvent - INFO - Program send to Robot:
servoj([0.13954622920599524, -1.6659031356438063, -1.6090691382487536, -1.161591644032147, 1.653631289340721, 2.845534361527866], 0.5, 0.5, 0.01, 0.2, 100)

2025-07-07 17:00:28,246 - gym_custom_envs_real_ur_drivers_URBasic_realTimeClientEvent - INFO - Program send to Robot:
servoj([0.1395917914726774, -1.6659031356438063, -1.6091450794096045, -1.1612271383054575, 1.653631289340721, 2.8455343615278643], 0.5, 0.5, 0.01, 0.2, 100)

2025-07-07 17:00:28,268 - gym_custom_envs_real_ur_drivers_URBasic_realTimeClientEvent - INFO - Program send to Robot:
servoj([0.1395922470953442, -1.6659031356438063, -1.609145838821213, -1.1612234932481906, 1.653631289340721, 2.8455343615278643], 0.5, 0.5, 0.01, 0.2, 100)

2025-07-07 17:00:28,270 - gym_custom_envs_real_ur_drivers_URBasic_realTimeClientEvent - INFO - Program send to Robot:
servoj([0.1426295336115843, -1.6659031356438063, -1.6197763332753767, -1.1232574322974482, 1.653631289340721, 2.8455343615278643], 0.5, 0.5, 0.01, 0.2, 100)

2025-07-07 17:00:28,292 - gym_custom_envs_real_ur_drivers_URBasic_realTimeClientEvent - INFO - Program send to Robot:
servoj([0.14265990647674673, -1.6659031356438063, -1.6198826382199183, -1.1228777716879408, 1.653631289340721, 2.8455343615278643], 0.5, 0.5, 0.01, 0.2, 100)

2025-07-07 17:00:28,303 - gym_custom_envs_real_ur_drivers_URBasic_realTimeClientEvent - INFO - Program send to Robot:
servoj([0.1441788511854053, -1.6659031356438063, -1.6305141881294116, -1.0833893096016696, 1.653631289340721, 2.8455343615278643], 0.5, 0.5, 0.01, 0.2, 100)

2025-07-07 17:00:28,317 - gym_custom_envs_real_ur_drivers_URBasic_realTimeClientEvent - INFO - Program send to Robot:
servoj([0.1441940406324919, -1.6659031356438063, -1.6306205036285064, -1.082994424980807, 1.653631289340721, 2.8455343615278643], 0.5, 0.5, 0.01, 0.2, 100)

2025-07-07 17:00:28,327 - gym_custom_envs_real_ur_drivers_URBasic_realTimeClientEvent - INFO - Program send to Robot:
servoj([0.14419419252696275, -1.6659031356438063, -1.6306215667834973, -1.0829904761345983, 1.653631289340721, 2.8455343615278643], 0.5, 0.5, 0.01, 0.2, 100)

2025-07-07 17:00:28,335 - gym_custom_envs_real_ur_drivers_URBasic_realTimeClientEvent - INFO - Program send to Robot:
servoj([0.14419419404590747, -1.6659031356438063, -1.642770705255101, -1.055654899006014, 1.655149930320728, 2.844015720547857], 0.5, 0.5, 0.01, 0.2, 100)

2025-07-07 17:00:28,343 - gym_custom_envs_real_ur_drivers_URBasic_realTimeClientEvent - INFO - Program send to Robot:
servoj([0.1441941940610969, -1.6659031356438063, -1.642892196639817, -1.055381543234728, 1.655165116730528, 2.844000534138057], 0.5, 0.5, 0.01, 0.2, 100)

2025-07-07 17:00:28,359 - gym_custom_envs_real_ur_drivers_URBasic_realTimeClientEvent - INFO - Program send to Robot:
servoj([0.1441941940612488, -1.6659031356438063, -1.6428934115536642, -1.0553788096770151, 1.655165268594626, 2.844000382273959], 0.5, 0.5, 0.01, 0.2, 100)

2025-07-07 17:00:28,367 - gym_custom_envs_real_ur_drivers_URBasic_realTimeClientEvent - INFO - Program send to Robot:
servoj([0.1441941940612503, -1.6659031356438063, -1.6550425515428573, -1.0386737315613634, 1.656683911093274, 2.8440003807553182], 0.5, 0.5, 0.01, 0.2, 100)

2025-07-07 17:00:28,383 - gym_custom_envs_real_ur_drivers_URBasic_realTimeClientEvent - INFO - Program send to Robot:
servoj([0.14419419406125034, -1.6659031356438063, -1.6551640429427492, -1.038506680780207, 1.6566990975182605, 2.8440003807401317], 0.5, 0.5, 0.01, 0.2, 100)

2025-07-07 17:00:28,391 - gym_custom_envs_real_ur_drivers_URBasic_realTimeClientEvent - INFO - Program send to Robot:
servoj([0.14419419406125034, -1.6659031356438063, -1.6551652578567482, -1.0385050102723954, 1.6566992493825103, 2.84400038073998], 0.5, 0.5, 0.01, 0.2, 100)

2025-07-07 17:00:28,408 - gym_custom_envs_real_ur_drivers_URBasic_realTimeClientEvent - INFO - Program send to Robot:
servoj([0.14419419406125034, -1.6643844946637996, -1.6642771158859289, -1.0354677116073039, 1.6582178918811599, 2.842481739759972], 0.5, 0.5, 0.01, 0.2, 100)

2025-07-07 17:00:28,423 - gym_custom_envs_real_ur_drivers_URBasic_realTimeClientEvent - INFO - Program send to Robot:
servoj([0.14419419406125034, -1.6643693082539994, -1.6643682344662207, -1.0354373386206528, 1.6582330783061463, 2.842466553350172], 0.5, 0.5, 0.01, 0.2, 100)

2025-07-07 17:00:28,431 - gym_custom_envs_real_ur_drivers_URBasic_realTimeClientEvent - INFO - Program send to Robot:
servoj([0.14419419406125034, -1.6628505154098945, -1.6689250685920438, -1.0384743168508, 1.6597518711504022, 2.842466401486074], 0.5, 0.5, 0.01, 0.2, 100)

2025-07-07 17:00:28,439 - gym_custom_envs_real_ur_drivers_URBasic_realTimeClientEvent - INFO - Program send to Robot:
servoj([0.14419419406125034, -1.6628353274814534, -1.668970636933302, -1.0385046866331014, 1.6597670590788447, 2.842466399967433], 0.5, 0.5, 0.01, 0.2, 100)

2025-07-07 17:00:28,446 - gym_custom_envs_real_ur_drivers_URBasic_realTimeClientEvent - INFO - Program send to Robot:
servoj([0.14419419406125034, -1.662835175602169, -1.6689710926167145, -1.0385049903309245, 1.6597672109581292, 2.8424663999522464], 0.5, 0.5, 0.01, 0.2, 100)

2025-07-07 17:00:28,463 - gym_custom_envs_real_ur_drivers_URBasic_realTimeClientEvent - INFO - Program send to Robot:
servoj([0.14419419406125034, -1.6613165331033697, -1.6765643020735825, -1.041542275327916, 1.661285853456929, 2.842466399952095], 0.5, 0.5, 0.01, 0.2, 100)

2025-07-07 17:00:28,471 - gym_custom_envs_real_ur_drivers_URBasic_realTimeClientEvent - INFO - Program send to Robot:
servoj([0.14419419406125034, -1.6613013466783817, -1.6766402341681512, -1.0415726481778858, 1.661301039881917, 2.842466399952093], 0.5, 0.5, 0.01, 0.2, 100)

2025-07-07 17:00:28,479 - gym_custom_envs_real_ur_drivers_URBasic_realTimeClientEvent - INFO - Program send to Robot:
servoj([0.14419419406125034, -1.6613011948141319, -1.676640993489097, -1.0415729519063854, 1.6613011917461669, 2.842466399952093], 0.5, 0.5, 0.01, 0.2, 100)

2025-07-07 17:00:28,486 - gym_custom_envs_real_ur_drivers_URBasic_realTimeClientEvent - INFO - Program send to Robot:
servoj([0.14419419406125034, -1.6613011932954893, -1.6766410010823063, -1.0415729549436705, 1.6613011932648094, 2.842466399952093], 0.5, 0.5, 0.01, 0.2, 100)

2025-07-07 17:00:28,503 - gym_custom_envs_real_ur_drivers_URBasic_realTimeClientEvent - INFO - Program send to Robot:
servoj([0.14419419406125034, -1.6613011932803028, -1.6827155650782661, -1.0430915959540503, 1.661301193279996, 2.842466399952093], 0.5, 0.5, 0.01, 0.2, 100)

2025-07-07 17:00:28,512 - gym_custom_envs_real_ur_drivers_URBasic_realTimeClientEvent - INFO - Program send to Robot:
servoj([0.14419419406125034, -1.661301193280151, -1.6827763107182256, -1.0431067823641542, 1.6613011932801478, 2.842466399952093], 0.5, 0.5, 0.01, 0.2, 100)

2025-07-07 17:00:28,520 - gym_custom_envs_real_ur_drivers_URBasic_realTimeClientEvent - INFO - Program send to Robot:
servoj([0.14419419406125034, -1.6613011932801496, -1.6827769181746253, -1.043106934228255, 1.6613011932801491, 2.842466399952093], 0.5, 0.5, 0.01, 0.2, 100)

2025-07-07 17:00:28,527 - gym_custom_envs_real_ur_drivers_URBasic_realTimeClientEvent - INFO - Program send to Robot:
servoj([0.14419419406125034, -1.6613011932801494, -1.6858142062092023, -1.0476628586869168, 1.6613011932801491, 2.842466399952093], 0.5, 0.5, 0.01, 0.2, 100)

2025-07-07 17:00:28,545 - gym_custom_envs_real_ur_drivers_URBasic_realTimeClientEvent - INFO - Program send to Robot:
servoj([0.14419419406125034, -1.6613011932801494, -1.6858445790895482, -1.0477084179315033, 1.6613011932801491, 2.842466399952093], 0.5, 0.5, 0.01, 0.2, 100)

2025-07-07 17:00:28,551 - gym_custom_envs_real_ur_drivers_URBasic_realTimeClientEvent - INFO - Program send to Robot:
servoj([0.14419419406125034, -1.6613011932801494, -1.6858448828183517, -1.0477088735239493, 1.6613011932801491, 2.842466399952093], 0.5, 0.5, 0.01, 0.2, 100)

2025-07-07 17:00:28,561 - gym_custom_envs_real_ur_drivers_URBasic_realTimeClientEvent - INFO - Program send to Robot:
servoj([0.14419419406125034, -1.6597825523001426, -1.6888821678156536, -1.0568207239599143, 1.6613011932801491, 2.842466399952093], 0.5, 0.5, 0.01, 0.2, 100)

2025-07-07 17:00:28,575 - gym_custom_envs_real_ur_drivers_URBasic_realTimeClientEvent - INFO - Program send to Robot:
servoj([0.14419419406125034, -1.6597673658903427, -1.6889125406656267, -1.056911842464274, 1.6613011932801491, 2.842466399952093], 0.5, 0.5, 0.01, 0.2, 100)

2025-07-07 17:00:28,584 - gym_custom_envs_real_ur_drivers_URBasic_realTimeClientEvent - INFO - Program send to Robot:
servoj([0.14419419406125034, -1.6597672140262447, -1.6889128443941264, -1.0569127536493177, 1.6613011932801491, 2.842466399952093], 0.5, 0.5, 0.01, 0.2, 100)

2025-07-07 17:00:28,591 - gym_custom_envs_real_ur_drivers_URBasic_realTimeClientEvent - INFO - Program send to Robot:
servoj([0.14419419406125034, -1.6597672125076037, -1.6889128474314112, -1.0705805315812287, 1.662819834260156, 2.842466399952093], 0.5, 0.5, 0.01, 0.2, 100)

2025-07-07 17:00:28,599 - gym_custom_envs_real_ur_drivers_URBasic_realTimeClientEvent - INFO - Program send to Robot:
servoj([0.14419419406125034, -1.6597672124924172, -1.6889128474617843, -1.0707172093605477, 1.662835020669956, 2.842466399952093], 0.5, 0.5, 0.01, 0.2, 100)

2025-07-07 17:00:28,616 - gym_custom_envs_real_ur_drivers_URBasic_realTimeClientEvent - INFO - Program send to Robot:
servoj([0.14419419406125034, -1.6597672124922653, -1.6889128474620878, -1.0707185761383409, 1.662835172534054, 2.842466399952093], 0.5, 0.5, 0.01, 0.2, 100)

2025-07-07 17:00:28,623 - gym_custom_envs_real_ur_drivers_URBasic_realTimeClientEvent - INFO - Program send to Robot:
servoj([0.14419419406125034, -1.65672993053225, -1.687394206482084, -1.0874236405861937, 1.6613165330726882, 2.842466399952093], 0.5, 0.5, 0.01, 0.2, 100)

2025-07-07 17:00:28,632 - gym_custom_envs_real_ur_drivers_URBasic_realTimeClientEvent - INFO - Program send to Robot:
servoj([0.14419419406125034, -1.65669955771265, -1.687379020072284, -1.0875906912306723, 1.6613013466780746, 2.842466399952093], 0.5, 0.5, 0.01, 0.2, 100)

2025-07-07 17:00:28,641 - gym_custom_envs_real_ur_drivers_URBasic_realTimeClientEvent - INFO - Program send to Robot:
servoj([0.14419419406125034, -1.656699253984454, -1.6873788682081858, -1.087592361737117, 1.6613011948141285, 2.842466399952093], 0.5, 0.5, 0.01, 0.2, 100)

2025-07-07 17:00:28,657 - gym_custom_envs_real_ur_drivers_URBasic_realTimeClientEvent - INFO - Program send to Robot:
servoj([0.14419419406125034, -1.6536619689871586, -1.6873788666895448, -1.104297429222256, 1.661301193295489, 2.842466399952093], 0.5, 0.5, 0.01, 0.2, 100)

2025-07-07 17:00:28,665 - gym_custom_envs_real_ur_drivers_URBasic_realTimeClientEvent - INFO - Program send to Robot:
servoj([0.14419419406125034, -1.6536315961371855, -1.6873788666743585, -1.1044644798971075, 1.6613011932803026, 2.842466399952093], 0.5, 0.5, 0.01, 0.2, 100)

2025-07-07 17:00:28,671 - gym_custom_envs_real_ur_drivers_URBasic_realTimeClientEvent - INFO - Program send to Robot:
servoj([0.14419419406125034, -1.6536312924086858, -1.6873788666742067, -1.104466150403856, 1.6613011932801507, 2.842466399952093], 0.5, 0.5, 0.01, 0.2, 100)

2025-07-07 17:00:28,689 - gym_custom_envs_real_ur_drivers_URBasic_realTimeClientEvent - INFO - Program send to Robot:
servoj([0.14419419406125034, -1.652112648391394, -1.6873788666742051, -1.1196525769089913, 1.6613011932801494, 2.8439850409320995], 0.5, 0.5, 0.01, 0.2, 100)

2025-07-07 17:00:28,694 - gym_custom_envs_real_ur_drivers_URBasic_realTimeClientEvent - INFO - Program send to Robot:
servoj([0.14419419406125034, -1.652097461951221, -1.6873788666742051, -1.1198044411740429, 1.6613011932801491, 2.8440002273418994], 0.5, 0.5, 0.01, 0.2, 100)

2025-07-07 17:00:28,704 - gym_custom_envs_real_ur_drivers_URBasic_realTimeClientEvent - INFO - Program send to Robot:
servoj([0.14419419406125034, -1.6520973100868193, -1.6873788666742051, -1.1198059598166934, 1.6613011932801491, 2.8440003792059976], 0.5, 0.5, 0.01, 0.2, 100)

2025-07-07 17:00:28,719 - gym_custom_envs_real_ur_drivers_URBasic_realTimeClientEvent - INFO - Program send to Robot:
servoj([0.14571283504125684, -1.6505786675881686, -1.6873788666742051, -1.130436461863167, 1.6613011932801491, 2.8440003807246383], 0.5, 0.5, 0.01, 0.2, 100)

2025-07-07 17:00:28,728 - gym_custom_envs_real_ur_drivers_URBasic_realTimeClientEvent - INFO - Program send to Robot:
servoj([0.1457280214510569, -1.6505634811631822, -1.6873788666742051, -1.1305427668836319, 1.6613011932801491, 2.844000380739825], 0.5, 0.5, 0.01, 0.2, 100)

2025-07-07 17:00:28,735 - gym_custom_envs_real_ur_drivers_URBasic_realTimeClientEvent - INFO - Program send to Robot:
servoj([0.14572817331515492, -1.6505633292989323, -1.6873788666742051, -1.1305438299338364, 1.6613011932801491, 2.8440003807399767], 0.5, 0.5, 0.01, 0.2, 100)

2025-07-07 17:00:28,742 - gym_custom_envs_real_ur_drivers_URBasic_realTimeClientEvent - INFO - Program send to Robot:
servoj([0.14572817483379588, -1.6505633277802898, -1.6873788666742051, -1.1305438405643384, 1.6613011932801491, 2.8440003807399785], 0.5, 0.5, 0.01, 0.2, 100)

2025-07-07 17:00:28,761 - gym_custom_envs_real_ur_drivers_URBasic_realTimeClientEvent - INFO - Program send to Robot:
servoj([0.14724681582898924, -1.6475260458050898, -1.6858602256941981, -1.1396556865506844, 1.6613011932801491, 2.8440003807399785], 0.5, 0.5, 0.01, 0.2, 100)

2025-07-07 17:00:28,767 - gym_custom_envs_real_ur_drivers_URBasic_realTimeClientEvent - INFO - Program send to Robot:
servoj([0.14726200223894118, -1.6474956729853378, -1.685845039284398, -1.1397468050105477, 1.6613011932801491, 2.8440003807399785], 0.5, 0.5, 0.01, 0.2, 100)

2025-07-07 17:00:28,777 - gym_custom_envs_real_ur_drivers_URBasic_realTimeClientEvent - INFO - Program send to Robot:
servoj([0.1472621541030407, -1.6474953692571404, -1.6858448874203, -1.1397477161951464, 1.6613011932801491, 2.8440003807399785], 0.5, 0.5, 0.01, 0.2, 100)

2025-07-07 17:00:28,791 - gym_custom_envs_real_ur_drivers_URBasic_realTimeClientEvent - INFO - Program send to Robot:
servoj([0.14878079660168864, -1.6459767252398514, -1.685844885901659, -1.1473409302070265, 1.662819834260156, 2.8440003807399785], 0.5, 0.5, 0.01, 0.2, 100)

2025-07-07 17:00:28,801 - gym_custom_envs_real_ur_drivers_URBasic_realTimeClientEvent - INFO - Program send to Robot:
servoj([0.1487959830266751, -1.6459615387996784, -1.6858448858864727, -1.1474168623471455, 1.662835020669956, 2.8440003807399785], 0.5, 0.5, 0.01, 0.2, 100)

2025-07-07 17:00:28,809 - gym_custom_envs_real_ur_drivers_URBasic_realTimeClientEvent - INFO - Program send to Robot:
servoj([0.14879613489092497, -1.6459613869352767, -1.6858448858863209, -1.1474176216685466, 1.662835172534054, 2.8440003807399785], 0.5, 0.5, 0.01, 0.2, 100)

2025-07-07 17:00:28,815 - gym_custom_envs_real_ur_drivers_URBasic_realTimeClientEvent - INFO - Program send to Robot:
servoj([0.15031477738957397, -1.6444427444366259, -1.6843262449063132, -1.1565294751418012, 1.662835174052695, 2.8440003807399785], 0.5, 0.5, 0.01, 0.2, 100)

2025-07-07 17:00:28,832 - gym_custom_envs_real_ur_drivers_URBasic_realTimeClientEvent - INFO - Program send to Robot:
servoj([0.15032996381456046, -1.6444275580116394, -1.684311058496513, -1.1566205936765337, 1.6628351740678815, 2.8440003807399785], 0.5, 0.5, 0.01, 0.2, 100)

2025-07-07 17:00:28,839 - gym_custom_envs_real_ur_drivers_URBasic_realTimeClientEvent - INFO - Program send to Robot:
servoj([0.15033011567881033, -1.6444274061473896, -1.6843109066324151, -1.156621504861881, 1.6628351740680334, 2.8440003807399785], 0.5, 0.5, 0.01, 0.2, 100)

2025-07-07 17:00:28,847 - gym_custom_envs_real_ur_drivers_URBasic_realTimeClientEvent - INFO - Program send to Robot:
servoj([0.15033011719745282, -1.644427404628747, -1.6827922641337671, -1.1657333598537754, 1.662835174068035, 2.8440003807399785], 0.5, 0.5, 0.01, 0.2, 100)

2025-07-07 17:00:28,856 - gym_custom_envs_real_ur_drivers_URBasic_realTimeClientEvent - INFO - Program send to Robot:
servoj([0.15033011721263925, -1.6444274046135607, -1.6827770777087807, -1.1658244784036942, 1.662835174068035, 2.8440003807399785], 0.5, 0.5, 0.01, 0.2, 100)

2025-07-07 17:00:28,872 - gym_custom_envs_real_ur_drivers_URBasic_realTimeClientEvent - INFO - Program send to Robot:
servoj([0.1503301172127911, -1.6444274046134089, -1.6827769258445309, -1.1658253895891935, 1.662835174068035, 2.8440003807399785], 0.5, 0.5, 0.01, 0.2, 100)

2025-07-07 17:00:28,881 - gym_custom_envs_real_ur_drivers_URBasic_realTimeClientEvent - INFO - Program send to Robot:
servoj([0.15033011721279263, -1.6444274046134073, -1.6827769243258883, -1.176455885561096, 1.662835174068035, 2.8440003807399785], 0.5, 0.5, 0.01, 0.2, 100)

2025-07-07 17:00:28,887 - gym_custom_envs_real_ur_drivers_URBasic_realTimeClientEvent - INFO - Program send to Robot:
servoj([0.15033011721279266, -1.6444274046134073, -1.6827769243107018, -1.176562190520815, 1.662835174068035, 2.8440003807399785], 0.5, 0.5, 0.01, 0.2, 100)

2025-07-07 17:00:28,897 - gym_custom_envs_real_ur_drivers_URBasic_realTimeClientEvent - INFO - Program send to Robot:
servoj([0.15033011721279266, -1.6444274046134073, -1.6827769243105501, -1.1765632535704122, 1.662835174068035, 2.8440003807399785], 0.5, 0.5, 0.01, 0.2, 100)

2025-07-07 17:00:28,911 - gym_custom_envs_real_ur_drivers_URBasic_realTimeClientEvent - INFO - Program send to Robot:
servoj([0.15033011721279266, -1.6444274046134073, -1.6812582833305418, -1.1856751100809486, 1.662835174068035, 2.8440003807399785], 0.5, 0.5, 0.01, 0.2, 100)

2025-07-07 17:00:28,920 - gym_custom_envs_real_ur_drivers_URBasic_realTimeClientEvent - INFO - Program send to Robot:
servoj([0.15033011721279266, -1.6444274046134073, -1.6812430969207417, -1.185766228646054, 1.662835174068035, 2.8440003807399785], 0.5, 0.5, 0.01, 0.2, 100)

2025-07-07 17:00:28,928 - gym_custom_envs_real_ur_drivers_URBasic_realTimeClientEvent - INFO - Program send to Robot:
servoj([0.15033011721279266, -1.6444274046134073, -1.6812429450566437, -1.1857671398317051, 1.662835174068035, 2.8440003807399785], 0.5, 0.5, 0.01, 0.2, 100)

2025-07-07 17:00:28,942 - gym_custom_envs_real_ur_drivers_URBasic_rtdeEvent - INFO - Total packages: 1000
2025-07-07 17:00:28,944 - gym_custom_envs_real_ur_drivers_URBasic_realTimeClientEvent - INFO - Program send to Robot:
servoj([0.1518487581927996, -1.6444274046134073, -1.6812429435380027, -1.1933603538435957, 1.662835174068035, 2.8440003807399785], 0.5, 0.5, 0.01, 0.2, 100)

2025-07-07 17:00:28,951 - gym_custom_envs_real_ur_drivers_URBasic_realTimeClientEvent - INFO - Program send to Robot:
servoj([0.15186394460259967, -1.6444274046134073, -1.6812429435228162, -1.1934362859837144, 1.662835174068035, 2.8440003807399785], 0.5, 0.5, 0.01, 0.2, 100)

2025-07-07 17:00:28,959 - gym_custom_envs_real_ur_drivers_URBasic_realTimeClientEvent - INFO - Program send to Robot:
servoj([0.15186409646669768, -1.6444274046134073, -1.6812429435226643, -1.1934370453051157, 1.662835174068035, 2.8440003807399785], 0.5, 0.5, 0.01, 0.2, 100)

2025-07-07 17:00:28,967 - gym_custom_envs_real_ur_drivers_URBasic_realTimeClientEvent - INFO - Program send to Robot:
servoj([0.15186409798533865, -1.6444274046134073, -1.681242943522663, -1.1934370528983298, 1.662835174068035, 2.8440003807399785], 0.5, 0.5, 0.01, 0.2, 100)

2025-07-07 17:00:28,982 - gym_custom_envs_real_ur_drivers_URBasic_realTimeClientEvent - INFO - Program send to Robot:
servoj([0.1503454570205181, -1.6444274046134073, -1.6797243025426558, -1.1979929759142824, 1.662835174068035, 2.8440003807399785], 0.5, 0.5, 0.01, 0.2, 100)

2025-07-07 17:00:28,990 - gym_custom_envs_real_ur_drivers_URBasic_realTimeClientEvent - INFO - Program send to Robot:
servoj([0.1503302706108699, -1.6444274046134073, -1.679709116132856, -1.1980385351444418, 1.662835174068035, 2.8440003807399785], 0.5, 0.5, 0.01, 0.2, 100)

2025-07-07 17:00:28,999 - gym_custom_envs_real_ur_drivers_URBasic_realTimeClientEvent - INFO - Program send to Robot:
servoj([0.15033011874677343, -1.6444274046134073, -1.679708964268758, -1.1980389907367435, 1.662835174068035, 2.8440003807399785], 0.5, 0.5, 0.01, 0.2, 100)

2025-07-07 17:00:29,007 - gym_custom_envs_real_ur_drivers_URBasic_realTimeClientEvent - INFO - Program send to Robot:
servoj([0.15184875820813942, -1.6444274046134073, -1.679708962750117, -1.1995576362726732, 1.662835174068035, 2.8440003807399785], 0.5, 0.5, 0.01, 0.2, 100)

2025-07-07 17:00:29,025 - gym_custom_envs_real_ur_drivers_URBasic_realTimeClientEvent - INFO - Program send to Robot:
servoj([0.15186394460275307, -1.6444274046134073, -1.6797089627349304, -1.1995728227280325, 1.662835174068035, 2.8440003807399785], 0.5, 0.5, 0.01, 0.2, 100)

2025-07-07 17:00:29,031 - gym_custom_envs_real_ur_drivers_URBasic_realTimeClientEvent - INFO - Program send to Robot:
servoj([0.1518640964666992, -1.6444274046134073, -1.6797089627347785, -1.199572974592586, 1.662835174068035, 2.8440003807399785], 0.5, 0.5, 0.01, 0.2, 100)

2025-07-07 17:00:29,041 - gym_custom_envs_real_ur_drivers_URBasic_realTimeClientEvent - INFO - Program send to Robot:
servoj([0.15186409798533868, -1.6444274046134073, -1.679708962734777, -1.1995729761112317, 1.662835174068035, 2.8440003807399785], 0.5, 0.5, 0.01, 0.2, 100)

2025-07-07 17:00:29,055 - gym_custom_envs_real_ur_drivers_URBasic_realTimeClientEvent - INFO - Program send to Robot:
servoj([0.15186409800052506, -1.6444274046134073, -1.679708962734777, -1.1995729761264182, 1.662835174068035, 2.8440003807399785], 0.5, 0.5, 0.01, 0.2, 100)

2025-07-07 17:00:29,064 - gym_custom_envs_real_ur_drivers_URBasic_realTimeClientEvent - INFO - Program send to Robot:
servoj([0.15186409800067693, -1.6444274046134073, -1.679708962734777, -1.19957297612657, 1.662835174068035, 2.8440003807399785], 0.5, 0.5, 0.01, 0.2, 100)

2025-07-07 17:00:29,071 - gym_custom_envs_real_ur_drivers_URBasic_realTimeClientEvent - INFO - Program send to Robot:
servoj([0.15186409800067843, -1.6444274046134073, -1.679708962734777, -1.201091617106578, 1.664353815048042, 2.8455190217199857], 0.5, 0.5, 0.01, 0.2, 100)

2025-07-07 17:00:29,078 - gym_custom_envs_real_ur_drivers_URBasic_realTimeClientEvent - INFO - Program send to Robot:
servoj([0.15186409800067846, -1.6444274046134073, -1.679708962734777, -1.201106803516378, 1.6643690014578418, 2.8455342081297856], 0.5, 0.5, 0.01, 0.2, 100)

2025-07-07 17:00:29,096 - gym_custom_envs_real_ur_drivers_URBasic_realTimeClientEvent - INFO - Program send to Robot:
servoj([0.15186409800067846, -1.6444274046134073, -1.679708962734777, -1.201106955380476, 1.6643691533219398, 2.845534359993884], 0.5, 0.5, 0.01, 0.2, 100)

2025-07-07 17:00:29,102 - gym_custom_envs_real_ur_drivers_URBasic_realTimeClientEvent - INFO - Program send to Robot:
servoj([0.15186409800067846, -1.6444274046134073, -1.679708962734777, -1.201106956899117, 1.6643691548405808, 2.8470530024925313], 0.5, 0.5, 0.01, 0.2, 100)

2025-07-07 17:00:29,111 - gym_custom_envs_real_ur_drivers_URBasic_realTimeClientEvent - INFO - Program send to Robot:
servoj([0.15186409800067846, -1.6444274046134073, -1.679708962734777, -1.2011069569143036, 1.6643691548557673, 2.847068188917518], 0.5, 0.5, 0.01, 0.2, 100)

2025-07-07 17:00:29,119 - gym_custom_envs_real_ur_drivers_URBasic_realTimeClientEvent - INFO - Program send to Robot:
servoj([0.15186409800067846, -1.6444274046134073, -1.679708962734777, -1.2011069569144555, 1.6643691548559192, 2.847068340781768], 0.5, 0.5, 0.01, 0.2, 100)

2025-07-07 17:00:29,136 - gym_custom_envs_real_ur_drivers_URBasic_realTimeClientEvent - INFO - Program send to Robot:
servoj([0.1533827389806854, -1.6444274046134073, -1.679708962734777, -1.2056628798544775, 1.6643691548559207, 2.8470683423004104], 0.5, 0.5, 0.01, 0.2, 100)

2025-07-07 17:00:29,145 - gym_custom_envs_real_ur_drivers_URBasic_realTimeClientEvent - INFO - Program send to Robot:
servoj([0.1533979253904855, -1.6444274046134073, -1.679708962734777, -1.2057084390838777, 1.6643691548559207, 2.8470683423155965], 0.5, 0.5, 0.01, 0.2, 100)

2025-07-07 17:00:29,151 - gym_custom_envs_real_ur_drivers_URBasic_realTimeClientEvent - INFO - Program send to Robot:
servoj([0.1533980772545835, -1.6444274046134073, -1.679708962734777, -1.2057088946761716, 1.6643691548559207, 2.8470683423157483], 0.5, 0.5, 0.01, 0.2, 100)

2025-07-07 17:00:29,161 - gym_custom_envs_real_ur_drivers_URBasic_realTimeClientEvent - INFO - Program send to Robot:
servoj([0.15339807877322445, -1.6444274046134073, -1.679708962734777, -1.2057088992320946, 1.6643691548559207, 2.84706834231575], 0.5, 0.5, 0.01, 0.2, 100)

2025-07-07 17:00:29,174 - gym_custom_envs_real_ur_drivers_URBasic_realTimeClientEvent - INFO - Program send to Robot:
servoj([0.15339807878841089, -1.6444274046134073, -1.679708962734777, -1.2148207451576947, 1.6643691548559207, 2.8485869832957573], 0.5, 0.5, 0.01, 0.2, 100)

2025-07-07 17:00:29,183 - gym_custom_envs_real_ur_drivers_URBasic_realTimeClientEvent - INFO - Program send to Robot:
servoj([0.15339807878856274, -1.6444274046134073, -1.679708962734777, -1.2149118636169505, 1.6643691548559207, 2.8486021697055572], 0.5, 0.5, 0.01, 0.2, 100)

2025-07-07 17:00:29,191 - gym_custom_envs_real_ur_drivers_URBasic_realTimeClientEvent - INFO - Program send to Robot:
servoj([0.15339807878856426, -1.6444274046134073, -1.679708962734777, -1.2149127748015431, 1.6643691548559207, 2.8486023215696554], 0.5, 0.5, 0.01, 0.2, 100)

2025-07-07 17:00:29,207 - gym_custom_envs_real_ur_drivers_URBasic_realTimeClientEvent - INFO - Program send to Robot:
servoj([0.15339807878856426, -1.6444274046134073, -1.679708962734777, -1.2270619117534434, 1.6643691548559207, 2.848602323088296], 0.5, 0.5, 0.01, 0.2, 100)

2025-07-07 17:00:29,215 - gym_custom_envs_real_ur_drivers_URBasic_realTimeClientEvent - INFO - Program send to Robot:
servoj([0.15339807878856426, -1.6444274046134073, -1.679708962734777, -1.2271834031229623, 1.6643691548559207, 2.8486023231034827], 0.5, 0.5, 0.01, 0.2, 100)

2025-07-07 17:00:29,222 - gym_custom_envs_real_ur_drivers_URBasic_realTimeClientEvent - INFO - Program send to Robot:
servoj([0.15339807878856426, -1.6444274046134073, -1.679708962734777, -1.2271846180366575, 1.6643691548559207, 2.8486023231036346], 0.5, 0.5, 0.01, 0.2, 100)

2025-07-07 17:00:29,231 - gym_custom_envs_real_ur_drivers_URBasic_realTimeClientEvent - INFO - Program send to Robot:
servoj([0.15339807878856426, -1.6444274046134073, -1.67819032175477, -1.242371039985862, 1.6643691548559207, 2.848602323103636], 0.5, 0.5, 0.01, 0.2, 100)

2025-07-07 17:00:29,247 - gym_custom_envs_real_ur_drivers_URBasic_realTimeClientEvent - INFO - Program send to Robot:
servoj([0.15339807878856426, -1.6444274046134073, -1.67817513534497, -1.242522904205354, 1.6643691548559207, 2.848602323103636], 0.5, 0.5, 0.01, 0.2, 100)

2025-07-07 17:00:29,255 - gym_custom_envs_real_ur_drivers_URBasic_realTimeClientEvent - INFO - Program send to Robot:
servoj([0.15339807878856426, -1.6444274046134073, -1.678174983480872, -1.242524422847549, 1.6643691548559207, 2.848602323103636], 0.5, 0.5, 0.01, 0.2, 100)

2025-07-07 17:00:29,264 - gym_custom_envs_real_ur_drivers_URBasic_realTimeClientEvent - INFO - Program send to Robot:
servoj([0.15339807878856426, -1.6444274046134073, -1.678174981962231, -1.2561922068540323, 1.6643691548559207, 2.8501209640836422], 0.5, 0.5, 0.01, 0.2, 100)

2025-07-07 17:00:29,271 - gym_custom_envs_real_ur_drivers_URBasic_realTimeClientEvent - INFO - Program send to Robot:
servoj([0.15339807878856426, -1.6444274046134073, -1.6781749819470446, -1.256328884694097, 1.6643691548559207, 2.8501361504934426], 0.5, 0.5, 0.01, 0.2, 100)

2025-07-07 17:00:29,288 - gym_custom_envs_real_ur_drivers_URBasic_realTimeClientEvent - INFO - Program send to Robot:
servoj([0.15339807878856426, -1.6444274046134073, -1.6781749819468927, -1.2563302514724977, 1.6643691548559207, 2.8501363023575403], 0.5, 0.5, 0.01, 0.2, 100)

2025-07-07 17:00:29,295 - gym_custom_envs_real_ur_drivers_URBasic_realTimeClientEvent - INFO - Program send to Robot:
servoj([0.15339807878856426, -1.6444274046134073, -1.6781749819468912, -1.2699980339603425, 1.6628505138759138, 2.8501363038761816], 0.5, 0.5, 0.01, 0.2, 100)

2025-07-07 17:00:29,303 - gym_custom_envs_real_ur_drivers_URBasic_realTimeClientEvent - INFO - Program send to Robot:
servoj([0.15339807878856426, -1.6444274046134073, -1.6781749819468912, -1.270134711785221, 1.6628353274661136, 2.850136303891368], 0.5, 0.5, 0.01, 0.2, 100)

2025-07-07 17:00:29,319 - gym_custom_envs_real_ur_drivers_URBasic_realTimeClientEvent - INFO - Program send to Robot:
servoj([0.15339807878856426, -1.6444274046134073, -1.6781749819468912, -1.2701360785634699, 1.6628351756020157, 2.85013630389152], 0.5, 0.5, 0.01, 0.2, 100)

2025-07-07 17:00:29,327 - gym_custom_envs_real_ur_drivers_URBasic_realTimeClientEvent - INFO - Program send to Robot:
servoj([0.15491671976857077, -1.6444274046134073, -1.6781749819468912, -1.2762106561512798, 1.6628351740833747, 2.8501363038915213], 0.5, 0.5, 0.01, 0.2, 100)

2025-07-07 17:00:29,335 - gym_custom_envs_real_ur_drivers_URBasic_realTimeClientEvent - INFO - Program send to Robot:
servoj([0.15493190617837085, -1.6444274046134073, -1.6781749819468912, -1.276271401927158, 1.6628351740681881, 2.8501363038915213], 0.5, 0.5, 0.01, 0.2, 100)

2025-07-07 17:00:29,343 - gym_custom_envs_real_ur_drivers_URBasic_realTimeClientEvent - INFO - Program send to Robot:
servoj([0.15493205804246885, -1.6444274046134073, -1.6781749819468912, -1.2762720093849167, 1.6628351740680365, 2.8501363038915213], 0.5, 0.5, 0.01, 0.2, 100)

2025-07-07 17:00:29,358 - gym_custom_envs_real_ur_drivers_URBasic_realTimeClientEvent - INFO - Program send to Robot:
servoj([0.15341341858110333, -1.6444274046134073, -1.6781749819468912, -1.277790656439501, 1.662835174068035, 2.8501363038915213], 0.5, 0.5, 0.01, 0.2, 100)

2025-07-07 17:00:29,366 - gym_custom_envs_real_ur_drivers_URBasic_realTimeClientEvent - INFO - Program send to Robot:
servoj([0.15339823218648965, -1.6444274046134073, -1.6781749819468912, -1.2778058429100467, 1.662835174068035, 2.8501363038915213], 0.5, 0.5, 0.01, 0.2, 100)

2025-07-07 17:00:29,374 - gym_custom_envs_real_ur_drivers_URBasic_realTimeClientEvent - INFO - Program send to Robot:
servoj([0.1533980803225435, -1.6444274046134073, -1.6781749819468912, -1.2778059947747522, 1.662835174068035, 2.8501363038915213], 0.5, 0.5, 0.01, 0.2, 100)

2025-07-07 17:00:29,384 - gym_custom_envs_real_ur_drivers_URBasic_realTimeClientEvent - INFO - Program send to Robot:
servoj([0.15339807880390408, -1.6444274046134073, -1.6781749819468912, -1.2778059962933994, 1.662835174068035, 2.8501363038915213], 0.5, 0.5, 0.01, 0.2, 100)

2025-07-07 17:00:29,400 - gym_custom_envs_real_ur_drivers_URBasic_realTimeClientEvent - INFO - Program send to Robot:
servoj([0.15491671976872418, -1.6444274046134073, -1.6781749819468912, -1.2778059963085857, 1.662835174068035, 2.8501363038915213], 0.5, 0.5, 0.01, 0.2, 100)

2025-07-07 17:00:29,408 - gym_custom_envs_real_ur_drivers_URBasic_realTimeClientEvent - INFO - Program send to Robot:
servoj([0.15493190617837238, -1.6444274046134073, -1.6781749819468912, -1.2778059963087376, 1.662835174068035, 2.8501363038915213], 0.5, 0.5, 0.01, 0.2, 100)

2025-07-07 17:00:29,415 - gym_custom_envs_real_ur_drivers_URBasic_realTimeClientEvent - INFO - Program send to Robot:
servoj([0.15493205804246887, -1.6444274046134073, -1.6781749819468912, -1.2778059963087391, 1.662835174068035, 2.8501363038915213], 0.5, 0.5, 0.01, 0.2, 100)

2025-07-07 17:00:29,423 - gym_custom_envs_real_ur_drivers_URBasic_realTimeClientEvent - INFO - Program send to Robot:
servoj([0.15493205956110984, -1.6444274046134073, -1.6766563409668842, -1.2778059963087391, 1.662835174068035, 2.8501363038915213], 0.5, 0.5, 0.01, 0.2, 100)

2025-07-07 17:00:29,439 - gym_custom_envs_real_ur_drivers_URBasic_realTimeClientEvent - INFO - Program send to Robot:
servoj([0.15493205957629624, -1.6444274046134073, -1.676641154557084, -1.2778059963087391, 1.662835174068035, 2.8501363038915213], 0.5, 0.5, 0.01, 0.2, 100)

2025-07-07 17:00:29,447 - gym_custom_envs_real_ur_drivers_URBasic_realTimeClientEvent - INFO - Program send to Robot:
servoj([0.1549320595764481, -1.6444274046134073, -1.676641002692986, -1.2778059963087391, 1.662835174068035, 2.8501363038915213], 0.5, 0.5, 0.01, 0.2, 100)

2025-07-07 17:00:29,455 - gym_custom_envs_real_ur_drivers_URBasic_realTimeClientEvent - INFO - Program send to Robot:
servoj([0.15493205957644962, -1.6444274046134073, -1.672085078234325, -1.279324637288746, 1.662835174068035, 2.8501363038915213], 0.5, 0.5, 0.01, 0.2, 100)

2025-07-07 17:00:29,463 - gym_custom_envs_real_ur_drivers_URBasic_realTimeClientEvent - INFO - Program send to Robot:
servoj([0.15493205957644962, -1.6444274046134073, -1.6720395189897386, -1.279339823698546, 1.662835174068035, 2.8501363038915213], 0.5, 0.5, 0.01, 0.2, 100)

2025-07-07 17:00:29,478 - gym_custom_envs_real_ur_drivers_URBasic_realTimeClientEvent - INFO - Program send to Robot:
servoj([0.15493205957644962, -1.6444274046134073, -1.6720390633972926, -1.279339975562644, 1.662835174068035, 2.8501363038915213], 0.5, 0.5, 0.01, 0.2, 100)

2025-07-07 17:00:29,492 - gym_custom_envs_real_ur_drivers_URBasic_realTimeClientEvent - INFO - Program send to Robot:
servoj([0.15493205957644962, -1.645946045593414, -1.6674831359013484, -1.279339977081285, 1.662835174068035, 2.8501363038915213], 0.5, 0.5, 0.01, 0.2, 100)

2025-07-07 17:00:29,503 - gym_custom_envs_real_ur_drivers_URBasic_realTimeClientEvent - INFO - Program send to Robot:
servoj([0.15493205957644962, -1.645961232003214, -1.667437576626389, -1.2793399770964715, 1.662835174068035, 2.8501363038915213], 0.5, 0.5, 0.01, 0.2, 100)

2025-07-07 17:00:29,517 - gym_custom_envs_real_ur_drivers_URBasic_realTimeClientEvent - INFO - Program send to Robot:
servoj([0.15493205957644962, -1.6459613838673122, -1.6674371210336394, -1.2793399770966234, 1.662835174068035, 2.8501363038915213], 0.5, 0.5, 0.01, 0.2, 100)

2025-07-07 17:00:29,527 - gym_custom_envs_real_ur_drivers_URBasic_realTimeClientEvent - INFO - Program send to Robot:
servoj([0.15493205957644962, -1.6459613853859532, -1.6628811935376908, -1.2793399770966247, 1.664353815048042, 2.8501363038915213], 0.5, 0.5, 0.01, 0.2, 100)

2025-07-07 17:00:29,535 - gym_custom_envs_real_ur_drivers_URBasic_realTimeClientEvent - INFO - Program send to Robot:
servoj([0.15493205957644962, -1.6459613854011395, -1.6628356342627315, -1.2793399770966247, 1.6643690014578418, 2.8501363038915213], 0.5, 0.5, 0.01, 0.2, 100)

2025-07-07 17:00:29,543 - gym_custom_envs_real_ur_drivers_URBasic_realTimeClientEvent - INFO - Program send to Robot:
servoj([0.15493205957644962, -1.6459613854012913, -1.6628351786699818, -1.2793399770966247, 1.6643691533219398, 2.8501363038915213], 0.5, 0.5, 0.01, 0.2, 100)

2025-07-07 17:00:29,559 - gym_custom_envs_real_ur_drivers_URBasic_realTimeClientEvent - INFO - Program send to Robot:
servoj([0.15645070055645655, -1.6474800263812999, -1.6567606101940275, -1.2808586180766313, 1.6643691548405808, 2.8501363038915213], 0.5, 0.5, 0.01, 0.2, 100)

2025-07-07 17:00:29,567 - gym_custom_envs_real_ur_drivers_URBasic_realTimeClientEvent - INFO - Program send to Robot:
servoj([0.15646588696625663, -1.6474952127911, -1.6566998645092679, -1.2808738044864314, 1.6643691548557673, 2.8501363038915213], 0.5, 0.5, 0.01, 0.2, 100)

2025-07-07 17:00:29,582 - gym_custom_envs_real_ur_drivers_URBasic_realTimeClientEvent - INFO - Program send to Robot:
servoj([0.15798467981036157, -1.6490140056352047, -1.6521433341123994, -1.2823925973305363, 1.6643691548559192, 2.8501363038915213], 0.5, 0.5, 0.01, 0.2, 100)

2025-07-07 17:00:29,591 - gym_custom_envs_real_ur_drivers_URBasic_realTimeClientEvent - INFO - Program send to Robot:
servoj([0.15799986773880262, -1.6490291935636456, -1.6520977688084308, -1.2824077852589775, 1.6643691548559207, 2.8501363038915213], 0.5, 0.5, 0.01, 0.2, 100)

2025-07-07 17:00:29,613 - gym_custom_envs_real_ur_drivers_URBasic_realTimeClientEvent - INFO - Program send to Robot:
servoj([0.15800001961808705, -1.6490293454429301, -1.652097313155391, -1.282407937138262, 1.6643691548559207, 2.8501363038915213], 0.5, 0.5, 0.01, 0.2, 100)

2025-07-07 17:00:29,623 - gym_custom_envs_real_ur_drivers_URBasic_realTimeClientEvent - INFO - Program send to Robot:
servoj([0.1580000211368799, -1.6520666289217363, -1.6475413856588408, -1.2869638615970749, 1.6643691548559207, 2.8501363038915213], 0.5, 0.5, 0.01, 0.2, 100)

2025-07-07 17:00:29,631 - gym_custom_envs_real_ur_drivers_URBasic_realTimeClientEvent - INFO - Program send to Robot:
servoj([0.15800002115206782, -1.6520970017565244, -1.6474958263838753, -1.2870094208416631, 1.6643691548559207, 2.8501363038915213], 0.5, 0.5, 0.01, 0.2, 100)

