2025-07-07 16:29:44,280 - gym_custom_envs_real_ur_drivers_URBasic_robotModelEvent - INFO - Init done
2025-07-07 16:29:44,781 - gym_custom_envs_real_ur_drivers_URBasic_realTimeClientEvent - INFO - Connected
2025-07-07 16:29:44,781 - gym_custom_envs_real_ur_drivers_URBasic_realTimeClientEvent - INFO - RT_CLient constructor done
2025-07-07 16:29:44,782 - gym_custom_envs_real_ur_drivers_URBasic_dataLogEvent - INFO - Data logging (not event logging) is disabled
2025-07-07 16:29:44,783 - gym_custom_envs_real_ur_drivers_URBasic_dataLogEvent - INFO - DataLog constructor done
2025-07-07 16:29:44,783 - gym_custom_envs_real_ur_drivers_URBasic_dataLogEvent - INFO - DataLog is stopped
2025-07-07 16:29:44,784 - gym_custom_envs_real_ur_drivers_URBasic_rtdeEvent - INFO - RTDE constructor done
2025-07-07 16:29:45,098 - gym_custom_envs_real_ur_drivers_URBasic_rtdeEvent - INFO - Controller version: 3.3.1-60
2025-07-07 16:29:45,101 - gym_custom_envs_real_ur_drivers_URBasic_rtdeEvent - INFO - RTDE started
2025-07-07 16:29:45,286 - gym_custom_envs_real_ur_drivers_URBasic_dashboardEvent - INFO - Connected
2025-07-07 16:29:45,286 - gym_custom_envs_real_ur_drivers_URBasic_dashboardEvent - INFO - UR Dashboard respond Connected: Universal Robots Dashboard Server
2025-07-07 16:29:45,287 - gym_custom_envs_real_ur_drivers_URBasic_dashboardEvent - INFO - Dashboard server constructor done
2025-07-07 16:29:45,287 - gym_custom_envs_real_ur_drivers_URBasic_robotConnectorEvent - INFO - Init done
2025-07-07 16:29:45,287 - gym_custom_envs_real_ur_drivers_URBasic_urScriptEvent - INFO - Init done!!!
2025-07-07 16:29:45,300 - gym_custom_envs_real_ur_drivers_URBasic_urScriptExtEvent - INFO - Init done
2025-07-07 16:29:46,914 - gym_custom_envs_real_ur_interfaceEvent - INFO - [] init done
2025-07-07 16:29:46,914 - gym_custom_envs_real_ur_drivers_URBasic_realTimeClientEvent - INFO - Program send to Robot:
end_freedrive_mode()

2025-07-07 16:29:50,995 - gym_custom_envs_real_ur_drivers_URBasic_realTimeClientEvent - INFO - Program send to Robot:
servoj([0.01710543623479565, -1.6150442110666605, -1.5154874746397868, -1.6082827468546512, 1.5293515205383301, 3.1644753143944317], 0.5, 0.5, 0.002, 0.2, 100)

2025-07-07 16:29:51,019 - gym_custom_envs_real_ur_drivers_URBasic_realTimeClientEvent - INFO - Program send to Robot:
servoj([0.017078685284820996, -1.6150368686483692, -1.5155115520862354, -1.608252117674794, 1.529327917098999, 3.1644759686167383], 0.5, 0.5, 0.002, 0.2, 100)

2025-07-07 16:29:51,042 - gym_custom_envs_real_ur_drivers_URBasic_realTimeClientEvent - INFO - Program send to Robot:
servoj([0.01706947874971019, -1.6150185528806633, -1.5154474468992656, -1.6086227567177789, 1.529327917098999, 3.1644483118075026], 0.5, 0.5, 0.002, 0.2, 100)

2025-07-07 16:29:51,053 - gym_custom_envs_real_ur_drivers_URBasic_realTimeClientEvent - INFO - Program send to Robot:
servoj([0.017060272214599378, -1.6150277107645163, -1.5154932363185296, -1.6086167520881711, 1.529327917098999, 3.1644574696913557], 0.5, 0.5, 0.002, 0.2, 100)

2025-07-07 16:29:51,069 - gym_custom_envs_real_ur_drivers_URBasic_realTimeClientEvent - INFO - Program send to Robot:
servoj([0.017087023772498655, -1.61501673832217, -1.5154691594767933, -1.6082457498698532, 1.5293515205383301, 3.164456816079808], 0.5, 0.5, 0.002, 0.2, 100)

2025-07-07 16:29:51,090 - gym_custom_envs_real_ur_drivers_URBasic_realTimeClientEvent - INFO - Program send to Robot:
servoj([0.01711464246594415, -1.6150350534851636, -1.5154600018952964, -1.6082979080105777, 1.5293515205383301, 3.1644938127090554], 0.5, 0.5, 0.002, 0.2, 100)

2025-07-07 16:29:51,109 - gym_custom_envs_real_ur_drivers_URBasic_realTimeClientEvent - INFO - Program send to Robot:
servoj([0.01706861131020166, -1.6150533686481572, -1.5154600018952964, -1.6082605098785232, 1.5293515205383301, 3.1644753143944317], 0.5, 0.5, 0.002, 0.2, 100)

2025-07-07 16:29:51,124 - gym_custom_envs_real_ur_drivers_URBasic_realTimeClientEvent - INFO - Program send to Robot:
servoj([0.01709709835504262, -1.615046026532222, -1.5154932363185296, -1.6082612400074385, 1.529327917098999, 3.1644759686167383], 0.5, 0.5, 0.002, 0.2, 100)

2025-07-07 16:29:51,140 - gym_custom_envs_real_ur_drivers_URBasic_realTimeClientEvent - INFO - Program send to Robot:
servoj([0.017086585292496348, -1.615034136585077, -1.5154434030335704, -1.6082509831037235, 1.5293634414672852, 3.164447328489829], 0.5, 0.5, 0.002, 0.2, 100)

2025-07-07 16:29:51,157 - gym_custom_envs_real_ur_drivers_URBasic_realTimeClientEvent - INFO - Program send to Robot:
servoj([0.0170874665881074, -1.6150542949228572, -1.5154582689320508, -1.6082608821619977, 1.5293394804000855, 3.1644664903960433], 0.5, 0.5, 0.002, 0.2, 100)

2025-07-07 16:29:51,181 - gym_custom_envs_real_ur_drivers_URBasic_realTimeClientEvent - INFO - Program send to Robot:
servoj([0.017058524610954286, -1.6150515249620883, -1.5154634512394205, -1.6082597678106274, 1.5293754816055298, 3.1644746501131977], 0.5, 0.5, 0.002, 0.2, 100)

2025-07-07 16:29:51,206 - gym_custom_envs_real_ur_drivers_URBasic_realTimeClientEvent - INFO - Program send to Robot:
servoj([0.01706773053346693, -1.6149962150241572, -1.5155000803373881, -1.6086400420034226, 1.5293754816055298, 3.16443783786974], 0.5, 0.5, 0.002, 0.2, 100)

2025-07-07 16:29:51,229 - gym_custom_envs_real_ur_drivers_URBasic_realTimeClientEvent - INFO - Program send to Robot:
servoj([0.017086585292496348, -1.615015821727544, -1.5154800327486366, -1.6082918659143943, 1.5293634414672852, 3.164456485918596], 0.5, 0.5, 0.002, 0.2, 100)

2025-07-07 16:29:51,246 - gym_custom_envs_real_ur_drivers_URBasic_realTimeClientEvent - INFO - Program send to Robot:
servoj([0.017049318688441638, -1.6150423676875965, -1.5154726085139123, -1.6082880074230412, 1.5293754816055298, 3.1644746501131977], 0.5, 0.5, 0.002, 0.2, 100)

2025-07-07 16:29:51,262 - gym_custom_envs_real_ur_drivers_URBasic_realTimeClientEvent - INFO - Program send to Robot:
servoj([0.01710543623479565, -1.6150258959036667, -1.5154600018952964, -1.6082421947120091, 1.5293515205383301, 3.164456816079808], 0.5, 0.5, 0.002, 0.2, 100)

2025-07-07 16:29:51,277 - gym_custom_envs_real_ur_drivers_URBasic_realTimeClientEvent - INFO - Program send to Robot:
servoj([0.017069921158372463, -1.615037794411973, -1.5154457141610118, -1.6082616125648892, 1.5293158769607544, 3.1644854603191197], 0.5, 0.5, 0.002, 0.2, 100)

2025-07-07 16:29:51,294 - gym_custom_envs_real_ur_drivers_URBasic_realTimeClientEvent - INFO - Program send to Robot:
servoj([0.01705896705967566, -1.6149971405728603, -1.5154617178911036, -1.608269664258407, 1.5293634414672852, 3.164447328489829], 0.5, 0.5, 0.002, 0.2, 100)

2025-07-07 16:29:51,309 - gym_custom_envs_real_ur_drivers_URBasic_realTimeClientEvent - INFO - Program send to Robot:
servoj([0.017078260201899106, -1.6150359794513829, -1.5154857421392625, -1.6082795639429015, 1.5293394804000855, 3.1644941467579697], 0.5, 0.5, 0.002, 0.2, 100)

2025-07-07 16:29:51,325 - gym_custom_envs_real_ur_drivers_URBasic_realTimeClientEvent - INFO - Program send to Robot:
servoj([0.01709667297431569, -1.6150176639799085, -1.5154765844035252, -1.6082795639429013, 1.5293394804000855, 3.1644756481317806], 0.5, 0.5, 0.002, 0.2, 100)

2025-07-07 16:29:51,341 - gym_custom_envs_real_ur_drivers_URBasic_realTimeClientEvent - INFO - Program send to Robot:
servoj([0.01706115229449203, -1.6150478690985237, -1.5154439987691184, -1.6082619813892005, 1.5293039560317994, 3.1644674744143626], 0.5, 0.5, 0.002, 0.2, 100)

2025-07-07 16:29:51,360 - gym_custom_envs_real_ur_drivers_URBasic_realTimeClientEvent - INFO - Program send to Robot:
servoj([0.017058524610954286, -1.6150148958641206, -1.5154726085139123, -1.6082784486505908, 1.5293754816055298, 3.1644838073876898], 0.5, 0.5, 0.002, 0.2, 100)

2025-07-07 16:29:51,391 - gym_custom_envs_real_ur_drivers_URBasic_realTimeClientEvent - INFO - Program send to Robot:
servoj([0.017078685284820996, -1.6150368686483692, -1.5154840784346768, -1.6082520821200306, 1.529327917098999, 3.164503625425974], 0.5, 0.5, 0.002, 0.2, 100)

2025-07-07 16:29:51,411 - gym_custom_envs_real_ur_drivers_URBasic_realTimeClientEvent - INFO - Program send to Robot:
servoj([0.01710455422351751, -1.6150423676875965, -1.5154542939649285, -1.608269291376099, 1.5293754816055298, 3.164446995144232], 0.5, 0.5, 0.002, 0.2, 100)

2025-07-07 16:29:51,437 - gym_custom_envs_real_ur_drivers_URBasic_realTimeClientEvent - INFO - Program send to Robot:
servoj([0.01710455422351751, -1.6150332104131044, -1.5154634512394205, -1.608269291376099, 1.5293754816055298, 3.164493147807671], 0.5, 0.5, 0.002, 0.2, 100)

2025-07-07 16:29:51,455 - gym_custom_envs_real_ur_drivers_URBasic_realTimeClientEvent - INFO - Program send to Robot:
servoj([0.017040992616756165, -1.61501673832217, -1.5154508443137997, -1.6082887148739822, 1.5293515205383301, 3.1644753143944317], 0.5, 0.5, 0.002, 0.2, 100)

2025-07-07 16:29:51,469 - gym_custom_envs_real_ur_drivers_URBasic_realTimeClientEvent - INFO - Program send to Robot:
servoj([-0.009203884727313927, -1.560058461279697, -1.618349731219351, -1.586136134673753, 1.6950487706136332, 3.1446606151655647], 0.5, 0.5, 0.002, 0.2, 100)

2025-07-07 16:29:51,479 - gym_custom_envs_real_ur_drivers_URBasic_realTimeClientEvent - INFO - Program send to Robot:
servoj([-0.009203884727313927, -1.560058461279697, -1.618349731219351, -1.586136134673753, 1.6950487706136332, 3.1446606151655647], 0.5, 0.5, 0.002, 0.2, 100)

2025-07-07 16:29:51,488 - gym_custom_envs_real_ur_drivers_URBasic_realTimeClientEvent - INFO - Program send to Robot:
servoj([-0.009203884727313927, -1.560058461279697, -1.618349731219351, -1.586136134673753, 1.6950487706136332, 3.1446606151655647], 0.5, 0.5, 0.002, 0.2, 100)

2025-07-07 16:29:51,492 - gym_custom_envs_real_ur_drivers_URBasic_realTimeClientEvent - INFO - Program send to Robot:
servoj([-0.009203884727313927, -1.560058461279697, -1.618349731219351, -1.586136134673753, 1.6950487706136332, 3.1446606151655647], 0.5, 0.5, 0.002, 0.2, 100)

2025-07-07 16:29:51,508 - gym_custom_envs_real_ur_drivers_URBasic_realTimeClientEvent - INFO - Program send to Robot:
servoj([-0.009203884727313927, -1.560058461279697, -1.618349731219351, -1.5876547756537598, 1.6950487706136332, 3.1446606151655647], 0.5, 0.5, 0.002, 0.2, 100)

2025-07-07 16:29:51,516 - gym_custom_envs_real_ur_drivers_URBasic_realTimeClientEvent - INFO - Program send to Robot:
servoj([-0.009203884727313927, -1.560058461279697, -1.618349731219351, -1.58766996206356, 1.6950487706136332, 3.1446606151655647], 0.5, 0.5, 0.002, 0.2, 100)

2025-07-07 16:29:51,530 - gym_custom_envs_real_ur_drivers_URBasic_realTimeClientEvent - INFO - Program send to Robot:
servoj([-0.009203884727313927, -1.560058461279697, -1.618349731219351, -1.5876701139276579, 1.6950487706136332, 3.1446606151655647], 0.5, 0.5, 0.002, 0.2, 100)

2025-07-07 16:29:51,541 - gym_custom_envs_real_ur_drivers_URBasic_realTimeClientEvent - INFO - Program send to Robot:
servoj([-0.009203884727313927, -1.5615771022597036, -1.618349731219351, -1.5876701154462989, 1.6950487706136332, 3.1446606151655647], 0.5, 0.5, 0.002, 0.2, 100)

2025-07-07 16:29:51,554 - gym_custom_envs_real_ur_drivers_URBasic_realTimeClientEvent - INFO - Program send to Robot:
servoj([-0.009203884727313927, -1.5615922886695037, -1.618349731219351, -1.5876701154614852, 1.6950487706136332, 3.1446606151655647], 0.5, 0.5, 0.002, 0.2, 100)

2025-07-07 16:29:51,564 - gym_custom_envs_real_ur_drivers_URBasic_realTimeClientEvent - INFO - Program send to Robot:
servoj([-0.009203884727313927, -1.5615924405336017, -1.618349731219351, -1.587670115461637, 1.6950487706136332, 3.1446606151655647], 0.5, 0.5, 0.002, 0.2, 100)

2025-07-07 16:29:51,578 - gym_custom_envs_real_ur_drivers_URBasic_realTimeClientEvent - INFO - Program send to Robot:
servoj([-0.009203884727313927, -1.5615924420522427, -1.618349731219351, -1.5876701154616386, 1.6965674115936402, 3.1446606151655647], 0.5, 0.5, 0.002, 0.2, 100)

2025-07-07 16:29:51,581 - gym_custom_envs_real_ur_drivers_URBasic_realTimeClientEvent - INFO - Program send to Robot:
servoj([-0.009203884727313927, -1.5615924420674292, -1.618349731219351, -1.5876701154616386, 1.6965825980034404, 3.1446606151655647], 0.5, 0.5, 0.002, 0.2, 100)

2025-07-07 16:29:51,596 - gym_custom_envs_real_ur_drivers_URBasic_realTimeClientEvent - INFO - Program send to Robot:
servoj([-0.009203884727313927, -1.561592442067581, -1.618349731219351, -1.5876701154616386, 1.6965827498675383, 3.1446606151655647], 0.5, 0.5, 0.002, 0.2, 100)

2025-07-07 16:29:51,604 - gym_custom_envs_real_ur_drivers_URBasic_realTimeClientEvent - INFO - Program send to Robot:
servoj([-0.009203884727313927, -1.5615924420675824, -1.618349731219351, -1.5876701154616386, 1.6965827513861793, 3.1446606151655647], 0.5, 0.5, 0.002, 0.2, 100)

2025-07-07 16:29:51,620 - gym_custom_envs_real_ur_drivers_URBasic_realTimeClientEvent - INFO - Program send to Robot:
servoj([-0.009203884727313927, -1.5615924420675826, -1.618349731219351, -1.5876701154616386, 1.6965827514013656, 3.1446606151655647], 0.5, 0.5, 0.002, 0.2, 100)

2025-07-07 16:29:51,637 - gym_custom_envs_real_ur_drivers_URBasic_realTimeClientEvent - INFO - Program send to Robot:
servoj([-0.009203884727313927, -1.5615924420675826, -1.618349731219351, -1.5876701154616386, 1.6950641104215105, 3.1446606151655647], 0.5, 0.5, 0.002, 0.2, 100)

2025-07-07 16:29:51,644 - gym_custom_envs_real_ur_drivers_URBasic_realTimeClientEvent - INFO - Program send to Robot:
servoj([-0.009203884727313927, -1.5615924420675826, -1.618349731219351, -1.5876701154616386, 1.695048924011712, 3.1446606151655647], 0.5, 0.5, 0.002, 0.2, 100)

2025-07-07 16:29:51,653 - gym_custom_envs_real_ur_drivers_URBasic_realTimeClientEvent - INFO - Program send to Robot:
servoj([-0.009203884727313927, -1.5615924420675826, -1.618349731219351, -1.5876701154616386, 1.695048772147614, 3.1446606151655647], 0.5, 0.5, 0.002, 0.2, 100)

2025-07-07 16:29:51,661 - gym_custom_envs_real_ur_drivers_URBasic_realTimeClientEvent - INFO - Program send to Robot:
servoj([-0.009203884727313927, -1.5615924420675826, -1.618349731219351, -1.5876701154616386, 1.695048770628973, 3.1446606151655647], 0.5, 0.5, 0.002, 0.2, 100)

2025-07-07 16:29:51,677 - gym_custom_envs_real_ur_drivers_URBasic_realTimeClientEvent - INFO - Program send to Robot:
servoj([-0.009203884727313927, -1.5615924420675826, -1.618349731219351, -1.5876701154616386, 1.6965674115937937, 3.1446606151655647], 0.5, 0.5, 0.002, 0.2, 100)

2025-07-07 16:29:51,685 - gym_custom_envs_real_ur_drivers_URBasic_realTimeClientEvent - INFO - Program send to Robot:
servoj([-0.009203884727313927, -1.5615924420675826, -1.618349731219351, -1.5876701154616386, 1.6965825980034417, 3.1446606151655647], 0.5, 0.5, 0.002, 0.2, 100)

2025-07-07 16:29:51,692 - gym_custom_envs_real_ur_drivers_URBasic_realTimeClientEvent - INFO - Program send to Robot:
servoj([-0.009203884727313927, -1.5615924420675826, -1.618349731219351, -1.5876701154616386, 1.6965827498675383, 3.1446606151655647], 0.5, 0.5, 0.002, 0.2, 100)

2025-07-07 16:29:51,701 - gym_custom_envs_real_ur_drivers_URBasic_realTimeClientEvent - INFO - Program send to Robot:
servoj([-0.009203884727313927, -1.5615924420675826, -1.618349731219351, -1.5876701154616386, 1.6965827513861793, 3.1446606151655647], 0.5, 0.5, 0.002, 0.2, 100)

2025-07-07 16:29:51,717 - gym_custom_envs_real_ur_drivers_URBasic_realTimeClientEvent - INFO - Program send to Robot:
servoj([-0.009203884727313927, -1.5615924420675826, -1.618349731219351, -1.5876701154616386, 1.6965827514013656, 3.1446606151655647], 0.5, 0.5, 0.002, 0.2, 100)

2025-07-07 16:29:51,725 - gym_custom_envs_real_ur_drivers_URBasic_realTimeClientEvent - INFO - Program send to Robot:
servoj([-0.009203884727313927, -1.5615924420675826, -1.618349731219351, -1.5876701154616386, 1.6965827514015175, 3.1446606151655647], 0.5, 0.5, 0.002, 0.2, 100)

2025-07-07 16:29:51,734 - gym_custom_envs_real_ur_drivers_URBasic_realTimeClientEvent - INFO - Program send to Robot:
servoj([-0.009203884727313927, -1.5615924420675826, -1.618349731219351, -1.5876701154616386, 1.696582751401519, 3.1446606151655647], 0.5, 0.5, 0.002, 0.2, 100)

2025-07-07 16:29:51,741 - gym_custom_envs_real_ur_drivers_URBasic_realTimeClientEvent - INFO - Program send to Robot:
servoj([-0.009203884727313927, -1.5615924420675826, -1.618349731219351, -1.5876701154616386, 1.696582751401519, 3.1446606151655647], 0.5, 0.5, 0.002, 0.2, 100)

2025-07-07 16:29:51,759 - gym_custom_envs_real_ur_drivers_URBasic_realTimeClientEvent - INFO - Program send to Robot:
servoj([-0.009203884727313927, -1.560073801087576, -1.618349731219351, -1.5876701154616386, 1.696582751401519, 3.1446606151655647], 0.5, 0.5, 0.002, 0.2, 100)

2025-07-07 16:29:51,764 - gym_custom_envs_real_ur_drivers_URBasic_realTimeClientEvent - INFO - Program send to Robot:
servoj([-0.009203884727313927, -1.560058614677776, -1.618349731219351, -1.5876701154616386, 1.696582751401519, 3.1446606151655647], 0.5, 0.5, 0.002, 0.2, 100)

2025-07-07 16:29:51,775 - gym_custom_envs_real_ur_drivers_URBasic_realTimeClientEvent - INFO - Program send to Robot:
servoj([-0.009203884727313927, -1.560058462813678, -1.618349731219351, -1.5876701154616386, 1.696582751401519, 3.1446606151655647], 0.5, 0.5, 0.002, 0.2, 100)

2025-07-07 16:29:51,789 - gym_custom_envs_real_ur_drivers_URBasic_realTimeClientEvent - INFO - Program send to Robot:
servoj([-0.009203884727313927, -1.560058461295037, -1.618349731219351, -1.5876701154616386, 1.696582751401519, 3.1446606151655647], 0.5, 0.5, 0.002, 0.2, 100)

2025-07-07 16:29:51,799 - gym_custom_envs_real_ur_drivers_URBasic_realTimeClientEvent - INFO - Program send to Robot:
servoj([-0.009203884727313927, -1.561577102259857, -1.618349731219351, -1.5876701154616386, 1.696582751401519, 3.1446606151655647], 0.5, 0.5, 0.002, 0.2, 100)

2025-07-07 16:29:51,807 - gym_custom_envs_real_ur_drivers_URBasic_realTimeClientEvent - INFO - Program send to Robot:
servoj([-0.009203884727313927, -1.5615922886695053, -1.618349731219351, -1.5876701154616386, 1.696582751401519, 3.1446606151655647], 0.5, 0.5, 0.002, 0.2, 100)

2025-07-07 16:29:51,812 - gym_custom_envs_real_ur_drivers_URBasic_realTimeClientEvent - INFO - Program send to Robot:
servoj([-0.009203884727313927, -1.5615924405336017, -1.618349731219351, -1.5876701154616386, 1.696582751401519, 3.1446606151655647], 0.5, 0.5, 0.002, 0.2, 100)

2025-07-07 16:29:51,831 - gym_custom_envs_real_ur_drivers_URBasic_realTimeClientEvent - INFO - Program send to Robot:
servoj([-0.009203884727313927, -1.5615924420522427, -1.618349731219351, -1.5876701154616386, 1.696582751401519, 3.1446606151655647], 0.5, 0.5, 0.002, 0.2, 100)

2025-07-07 16:29:51,836 - gym_custom_envs_real_ur_drivers_URBasic_realTimeClientEvent - INFO - Program send to Robot:
servoj([-0.009203884727313927, -1.5615924420674292, -1.618349731219351, -1.5876701154616386, 1.696582751401519, 3.1446606151655647], 0.5, 0.5, 0.002, 0.2, 100)

2025-07-07 16:29:51,847 - gym_custom_envs_real_ur_drivers_URBasic_realTimeClientEvent - INFO - Program send to Robot:
servoj([-0.009203884727313927, -1.561592442067581, -1.618349731219351, -1.5876701154616386, 1.696582751401519, 3.1446606151655647], 0.5, 0.5, 0.002, 0.2, 100)

2025-07-07 16:29:51,860 - gym_custom_envs_real_ur_drivers_URBasic_realTimeClientEvent - INFO - Program send to Robot:
servoj([-0.009203884727313927, -1.5615924420675824, -1.618349731219351, -1.5876701154616386, 1.696582751401519, 3.1446606151655647], 0.5, 0.5, 0.002, 0.2, 100)

2025-07-07 16:29:51,872 - gym_custom_envs_real_ur_drivers_URBasic_realTimeClientEvent - INFO - Program send to Robot:
servoj([-0.009203884727313927, -1.5615924420675826, -1.618349731219351, -1.5876701154616386, 1.696582751401519, 3.1446606151655647], 0.5, 0.5, 0.002, 0.2, 100)

2025-07-07 16:29:51,876 - gym_custom_envs_real_ur_drivers_URBasic_realTimeClientEvent - INFO - Program send to Robot:
servoj([-0.009203884727313927, -1.5615924420675826, -1.618349731219351, -1.5876701154616386, 1.696582751401519, 3.1446606151655647], 0.5, 0.5, 0.002, 0.2, 100)

2025-07-07 16:29:51,897 - gym_custom_envs_real_ur_drivers_URBasic_realTimeClientEvent - INFO - Program send to Robot:
servoj([-0.009203884727313927, -1.5615924420675826, -1.616831090239345, -1.5876701154616386, 1.696582751401519, 3.1446606151655647], 0.5, 0.5, 0.002, 0.2, 100)

2025-07-07 16:29:51,900 - gym_custom_envs_real_ur_drivers_URBasic_realTimeClientEvent - INFO - Program send to Robot:
servoj([-0.009203884727313927, -1.5615924420675826, -1.616815903829545, -1.5876701154616386, 1.696582751401519, 3.1446606151655647], 0.5, 0.5, 0.002, 0.2, 100)

2025-07-07 16:29:51,920 - gym_custom_envs_real_ur_drivers_URBasic_realTimeClientEvent - INFO - Program send to Robot:
servoj([-0.009203884727313927, -1.5615924420675826, -1.616815751965447, -1.5876701154616386, 1.696582751401519, 3.1446606151655647], 0.5, 0.5, 0.002, 0.2, 100)

2025-07-07 16:29:51,925 - gym_custom_envs_real_ur_drivers_URBasic_realTimeClientEvent - INFO - Program send to Robot:
servoj([-0.009203884727313927, -1.5615924420675826, -1.616815750446806, -1.5876701154616386, 1.696582751401519, 3.1446606151655647], 0.5, 0.5, 0.002, 0.2, 100)

2025-07-07 16:29:51,945 - gym_custom_envs_real_ur_drivers_URBasic_realTimeClientEvent - INFO - Program send to Robot:
servoj([-0.009203884727313927, -1.5615924420675826, -1.6168157504316196, -1.5876701154616386, 1.696582751401519, 3.1446606151655647], 0.5, 0.5, 0.002, 0.2, 100)

2025-07-07 16:29:51,948 - gym_custom_envs_real_ur_drivers_URBasic_realTimeClientEvent - INFO - Program send to Robot:
servoj([-0.009203884727313927, -1.5615924420675826, -1.6168157504314677, -1.5876701154616386, 1.696582751401519, 3.1446606151655647], 0.5, 0.5, 0.002, 0.2, 100)

2025-07-07 16:29:51,968 - gym_custom_envs_real_ur_drivers_URBasic_realTimeClientEvent - INFO - Program send to Robot:
servoj([-0.009203884727313927, -1.5615924420675826, -1.6168157504314662, -1.5876701154616386, 1.696582751401519, 3.1446606151655647], 0.5, 0.5, 0.002, 0.2, 100)

2025-07-07 16:29:51,973 - gym_custom_envs_real_ur_drivers_URBasic_realTimeClientEvent - INFO - Program send to Robot:
servoj([-0.009203884727313927, -1.5615924420675826, -1.6168157504314662, -1.5876701154616386, 1.696582751401519, 3.1446606151655647], 0.5, 0.5, 0.002, 0.2, 100)

2025-07-07 16:29:51,993 - gym_custom_envs_real_ur_drivers_URBasic_realTimeClientEvent - INFO - Program send to Robot:
servoj([-0.009203884727313927, -1.5615924420675826, -1.6168157504314662, -1.5876701154616386, 1.696582751401519, 3.1446606151655647], 0.5, 0.5, 0.002, 0.2, 100)

2025-07-07 16:29:51,996 - gym_custom_envs_real_ur_drivers_URBasic_realTimeClientEvent - INFO - Program send to Robot:
servoj([-0.009203884727313927, -1.5615924420675826, -1.6168157504314662, -1.5876701154616386, 1.696582751401519, 3.1446606151655647], 0.5, 0.5, 0.002, 0.2, 100)

2025-07-07 16:29:52,018 - gym_custom_envs_real_ur_drivers_URBasic_realTimeClientEvent - INFO - Program send to Robot:
servoj([-0.009203884727313927, -1.5615924420675826, -1.6168157504314662, -1.5876701154616386, 1.696582751401519, 3.1446606151655647], 0.5, 0.5, 0.002, 0.2, 100)

2025-07-07 16:29:52,029 - gym_custom_envs_real_ur_drivers_URBasic_realTimeClientEvent - INFO - Program send to Robot:
servoj([-0.009203884727313927, -1.5615924420675826, -1.6168157504314662, -1.5876701154616386, 1.696582751401519, 3.1446606151655647], 0.5, 0.5, 0.002, 0.2, 100)

2025-07-07 16:29:52,042 - gym_custom_envs_real_ur_drivers_URBasic_realTimeClientEvent - INFO - Program send to Robot:
servoj([-0.009203884727313927, -1.5615924420675826, -1.6168157504314662, -1.5876701154616386, 1.696582751401519, 3.1446606151655647], 0.5, 0.5, 0.002, 0.2, 100)

2025-07-07 16:29:52,053 - gym_custom_envs_real_ur_drivers_URBasic_realTimeClientEvent - INFO - Program send to Robot:
servoj([-0.009203884727313927, -1.5615924420675826, -1.6168157504314662, -1.5876701154616386, 1.696582751401519, 3.1446606151655647], 0.5, 0.5, 0.002, 0.2, 100)

2025-07-07 16:29:52,060 - gym_custom_envs_real_ur_drivers_URBasic_realTimeClientEvent - INFO - Program send to Robot:
servoj([-0.009203884727313927, -1.5615924420675826, -1.6168157504314662, -1.5876701154616386, 1.696582751401519, 3.1446606151655647], 0.5, 0.5, 0.002, 0.2, 100)

2025-07-07 16:29:52,068 - gym_custom_envs_real_ur_drivers_URBasic_realTimeClientEvent - INFO - Program send to Robot:
servoj([-0.009203884727313927, -1.5615924420675826, -1.6168157504314662, -1.5876701154616386, 1.696582751401519, 3.1446606151655647], 0.5, 0.5, 0.002, 0.2, 100)

2025-07-07 16:29:52,090 - gym_custom_envs_real_ur_drivers_URBasic_realTimeClientEvent - INFO - Program send to Robot:
servoj([-0.009203884727313927, -1.5615924420675826, -1.6168157504314662, -1.5876701154616386, 1.696582751401519, 3.1446606151655647], 0.5, 0.5, 0.002, 0.2, 100)

2025-07-07 16:29:52,101 - gym_custom_envs_real_ur_drivers_URBasic_realTimeClientEvent - INFO - Program send to Robot:
servoj([-0.009203884727313927, -1.5615924420675826, -1.6168157504314662, -1.5876701154616386, 1.696582751401519, 3.1446606151655647], 0.5, 0.5, 0.002, 0.2, 100)

2025-07-07 16:29:52,108 - gym_custom_envs_real_ur_drivers_URBasic_realTimeClientEvent - INFO - Program send to Robot:
servoj([-0.009203884727313927, -1.5615924420675826, -1.6168157504314662, -1.5876701154616386, 1.696582751401519, 3.1446606151655647], 0.5, 0.5, 0.002, 0.2, 100)

2025-07-07 16:29:52,116 - gym_custom_envs_real_ur_drivers_URBasic_realTimeClientEvent - INFO - Program send to Robot:
servoj([-0.009203884727313927, -1.5615924420675826, -1.6168157504314662, -1.5876701154616386, 1.696582751401519, 3.1446606151655647], 0.5, 0.5, 0.002, 0.2, 100)

2025-07-07 16:29:52,133 - gym_custom_envs_real_ur_drivers_URBasic_realTimeClientEvent - INFO - Program send to Robot:
servoj([-0.009203884727313927, -1.5615924420675826, -1.6168157504314662, -1.5876701154616386, 1.696582751401519, 3.1446606151655647], 0.5, 0.5, 0.002, 0.2, 100)

2025-07-07 16:29:52,149 - gym_custom_envs_real_ur_drivers_URBasic_realTimeClientEvent - INFO - Program send to Robot:
servoj([-0.010722525707320432, -1.5615924420675826, -1.6168157504314662, -1.5876701154616386, 1.696582751401519, 3.1446606151655647], 0.5, 0.5, 0.002, 0.2, 100)

2025-07-07 16:29:52,157 - gym_custom_envs_real_ur_drivers_URBasic_realTimeClientEvent - INFO - Program send to Robot:
servoj([-0.010737712117120496, -1.5615924420675826, -1.6168157504314662, -1.5876701154616386, 1.696582751401519, 3.1446606151655647], 0.5, 0.5, 0.002, 0.2, 100)

2025-07-07 16:29:52,164 - gym_custom_envs_real_ur_drivers_URBasic_realTimeClientEvent - INFO - Program send to Robot:
servoj([-0.010737863981218497, -1.5615924420675826, -1.6168157504314662, -1.5876701154616386, 1.696582751401519, 3.1446606151655647], 0.5, 0.5, 0.002, 0.2, 100)

2025-07-07 16:29:52,181 - gym_custom_envs_real_ur_drivers_URBasic_realTimeClientEvent - INFO - Program send to Robot:
servoj([-0.009219224519852973, -1.5615924420675826, -1.6168157504314662, -1.5876701154616386, 1.696582751401519, 3.1446606151655647], 0.5, 0.5, 0.002, 0.2, 100)

2025-07-07 16:29:52,188 - gym_custom_envs_real_ur_drivers_URBasic_realTimeClientEvent - INFO - Program send to Robot:
servoj([-0.009204038125239317, -1.5615924420675826, -1.6168157504314662, -1.5876701154616386, 1.696582751401519, 3.1446606151655647], 0.5, 0.5, 0.002, 0.2, 100)

2025-07-07 16:29:52,205 - gym_custom_envs_real_ur_drivers_URBasic_realTimeClientEvent - INFO - Program send to Robot:
servoj([-0.009203886261293181, -1.5615924420675826, -1.6168157504314662, -1.5876701154616386, 1.696582751401519, 3.1446606151655647], 0.5, 0.5, 0.002, 0.2, 100)

2025-07-07 16:29:52,221 - gym_custom_envs_real_ur_drivers_URBasic_realTimeClientEvent - INFO - Program send to Robot:
servoj([-0.009203884742653719, -1.5615924420675826, -1.6168157504314662, -1.5876701154616386, 1.696582751401519, 3.1446606151655647], 0.5, 0.5, 0.002, 0.2, 100)

2025-07-07 16:29:52,228 - gym_custom_envs_real_ur_drivers_URBasic_realTimeClientEvent - INFO - Program send to Robot:
servoj([-0.009203884727467325, -1.5615924420675826, -1.6168157504314662, -1.5876701154616386, 1.696582751401519, 3.1446606151655647], 0.5, 0.5, 0.002, 0.2, 100)

2025-07-07 16:29:52,237 - gym_custom_envs_real_ur_drivers_URBasic_realTimeClientEvent - INFO - Program send to Robot:
servoj([-0.00920388472731546, -1.5615924420675826, -1.6168157504314662, -1.5876701154616386, 1.696582751401519, 3.1446606151655647], 0.5, 0.5, 0.002, 0.2, 100)

2025-07-07 16:29:52,246 - gym_custom_envs_real_ur_drivers_URBasic_realTimeClientEvent - INFO - Program send to Robot:
servoj([-0.009203884727313942, -1.5615924420675826, -1.6168157504314662, -1.5876701154616386, 1.696582751401519, 3.1446606151655647], 0.5, 0.5, 0.002, 0.2, 100)

2025-07-07 16:29:52,262 - gym_custom_envs_real_ur_drivers_URBasic_realTimeClientEvent - INFO - Program send to Robot:
servoj([-0.009203884727313927, -1.5615924420675826, -1.6168157504314662, -1.5876701154616386, 1.696582751401519, 3.1446606151655647], 0.5, 0.5, 0.002, 0.2, 100)

2025-07-07 16:29:52,270 - gym_custom_envs_real_ur_drivers_URBasic_realTimeClientEvent - INFO - Program send to Robot:
servoj([-0.009203884727313927, -1.5615924420675826, -1.6168157504314662, -1.5876701154616386, 1.696582751401519, 3.1446606151655647], 0.5, 0.5, 0.002, 0.2, 100)

2025-07-07 16:29:52,276 - gym_custom_envs_real_ur_drivers_URBasic_realTimeClientEvent - INFO - Program send to Robot:
servoj([-0.009203884727313927, -1.5615924420675826, -1.6168157504314662, -1.5876701154616386, 1.696582751401519, 3.1446606151655647], 0.5, 0.5, 0.002, 0.2, 100)

2025-07-07 16:29:52,285 - gym_custom_envs_real_ur_drivers_URBasic_realTimeClientEvent - INFO - Program send to Robot:
servoj([-0.009203884727313927, -1.5615924420675826, -1.6168157504314662, -1.5876701154616386, 1.696582751401519, 3.1446606151655647], 0.5, 0.5, 0.002, 0.2, 100)

2025-07-07 16:29:52,300 - gym_custom_envs_real_ur_drivers_URBasic_realTimeClientEvent - INFO - Program send to Robot:
servoj([-0.009203884727313927, -1.5615924420675826, -1.6168157504314662, -1.5876701154616386, 1.696582751401519, 3.1446606151655647], 0.5, 0.5, 0.002, 0.2, 100)

2025-07-07 16:29:52,309 - gym_custom_envs_real_ur_drivers_URBasic_realTimeClientEvent - INFO - Program send to Robot:
servoj([-0.010722525707320432, -1.5615924420675826, -1.6168157504314662, -1.5876701154616386, 1.696582751401519, 3.1446606151655647], 0.5, 0.5, 0.002, 0.2, 100)

2025-07-07 16:29:52,317 - gym_custom_envs_real_ur_drivers_URBasic_realTimeClientEvent - INFO - Program send to Robot:
servoj([-0.010737712117120496, -1.5615924420675826, -1.6168157504314662, -1.5876701154616386, 1.696582751401519, 3.1446606151655647], 0.5, 0.5, 0.002, 0.2, 100)

2025-07-07 16:29:52,333 - gym_custom_envs_real_ur_drivers_URBasic_realTimeClientEvent - INFO - Program send to Robot:
servoj([-0.010737863981218497, -1.5615924420675826, -1.6168157504314662, -1.5876701154616386, 1.696582751401519, 3.1446606151655647], 0.5, 0.5, 0.002, 0.2, 100)

2025-07-07 16:29:52,342 - gym_custom_envs_real_ur_drivers_URBasic_realTimeClientEvent - INFO - Program send to Robot:
servoj([-0.009219224519852973, -1.5615924420675826, -1.6168157504314662, -1.5876701154616386, 1.696582751401519, 3.1446606151655647], 0.5, 0.5, 0.002, 0.2, 100)

2025-07-07 16:29:52,348 - gym_custom_envs_real_ur_drivers_URBasic_realTimeClientEvent - INFO - Program send to Robot:
servoj([-0.009204038125239317, -1.5615924420675826, -1.6168157504314662, -1.5876701154616386, 1.696582751401519, 3.1446606151655647], 0.5, 0.5, 0.002, 0.2, 100)

2025-07-07 16:29:52,358 - gym_custom_envs_real_ur_drivers_URBasic_realTimeClientEvent - INFO - Program send to Robot:
servoj([-0.009203886261293181, -1.5615924420675826, -1.6168157504314662, -1.5876701154616386, 1.696582751401519, 3.1446606151655647], 0.5, 0.5, 0.002, 0.2, 100)

2025-07-07 16:29:52,372 - gym_custom_envs_real_ur_drivers_URBasic_realTimeClientEvent - INFO - Program send to Robot:
servoj([-0.009203884742653719, -1.5615924420675826, -1.6168157504314662, -1.5876701154616386, 1.696582751401519, 3.1446606151655647], 0.5, 0.5, 0.002, 0.2, 100)

2025-07-07 16:29:52,383 - gym_custom_envs_real_ur_drivers_URBasic_realTimeClientEvent - INFO - Program send to Robot:
servoj([-0.009203884727467325, -1.5615924420675826, -1.6168157504314662, -1.5876701154616386, 1.696582751401519, 3.1446606151655647], 0.5, 0.5, 0.002, 0.2, 100)

2025-07-07 16:29:52,391 - gym_custom_envs_real_ur_drivers_URBasic_realTimeClientEvent - INFO - Program send to Robot:
servoj([-0.00920388472731546, -1.5615924420675826, -1.6168157504314662, -1.5876701154616386, 1.696582751401519, 3.1446606151655647], 0.5, 0.5, 0.002, 0.2, 100)

2025-07-07 16:29:52,396 - gym_custom_envs_real_ur_drivers_URBasic_realTimeClientEvent - INFO - Program send to Robot:
servoj([-0.009203884727313942, -1.5615924420675826, -1.6168157504314662, -1.5876701154616386, 1.696582751401519, 3.1446606151655647], 0.5, 0.5, 0.002, 0.2, 100)

2025-07-07 16:29:52,414 - gym_custom_envs_real_ur_drivers_URBasic_realTimeClientEvent - INFO - Program send to Robot:
servoj([-0.009203884727313927, -1.5615924420675826, -1.6168157504314662, -1.5876701154616386, 1.696582751401519, 3.1446606151655647], 0.5, 0.5, 0.002, 0.2, 100)

2025-07-07 16:29:52,421 - gym_custom_envs_real_ur_drivers_URBasic_realTimeClientEvent - INFO - Program send to Robot:
servoj([-0.009203884727313927, -1.5615924420675826, -1.6168157504314662, -1.5876701154616386, 1.696582751401519, 3.1446606151655647], 0.5, 0.5, 0.002, 0.2, 100)

2025-07-07 16:29:52,430 - gym_custom_envs_real_ur_drivers_URBasic_realTimeClientEvent - INFO - Program send to Robot:
servoj([-0.009203884727313927, -1.5615924420675826, -1.6168157504314662, -1.5876701154616386, 1.696582751401519, 3.1446606151655647], 0.5, 0.5, 0.002, 0.2, 100)

2025-07-07 16:29:52,438 - gym_custom_envs_real_ur_drivers_URBasic_realTimeClientEvent - INFO - Program send to Robot:
servoj([-0.009203884727313927, -1.5615924420675826, -1.6168157504314662, -1.5876701154616386, 1.696582751401519, 3.1446606151655647], 0.5, 0.5, 0.002, 0.2, 100)

2025-07-07 16:29:52,462 - gym_custom_envs_real_ur_drivers_URBasic_realTimeClientEvent - INFO - Program send to Robot:
servoj([-0.009203884727313927, -1.5615924420675826, -1.6168157504314662, -1.5876701154616386, 1.696582751401519, 3.1446606151655647], 0.5, 0.5, 0.002, 0.2, 100)

2025-07-07 16:29:52,469 - gym_custom_envs_real_ur_drivers_URBasic_realTimeClientEvent - INFO - Program send to Robot:
servoj([-0.009203884727313927, -1.5615924420675826, -1.6168157504314662, -1.5876701154616386, 1.696582751401519, 3.1446606151655647], 0.5, 0.5, 0.002, 0.2, 100)

2025-07-07 16:29:52,487 - gym_custom_envs_real_ur_drivers_URBasic_realTimeClientEvent - INFO - Program send to Robot:
servoj([-0.009203884727313927, -1.5615924420675826, -1.6168157504314662, -1.5876701154616386, 1.696582751401519, 3.1446606151655647], 0.5, 0.5, 0.002, 0.2, 100)

2025-07-07 16:29:52,493 - gym_custom_envs_real_ur_drivers_URBasic_realTimeClientEvent - INFO - Program send to Robot:
servoj([-0.009203884727313927, -1.5615924420675826, -1.6168157504314662, -1.5876701154616386, 1.696582751401519, 3.1446606151655647], 0.5, 0.5, 0.002, 0.2, 100)

2025-07-07 16:29:52,502 - gym_custom_envs_real_ur_drivers_URBasic_realTimeClientEvent - INFO - Program send to Robot:
servoj([-0.009203884727313927, -1.5615924420675826, -1.6168157504314662, -1.5876701154616386, 1.696582751401519, 3.1446606151655647], 0.5, 0.5, 0.002, 0.2, 100)

2025-07-07 16:29:52,516 - gym_custom_envs_real_ur_drivers_URBasic_realTimeClientEvent - INFO - Program send to Robot:
servoj([-0.009203884727313927, -1.5615924420675826, -1.6168157504314662, -1.5876701154616386, 1.696582751401519, 3.1446606151655647], 0.5, 0.5, 0.002, 0.2, 100)

2025-07-07 16:29:52,525 - gym_custom_envs_real_ur_drivers_URBasic_realTimeClientEvent - INFO - Program send to Robot:
servoj([-0.009203884727313927, -1.5615924420675826, -1.6168157504314662, -1.5876701154616386, 1.696582751401519, 3.1446606151655647], 0.5, 0.5, 0.002, 0.2, 100)

2025-07-07 16:29:52,533 - gym_custom_envs_real_ur_drivers_URBasic_realTimeClientEvent - INFO - Program send to Robot:
servoj([-0.009203884727313927, -1.5615924420675826, -1.6168157504314662, -1.5876701154616386, 1.696582751401519, 3.1446606151655647], 0.5, 0.5, 0.002, 0.2, 100)

2025-07-07 16:29:52,541 - gym_custom_envs_real_ur_drivers_URBasic_realTimeClientEvent - INFO - Program send to Robot:
servoj([-0.009203884727313927, -1.5615924420675826, -1.6168157504314662, -1.5876701154616386, 1.696582751401519, 3.1446606151655647], 0.5, 0.5, 0.002, 0.2, 100)

2025-07-07 16:29:52,557 - gym_custom_envs_real_ur_drivers_URBasic_realTimeClientEvent - INFO - Program send to Robot:
servoj([-0.009203884727313927, -1.5615924420675826, -1.6168157504314662, -1.5876701154616386, 1.696582751401519, 3.1446606151655647], 0.5, 0.5, 0.002, 0.2, 100)

2025-07-07 16:29:52,564 - gym_custom_envs_real_ur_drivers_URBasic_realTimeClientEvent - INFO - Program send to Robot:
servoj([-0.009203884727313927, -1.5615924420675826, -1.6168157504314662, -1.5876701154616386, 1.696582751401519, 3.1446606151655647], 0.5, 0.5, 0.002, 0.2, 100)

2025-07-07 16:29:52,573 - gym_custom_envs_real_ur_drivers_URBasic_realTimeClientEvent - INFO - Program send to Robot:
servoj([-0.009203884727313927, -1.5615924420675826, -1.6168157504314662, -1.5876701154616386, 1.696582751401519, 3.1446606151655647], 0.5, 0.5, 0.002, 0.2, 100)

2025-07-07 16:29:52,589 - gym_custom_envs_real_ur_drivers_URBasic_realTimeClientEvent - INFO - Program send to Robot:
servoj([-0.009203884727313927, -1.5615924420675826, -1.6168157504314662, -1.5876701154616386, 1.696582751401519, 3.1446606151655647], 0.5, 0.5, 0.002, 0.2, 100)

2025-07-07 16:29:52,597 - gym_custom_envs_real_ur_drivers_URBasic_realTimeClientEvent - INFO - Program send to Robot:
servoj([-0.009203884727313927, -1.5615924420675826, -1.6168157504314662, -1.5876701154616386, 1.696582751401519, 3.1446606151655647], 0.5, 0.5, 0.002, 0.2, 100)

2025-07-07 16:29:52,606 - gym_custom_envs_real_ur_drivers_URBasic_realTimeClientEvent - INFO - Program send to Robot:
servoj([-0.009203884727313927, -1.5615924420675826, -1.6168157504314662, -1.5876701154616386, 1.696582751401519, 3.1446606151655647], 0.5, 0.5, 0.002, 0.2, 100)

2025-07-07 16:29:52,612 - gym_custom_envs_real_ur_drivers_URBasic_realTimeClientEvent - INFO - Program send to Robot:
servoj([-0.009203884727313927, -1.5615924420675826, -1.6168157504314662, -1.5876701154616386, 1.696582751401519, 3.1446606151655647], 0.5, 0.5, 0.002, 0.2, 100)

2025-07-07 16:29:52,630 - gym_custom_envs_real_ur_drivers_URBasic_realTimeClientEvent - INFO - Program send to Robot:
servoj([-0.009203884727313927, -1.5615924420675826, -1.6168157504314662, -1.5876701154616386, 1.696582751401519, 3.1446606151655647], 0.5, 0.5, 0.002, 0.2, 100)

2025-07-07 16:29:52,636 - gym_custom_envs_real_ur_drivers_URBasic_realTimeClientEvent - INFO - Program send to Robot:
servoj([-0.009203884727313927, -1.5615924420675826, -1.6168157504314662, -1.5876701154616386, 1.696582751401519, 3.1446606151655647], 0.5, 0.5, 0.002, 0.2, 100)

2025-07-07 16:29:52,645 - gym_custom_envs_real_ur_drivers_URBasic_realTimeClientEvent - INFO - Program send to Robot:
servoj([-0.009203884727313927, -1.5615924420675826, -1.6168157504314662, -1.5876701154616386, 1.696582751401519, 3.1446606151655647], 0.5, 0.5, 0.002, 0.2, 100)

2025-07-07 16:29:52,661 - gym_custom_envs_real_ur_drivers_URBasic_realTimeClientEvent - INFO - Program send to Robot:
servoj([-0.009203884727313927, -1.5615924420675826, -1.6168157504314662, -1.5876701154616386, 1.696582751401519, 3.1446606151655647], 0.5, 0.5, 0.002, 0.2, 100)

2025-07-07 16:29:52,677 - gym_custom_envs_real_ur_drivers_URBasic_realTimeClientEvent - INFO - Program send to Robot:
servoj([-0.009203884727313927, -1.5615924420675826, -1.6168157504314662, -1.5876701154616386, 1.696582751401519, 3.1446606151655647], 0.5, 0.5, 0.002, 0.2, 100)

2025-07-07 16:29:52,685 - gym_custom_envs_real_ur_drivers_URBasic_realTimeClientEvent - INFO - Program send to Robot:
servoj([-0.009203884727313927, -1.5615924420675826, -1.6168157504314662, -1.5876701154616386, 1.696582751401519, 3.1446606151655647], 0.5, 0.5, 0.002, 0.2, 100)

2025-07-07 16:29:52,693 - gym_custom_envs_real_ur_drivers_URBasic_realTimeClientEvent - INFO - Program send to Robot:
servoj([-0.009203884727313927, -1.5615924420675826, -1.6168157504314662, -1.5876701154616386, 1.696582751401519, 3.1446606151655647], 0.5, 0.5, 0.002, 0.2, 100)

2025-07-07 16:29:52,701 - gym_custom_envs_real_ur_drivers_URBasic_realTimeClientEvent - INFO - Program send to Robot:
servoj([-0.009203884727313927, -1.5615924420675826, -1.6168157504314662, -1.5876701154616386, 1.696582751401519, 3.1446606151655647], 0.5, 0.5, 0.002, 0.2, 100)

2025-07-07 16:29:52,717 - gym_custom_envs_real_ur_drivers_URBasic_realTimeClientEvent - INFO - Program send to Robot:
servoj([-0.009203884727313927, -1.5615924420675826, -1.6168157504314662, -1.5876701154616386, 1.696582751401519, 3.1446606151655647], 0.5, 0.5, 0.002, 0.2, 100)

2025-07-07 16:29:52,726 - gym_custom_envs_real_ur_drivers_URBasic_realTimeClientEvent - INFO - Program send to Robot:
servoj([-0.009203884727313927, -1.5615924420675826, -1.6168157504314662, -1.5876701154616386, 1.696582751401519, 3.1446606151655647], 0.5, 0.5, 0.002, 0.2, 100)

2025-07-07 16:29:52,733 - gym_custom_envs_real_ur_drivers_URBasic_realTimeClientEvent - INFO - Program send to Robot:
servoj([-0.009203884727313927, -1.5615924420675826, -1.6168157504314662, -1.5876701154616386, 1.696582751401519, 3.1446606151655647], 0.5, 0.5, 0.002, 0.2, 100)

2025-07-07 16:29:52,750 - gym_custom_envs_real_ur_drivers_URBasic_realTimeClientEvent - INFO - Program send to Robot:
servoj([-0.009203884727313927, -1.5615924420675826, -1.6168157504314662, -1.5876701154616386, 1.696582751401519, 3.1446606151655647], 0.5, 0.5, 0.002, 0.2, 100)

2025-07-07 16:29:52,756 - gym_custom_envs_real_ur_drivers_URBasic_realTimeClientEvent - INFO - Program send to Robot:
servoj([-0.009203884727313927, -1.5615924420675826, -1.6168157504314662, -1.5876701154616386, 1.696582751401519, 3.1446606151655647], 0.5, 0.5, 0.002, 0.2, 100)

2025-07-07 16:29:52,766 - gym_custom_envs_real_ur_drivers_URBasic_realTimeClientEvent - INFO - Program send to Robot:
servoj([-0.009203884727313927, -1.5615924420675826, -1.6168157504314662, -1.5876701154616386, 1.696582751401519, 3.1446606151655647], 0.5, 0.5, 0.002, 0.2, 100)

2025-07-07 16:29:52,780 - gym_custom_envs_real_ur_drivers_URBasic_realTimeClientEvent - INFO - Program send to Robot:
servoj([-0.009203884727313927, -1.5615924420675826, -1.6168157504314662, -1.5876701154616386, 1.696582751401519, 3.1446606151655647], 0.5, 0.5, 0.002, 0.2, 100)

2025-07-07 16:29:52,789 - gym_custom_envs_real_ur_drivers_URBasic_realTimeClientEvent - INFO - Program send to Robot:
servoj([-0.009203884727313927, -1.5615924420675826, -1.6168157504314662, -1.5876701154616386, 1.696582751401519, 3.1461792561455715], 0.5, 0.5, 0.002, 0.2, 100)

2025-07-07 16:29:52,797 - gym_custom_envs_real_ur_drivers_URBasic_realTimeClientEvent - INFO - Program send to Robot:
servoj([-0.009203884727313927, -1.5615924420675826, -1.6168157504314662, -1.5876701154616386, 1.696582751401519, 3.1461944425553714], 0.5, 0.5, 0.002, 0.2, 100)

2025-07-07 16:29:52,804 - gym_custom_envs_real_ur_drivers_URBasic_realTimeClientEvent - INFO - Program send to Robot:
servoj([-0.009203884727313927, -1.5615924420675826, -1.6168157504314662, -1.5876701154616386, 1.696582751401519, 3.1461945944194696], 0.5, 0.5, 0.002, 0.2, 100)

2025-07-07 16:29:52,821 - gym_custom_envs_real_ur_drivers_URBasic_realTimeClientEvent - INFO - Program send to Robot:
servoj([-0.009203884727313927, -1.5615924420675826, -1.6168157504314662, -1.5876701154616386, 1.696582751401519, 3.1461945959381103], 0.5, 0.5, 0.002, 0.2, 100)

2025-07-07 16:29:52,828 - gym_custom_envs_real_ur_drivers_URBasic_realTimeClientEvent - INFO - Program send to Robot:
servoj([-0.009203884727313927, -1.5615924420675826, -1.6168157504314662, -1.5876701154616386, 1.696582751401519, 3.146194595953297], 0.5, 0.5, 0.002, 0.2, 100)

2025-07-07 16:29:52,837 - gym_custom_envs_real_ur_drivers_URBasic_realTimeClientEvent - INFO - Program send to Robot:
servoj([-0.009203884727313927, -1.5615924420675826, -1.6168157504314662, -1.5876701154616386, 1.696582751401519, 3.1461945959534487], 0.5, 0.5, 0.002, 0.2, 100)

2025-07-07 16:29:52,846 - gym_custom_envs_real_ur_drivers_URBasic_realTimeClientEvent - INFO - Program send to Robot:
servoj([-0.009203884727313927, -1.5615924420675826, -1.6168157504314662, -1.5876701154616386, 1.696582751401519, 3.14619459595345], 0.5, 0.5, 0.002, 0.2, 100)

2025-07-07 16:29:52,862 - gym_custom_envs_real_ur_drivers_URBasic_realTimeClientEvent - INFO - Program send to Robot:
servoj([-0.009203884727313927, -1.5615924420675826, -1.6168157504314662, -1.5876701154616386, 1.696582751401519, 3.14619459595345], 0.5, 0.5, 0.002, 0.2, 100)

2025-07-07 16:29:52,870 - gym_custom_envs_real_ur_drivers_URBasic_realTimeClientEvent - INFO - Program send to Robot:
servoj([-0.009203884727313927, -1.5615924420675826, -1.6168157504314662, -1.5876701154616386, 1.696582751401519, 3.14619459595345], 0.5, 0.5, 0.002, 0.2, 100)

2025-07-07 16:29:52,876 - gym_custom_envs_real_ur_drivers_URBasic_realTimeClientEvent - INFO - Program send to Robot:
servoj([-0.009203884727313927, -1.5615924420675826, -1.6168157504314662, -1.5876701154616386, 1.696582751401519, 3.14619459595345], 0.5, 0.5, 0.002, 0.2, 100)

2025-07-07 16:29:52,893 - gym_custom_envs_real_ur_drivers_URBasic_realTimeClientEvent - INFO - Program send to Robot:
servoj([-0.009203884727313927, -1.5615924420675826, -1.6168157504314662, -1.5876701154616386, 1.696582751401519, 3.14619459595345], 0.5, 0.5, 0.002, 0.2, 100)

2025-07-07 16:29:52,900 - gym_custom_envs_real_ur_drivers_URBasic_realTimeClientEvent - INFO - Program send to Robot:
servoj([-0.009203884727313927, -1.5615924420675826, -1.6168157504314662, -1.5876701154616386, 1.696582751401519, 3.14619459595345], 0.5, 0.5, 0.002, 0.2, 100)

2025-07-07 16:29:52,908 - gym_custom_envs_real_ur_drivers_URBasic_realTimeClientEvent - INFO - Program send to Robot:
servoj([-0.009203884727313927, -1.5615924420675826, -1.6168157504314662, -1.5876701154616386, 1.696582751401519, 3.14619459595345], 0.5, 0.5, 0.002, 0.2, 100)

2025-07-07 16:29:52,916 - gym_custom_envs_real_ur_drivers_URBasic_realTimeClientEvent - INFO - Program send to Robot:
servoj([-0.009203884727313927, -1.5615924420675826, -1.6168157504314662, -1.5876701154616386, 1.696582751401519, 3.14619459595345], 0.5, 0.5, 0.002, 0.2, 100)

2025-07-07 16:29:52,932 - gym_custom_envs_real_ur_drivers_URBasic_realTimeClientEvent - INFO - Program send to Robot:
servoj([-0.009203884727313927, -1.5615924420675826, -1.6168157504314662, -1.5876701154616386, 1.696582751401519, 3.14619459595345], 0.5, 0.5, 0.002, 0.2, 100)

2025-07-07 16:29:52,940 - gym_custom_envs_real_ur_drivers_URBasic_realTimeClientEvent - INFO - Program send to Robot:
servoj([-0.009203884727313927, -1.5615924420675826, -1.6168157504314662, -1.5876701154616386, 1.696582751401519, 3.14619459595345], 0.5, 0.5, 0.002, 0.2, 100)

2025-07-07 16:29:52,948 - gym_custom_envs_real_ur_drivers_URBasic_realTimeClientEvent - INFO - Program send to Robot:
servoj([-0.009203884727313927, -1.5615924420675826, -1.6168157504314662, -1.5876701154616386, 1.695064110421512, 3.14619459595345], 0.5, 0.5, 0.002, 0.2, 100)

2025-07-07 16:29:52,956 - gym_custom_envs_real_ur_drivers_URBasic_realTimeClientEvent - INFO - Program send to Robot:
servoj([-0.009203884727313927, -1.5615924420675826, -1.6168157504314662, -1.5876701154616386, 1.695048924011712, 3.14619459595345], 0.5, 0.5, 0.002, 0.2, 100)

2025-07-07 16:29:52,973 - gym_custom_envs_real_ur_drivers_URBasic_realTimeClientEvent - INFO - Program send to Robot:
servoj([-0.009203884727313927, -1.5615924420675826, -1.6168157504314662, -1.5876701154616386, 1.695048772147614, 3.14619459595345], 0.5, 0.5, 0.002, 0.2, 100)

2025-07-07 16:29:52,981 - gym_custom_envs_real_ur_drivers_URBasic_realTimeClientEvent - INFO - Program send to Robot:
servoj([-0.009203884727313927, -1.5615924420675826, -1.6168157504314662, -1.5876701154616386, 1.695048770628973, 3.14619459595345], 0.5, 0.5, 0.002, 0.2, 100)

2025-07-07 16:29:52,990 - gym_custom_envs_real_ur_drivers_URBasic_realTimeClientEvent - INFO - Program send to Robot:
servoj([-0.009203884727313927, -1.5615924420675826, -1.6168157504314662, -1.5876701154616386, 1.6950487706137867, 3.14619459595345], 0.5, 0.5, 0.002, 0.2, 100)

2025-07-07 16:29:52,996 - gym_custom_envs_real_ur_drivers_URBasic_realTimeClientEvent - INFO - Program send to Robot:
servoj([-0.009203884727313927, -1.5615924420675826, -1.6168157504314662, -1.5876701154616386, 1.6950487706136348, 3.14619459595345], 0.5, 0.5, 0.002, 0.2, 100)

2025-07-07 16:29:53,013 - gym_custom_envs_real_ur_drivers_URBasic_realTimeClientEvent - INFO - Program send to Robot:
servoj([-0.009203884727313927, -1.5615924420675826, -1.6168157504314662, -1.5876701154616386, 1.6950487706136332, 3.14619459595345], 0.5, 0.5, 0.002, 0.2, 100)

2025-07-07 16:29:53,020 - gym_custom_envs_real_ur_drivers_URBasic_realTimeClientEvent - INFO - Program send to Robot:
servoj([-0.009203884727313927, -1.5615924420675826, -1.6168157504314662, -1.5876701154616386, 1.6950487706136332, 3.14619459595345], 0.5, 0.5, 0.002, 0.2, 100)

2025-07-07 16:29:53,028 - gym_custom_envs_real_ur_drivers_URBasic_realTimeClientEvent - INFO - Program send to Robot:
servoj([-0.009203884727313927, -1.5615924420675826, -1.6168157504314662, -1.5876701154616386, 1.6950487706136332, 3.14619459595345], 0.5, 0.5, 0.002, 0.2, 100)

2025-07-07 16:29:53,045 - gym_custom_envs_real_ur_drivers_URBasic_realTimeClientEvent - INFO - Program send to Robot:
servoj([-0.009203884727313927, -1.5615924420675826, -1.6168157504314662, -1.5876701154616386, 1.6950487706136332, 3.14619459595345], 0.5, 0.5, 0.002, 0.2, 100)

2025-07-07 16:29:53,052 - gym_custom_envs_real_ur_drivers_URBasic_realTimeClientEvent - INFO - Program send to Robot:
servoj([-0.009203884727313927, -1.5615924420675826, -1.6168157504314662, -1.5876701154616386, 1.6950487706136332, 3.14619459595345], 0.5, 0.5, 0.002, 0.2, 100)

2025-07-07 16:29:53,074 - gym_custom_envs_real_ur_drivers_URBasic_realTimeClientEvent - INFO - Program send to Robot:
servoj([-0.009203884727313927, -1.5615924420675826, -1.6168157504314662, -1.5876701154616386, 1.6965674115936402, 3.14619459595345], 0.5, 0.5, 0.002, 0.2, 100)

2025-07-07 16:29:53,077 - gym_custom_envs_real_ur_drivers_URBasic_realTimeClientEvent - INFO - Program send to Robot:
servoj([-0.009203884727313927, -1.5615924420675826, -1.6168157504314662, -1.5876701154616386, 1.6965825980034404, 3.14619459595345], 0.5, 0.5, 0.002, 0.2, 100)

2025-07-07 16:29:53,091 - gym_custom_envs_real_ur_drivers_URBasic_rtdeEvent - INFO - Total packages: 1000
2025-07-07 16:29:53,092 - gym_custom_envs_real_ur_drivers_URBasic_realTimeClientEvent - INFO - Program send to Robot:
servoj([-0.009203884727313927, -1.5615924420675826, -1.6168157504314662, -1.5876701154616386, 1.6965827498675383, 3.14619459595345], 0.5, 0.5, 0.002, 0.2, 100)

2025-07-07 16:29:53,100 - gym_custom_envs_real_ur_drivers_URBasic_realTimeClientEvent - INFO - Program send to Robot:
servoj([-0.009203884727313927, -1.5615924420675826, -1.6168157504314662, -1.5876701154616386, 1.6965827513861793, 3.14619459595345], 0.5, 0.5, 0.002, 0.2, 100)

2025-07-07 16:29:53,117 - gym_custom_envs_real_ur_drivers_URBasic_realTimeClientEvent - INFO - Program send to Robot:
servoj([-0.009203884727313927, -1.5615924420675826, -1.6168157504314662, -1.5876701154616386, 1.6965827514013656, 3.14619459595345], 0.5, 0.5, 0.002, 0.2, 100)

2025-07-07 16:29:53,132 - gym_custom_envs_real_ur_drivers_URBasic_realTimeClientEvent - INFO - Program send to Robot:
servoj([-0.009203884727313927, -1.5615924420675826, -1.6168157504314662, -1.5876701154616386, 1.6965827514015175, 3.14619459595345], 0.5, 0.5, 0.002, 0.2, 100)

2025-07-07 16:29:53,140 - gym_custom_envs_real_ur_drivers_URBasic_realTimeClientEvent - INFO - Program send to Robot:
servoj([-0.009203884727313927, -1.5615924420675826, -1.6168157504314662, -1.5876701154616386, 1.698101392381526, 3.14619459595345], 0.5, 0.5, 0.002, 0.2, 100)

2025-07-07 16:29:53,148 - gym_custom_envs_real_ur_drivers_URBasic_realTimeClientEvent - INFO - Program send to Robot:
servoj([-0.009203884727313927, -1.5615924420675826, -1.6168157504314662, -1.5876701154616386, 1.6981165787913262, 3.14619459595345], 0.5, 0.5, 0.002, 0.2, 100)

2025-07-07 16:29:53,164 - gym_custom_envs_real_ur_drivers_URBasic_realTimeClientEvent - INFO - Program send to Robot:
servoj([-0.009203884727313927, -1.5615924420675826, -1.6168157504314662, -1.5876701154616386, 1.6981167306554241, 3.14619459595345], 0.5, 0.5, 0.002, 0.2, 100)

2025-07-07 16:29:53,172 - gym_custom_envs_real_ur_drivers_URBasic_realTimeClientEvent - INFO - Program send to Robot:
servoj([-0.009203884727313927, -1.5615924420675826, -1.6168157504314662, -1.5876701154616386, 1.699635373154072, 3.1446759549734433], 0.5, 0.5, 0.002, 0.2, 100)

2025-07-07 16:29:53,189 - gym_custom_envs_real_ur_drivers_URBasic_realTimeClientEvent - INFO - Program send to Robot:
servoj([-0.009203884727313927, -1.5615924420675826, -1.6168157504314662, -1.5876701154616386, 1.6996505595790585, 3.1446607685636434], 0.5, 0.5, 0.002, 0.2, 100)

2025-07-07 16:29:53,197 - gym_custom_envs_real_ur_drivers_URBasic_realTimeClientEvent - INFO - Program send to Robot:
servoj([-0.009203884727313927, -1.5615924420675826, -1.6168157504314662, -1.5876701154616386, 1.6996507114433084, 3.144660616699545], 0.5, 0.5, 0.002, 0.2, 100)

2025-07-07 16:29:53,213 - gym_custom_envs_real_ur_drivers_URBasic_realTimeClientEvent - INFO - Program send to Robot:
servoj([-0.009203884727313927, -1.5615924420675826, -1.6168157504314662, -1.5876701154616386, 1.701169353941958, 3.1446606151809045], 0.5, 0.5, 0.002, 0.2, 100)

2025-07-07 16:29:53,230 - gym_custom_envs_real_ur_drivers_URBasic_realTimeClientEvent - INFO - Program send to Robot:
servoj([-0.009203884727313927, -1.5615924420675826, -1.6168157504314662, -1.5876701154616386, 1.7011845403669443, 3.144660615165718], 0.5, 0.5, 0.002, 0.2, 100)

2025-07-07 16:29:53,236 - gym_custom_envs_real_ur_drivers_URBasic_realTimeClientEvent - INFO - Program send to Robot:
servoj([-0.009203884727313927, -1.5615924420675826, -1.6152971094514592, -1.5861514744816319, 1.7027033332112, 3.144660615165566], 0.5, 0.5, 0.002, 0.2, 100)

2025-07-07 16:29:53,253 - gym_custom_envs_real_ur_drivers_URBasic_realTimeClientEvent - INFO - Program send to Robot:
servoj([-0.009203884727313927, -1.5615924420675826, -1.615281923041659, -1.5861362880718317, 1.7027185211396427, 3.1446606151655647], 0.5, 0.5, 0.002, 0.2, 100)

2025-07-07 16:29:53,260 - gym_custom_envs_real_ur_drivers_URBasic_realTimeClientEvent - INFO - Program send to Robot:
servoj([-0.009203884727313927, -1.5615924420675826, -1.615281771177561, -1.5861361362077337, 1.702718673018927, 3.1446606151655647], 0.5, 0.5, 0.002, 0.2, 100)

2025-07-07 16:29:53,269 - gym_custom_envs_real_ur_drivers_URBasic_realTimeClientEvent - INFO - Program send to Robot:
servoj([-0.009203884727313927, -1.5615924420675826, -1.6152817696589201, -1.5846174937090858, 1.7057559564977338, 3.1446606151655647], 0.5, 0.5, 0.002, 0.2, 100)

2025-07-07 16:29:53,277 - gym_custom_envs_real_ur_drivers_URBasic_realTimeClientEvent - INFO - Program send to Robot:
servoj([-0.009203884727313927, -1.5615924420675826, -1.6152817696437338, -1.5846023072840993, 1.705786329332522, 3.1446606151655647], 0.5, 0.5, 0.002, 0.2, 100)

2025-07-07 16:29:53,292 - gym_custom_envs_real_ur_drivers_URBasic_realTimeClientEvent - INFO - Program send to Robot:
servoj([-0.009203884727313927, -1.5615924420675826, -1.615281769643582, -1.5846021554198495, 1.7057866330608698, 3.1446606151655647], 0.5, 0.5, 0.002, 0.2, 100)

2025-07-07 16:29:53,301 - gym_custom_envs_real_ur_drivers_URBasic_realTimeClientEvent - INFO - Program send to Robot:
servoj([-0.009203884727313927, -1.5615924420675826, -1.6152817696435804, -1.5830835129212002, 1.71186120001818, 3.1446606151655647], 0.5, 0.5, 0.002, 0.2, 100)

2025-07-07 16:29:53,308 - gym_custom_envs_real_ur_drivers_URBasic_realTimeClientEvent - INFO - Program send to Robot:
servoj([-0.009203884727313927, -1.5615924420675826, -1.6152817696435804, -1.5830683264962138, 1.7119219456877532, 3.1446606151655647], 0.5, 0.5, 0.002, 0.2, 100)

2025-07-07 16:29:53,325 - gym_custom_envs_real_ur_drivers_URBasic_realTimeClientEvent - INFO - Program send to Robot:
servoj([-0.009203884727313927, -1.5615924420675826, -1.6152817696435804, -1.583068174631964, 1.7119225531444489, 3.1446606151655647], 0.5, 0.5, 0.002, 0.2, 100)

2025-07-07 16:29:53,332 - gym_custom_envs_real_ur_drivers_URBasic_realTimeClientEvent - INFO - Program send to Robot:
servoj([-0.009203884727313927, -1.5615924420675826, -1.6152817696435804, -1.5830681731133214, 1.7164784821590369, 3.143141974185558], 0.5, 0.5, 0.002, 0.2, 100)

2025-07-07 16:29:53,341 - gym_custom_envs_real_ur_drivers_URBasic_realTimeClientEvent - INFO - Program send to Robot:
servoj([-0.009203884727313927, -1.5615924420675826, -1.6152817696435804, -1.583068173098135, 1.7165240414491827, 3.1431267877757576], 0.5, 0.5, 0.002, 0.2, 100)

2025-07-07 16:29:53,350 - gym_custom_envs_real_ur_drivers_URBasic_realTimeClientEvent - INFO - Program send to Robot:
servoj([-0.009203884727313927, -1.5615924420675826, -1.6152817696435804, -1.5830681730979832, 1.716524497042084, 3.14312663591166], 0.5, 0.5, 0.002, 0.2, 100)

2025-07-07 16:29:53,367 - gym_custom_envs_real_ur_drivers_URBasic_realTimeClientEvent - INFO - Program send to Robot:
servoj([-0.009203884727313927, -1.5615924420675826, -1.6137631286635734, -1.5830681730979816, 1.72259906551804, 3.1431266343930186], 0.5, 0.5, 0.002, 0.2, 100)

2025-07-07 16:29:53,374 - gym_custom_envs_real_ur_drivers_URBasic_realTimeClientEvent - INFO - Program send to Robot:
servoj([-0.009203884727313927, -1.5615924420675826, -1.6137479422537733, -1.5830681730979816, 1.7226598112027995, 3.143126634377832], 0.5, 0.5, 0.002, 0.2, 100)

2025-07-07 16:29:53,381 - gym_custom_envs_real_ur_drivers_URBasic_realTimeClientEvent - INFO - Program send to Robot:
servoj([-0.009203884727313927, -1.5615924420675826, -1.6137477903896753, -1.5830681730979816, 1.7226604186596473, 3.1431266343776807], 0.5, 0.5, 0.002, 0.2, 100)

2025-07-07 16:29:53,397 - gym_custom_envs_real_ur_drivers_URBasic_realTimeClientEvent - INFO - Program send to Robot:
servoj([-0.009203884727313927, -1.5615924420675826, -1.6137477888710343, -1.5815495321179749, 1.7272163476742357, 3.143126634377679], 0.5, 0.5, 0.002, 0.2, 100)

2025-07-07 16:29:53,404 - gym_custom_envs_real_ur_drivers_URBasic_realTimeClientEvent - INFO - Program send to Robot:
servoj([-0.009203884727313927, -1.5615924420675826, -1.613747788855848, -1.5815343457081747, 1.7272619069643815, 3.143126634377679], 0.5, 0.5, 0.002, 0.2, 100)

2025-07-07 16:29:53,412 - gym_custom_envs_real_ur_drivers_URBasic_realTimeClientEvent - INFO - Program send to Robot:
servoj([-0.009203884727313927, -1.5615924420675826, -1.6137477888556961, -1.5815341938440768, 1.727262362557283, 3.143126634377679], 0.5, 0.5, 0.002, 0.2, 100)

2025-07-07 16:29:53,420 - gym_custom_envs_real_ur_drivers_URBasic_realTimeClientEvent - INFO - Program send to Robot:
servoj([-0.009203884727313927, -1.5615924420675826, -1.6137477888556946, -1.5815341923254358, 1.7272623671132121, 3.143126634377679], 0.5, 0.5, 0.002, 0.2, 100)

2025-07-07 16:29:53,436 - gym_custom_envs_real_ur_drivers_URBasic_realTimeClientEvent - INFO - Program send to Robot:
servoj([-0.009203884727313927, -1.5615924420675826, -1.6122291478756876, -1.583052833290256, 1.7287810081387782, 3.143126634377679], 0.5, 0.5, 0.002, 0.2, 100)

2025-07-07 16:29:53,444 - gym_custom_envs_real_ur_drivers_URBasic_realTimeClientEvent - INFO - Program send to Robot:
servoj([-0.009203884727313927, -1.5615924420675826, -1.6122139614658875, -1.5830680196999043, 1.728796194549034, 3.143126634377679], 0.5, 0.5, 0.002, 0.2, 100)

2025-07-07 16:29:53,452 - gym_custom_envs_real_ur_drivers_URBasic_realTimeClientEvent - INFO - Program send to Robot:
servoj([-0.009203884727313927, -1.5615924420675826, -1.6122138096017895, -1.5830681715640007, 1.7287963464131366, 3.143126634377679], 0.5, 0.5, 0.002, 0.2, 100)

2025-07-07 16:29:53,460 - gym_custom_envs_real_ur_drivers_URBasic_realTimeClientEvent - INFO - Program send to Robot:
servoj([-0.009203884727313927, -1.5615924420675826, -1.6076578851431287, -1.5830681730826417, 1.7287963479317776, 3.143126634377679], 0.5, 0.5, 0.002, 0.2, 100)

2025-07-07 16:29:53,476 - gym_custom_envs_real_ur_drivers_URBasic_realTimeClientEvent - INFO - Program send to Robot:
servoj([-0.009203884727313927, -1.5615924420675826, -1.607612325898542, -1.5830681730978282, 1.728796347946964, 3.143126634377679], 0.5, 0.5, 0.002, 0.2, 100)

2025-07-07 16:29:53,485 - gym_custom_envs_real_ur_drivers_URBasic_realTimeClientEvent - INFO - Program send to Robot:
servoj([-0.009203884727313927, -1.5615924420675826, -1.6076118703060962, -1.58306817309798, 1.7287963479471158, 3.143126634377679], 0.5, 0.5, 0.002, 0.2, 100)

2025-07-07 16:29:53,493 - gym_custom_envs_real_ur_drivers_URBasic_realTimeClientEvent - INFO - Program send to Robot:
servoj([-0.009203884727313927, -1.5615924420675826, -1.6015373018301438, -1.5830681730979816, 1.7287963479471173, 3.1446452753576857], 0.5, 0.5, 0.002, 0.2, 100)

2025-07-07 16:29:53,509 - gym_custom_envs_real_ur_drivers_URBasic_realTimeClientEvent - INFO - Program send to Robot:
servoj([-0.009203884727313927, -1.5615924420675826, -1.6014765561453843, -1.5830681730979816, 1.7287963479471173, 3.1446604617674856], 0.5, 0.5, 0.002, 0.2, 100)

2025-07-07 16:29:53,516 - gym_custom_envs_real_ur_drivers_URBasic_realTimeClientEvent - INFO - Program send to Robot:
servoj([-0.009203884727313927, -1.5615924420675826, -1.6014759486885366, -1.5830681730979816, 1.7287963479471173, 3.144660613631584], 0.5, 0.5, 0.002, 0.2, 100)

2025-07-07 16:29:53,524 - gym_custom_envs_real_ur_drivers_URBasic_realTimeClientEvent - INFO - Program send to Robot:
servoj([-0.009203884727313927, -1.5615924420675826, -1.5923640967339274, -1.5830681730979816, 1.7272777069671104, 3.1446606151502245], 0.5, 0.5, 0.002, 0.2, 100)

2025-07-07 16:29:53,532 - gym_custom_envs_real_ur_drivers_URBasic_realTimeClientEvent - INFO - Program send to Robot:
servoj([-0.009203884727313927, -1.5615924420675826, -1.5922729782143814, -1.5830681730979816, 1.7272625205573102, 3.144660615165411], 0.5, 0.5, 0.002, 0.2, 100)

2025-07-07 16:29:53,549 - gym_custom_envs_real_ur_drivers_URBasic_realTimeClientEvent - INFO - Program send to Robot:
servoj([-0.009203884727313927, -1.5615924420675826, -1.592272067029186, -1.5830681730979816, 1.7272623686932123, 3.144660615165563], 0.5, 0.5, 0.002, 0.2, 100)

2025-07-07 16:29:53,556 - gym_custom_envs_real_ur_drivers_URBasic_realTimeClientEvent - INFO - Program send to Robot:
servoj([-0.009203884727313927, -1.5615924420675826, -1.581641571057287, -1.5845868140779884, 1.7257437261945652, 3.1446606151655647], 0.5, 0.5, 0.002, 0.2, 100)

2025-07-07 16:29:53,573 - gym_custom_envs_real_ur_drivers_URBasic_realTimeClientEvent - INFO - Program send to Robot:
servoj([-0.009203884727313927, -1.5615924420675826, -1.5815352660975681, -1.5846020004877883, 1.7257285397695787, 3.1446606151655647], 0.5, 0.5, 0.002, 0.2, 100)

2025-07-07 16:29:53,581 - gym_custom_envs_real_ur_drivers_URBasic_realTimeClientEvent - INFO - Program send to Robot:
servoj([-0.009203884727313927, -1.5615924420675826, -1.5815342030479709, -1.5846021523518865, 1.725728387905329, 3.1446606151655647], 0.5, 0.5, 0.002, 0.2, 100)

2025-07-07 16:29:53,596 - gym_custom_envs_real_ur_drivers_URBasic_realTimeClientEvent - INFO - Program send to Robot:
servoj([-0.009203884727313927, -1.5615924420675826, -1.5709037055574273, -1.5846021538705273, 1.7257283863866864, 3.1461792561455715], 0.5, 0.5, 0.002, 0.2, 100)

2025-07-07 16:29:53,613 - gym_custom_envs_real_ur_drivers_URBasic_realTimeClientEvent - INFO - Program send to Robot:
servoj([-0.009203884727313927, -1.5615924420675826, -1.570797400582522, -1.5846021538857138, 1.7257283863715, 3.1461944425553714], 0.5, 0.5, 0.002, 0.2, 100)

2025-07-07 16:29:53,620 - gym_custom_envs_real_ur_drivers_URBasic_realTimeClientEvent - INFO - Program send to Robot:
servoj([-0.009203884727313927, -1.5615924420675826, -1.5601658506727252, -1.5846021538858657, 1.7257283863713482, 3.1461945944194696], 0.5, 0.5, 0.002, 0.2, 100)

2025-07-07 16:29:53,629 - gym_custom_envs_real_ur_drivers_URBasic_realTimeClientEvent - INFO - Program send to Robot:
servoj([-0.009203884727313927, -1.5615924420675826, -1.5600595351736273, -1.5846021538858672, 1.7257283863713466, 3.1461945959381103], 0.5, 0.5, 0.002, 0.2, 100)

2025-07-07 16:29:53,637 - gym_custom_envs_real_ur_drivers_URBasic_realTimeClientEvent - INFO - Program send to Robot:
servoj([-0.009203884727313927, -1.5615924420675826, -1.5600584720186361, -1.5846021538858672, 1.7257283863713466, 3.146194595953297], 0.5, 0.5, 0.002, 0.2, 100)

2025-07-07 16:29:53,652 - gym_custom_envs_real_ur_drivers_URBasic_realTimeClientEvent - INFO - Program send to Robot:
servoj([-0.009203884727313927, -1.5615924420675826, -1.5494279745270394, -1.5846021538858672, 1.7242097453913396, 3.1461945959534487], 0.5, 0.5, 0.002, 0.2, 100)

2025-07-07 16:29:53,660 - gym_custom_envs_real_ur_drivers_URBasic_realTimeClientEvent - INFO - Program send to Robot:
servoj([-0.009203884727313927, -1.5615924420675826, -1.5493216695521235, -1.5846021538858672, 1.7241945589815395, 3.14619459595345], 0.5, 0.5, 0.002, 0.2, 100)

2025-07-07 16:29:53,668 - gym_custom_envs_real_ur_drivers_URBasic_realTimeClientEvent - INFO - Program send to Robot:
servoj([-0.009203884727313927, -1.5615924420675826, -1.5493206065023744, -1.5846021538858672, 1.7241944071174415, 3.14619459595345], 0.5, 0.5, 0.002, 0.2, 100)

2025-07-07 16:29:53,685 - gym_custom_envs_real_ur_drivers_URBasic_realTimeClientEvent - INFO - Program send to Robot:
servoj([-0.009203884727313927, -1.5615924420675826, -1.540208749991836, -1.5846021538858672, 1.7241944055988006, 3.14619459595345], 0.5, 0.5, 0.002, 0.2, 100)

2025-07-07 16:29:53,693 - gym_custom_envs_real_ur_drivers_URBasic_realTimeClientEvent - INFO - Program send to Robot:
servoj([-0.009203884727313927, -1.5615924420675826, -1.5401176314267306, -1.5846021538858672, 1.7241944055836143, 3.14619459595345], 0.5, 0.5, 0.002, 0.2, 100)

2025-07-07 16:29:53,700 - gym_custom_envs_real_ur_drivers_URBasic_realTimeClientEvent - INFO - Program send to Robot:
servoj([-0.009203884727313927, -1.5615924420675826, -1.5401167202410797, -1.5846021538858672, 1.7241944055834624, 3.14619459595345], 0.5, 0.5, 0.002, 0.2, 100)

2025-07-07 16:29:53,717 - gym_custom_envs_real_ur_drivers_URBasic_realTimeClientEvent - INFO - Program send to Robot:
servoj([-0.009203884727313927, -1.5615924420675826, -1.5310048652491821, -1.5846021538858672, 1.7241944055834608, 3.14619459595345], 0.5, 0.5, 0.002, 0.2, 100)

2025-07-07 16:29:53,733 - gym_custom_envs_real_ur_drivers_URBasic_realTimeClientEvent - INFO - Program send to Robot:
servoj([-0.009203884727313927, -1.5615924420675826, -1.530913746699263, -1.5846021538858672, 1.7241944055834608, 3.14619459595345], 0.5, 0.5, 0.002, 0.2, 100)

2025-07-07 16:29:53,741 - gym_custom_envs_real_ur_drivers_URBasic_realTimeClientEvent - INFO - Program send to Robot:
servoj([-0.009203884727313927, -1.5615924420675826, -1.530912835513764, -1.5846021538858672, 1.7241944055834608, 3.14619459595345], 0.5, 0.5, 0.002, 0.2, 100)

2025-07-07 16:29:53,749 - gym_custom_envs_real_ur_drivers_URBasic_realTimeClientEvent - INFO - Program send to Robot:
servoj([-0.009203884727313927, -1.5615924420675826, -1.5218009805218682, -1.5846021538858672, 1.7241944055834608, 3.14619459595345], 0.5, 0.5, 0.002, 0.2, 100)

2025-07-07 16:29:53,757 - gym_custom_envs_real_ur_drivers_URBasic_realTimeClientEvent - INFO - Program send to Robot:
servoj([-0.009203884727313927, -1.5615924420675826, -1.5217098619719491, -1.5846021538858672, 1.7241944055834608, 3.14619459595345], 0.5, 0.5, 0.002, 0.2, 100)

2025-07-07 16:29:53,773 - gym_custom_envs_real_ur_drivers_URBasic_realTimeClientEvent - INFO - Program send to Robot:
servoj([-0.009203884727313927, -1.5615924420675826, -1.52170895078645, -1.5846021538858672, 1.7241944055834608, 3.14619459595345], 0.5, 0.5, 0.002, 0.2, 100)

2025-07-07 16:29:53,780 - gym_custom_envs_real_ur_drivers_URBasic_realTimeClientEvent - INFO - Program send to Robot:
servoj([-0.009203884727313927, -1.5615924420675826, -1.5125970957945543, -1.5846021538858672, 1.7241944055834608, 3.14619459595345], 0.5, 0.5, 0.002, 0.2, 100)

2025-07-07 16:29:53,788 - gym_custom_envs_real_ur_drivers_URBasic_realTimeClientEvent - INFO - Program send to Robot:
servoj([-0.009203884727313927, -1.5615924420675826, -1.5125059772446354, -1.5846021538858672, 1.7241944055834608, 3.14619459595345], 0.5, 0.5, 0.002, 0.2, 100)

2025-07-07 16:29:53,805 - gym_custom_envs_real_ur_drivers_URBasic_realTimeClientEvent - INFO - Program send to Robot:
servoj([-0.009203884727313927, -1.5615924420675826, -1.5125050660591361, -1.5846021538858672, 1.7241944055834608, 3.14619459595345], 0.5, 0.5, 0.002, 0.2, 100)

2025-07-07 16:29:53,812 - gym_custom_envs_real_ur_drivers_URBasic_realTimeClientEvent - INFO - Program send to Robot:
servoj([-0.009203884727313927, -1.5615924420675826, -1.5049118520472473, -1.5846021538858672, 1.7241944055834608, 3.1446759549734433], 0.5, 0.5, 0.002, 0.2, 100)

2025-07-07 16:29:53,820 - gym_custom_envs_real_ur_drivers_URBasic_realTimeClientEvent - INFO - Program send to Robot:
servoj([-0.009203884727313927, -1.5615924420675826, -1.5048359199071284, -1.5846021538858672, 1.7241944055834608, 3.1446607685636434], 0.5, 0.5, 0.002, 0.2, 100)

2025-07-07 16:29:53,829 - gym_custom_envs_real_ur_drivers_URBasic_realTimeClientEvent - INFO - Program send to Robot:
servoj([-0.009203884727313927, -1.5615924420675826, -1.5048351605857273, -1.5846021538858672, 1.7241944055834608, 3.144660616699545], 0.5, 0.5, 0.002, 0.2, 100)

2025-07-07 16:29:53,845 - gym_custom_envs_real_ur_drivers_URBasic_realTimeClientEvent - INFO - Program send to Robot:
servoj([-0.009203884727313927, -1.5615924420675826, -1.4957233071124725, -1.5846021538858672, 1.7241944055834608, 3.1446606151809045], 0.5, 0.5, 0.002, 0.2, 100)

2025-07-07 16:29:53,854 - gym_custom_envs_real_ur_drivers_URBasic_realTimeClientEvent - INFO - Program send to Robot:
servoj([-0.009203884727313927, -1.5615924420675826, -1.49563218857774, -1.5846021538858672, 1.7241944055834608, 3.144660615165718], 0.5, 0.5, 0.002, 0.2, 100)

2025-07-07 16:29:53,860 - gym_custom_envs_real_ur_drivers_URBasic_realTimeClientEvent - INFO - Program send to Robot:
servoj([-0.009203884727313927, -1.5615924420675826, -1.4956312773923925, -1.5846021538858672, 1.7241944055834608, 3.144660615165566], 0.5, 0.5, 0.002, 0.2, 100)

2025-07-07 16:29:53,870 - gym_custom_envs_real_ur_drivers_URBasic_realTimeClientEvent - INFO - Program send to Robot:
servoj([-0.009203884727313927, -1.560073801087576, -1.4865194224004983, -1.5846021538858672, 1.7241944055834608, 3.1446606151655647], 0.5, 0.5, 0.002, 0.2, 100)

2025-07-07 16:29:53,885 - gym_custom_envs_real_ur_drivers_URBasic_realTimeClientEvent - INFO - Program send to Robot:
servoj([-0.009203884727313927, -1.560058614677776, -1.4864283038505794, -1.5846021538858672, 1.7241944055834608, 3.1446606151655647], 0.5, 0.5, 0.002, 0.2, 100)

2025-07-07 16:29:53,894 - gym_custom_envs_real_ur_drivers_URBasic_realTimeClientEvent - INFO - Program send to Robot:
servoj([-0.009203884727313927, -1.560058462813678, -1.4864273926650802, -1.5846021538858672, 1.7241944055834608, 3.1446606151655647], 0.5, 0.5, 0.002, 0.2, 100)

2025-07-07 16:29:53,902 - gym_custom_envs_real_ur_drivers_URBasic_realTimeClientEvent - INFO - Program send to Robot:
servoj([-0.009203884727313927, -1.5615771022750435, -1.4773155376731846, -1.5846021538858672, 1.7257130465634678, 3.1446606151655647], 0.5, 0.5, 0.002, 0.2, 100)

2025-07-07 16:29:53,909 - gym_custom_envs_real_ur_drivers_URBasic_realTimeClientEvent - INFO - Program send to Robot:
servoj([-0.009203884727313927, -1.5615922886696572, -1.4772244191232655, -1.5846021538858672, 1.7257282329732677, 3.1446606151655647], 0.5, 0.5, 0.002, 0.2, 100)

2025-07-07 16:29:53,926 - gym_custom_envs_real_ur_drivers_URBasic_realTimeClientEvent - INFO - Program send to Robot:
servoj([-0.009203884727313927, -1.5615924405336032, -1.4772235079377662, -1.5846021538858672, 1.725728384837366, 3.1446606151655647], 0.5, 0.5, 0.002, 0.2, 100)

2025-07-07 16:29:53,932 - gym_custom_envs_real_ur_drivers_URBasic_realTimeClientEvent - INFO - Program send to Robot:
servoj([-0.009203884727313927, -1.5615924420522427, -1.4772234988259114, -1.5846021538858672, 1.725728386356007, 3.1446606151655647], 0.5, 0.5, 0.002, 0.2, 100)

2025-07-07 16:29:53,942 - gym_custom_envs_real_ur_drivers_URBasic_realTimeClientEvent - INFO - Program send to Robot:
servoj([-0.009203884727313927, -1.5615924420674292, -1.468111652854752, -1.5846021538858672, 1.7257283863711932, 3.1446606151655647], 0.5, 0.5, 0.002, 0.2, 100)

2025-07-07 16:29:53,957 - gym_custom_envs_real_ur_drivers_URBasic_realTimeClientEvent - INFO - Program send to Robot:
servoj([-0.009203884727313927, -1.561592442067581, -1.4680205343950403, -1.5846021538858672, 1.725728386371345, 3.1446606151655647], 0.5, 0.5, 0.002, 0.2, 100)

2025-07-07 16:29:53,966 - gym_custom_envs_real_ur_drivers_URBasic_realTimeClientEvent - INFO - Program send to Robot:
servoj([-0.009203884727313927, -1.5615924420675824, -1.4573891363503955, -1.5846021538858672, 1.7257283863713466, 3.143141974185558], 0.5, 0.5, 0.002, 0.2, 100)

2025-07-07 16:29:53,975 - gym_custom_envs_real_ur_drivers_URBasic_realTimeClientEvent - INFO - Program send to Robot:
servoj([-0.009203884727313927, -1.5615924420675826, -1.4572828223699492, -1.5846021538858672, 1.7257283863713466, 3.1431267877757576], 0.5, 0.5, 0.002, 0.2, 100)

2025-07-07 16:29:53,980 - gym_custom_envs_real_ur_drivers_URBasic_realTimeClientEvent - INFO - Program send to Robot:
servoj([-0.009203884727313927, -1.5615924420675826, -1.4572817592301446, -1.5846021538858672, 1.7257283863713466, 3.14312663591166], 0.5, 0.5, 0.002, 0.2, 100)

2025-07-07 16:29:53,999 - gym_custom_envs_real_ur_drivers_URBasic_realTimeClientEvent - INFO - Program send to Robot:
servoj([-0.009203884727313927, -1.5615924420675826, -1.4481699027187067, -1.5846021538858672, 1.7257283863713466, 3.141607993413012], 0.5, 0.5, 0.002, 0.2, 100)

2025-07-07 16:29:54,004 - gym_custom_envs_real_ur_drivers_URBasic_realTimeClientEvent - INFO - Program send to Robot:
servoj([-0.009203884727313927, -1.5615924420675826, -1.4480787841535923, -1.5846021538858672, 1.7257283863713466, 3.1415928069880255], 0.5, 0.5, 0.002, 0.2, 100)

2025-07-07 16:29:54,015 - gym_custom_envs_real_ur_drivers_URBasic_realTimeClientEvent - INFO - Program send to Robot:
servoj([-0.009203884727313927, -1.5615924420675826, -1.448077872967941, -1.5846021538858672, 1.7257283863713466, 3.141592655123776], 0.5, 0.5, 0.002, 0.2, 100)

2025-07-07 16:29:54,028 - gym_custom_envs_real_ur_drivers_URBasic_realTimeClientEvent - INFO - Program send to Robot:
servoj([-0.009203884727313927, -1.5615924420675826, -1.4480778638560847, -1.5846021538858672, 1.7257283863713466, 3.1415926536051333], 0.5, 0.5, 0.002, 0.2, 100)

2025-07-07 16:29:54,039 - gym_custom_envs_real_ur_drivers_URBasic_realTimeClientEvent - INFO - Program send to Robot:
servoj([-0.009203884727313927, -1.5615924420675826, -1.4389660178849253, -1.5846021538858672, 1.7257283863713466, 3.1415926535899468], 0.5, 0.5, 0.002, 0.2, 100)

2025-07-07 16:29:54,044 - gym_custom_envs_real_ur_drivers_URBasic_realTimeClientEvent - INFO - Program send to Robot:
servoj([-0.009203884727313927, -1.5615924420675826, -1.4388748994252138, -1.5846021538858672, 1.7257283863713466, 3.141592653589795], 0.5, 0.5, 0.002, 0.2, 100)

2025-07-07 16:29:54,053 - gym_custom_envs_real_ur_drivers_URBasic_realTimeClientEvent - INFO - Program send to Robot:
servoj([-0.009203884727313927, -1.5615924420675826, -1.4388739882406167, -1.5846021538858672, 1.7257283863713466, 3.141592653589793], 0.5, 0.5, 0.002, 0.2, 100)

2025-07-07 16:29:54,071 - gym_custom_envs_real_ur_drivers_URBasic_realTimeClientEvent - INFO - Program send to Robot:
servoj([-0.009203884727313927, -1.560073801087576, -1.4312807742287366, -1.5846021538858672, 1.7257283863713466, 3.141592653589793], 0.5, 0.5, 0.002, 0.2, 100)

2025-07-07 16:29:54,076 - gym_custom_envs_real_ur_drivers_URBasic_realTimeClientEvent - INFO - Program send to Robot:
servoj([-0.009203884727313927, -1.560058614677776, -1.4312048420886179, -1.5846021538858672, 1.7257283863713466, 3.141592653589793], 0.5, 0.5, 0.002, 0.2, 100)

2025-07-07 16:29:54,087 - gym_custom_envs_real_ur_drivers_URBasic_realTimeClientEvent - INFO - Program send to Robot:
servoj([-0.009203884727313927, -1.560058462813678, -1.4312040827672168, -1.5846021538858672, 1.7257283863713466, 3.141592653589793], 0.5, 0.5, 0.002, 0.2, 100)

2025-07-07 16:29:54,101 - gym_custom_envs_real_ur_drivers_URBasic_realTimeClientEvent - INFO - Program send to Robot:
servoj([-0.009203884727313927, -1.560058461295037, -1.426648152233982, -1.5846021538858672, 1.7272470273513527, 3.141592653589793], 0.5, 0.5, 0.002, 0.2, 100)

2025-07-07 16:29:54,112 - gym_custom_envs_real_ur_drivers_URBasic_realTimeClientEvent - INFO - Program send to Robot:
servoj([-0.009203884727313927, -1.5600584612798505, -1.4266025929286497, -1.5846021538858672, 1.7272622137611529, 3.141592653589793], 0.5, 0.5, 0.002, 0.2, 100)

2025-07-07 16:29:54,116 - gym_custom_envs_real_ur_drivers_URBasic_realTimeClientEvent - INFO - Program send to Robot:
servoj([-0.009203884727313927, -1.5600584612796986, -1.4266021373355964, -1.5846021538858672, 1.7272623656252508, 3.141592653589793], 0.5, 0.5, 0.002, 0.2, 100)

2025-07-07 16:29:54,135 - gym_custom_envs_real_ur_drivers_URBasic_realTimeClientEvent - INFO - Program send to Robot:
servoj([-0.009203884727313927, -1.5615771022597036, -1.4220462098396458, -1.5846021538858672, 1.7272623671438918, 3.141592653589793], 0.5, 0.5, 0.002, 0.2, 100)

2025-07-07 16:29:54,140 - gym_custom_envs_real_ur_drivers_URBasic_realTimeClientEvent - INFO - Program send to Robot:
servoj([-0.009203884727313927, -1.5615922886695037, -1.4220006505646863, -1.5846021538858672, 1.727262367159078, 3.141592653589793], 0.5, 0.5, 0.002, 0.2, 100)

2025-07-07 16:29:54,148 - gym_custom_envs_real_ur_drivers_URBasic_realTimeClientEvent - INFO - Program send to Robot:
servoj([-0.009203884727313927, -1.5615924405336017, -1.4220001949719365, -1.5846021538858672, 1.72726236715923, 3.141592653589793], 0.5, 0.5, 0.002, 0.2, 100)

2025-07-07 16:29:54,167 - gym_custom_envs_real_ur_drivers_URBasic_realTimeClientEvent - INFO - Program send to Robot:
servoj([-0.009203884727313927, -1.5615924420522427, -1.4204815494360024, -1.5846021538858672, 1.7272623671592315, 3.141592653589793], 0.5, 0.5, 0.002, 0.2, 100)

2025-07-07 16:29:54,172 - gym_custom_envs_real_ur_drivers_URBasic_realTimeClientEvent - INFO - Program send to Robot:
servoj([-0.009203884727313927, -1.5615924420674292, -1.420466362980643, -1.5846021538858672, 1.7272623671592315, 3.141592653589793], 0.5, 0.5, 0.002, 0.2, 100)

2025-07-07 16:29:54,183 - gym_custom_envs_real_ur_drivers_URBasic_realTimeClientEvent - INFO - Program send to Robot:
servoj([-0.009203884727313927, -1.561592442067581, -1.4204662111160895, -1.5846021538858672, 1.7272623671592315, 3.141592653589793], 0.5, 0.5, 0.002, 0.2, 100)

2025-07-07 16:29:54,197 - gym_custom_envs_real_ur_drivers_URBasic_realTimeClientEvent - INFO - Program send to Robot:
servoj([-0.009203884727313927, -1.5615924420675824, -1.4189475686174369, -1.5846021538858672, 1.7272623671592315, 3.141592653589793], 0.5, 0.5, 0.002, 0.2, 100)

2025-07-07 16:29:54,208 - gym_custom_envs_real_ur_drivers_URBasic_realTimeClientEvent - INFO - Program send to Robot:
servoj([-0.009203884727313927, -1.5615924420675826, -1.4189323821924504, -1.5846021538858672, 1.7272623671592315, 3.141592653589793], 0.5, 0.5, 0.002, 0.2, 100)

2025-07-07 16:29:54,213 - gym_custom_envs_real_ur_drivers_URBasic_realTimeClientEvent - INFO - Program send to Robot:
servoj([-0.009203884727313927, -1.5615924420675826, -1.4189322303282006, -1.5846021538858672, 1.7272623671592315, 3.141592653589793], 0.5, 0.5, 0.002, 0.2, 100)

2025-07-07 16:29:54,233 - gym_custom_envs_real_ur_drivers_URBasic_realTimeClientEvent - INFO - Program send to Robot:
servoj([-0.009203884727313927, -1.5615924420675826, -1.417413587829551, -1.5846021538858672, 1.7272623671592315, 3.141592653589793], 0.5, 0.5, 0.002, 0.2, 100)

2025-07-07 16:29:54,236 - gym_custom_envs_real_ur_drivers_URBasic_realTimeClientEvent - INFO - Program send to Robot:
servoj([-0.009203884727313927, -1.5615924420675826, -1.4173984014045646, -1.5846021538858672, 1.7272623671592315, 3.141592653589793], 0.5, 0.5, 0.002, 0.2, 100)

2025-07-07 16:29:54,256 - gym_custom_envs_real_ur_drivers_URBasic_realTimeClientEvent - INFO - Program send to Robot:
servoj([-0.009203884727313927, -1.560073801087576, -1.4173982495403146, -1.5846021538858672, 1.7257437261792254, 3.140074012609786], 0.5, 0.5, 0.002, 0.2, 100)

2025-07-07 16:29:54,260 - gym_custom_envs_real_ur_drivers_URBasic_realTimeClientEvent - INFO - Program send to Robot:
servoj([-0.009203884727313927, -1.560058614677776, -1.4173982480216722, -1.5846021538858672, 1.7257285397694253, 3.140058826199986], 0.5, 0.5, 0.002, 0.2, 100)

2025-07-07 16:29:54,280 - gym_custom_envs_real_ur_drivers_URBasic_realTimeClientEvent - INFO - Program send to Robot:
servoj([-0.009203884727313927, -1.560058462813678, -1.4173982480064857, -1.5846021538858672, 1.7257283879053273, 3.1400586743358883], 0.5, 0.5, 0.002, 0.2, 100)

2025-07-07 16:29:54,284 - gym_custom_envs_real_ur_drivers_URBasic_realTimeClientEvent - INFO - Program send to Robot:
servoj([-0.009203884727313927, -1.560058461295037, -1.4173982480063338, -1.5846021538858672, 1.7257283863866864, 3.140058672817247], 0.5, 0.5, 0.002, 0.2, 100)

2025-07-07 16:29:54,304 - gym_custom_envs_real_ur_drivers_URBasic_realTimeClientEvent - INFO - Program send to Robot:
servoj([-0.009203884727313927, -1.5600584612798505, -1.4158796070263253, -1.5830835129058605, 1.7257283863715, 3.1400586728020605], 0.5, 0.5, 0.002, 0.2, 100)

2025-07-07 16:29:54,308 - gym_custom_envs_real_ur_drivers_URBasic_realTimeClientEvent - INFO - Program send to Robot:
servoj([-0.009203884727313927, -1.5600584612796986, -1.4158644206165252, -1.5830683264960603, 1.7257283863713482, 3.1400586728019086], 0.5, 0.5, 0.002, 0.2, 100)

2025-07-07 16:29:54,329 - gym_custom_envs_real_ur_drivers_URBasic_realTimeClientEvent - INFO - Program send to Robot:
servoj([-0.009203884727313927, -1.560058461279697, -1.4113083458124072, -1.5830681746319624, 1.7257283863713466, 3.1415773137819145], 0.5, 0.5, 0.002, 0.2, 100)

2025-07-07 16:29:54,332 - gym_custom_envs_real_ur_drivers_URBasic_realTimeClientEvent - INFO - Program send to Robot:
servoj([-0.009203884727313927, -1.560058461279697, -1.411262785064366, -1.5830681731133214, 1.7257283863713466, 3.1415925001917144], 0.5, 0.5, 0.002, 0.2, 100)

2025-07-07 16:29:54,354 - gym_custom_envs_real_ur_drivers_URBasic_realTimeClientEvent - INFO - Program send to Robot:
servoj([-0.009203884727313927, -1.560058461279697, -1.4067064065168648, -1.5845868140781418, 1.7257283863713466, 3.1415926520558126], 0.5, 0.5, 0.002, 0.2, 100)

2025-07-07 16:29:54,364 - gym_custom_envs_real_ur_drivers_URBasic_realTimeClientEvent - INFO - Program send to Robot:
servoj([-0.009203884727313927, -1.560058461279697, -1.4066608427313898, -1.5846020004877899, 1.7257283863713466, 3.1415926535744534], 0.5, 0.5, 0.002, 0.2, 100)

2025-07-07 16:29:54,377 - gym_custom_envs_real_ur_drivers_URBasic_realTimeClientEvent - INFO - Program send to Robot:
servoj([-0.009203884727313927, -1.560058461279697, -1.4066603870935352, -1.5846021523518865, 1.7257283863713466, 3.14159265358964], 0.5, 0.5, 0.002, 0.2, 100)

2025-07-07 16:29:54,380 - gym_custom_envs_real_ur_drivers_URBasic_realTimeClientEvent - INFO - Program send to Robot:
servoj([-0.009203884727313927, -1.560058461279697, -1.4066603825371566, -1.5846021538705273, 1.7257283863713466, 3.141592653589792], 0.5, 0.5, 0.002, 0.2, 100)

2025-07-07 16:29:54,401 - gym_custom_envs_real_ur_drivers_URBasic_realTimeClientEvent - INFO - Program send to Robot:
servoj([-0.009203884727313927, -1.5585398202996903, -1.4051417415115868, -1.5846021538857138, 1.7257283863713466, 3.141592653589793], 0.5, 0.5, 0.002, 0.2, 100)

2025-07-07 16:29:54,405 - gym_custom_envs_real_ur_drivers_URBasic_realTimeClientEvent - INFO - Program send to Robot:
servoj([-0.009203884727313927, -1.5585246338898904, -1.405126555101331, -1.5846021538858657, 1.7257283863713466, 3.141592653589793], 0.5, 0.5, 0.002, 0.2, 100)

2025-07-07 16:29:54,425 - gym_custom_envs_real_ur_drivers_URBasic_realTimeClientEvent - INFO - Program send to Robot:
servoj([-0.009203884727313927, -1.5585244820257924, -1.4036077622572214, -1.5846021538858672, 1.7257283863713466, 3.1431112945698], 0.5, 0.5, 0.002, 0.2, 100)

2025-07-07 16:29:54,429 - gym_custom_envs_real_ur_drivers_URBasic_realTimeClientEvent - INFO - Program send to Robot:
servoj([-0.009203884727313927, -1.5585244805071514, -1.4035925743287805, -1.5846021538858672, 1.7257283863713466, 3.1431264809796002], 0.5, 0.5, 0.002, 0.2, 100)

2025-07-07 16:29:54,444 - gym_custom_envs_real_ur_drivers_URBasic_realTimeClientEvent - INFO - Program send to Robot:
servoj([-0.009203884727313927, -1.558524480491965, -1.403592422449496, -1.5846021538858672, 1.7257283863713466, 3.143126632843698], 0.5, 0.5, 0.002, 0.2, 100)

2025-07-07 16:29:54,452 - gym_custom_envs_real_ur_drivers_URBasic_realTimeClientEvent - INFO - Program send to Robot:
servoj([-0.009203884727313927, -1.558524480491813, -1.4051110619107101, -1.5846021538858672, 1.7242097453913396, 3.1416079933823324], 0.5, 0.5, 0.002, 0.2, 100)

2025-07-07 16:29:54,469 - gym_custom_envs_real_ur_drivers_URBasic_realTimeClientEvent - INFO - Program send to Robot:
servoj([-0.009203884727313927, -1.5585244804918115, -1.4051262483053222, -1.5846021538858672, 1.7241945589815395, 3.1415928069877186], 0.5, 0.5, 0.002, 0.2, 100)

2025-07-07 16:29:54,476 - gym_custom_envs_real_ur_drivers_URBasic_realTimeClientEvent - INFO - Program send to Robot:
servoj([-0.009203884727313927, -1.5585244804918115, -1.4051264001692685, -1.5846021538858672, 1.7241944071174415, 3.1415926551237727], 0.5, 0.5, 0.002, 0.2, 100)

2025-07-07 16:29:54,492 - gym_custom_envs_real_ur_drivers_URBasic_realTimeClientEvent - INFO - Program send to Robot:
servoj([-0.009203884727313927, -1.5585244804918115, -1.408163683647921, -1.5830835129058605, 1.7241944055988006, 3.1415926536051333], 0.5, 0.5, 0.002, 0.2, 100)

2025-07-07 16:29:54,501 - gym_custom_envs_real_ur_drivers_URBasic_realTimeClientEvent - INFO - Program send to Robot:
servoj([-0.009203884727313927, -1.5585244804918115, -1.4081940564827073, -1.5830683264960603, 1.7241944055836143, 3.1415926535899468], 0.5, 0.5, 0.002, 0.2, 100)

2025-07-07 16:29:54,508 - gym_custom_envs_real_ur_drivers_URBasic_realTimeClientEvent - INFO - Program send to Robot:
servoj([-0.009203884727313927, -1.5585244804918115, -1.4081943602110554, -1.5830681746319624, 1.7241944055834624, 3.141592653589795], 0.5, 0.5, 0.002, 0.2, 100)

2025-07-07 16:29:54,525 - gym_custom_envs_real_ur_drivers_URBasic_realTimeClientEvent - INFO - Program send to Robot:
servoj([-0.009203884727313927, -1.5570058395118047, -1.4127502861883594, -1.5830681731133214, 1.7257130465634678, 3.141592653589793], 0.5, 0.5, 0.002, 0.2, 100)

2025-07-07 16:29:54,532 - gym_custom_envs_real_ur_drivers_URBasic_realTimeClientEvent - INFO - Program send to Robot:
servoj([-0.009203884727313927, -1.5569906531020048, -1.4127958454481326, -1.583068173098135, 1.7257282329732677, 3.141592653589793], 0.5, 0.5, 0.002, 0.2, 100)

2025-07-07 16:29:54,544 - gym_custom_envs_real_ur_drivers_URBasic_realTimeClientEvent - INFO - Program send to Robot:
servoj([-0.009203884727313927, -1.5585091422179134, -1.4188708649607573, -1.5830681730979832, 1.725728384837366, 3.141592653589793], 0.5, 0.5, 0.002, 0.2, 100)

2025-07-07 16:29:54,556 - gym_custom_envs_real_ur_drivers_URBasic_realTimeClientEvent - INFO - Program send to Robot:
servoj([-0.009203884727313927, -1.5585243271090725, -1.4189316151558835, -1.5830681730979816, 1.725728386356007, 3.141592653589793], 0.5, 0.5, 0.002, 0.2, 100)

2025-07-07 16:29:54,568 - gym_custom_envs_real_ur_drivers_URBasic_realTimeClientEvent - INFO - Program send to Robot:
servoj([-0.009203884727313927, -1.5585244789579842, -1.418932222657835, -1.5830681730979816, 1.7257283863711932, 3.141592653589793], 0.5, 0.5, 0.002, 0.2, 100)

2025-07-07 16:29:54,572 - gym_custom_envs_real_ur_drivers_URBasic_realTimeClientEvent - INFO - Program send to Robot:
servoj([-0.009203884727313927, -1.5585244804764733, -1.4189322287328543, -1.5830681730979816, 1.725728386371345, 3.141592653589793], 0.5, 0.5, 0.002, 0.2, 100)

2025-07-07 16:29:54,593 - gym_custom_envs_real_ur_drivers_URBasic_realTimeClientEvent - INFO - Program send to Robot:
servoj([-0.009203884727313927, -1.558524480491658, -1.4280440746736454, -1.5815495321179749, 1.7257283863713466, 3.141592653589793], 0.5, 0.5, 0.002, 0.2, 100)

2025-07-07 16:29:54,595 - gym_custom_envs_real_ur_drivers_URBasic_realTimeClientEvent - INFO - Program send to Robot:
servoj([-0.009203884727313927, -1.55852448049181, -1.4281351931330533, -1.5815343457081747, 1.7257283863713466, 3.141592653589793], 0.5, 0.5, 0.002, 0.2, 100)

2025-07-07 16:29:54,616 - gym_custom_envs_real_ur_drivers_URBasic_realTimeClientEvent - INFO - Program send to Robot:
servoj([-0.009203884727313927, -1.5585244804918115, -1.434210668237674, -1.5815341938440768, 1.7257283863713466, 3.141592653589793], 0.5, 0.5, 0.002, 0.2, 100)

2025-07-07 16:29:54,620 - gym_custom_envs_real_ur_drivers_URBasic_realTimeClientEvent - INFO - Program send to Robot:
servoj([-0.009203884727313927, -1.5585244804918115, -1.4342714229887203, -1.5815341923254358, 1.7257283863713466, 3.141592653589793], 0.5, 0.5, 0.002, 0.2, 100)

2025-07-07 16:29:54,639 - gym_custom_envs_real_ur_drivers_URBasic_realTimeClientEvent - INFO - Program send to Robot:
servoj([-0.009203884727313927, -1.5600431214718182, -1.4433838764162716, -1.5815341923102493, 1.7257283863713466, 3.1431112945698], 0.5, 0.5, 0.002, 0.2, 100)

2025-07-07 16:29:54,643 - gym_custom_envs_real_ur_drivers_URBasic_realTimeClientEvent - INFO - Program send to Robot:
servoj([-0.009203884727313927, -1.5600583078816184, -1.443475000950547, -1.5815341923100974, 1.7257283863713466, 3.1431264809796002], 0.5, 0.5, 0.002, 0.2, 100)

2025-07-07 16:29:54,651 - gym_custom_envs_real_ur_drivers_URBasic_realTimeClientEvent - INFO - Program send to Robot:
servoj([-0.009203884727313927, -1.5600584597457163, -1.4434759121958898, -1.581534192310096, 1.7257283863713466, 3.143126632843698], 0.5, 0.5, 0.002, 0.2, 100)

2025-07-07 16:29:54,673 - gym_custom_envs_real_ur_drivers_URBasic_realTimeClientEvent - INFO - Program send to Robot:
servoj([-0.007685243747306982, -1.5630957432243708, -1.452587767188384, -1.581534192310096, 1.7242097453913396, 3.143126634362339], 0.5, 0.5, 0.002, 0.2, 100)

2025-07-07 16:29:54,676 - gym_custom_envs_real_ur_drivers_URBasic_realTimeClientEvent - INFO - Program send to Robot:
servoj([-0.007670057337506912, -1.5631261160591574, -1.452678885738309, -1.581534192310096, 1.7241945589815395, 3.1431266343775257], 0.5, 0.5, 0.002, 0.2, 100)

2025-07-07 16:29:54,692 - gym_custom_envs_real_ur_drivers_URBasic_realTimeClientEvent - INFO - Program send to Robot:
servoj([-0.007669905473408912, -1.5631264197875052, -1.452679796923808, -1.581534192310096, 1.7241944071174415, 3.1431266343776776], 0.5, 0.5, 0.002, 0.2, 100)

2025-07-07 16:29:54,700 - gym_custom_envs_real_ur_drivers_URBasic_realTimeClientEvent - INFO - Program send to Robot:
servoj([-0.007669903954767932, -1.5631264228247888, -1.4526798060356632, -1.581534192310096, 1.7241944055988006, 3.143126634377679], 0.5, 0.5, 0.002, 0.2, 100)

2025-07-07 16:29:54,713 - gym_custom_envs_real_ur_drivers_URBasic_realTimeClientEvent - INFO - Program send to Robot:
servoj([-0.0076699039395815224, -1.5646450638351683, -1.4633102929868296, -1.581534192310096, 1.7241944055836143, 3.143126634377679], 0.5, 0.5, 0.002, 0.2, 100)

2025-07-07 16:29:54,724 - gym_custom_envs_real_ur_drivers_URBasic_realTimeClientEvent - INFO - Program send to Robot:
servoj([-0.007669903939429658, -1.5646602502452722, -1.4634165978563412, -1.581534192310096, 1.7241944055834624, 3.143126634377679], 0.5, 0.5, 0.002, 0.2, 100)

2025-07-07 16:29:54,736 - gym_custom_envs_real_ur_drivers_URBasic_realTimeClientEvent - INFO - Program send to Robot:
servoj([-0.007669903939428139, -1.5676976840693866, -1.472529506785077, -1.5800155513300895, 1.7257130465634678, 3.143126634377679], 0.5, 0.5, 0.002, 0.2, 100)

2025-07-07 16:29:54,740 - gym_custom_envs_real_ur_drivers_URBasic_realTimeClientEvent - INFO - Program send to Robot:
servoj([-0.007669903939428124, -1.5677280584076279, -1.4726206358743643, -1.5800003649202894, 1.7257282329732677, 3.143126634377679], 0.5, 0.5, 0.002, 0.2, 100)

2025-07-07 16:29:54,759 - gym_custom_envs_real_ur_drivers_URBasic_realTimeClientEvent - INFO - Program send to Robot:
servoj([-0.007669903939428124, -1.5677283621510103, -1.4726215471652573, -1.5800002130561914, 1.725728384837366, 3.143126634377679], 0.5, 0.5, 0.002, 0.2, 100)

2025-07-07 16:29:54,763 - gym_custom_envs_real_ur_drivers_URBasic_realTimeClientEvent - INFO - Program send to Robot:
servoj([-0.007669903939428124, -1.5677283651884442, -1.4726215562781662, -1.5800002115375504, 1.725728386356007, 3.143126634377679], 0.5, 0.5, 0.002, 0.2, 100)

2025-07-07 16:29:54,771 - gym_custom_envs_real_ur_drivers_URBasic_realTimeClientEvent - INFO - Program send to Robot:
servoj([-0.007669903939428124, -1.570765647178832, -1.484770684209349, -1.578481570542357, 1.7257283863711932, 3.143126634377679], 0.5, 0.5, 0.002, 0.2, 100)

2025-07-07 16:29:54,792 - gym_custom_envs_real_ur_drivers_URBasic_realTimeClientEvent - INFO - Program send to Robot:
servoj([-0.007669903939428124, -1.570796019998736, -1.484892175488661, -1.5784663841324051, 1.725728386371345, 3.143126634377679], 0.5, 0.5, 0.002, 0.2, 100)

2025-07-07 16:29:54,795 - gym_custom_envs_real_ur_drivers_URBasic_realTimeClientEvent - INFO - Program send to Robot:
servoj([-0.007669903939428124, -1.5707963237269351, -1.484893390401454, -1.5784662322683056, 1.7257283863713466, 3.143126634377679], 0.5, 0.5, 0.002, 0.2, 100)

2025-07-07 16:29:54,812 - gym_custom_envs_real_ur_drivers_URBasic_realTimeClientEvent - INFO - Program send to Robot:
servoj([-0.007669903939428124, -1.5723149677442236, -1.4970425303906367, -1.5739103078096444, 1.7257283863713466, 3.143126634377679], 0.5, 0.5, 0.002, 0.2, 100)

2025-07-07 16:29:54,821 - gym_custom_envs_real_ur_drivers_URBasic_realTimeClientEvent - INFO - Program send to Robot:
servoj([-0.007669903939428124, -1.5723301541843964, -1.4971640217905287, -1.5738647485650576, 1.7257283863713466, 3.143126634377679], 0.5, 0.5, 0.002, 0.2, 100)

2025-07-07 16:29:54,833 - gym_custom_envs_real_ur_drivers_URBasic_realTimeClientEvent - INFO - Program send to Robot:
servoj([-0.007669903939428124, -1.573848947028805, -1.5093143645445812, -1.564752447092571, 1.7272470273513527, 3.143126634377679], 0.5, 0.5, 0.002, 0.2, 100)

2025-07-07 16:29:54,844 - gym_custom_envs_real_ur_drivers_URBasic_realTimeClientEvent - INFO - Program send to Robot:
servoj([-0.007669903939428124, -1.5738641349572493, -1.5094358679721218, -1.5646613240778462, 1.7272622137611529, 3.143126634377679], 0.5, 0.5, 0.002, 0.2, 100)

2025-07-07 16:29:54,858 - gym_custom_envs_real_ur_drivers_URBasic_realTimeClientEvent - INFO - Program send to Robot:
servoj([-0.007669903939428124, -1.5738642868365338, -1.5094370830063972, -1.5646604128476989, 1.7272623656252508, 3.143126634377679], 0.5, 0.5, 0.002, 0.2, 100)

2025-07-07 16:29:54,868 - gym_custom_envs_real_ur_drivers_URBasic_realTimeClientEvent - INFO - Program send to Robot:
servoj([-0.007669903939428124, -1.5753829293353334, -1.5200675820167877, -1.5555485578553567, 1.7272623671438918, 3.1446452753576857], 0.5, 0.5, 0.002, 0.2, 100)

2025-07-07 16:29:54,882 - gym_custom_envs_real_ur_drivers_URBasic_realTimeClientEvent - INFO - Program send to Robot:
servoj([-0.007669903939428124, -1.5753981157603214, -1.5201738870068917, -1.5554574393054332, 1.727262367159078, 3.1446604617674856], 0.5, 0.5, 0.002, 0.2, 100)

2025-07-07 16:29:54,892 - gym_custom_envs_real_ur_drivers_URBasic_realTimeClientEvent - INFO - Program send to Robot:
servoj([-0.007669903939428124, -1.5753982676245712, -1.5201749500567927, -1.555456528119934, 1.72726236715923, 3.144660613631584], 0.5, 0.5, 0.002, 0.2, 100)

2025-07-07 16:29:54,906 - gym_custom_envs_real_ur_drivers_URBasic_realTimeClientEvent - INFO - Program send to Robot:
servoj([-0.007669903939428124, -1.5753982691432138, -1.5292868065673324, -1.5478633141080451, 1.7272623671592315, 3.1446606151502245], 0.5, 0.5, 0.002, 0.2, 100)

2025-07-07 16:29:54,916 - gym_custom_envs_real_ur_drivers_URBasic_realTimeClientEvent - INFO - Program send to Robot:
servoj([-0.007669903939428124, -1.5753982691584, -1.529377925132438, -1.5477873819679264, 1.7272623671592315, 3.144660615165411], 0.5, 0.5, 0.002, 0.2, 100)

2025-07-07 16:29:54,924 - gym_custom_envs_real_ur_drivers_URBasic_realTimeClientEvent - INFO - Program send to Robot:
servoj([-0.007669903939428124, -1.575398269158552, -1.529378836318089, -1.5477866226465251, 1.7272623671592315, 3.144660615165563], 0.5, 0.5, 0.002, 0.2, 100)

2025-07-07 16:29:54,932 - gym_custom_envs_real_ur_drivers_URBasic_realTimeClientEvent - INFO - Program send to Robot:
servoj([-0.007669903939428124, -1.5753982691585535, -1.5369720503299793, -1.5462679740733043, 1.7272623671592315, 3.1446606151655647], 0.5, 0.5, 0.002, 0.2, 100)

2025-07-07 16:29:54,948 - gym_custom_envs_real_ur_drivers_URBasic_realTimeClientEvent - INFO - Program send to Robot:
servoj([-0.007669903939428124, -1.5753982691585535, -1.5370479824700982, -1.5462527875875722, 1.7272623671592315, 3.1446606151655647], 0.5, 0.5, 0.002, 0.2, 100)

2025-07-07 16:29:54,957 - gym_custom_envs_real_ur_drivers_URBasic_realTimeClientEvent - INFO - Program send to Robot:
servoj([-0.007669903939428124, -1.5753982691585535, -1.5370487417914993, -1.5462526357227149, 1.7272623671592315, 3.1446606151655647], 0.5, 0.5, 0.002, 0.2, 100)

2025-07-07 16:29:54,964 - gym_custom_envs_real_ur_drivers_URBasic_realTimeClientEvent - INFO - Program send to Robot:
servoj([-0.00615126295942162, -1.5753982691585535, -1.5416046723247332, -1.5462526342040663, 1.7257437261792254, 3.141623333205551], 0.5, 0.5, 0.002, 0.2, 100)

2025-07-07 16:29:54,972 - gym_custom_envs_real_ur_drivers_URBasic_realTimeClientEvent - INFO - Program send to Robot:
servoj([-0.006136076549621554, -1.5753982691585535, -1.5416502316300655, -1.5462526341888798, 1.7257285397694253, 3.141592960385951], 0.5, 0.5, 0.002, 0.2, 100)

2025-07-07 16:29:54,988 - gym_custom_envs_real_ur_drivers_URBasic_realTimeClientEvent - INFO - Program send to Robot:
servoj([-0.006135924685523554, -1.5753982691585535, -1.5416506872231188, -1.546252634188728, 1.7257283879053273, 3.141592656657755], 0.5, 0.5, 0.002, 0.2, 100)

2025-07-07 16:29:54,996 - gym_custom_envs_real_ur_drivers_URBasic_realTimeClientEvent - INFO - Program send to Robot:
servoj([-0.004617282186875629, -1.5753982691585535, -1.5416506917790493, -1.5477712751687331, 1.7302843093267064, 3.138555371660459], 0.5, 0.5, 0.002, 0.2, 100)

2025-07-07 16:29:55,004 - gym_custom_envs_real_ur_drivers_URBasic_realTimeClientEvent - INFO - Program send to Robot:
