2025-07-07 16:38:13,286 - gym_custom_envs_real_ur_drivers_URBasic_robotModelEvent - INFO - Init done
2025-07-07 16:38:13,787 - gym_custom_envs_real_ur_drivers_URBasic_realTimeClientEvent - INFO - Connected
2025-07-07 16:38:13,787 - gym_custom_envs_real_ur_drivers_URBasic_realTimeClientEvent - INFO - RT_CLient constructor done
2025-07-07 16:38:13,788 - gym_custom_envs_real_ur_drivers_URBasic_dataLogEvent - INFO - Data logging (not event logging) is disabled
2025-07-07 16:38:13,788 - gym_custom_envs_real_ur_drivers_URBasic_dataLogEvent - INFO - DataLog is stopped
2025-07-07 16:38:13,789 - gym_custom_envs_real_ur_drivers_URBasic_dataLogEvent - INFO - DataLog constructor done
2025-07-07 16:38:13,790 - gym_custom_envs_real_ur_drivers_URBasic_rtdeEvent - INFO - RTDE constructor done
2025-07-07 16:38:14,211 - gym_custom_envs_real_ur_drivers_URBasic_rtdeEvent - INFO - Controller version: 3.3.1-60
2025-07-07 16:38:14,215 - gym_custom_envs_real_ur_drivers_URBasic_rtdeEvent - INFO - RTDE started
2025-07-07 16:38:14,292 - gym_custom_envs_real_ur_drivers_URBasic_dashboardEvent - INFO - Connected
2025-07-07 16:38:14,292 - gym_custom_envs_real_ur_drivers_URBasic_dashboardEvent - INFO - UR Dashboard respond Connected: Universal Robots Dashboard Server
2025-07-07 16:38:14,293 - gym_custom_envs_real_ur_drivers_URBasic_dashboardEvent - INFO - Dashboard server constructor done
2025-07-07 16:38:14,293 - gym_custom_envs_real_ur_drivers_URBasic_robotConnectorEvent - INFO - Init done
2025-07-07 16:38:14,293 - gym_custom_envs_real_ur_drivers_URBasic_urScriptEvent - INFO - Init done!!!
2025-07-07 16:38:14,302 - gym_custom_envs_real_ur_drivers_URBasic_urScriptExtEvent - INFO - Init done
2025-07-07 16:38:15,866 - gym_custom_envs_real_ur_interfaceEvent - INFO - [] init done
2025-07-07 16:38:15,866 - gym_custom_envs_real_ur_drivers_URBasic_realTimeClientEvent - INFO - Program send to Robot:
end_freedrive_mode()

2025-07-07 16:38:19,271 - gym_custom_envs_real_ur_drivers_URBasic_realTimeClientEvent - INFO - Program send to Robot:
servoj([-0.0061029555795568576, -1.5830953352539945, -1.5397144476519984, -1.5718340275091909, 1.5474954058787158, 3.086855844893917], 0.5, 0.5, 0.002, 0.2, 100)

2025-07-07 16:38:19,288 - gym_custom_envs_real_ur_drivers_URBasic_realTimeClientEvent - INFO - Program send to Robot:
servoj([-0.006039405023844466, -1.5831585563015493, -1.5397025267230433, -1.5719115869039022, 1.5472786052429341, 3.0870881069213865], 0.5, 0.5, 0.002, 0.2, 100)

2025-07-07 16:38:19,304 - gym_custom_envs_real_ur_drivers_URBasic_realTimeClientEvent - INFO - Program send to Robot:
servoj([-0.006018393267588511, -1.5831400335433246, -1.53969012895693, -1.571906140200286, 1.5472811086887126, 3.0870988233424064], 0.5, 0.5, 0.002, 0.2, 100)

2025-07-07 16:38:19,318 - gym_custom_envs_real_ur_drivers_URBasic_realTimeClientEvent - INFO - Program send to Robot:
servoj([-0.006030487342249754, -1.5831608816662057, -1.5396662870990199, -1.571887098427566, 1.5472709677856087, 3.0870826430377227], 0.5, 0.5, 0.002, 0.2, 100)

2025-07-07 16:38:19,336 - gym_custom_envs_real_ur_drivers_URBasic_realTimeClientEvent - INFO - Program send to Robot:
servoj([-0.0060266146000365565, -1.5831384113050107, -1.5397263685809535, -1.5718780354606126, 1.5472666246821303, 3.0870934214694], 0.5, 0.5, 0.002, 0.2, 100)

2025-07-07 16:38:19,351 - gym_custom_envs_real_ur_drivers_URBasic_realTimeClientEvent - INFO - Program send to Robot:
servoj([-0.006040327285156036, -1.5831576349480687, -1.5397382895099085, -1.5718973042415256, 1.5472683923009365, 3.0870651581260837], 0.5, 0.5, 0.002, 0.2, 100)

2025-07-07 16:38:19,367 - gym_custom_envs_real_ur_drivers_URBasic_realTimeClientEvent - INFO - Program send to Robot:
servoj([-0.006029334874986495, -1.5831291237577407, -1.539786450062887, -1.5718821440873338, 1.5472821216219064, 3.087071251344184], 0.5, 0.5, 0.002, 0.2, 100)

2025-07-07 16:38:19,382 - gym_custom_envs_real_ur_drivers_URBasic_realTimeClientEvent - INFO - Program send to Robot:
servoj([-0.006106698661877318, -1.5830783161980944, -1.5398102919207972, -1.5718306055571343, 1.5475141921375248, 3.08684344969606], 0.5, 0.5, 0.002, 0.2, 100)

2025-07-07 16:38:19,398 - gym_custom_envs_real_ur_drivers_URBasic_realTimeClientEvent - INFO - Program send to Robot:
servoj([-0.00609886186381608, -1.5830406403254254, -1.539906136189596, -1.5718128696381846, 1.5475182699019887, 3.086813316454185], 0.5, 0.5, 0.002, 0.2, 100)

2025-07-07 16:38:19,414 - gym_custom_envs_real_ur_drivers_URBasic_realTimeClientEvent - INFO - Program send to Robot:
servoj([-0.006112988966846907, -1.5830655424466673, -1.5399299780475062, -1.5717923403402319, 1.5475544554781075, 3.0868096135530694], 0.5, 0.5, 0.002, 0.2, 100)

2025-07-07 16:38:19,431 - gym_custom_envs_real_ur_drivers_URBasic_realTimeClientEvent - INFO - Program send to Robot:
servoj([-0.006134998051991695, -1.5830503032543366, -1.5399781386004847, -1.5718097992094184, 1.54756181716619, 3.0868216775503994], 0.5, 0.5, 0.002, 0.2, 100)

2025-07-07 16:38:19,447 - gym_custom_envs_real_ur_drivers_URBasic_realTimeClientEvent - INFO - Program send to Robot:
servoj([-0.006097410178029161, -1.583068139939222, -1.54001390138735, -1.5718082759092018, 1.547573786548378, 3.0868161452234713], 0.5, 0.5, 0.002, 0.2, 100)

2025-07-07 16:38:19,463 - gym_custom_envs_real_ur_drivers_URBasic_realTimeClientEvent - INFO - Program send to Robot:
servoj([-0.006123405293304276, -1.5830616411603977, -1.54001390138735, -1.57184752853325, 1.547613039172456, 3.0867900201326033], 0.5, 0.5, 0.002, 0.2, 100)

2025-07-07 16:38:19,479 - gym_custom_envs_real_ur_drivers_URBasic_realTimeClientEvent - INFO - Program send to Robot:
servoj([-0.006047440021869057, -1.5830980205855156, -1.5401693503009242, -1.571872213080243, 1.5473942716446212, 3.0869915516914785], 0.5, 0.5, 0.002, 0.2, 100)

2025-07-07 16:38:19,495 - gym_custom_envs_real_ur_drivers_URBasic_realTimeClientEvent - INFO - Program send to Robot:
servoj([-0.006039637036739874, -1.5831123784208065, -1.540157429371969, -1.5718867366451115, 1.5474099974084328, 3.086962804258852], 0.5, 0.5, 0.002, 0.2, 100)

2025-07-07 16:38:19,511 - gym_custom_envs_real_ur_drivers_URBasic_realTimeClientEvent - INFO - Program send to Robot:
servoj([-0.00608613589299926, -1.583111845579292, -1.5401693503009242, -1.5719125095871809, 1.5474577764117183, 3.086974296926314], 0.5, 0.5, 0.002, 0.2, 100)

2025-07-07 16:38:19,527 - gym_custom_envs_real_ur_drivers_URBasic_realTimeClientEvent - INFO - Program send to Robot:
servoj([-0.006063151535358348, -1.5831217082333313, -1.5402413527118128, -1.571876416097197, 1.5474422932435095, 3.086983006240823], 0.5, 0.5, 0.002, 0.2, 100)

2025-07-07 16:38:19,542 - gym_custom_envs_real_ur_drivers_URBasic_realTimeClientEvent - INFO - Program send to Robot:
servoj([-0.006134998621269542, -1.5830565702770953, -1.540277115498678, -1.5718303825983442, 1.5476963737415275, 3.086686630335189], 0.5, 0.5, 0.002, 0.2, 100)

2025-07-07 16:38:19,559 - gym_custom_envs_real_ur_drivers_URBasic_realTimeClientEvent - INFO - Program send to Robot:
servoj([-0.006129224836227087, -1.5830493739708498, -1.540277115498678, -1.5718232429464591, 1.5477117342237185, 3.0867038669466274], 0.5, 0.5, 0.002, 0.2, 100)

2025-07-07 16:38:19,574 - gym_custom_envs_real_ur_drivers_URBasic_realTimeClientEvent - INFO - Program send to Robot:
servoj([-0.0060884161573286424, -1.583109574050445, -1.5403486410724085, -1.5718581826297862, 1.5474867346816017, 3.086911899182798], 0.5, 0.5, 0.002, 0.2, 100)

2025-07-07 16:38:19,590 - gym_custom_envs_real_ur_drivers_URBasic_realTimeClientEvent - INFO - Program send to Robot:
servoj([-0.006105255645559886, -1.5831189700088963, -1.5403014341937464, -1.5718739023589623, 1.5475101727002945, 3.086888375803884], 0.5, 0.5, 0.002, 0.2, 100)

2025-07-07 16:38:19,606 - gym_custom_envs_real_ur_drivers_URBasic_realTimeClientEvent - INFO - Program send to Robot:
servoj([-0.006174667728615652, -1.5830233948557524, -1.540432087575094, -1.5717975269054127, 1.5477527092212706, 3.0873363319061076], 0.5, 0.5, 0.002, 0.2, 100)

2025-07-07 16:38:19,623 - gym_custom_envs_real_ur_drivers_URBasic_realTimeClientEvent - INFO - Program send to Robot:
servoj([-0.006155106690149257, -1.5830496939272665, -1.5404087225543421, -1.5717849199127867, 1.5477707642677963, 3.0873510894139096], 0.5, 0.5, 0.002, 0.2, 100)

2025-07-07 16:38:19,638 - gym_custom_envs_real_ur_drivers_URBasic_realTimeClientEvent - INFO - Program send to Robot:
servoj([-0.006202133876944034, -1.5830350538315596, -1.5404444853412074, -1.5718028122504923, 1.5477828042502764, 3.0873262555383683], 0.5, 0.5, 0.002, 0.2, 100)

2025-07-07 16:38:19,661 - gym_custom_envs_real_ur_drivers_URBasic_realTimeClientEvent - INFO - Program send to Robot:
servoj([-0.006199550867057041, -1.5830246690211671, -1.540527931843893, -1.5717536455388197, 1.547789050034311, 3.086600307103872], 0.5, 0.5, 0.002, 0.2, 100)

2025-07-07 16:38:19,685 - gym_custom_envs_real_ur_drivers_URBasic_realTimeClientEvent - INFO - Program send to Robot:
servoj([-0.012271846303085088, -1.576932249946439, -1.5999419617647257, -1.5661943844312396, 1.567728365219125, 3.066427596517376], 0.5, 0.5, 0.002, 0.2, 100)

2025-07-07 16:38:19,694 - gym_custom_envs_real_ur_drivers_URBasic_realTimeClientEvent - INFO - Program send to Robot:
servoj([-0.012271846303085088, -1.576932249946439, -1.5999419617647241, -1.5661943844312396, 1.567728365219125, 3.0664275949987365], 0.5, 0.5, 0.002, 0.2, 100)

2025-07-07 16:38:19,702 - gym_custom_envs_real_ur_drivers_URBasic_realTimeClientEvent - INFO - Program send to Robot:
servoj([-0.012271846303085088, -1.576932249946439, -1.5999419617647241, -1.5661943844312396, 1.567728365219125, 3.0664275949835504], 0.5, 0.5, 0.002, 0.2, 100)

2025-07-07 16:38:19,711 - gym_custom_envs_real_ur_drivers_URBasic_realTimeClientEvent - INFO - Program send to Robot:
servoj([-0.012271846303085088, -1.576932249946439, -1.5999419617647241, -1.5661943844312396, 1.567728365219125, 3.0664275949833986], 0.5, 0.5, 0.002, 0.2, 100)

2025-07-07 16:38:19,726 - gym_custom_envs_real_ur_drivers_URBasic_realTimeClientEvent - INFO - Program send to Robot:
servoj([-0.012271846303085088, -1.576932249946439, -1.60146060274473, -1.5661943844312396, 1.567728365219125, 3.0679462359634035], 0.5, 0.5, 0.002, 0.2, 100)

2025-07-07 16:38:21,737 - gym_custom_envs_real_ur_drivers_URBasic_realTimeClientEvent - INFO - Program send to Robot:
servoj([-0.012271846303085088, -1.576932249946439, -1.6014757891545301, -1.5661943844312396, 1.5601351603190912, 3.095296960013326], 0.5, 0.5, 0.002, 0.2, 100)

2025-07-07 16:38:21,743 - gym_custom_envs_real_ur_drivers_URBasic_realTimeClientEvent - INFO - Program send to Robot:
servoj([-0.012271846303085088, -1.576932249946439, -1.6014759410186281, -1.5661943844312396, 1.5646151512101116, 3.0879772623537907], 0.5, 0.5, 0.002, 0.2, 100)

2025-07-07 16:38:21,750 - gym_custom_envs_real_ur_drivers_URBasic_realTimeClientEvent - INFO - Program send to Robot:
servoj([-0.012271846303085088, -1.576932249946439, -1.601475942537269, -1.5661943844312396, 1.5646599511190218, 3.0879040653771956], 0.5, 0.5, 0.002, 0.2, 100)

2025-07-07 16:38:21,767 - gym_custom_envs_real_ur_drivers_URBasic_realTimeClientEvent - INFO - Program send to Robot:
servoj([-0.012271846303085088, -1.576932249946439, -1.6014759425524556, -1.5661943844312396, 1.564660399118111, 3.0879033334074295], 0.5, 0.5, 0.002, 0.2, 100)

2025-07-07 16:38:21,774 - gym_custom_envs_real_ur_drivers_URBasic_realTimeClientEvent - INFO - Program send to Robot:
servoj([-0.012271846303085088, -1.576932249946439, -1.6014759425526075, -1.5661943844312396, 1.5676976855581148, 3.086384685107725], 0.5, 0.5, 0.002, 0.2, 100)

2025-07-07 16:38:21,791 - gym_custom_envs_real_ur_drivers_URBasic_realTimeClientEvent - INFO - Program send to Robot:
servoj([-0.012271846303085088, -1.576932249946439, -1.6014759425526088, -1.5661943844312396, 1.5677280584225148, 3.086369498624728], 0.5, 0.5, 0.002, 0.2, 100)

2025-07-07 16:38:21,798 - gym_custom_envs_real_ur_drivers_URBasic_realTimeClientEvent - INFO - Program send to Robot:
servoj([-0.012271846303085088, -1.576932249946439, -1.601475942552609, -1.5661943844312396, 1.5677283621511588, 3.086369346759898], 0.5, 0.5, 0.002, 0.2, 100)

2025-07-07 16:38:21,807 - gym_custom_envs_real_ur_drivers_URBasic_realTimeClientEvent - INFO - Program send to Robot:
servoj([-0.010753205323078142, -1.576932249946439, -1.601475942552609, -1.5661943844312396, 1.572284288128466, 3.0878879862212565], 0.5, 0.5, 0.002, 0.2, 100)

2025-07-07 16:38:21,814 - gym_custom_envs_real_ur_drivers_URBasic_realTimeClientEvent - INFO - Program send to Robot:
servoj([-0.010738018913278073, -1.576932249946439, -1.601475942552609, -1.5661943844312396, 1.5723298473882392, 3.08790317261587], 0.5, 0.5, 0.002, 0.2, 100)

2025-07-07 16:38:21,830 - gym_custom_envs_real_ur_drivers_URBasic_realTimeClientEvent - INFO - Program send to Robot:
servoj([-0.010737867049180073, -1.576932249946439, -1.601475942552609, -1.5661943844312396, 1.5723303029808369, 3.087903324479816], 0.5, 0.5, 0.002, 0.2, 100)

2025-07-07 16:38:21,838 - gym_custom_envs_real_ur_drivers_URBasic_realTimeClientEvent - INFO - Program send to Robot:
servoj([-0.012256506510546038, -1.576932249946439, -1.601475942552609, -1.5661943844312396, 1.5753675894967758, 3.0879033259984556], 0.5, 0.5, 0.002, 0.2, 100)

2025-07-07 16:38:21,860 - gym_custom_envs_real_ur_drivers_URBasic_realTimeClientEvent - INFO - Program send to Robot:
servoj([-0.012271692905159698, -1.576932249946439, -1.601475942552609, -1.5661943844312396, 1.5753979623619352, 3.087903326013642], 0.5, 0.5, 0.002, 0.2, 100)

2025-07-07 16:38:21,870 - gym_custom_envs_real_ur_drivers_URBasic_realTimeClientEvent - INFO - Program send to Robot:
servoj([-0.012271844769105835, -1.576932249946439, -1.5999573015726032, -1.5661943844312396, 1.575398266090587, 3.087903326013794], 0.5, 0.5, 0.002, 0.2, 100)

2025-07-07 16:38:21,884 - gym_custom_envs_real_ur_drivers_URBasic_realTimeClientEvent - INFO - Program send to Robot:
servoj([-0.012271846287745296, -1.576932249946439, -1.599942115162803, -1.5661943844312396, 1.5753982691278734, 3.0879033260137954], 0.5, 0.5, 0.002, 0.2, 100)

2025-07-07 16:38:21,895 - gym_custom_envs_real_ur_drivers_URBasic_realTimeClientEvent - INFO - Program send to Robot:
servoj([-0.01227184630293169, -1.576932249946439, -1.599941963298705, -1.5661943844312396, 1.5753982691582462, 3.0879033260137954], 0.5, 0.5, 0.002, 0.2, 100)

2025-07-07 16:38:21,902 - gym_custom_envs_real_ur_drivers_URBasic_realTimeClientEvent - INFO - Program send to Robot:
servoj([-0.010753205323076609, -1.576932249946439, -1.599941961780064, -1.5661943844312396, 1.576916910138557, 3.0879033260137954], 0.5, 0.5, 0.002, 0.2, 100)

2025-07-07 16:38:21,911 - gym_custom_envs_real_ur_drivers_URBasic_realTimeClientEvent - INFO - Program send to Robot:
servoj([-0.010738018913278058, -1.576932249946439, -1.5999419617648776, -1.5661943844312396, 1.57693209654836, 3.0879033260137954], 0.5, 0.5, 0.002, 0.2, 100)

2025-07-07 16:38:21,926 - gym_custom_envs_real_ur_drivers_URBasic_realTimeClientEvent - INFO - Program send to Robot:
servoj([-0.010737867049180073, -1.576932249946439, -1.5999419617647257, -1.5661943844312396, 1.5769322484124582, 3.0879033260137954], 0.5, 0.5, 0.002, 0.2, 100)

2025-07-07 16:38:21,935 - gym_custom_envs_real_ur_drivers_URBasic_realTimeClientEvent - INFO - Program send to Robot:
servoj([-0.012256506510546038, -1.576932249946439, -1.60146060274473, -1.5661943844312396, 1.5769322499310992, 3.0879033260137954], 0.5, 0.5, 0.002, 0.2, 100)

2025-07-07 16:38:21,950 - gym_custom_envs_real_ur_drivers_URBasic_realTimeClientEvent - INFO - Program send to Robot:
servoj([-0.012271692905159698, -1.576932249946439, -1.6014757891545301, -1.5661943844312396, 1.5769322499462854, 3.0879033260137954], 0.5, 0.5, 0.002, 0.2, 100)

2025-07-07 16:38:21,957 - gym_custom_envs_real_ur_drivers_URBasic_realTimeClientEvent - INFO - Program send to Robot:
servoj([-0.012271844769105835, -1.576932249946439, -1.6014759410186281, -1.5661943844312396, 1.5769322499464373, 3.0879033260137954], 0.5, 0.5, 0.002, 0.2, 100)

2025-07-07 16:38:21,975 - gym_custom_envs_real_ur_drivers_URBasic_realTimeClientEvent - INFO - Program send to Robot:
servoj([-0.01075320530773835, -1.576932249946439, -1.601475942537269, -1.5661943844312396, 1.5769322499464389, 3.0879033260137954], 0.5, 0.5, 0.002, 0.2, 100)

2025-07-07 16:38:21,982 - gym_custom_envs_real_ur_drivers_URBasic_realTimeClientEvent - INFO - Program send to Robot:
servoj([-0.010738018913124675, -1.576932249946439, -1.6014759425524556, -1.5661943844312396, 1.5769322499464389, 3.0879033260137954], 0.5, 0.5, 0.002, 0.2, 100)

2025-07-07 16:38:21,999 - gym_custom_envs_real_ur_drivers_URBasic_realTimeClientEvent - INFO - Program send to Robot:
servoj([-0.012256508029185483, -1.576932249946439, -1.5999573015726016, -1.5661943844312396, 1.5769322499464389, 3.089421966993802], 0.5, 0.5, 0.002, 0.2, 100)

2025-07-07 16:38:22,006 - gym_custom_envs_real_ur_drivers_URBasic_realTimeClientEvent - INFO - Program send to Robot:
servoj([-0.012271692920346092, -1.576932249946439, -1.599942115162803, -1.5661943844312396, 1.5769322499464389, 3.0894371534036025], 0.5, 0.5, 0.002, 0.2, 100)

2025-07-07 16:38:22,022 - gym_custom_envs_real_ur_drivers_URBasic_realTimeClientEvent - INFO - Program send to Robot:
servoj([-0.012271844769257698, -1.576932249946439, -1.599941963298705, -1.5661943844312396, 1.5769322499464389, 3.0894373052677], 0.5, 0.5, 0.002, 0.2, 100)

2025-07-07 16:38:22,039 - gym_custom_envs_real_ur_drivers_URBasic_realTimeClientEvent - INFO - Program send to Robot:
servoj([-0.012271846287746814, -1.576932249946439, -1.60146060276007, -1.5661943844312396, 1.5769322499464389, 3.0894373067863414], 0.5, 0.5, 0.002, 0.2, 100)

2025-07-07 16:38:22,046 - gym_custom_envs_real_ur_drivers_URBasic_realTimeClientEvent - INFO - Program send to Robot:
servoj([-0.012271846302931705, -1.576932249946439, -1.6014757891546836, -1.5661943844312396, 1.5769322499464389, 3.0894373068015275], 0.5, 0.5, 0.002, 0.2, 100)

2025-07-07 16:38:22,054 - gym_custom_envs_real_ur_drivers_URBasic_realTimeClientEvent - INFO - Program send to Robot:
servoj([-0.012271846303083554, -1.576932249946439, -1.6014759410186297, -1.5661943844312396, 1.5769322499464389, 3.0894373068016794], 0.5, 0.5, 0.002, 0.2, 100)

2025-07-07 16:38:22,063 - gym_custom_envs_real_ur_drivers_URBasic_realTimeClientEvent - INFO - Program send to Robot:
servoj([-0.012271846303085072, -1.576932249946439, -1.601475942537269, -1.5661943844312396, 1.5769322499464389, 3.089437306801681], 0.5, 0.5, 0.002, 0.2, 100)

2025-07-07 16:38:22,079 - gym_custom_envs_real_ur_drivers_URBasic_realTimeClientEvent - INFO - Program send to Robot:
servoj([-0.012271846303085088, -1.576932249946439, -1.6014759425524556, -1.5661943844312396, 1.5769322499464389, 3.089437306801681], 0.5, 0.5, 0.002, 0.2, 100)

2025-07-07 16:38:22,087 - gym_custom_envs_real_ur_drivers_URBasic_realTimeClientEvent - INFO - Program send to Robot:
servoj([-0.012271846303085088, -1.576932249946439, -1.6014759425526075, -1.5661943844312396, 1.5769322499464389, 3.089437306801681], 0.5, 0.5, 0.002, 0.2, 100)

2025-07-07 16:38:22,095 - gym_custom_envs_real_ur_drivers_URBasic_realTimeClientEvent - INFO - Program send to Robot:
servoj([-0.010753205323078142, -1.576932249946439, -1.599957301572603, -1.5661943844312396, 1.5769322499464389, 3.089437306801681], 0.5, 0.5, 0.002, 0.2, 100)

2025-07-07 16:38:22,102 - gym_custom_envs_real_ur_drivers_URBasic_realTimeClientEvent - INFO - Program send to Robot:
servoj([-0.010738018913278073, -1.576932249946439, -1.599942115162803, -1.5661943844312396, 1.5769322499464389, 3.089437306801681], 0.5, 0.5, 0.002, 0.2, 100)

2025-07-07 16:38:22,118 - gym_custom_envs_real_ur_drivers_URBasic_realTimeClientEvent - INFO - Program send to Robot:
servoj([-0.010737867049180073, -1.576932249946439, -1.599941963298705, -1.5661943844312396, 1.5769322499464389, 3.089437306801681], 0.5, 0.5, 0.002, 0.2, 100)

2025-07-07 16:38:22,126 - gym_custom_envs_real_ur_drivers_URBasic_realTimeClientEvent - INFO - Program send to Robot:
servoj([-0.012256506510546038, -1.576932249946439, -1.60146060276007, -1.5661943844312396, 1.5769322499464389, 3.089437306801681], 0.5, 0.5, 0.002, 0.2, 100)

2025-07-07 16:38:22,142 - gym_custom_envs_real_ur_drivers_URBasic_realTimeClientEvent - INFO - Program send to Robot:
servoj([-0.012271692905159698, -1.576932249946439, -1.6014757891546836, -1.5661943844312396, 1.5769322499464389, 3.089437306801681], 0.5, 0.5, 0.002, 0.2, 100)

2025-07-07 16:38:22,150 - gym_custom_envs_real_ur_drivers_URBasic_realTimeClientEvent - INFO - Program send to Robot:
servoj([-0.012271844769105835, -1.576932249946439, -1.6014759410186297, -1.5661943844312396, 1.5769322499464389, 3.089437306801681], 0.5, 0.5, 0.002, 0.2, 100)

2025-07-07 16:38:22,166 - gym_custom_envs_real_ur_drivers_URBasic_realTimeClientEvent - INFO - Program send to Robot:
servoj([-0.012271846287745296, -1.576932249946439, -1.601475942537269, -1.5661943844312396, 1.5769322499464389, 3.089437306801681], 0.5, 0.5, 0.002, 0.2, 100)

2025-07-07 16:38:22,183 - gym_custom_envs_real_ur_drivers_URBasic_realTimeClientEvent - INFO - Program send to Robot:
servoj([-0.01227184630293169, -1.576932249946439, -1.6014759425524556, -1.5661943844312396, 1.5769322499464389, 3.089437306801681], 0.5, 0.5, 0.002, 0.2, 100)

2025-07-07 16:38:22,190 - gym_custom_envs_real_ur_drivers_URBasic_realTimeClientEvent - INFO - Program send to Robot:
servoj([-0.012271846303083554, -1.576932249946439, -1.5999573015726016, -1.5677130254112464, 1.5769322499464389, 3.089437306801681], 0.5, 0.5, 0.002, 0.2, 100)

2025-07-07 16:38:22,198 - gym_custom_envs_real_ur_drivers_URBasic_realTimeClientEvent - INFO - Program send to Robot:
servoj([-0.012271846303085072, -1.576932249946439, -1.599942115162803, -1.5677282118210465, 1.5769322499464389, 3.089437306801681], 0.5, 0.5, 0.002, 0.2, 100)

2025-07-07 16:38:22,206 - gym_custom_envs_real_ur_drivers_URBasic_realTimeClientEvent - INFO - Program send to Robot:
servoj([-0.012271846303085088, -1.576932249946439, -1.599941963298705, -1.5677283636851445, 1.5769322499464389, 3.089437306801681], 0.5, 0.5, 0.002, 0.2, 100)

2025-07-07 16:38:22,213 - gym_custom_envs_real_ur_drivers_URBasic_rtdeEvent - INFO - Total packages: 1000
2025-07-07 16:38:22,222 - gym_custom_envs_real_ur_drivers_URBasic_realTimeClientEvent - INFO - Program send to Robot:
servoj([-0.012271846303085088, -1.576932249946439, -1.60146060276007, -1.5662097242237787, 1.5769322499464389, 3.089437306801681], 0.5, 0.5, 0.002, 0.2, 100)

2025-07-07 16:38:22,230 - gym_custom_envs_real_ur_drivers_URBasic_realTimeClientEvent - INFO - Program send to Robot:
servoj([-0.012271846303085088, -1.576932249946439, -1.6014757891546836, -1.566194537829165, 1.5769322499464389, 3.089437306801681], 0.5, 0.5, 0.002, 0.2, 100)

2025-07-07 16:38:22,238 - gym_custom_envs_real_ur_drivers_URBasic_realTimeClientEvent - INFO - Program send to Robot:
servoj([-0.012271846303085088, -1.576932249946439, -1.6014759410186297, -1.5661943859652188, 1.5769322499464389, 3.089437306801681], 0.5, 0.5, 0.002, 0.2, 100)

2025-07-07 16:38:22,246 - gym_custom_envs_real_ur_drivers_URBasic_realTimeClientEvent - INFO - Program send to Robot:
servoj([-0.012271846303085088, -1.576932249946439, -1.601475942537269, -1.5661943844465793, 1.5769322499464389, 3.089437306801681], 0.5, 0.5, 0.002, 0.2, 100)

2025-07-07 16:38:22,262 - gym_custom_envs_real_ur_drivers_URBasic_realTimeClientEvent - INFO - Program send to Robot:
servoj([-0.012271846303085088, -1.576932249946439, -1.6014759425524556, -1.566194384431393, 1.5769322499464389, 3.0909559477816884], 0.5, 0.5, 0.002, 0.2, 100)

2025-07-07 16:38:22,270 - gym_custom_envs_real_ur_drivers_URBasic_realTimeClientEvent - INFO - Program send to Robot:
servoj([-0.012271846303085088, -1.576932249946439, -1.6014759425526075, -1.5661943844312411, 1.5769322499464389, 3.0909711341914883], 0.5, 0.5, 0.002, 0.2, 100)

2025-07-07 16:38:22,286 - gym_custom_envs_real_ur_drivers_URBasic_realTimeClientEvent - INFO - Program send to Robot:
servoj([-0.012271846303085088, -1.576932249946439, -1.599957301572603, -1.5661943844312396, 1.5769322499464389, 3.0909712860555865], 0.5, 0.5, 0.002, 0.2, 100)

2025-07-07 16:38:22,303 - gym_custom_envs_real_ur_drivers_URBasic_realTimeClientEvent - INFO - Program send to Robot:
servoj([-0.012271846303085088, -1.576932249946439, -1.599942115162803, -1.5661943844312396, 1.5769322499464389, 3.0909712875742272], 0.5, 0.5, 0.002, 0.2, 100)

2025-07-07 16:38:22,311 - gym_custom_envs_real_ur_drivers_URBasic_realTimeClientEvent - INFO - Program send to Robot:
servoj([-0.012271846303085088, -1.576932249946439, -1.599941963298705, -1.5661943844312396, 1.5769322499464389, 3.0909712875894138], 0.5, 0.5, 0.002, 0.2, 100)

2025-07-07 16:38:22,327 - gym_custom_envs_real_ur_drivers_URBasic_realTimeClientEvent - INFO - Program send to Robot:
servoj([-0.012271846303085088, -1.576932249946439, -1.60146060276007, -1.5661943844312396, 1.5769322499464389, 3.0909712875895656], 0.5, 0.5, 0.002, 0.2, 100)

2025-07-07 16:38:22,334 - gym_custom_envs_real_ur_drivers_URBasic_realTimeClientEvent - INFO - Program send to Robot:
servoj([-0.012271846303085088, -1.576932249946439, -1.6014757891546836, -1.5661943844312396, 1.5769322499464389, 3.090971287589567], 0.5, 0.5, 0.002, 0.2, 100)

2025-07-07 16:38:22,343 - gym_custom_envs_real_ur_drivers_URBasic_realTimeClientEvent - INFO - Program send to Robot:
servoj([-0.012271846303085088, -1.576932249946439, -1.6014759410186297, -1.5661943844312396, 1.5769322499464389, 3.090971287589567], 0.5, 0.5, 0.002, 0.2, 100)

2025-07-07 16:38:22,350 - gym_custom_envs_real_ur_drivers_URBasic_realTimeClientEvent - INFO - Program send to Robot:
servoj([-0.012271846303085088, -1.576932249946439, -1.601475942537269, -1.5677130254112464, 1.5769322499464389, 3.090971287589567], 0.5, 0.5, 0.002, 0.2, 100)

2025-07-07 16:38:22,367 - gym_custom_envs_real_ur_drivers_URBasic_realTimeClientEvent - INFO - Program send to Robot:
servoj([-0.012271846303085088, -1.576932249946439, -1.6014759425524556, -1.5677282118210465, 1.5769322499464389, 3.090971287589567], 0.5, 0.5, 0.002, 0.2, 100)

2025-07-07 16:38:22,376 - gym_custom_envs_real_ur_drivers_URBasic_realTimeClientEvent - INFO - Program send to Robot:
servoj([-0.012271846303085088, -1.576932249946439, -1.6014759425526075, -1.5677283636851445, 1.5769322499464389, 3.090971287589567], 0.5, 0.5, 0.002, 0.2, 100)

2025-07-07 16:38:22,389 - gym_custom_envs_real_ur_drivers_URBasic_realTimeClientEvent - INFO - Program send to Robot:
servoj([-0.012271846303085088, -1.576932249946439, -1.6014759425526088, -1.5677283652037854, 1.5769322499464389, 3.0894526466095598], 0.5, 0.5, 0.002, 0.2, 100)

2025-07-07 16:38:22,398 - gym_custom_envs_real_ur_drivers_URBasic_realTimeClientEvent - INFO - Program send to Robot:
servoj([-0.012271846303085088, -1.576932249946439, -1.601475942552609, -1.5677283652189717, 1.5769322499464389, 3.08943746019976], 0.5, 0.5, 0.002, 0.2, 100)

2025-07-07 16:38:22,406 - gym_custom_envs_real_ur_drivers_URBasic_realTimeClientEvent - INFO - Program send to Robot:
servoj([-0.012271846303085088, -1.576932249946439, -1.601475942552609, -1.5677283652191236, 1.5769322499464389, 3.089437308335662], 0.5, 0.5, 0.002, 0.2, 100)

2025-07-07 16:38:22,414 - gym_custom_envs_real_ur_drivers_URBasic_realTimeClientEvent - INFO - Program send to Robot:
servoj([-0.012271846303085088, -1.576932249946439, -1.5999573015726032, -1.5677283652191252, 1.5769322499464389, 3.089437306817021], 0.5, 0.5, 0.002, 0.2, 100)

2025-07-07 16:38:22,430 - gym_custom_envs_real_ur_drivers_URBasic_realTimeClientEvent - INFO - Program send to Robot:
servoj([-0.012271846303085088, -1.576932249946439, -1.599942115162803, -1.5677283652191252, 1.5769322499464389, 3.0894373068018344], 0.5, 0.5, 0.002, 0.2, 100)

2025-07-07 16:38:22,447 - gym_custom_envs_real_ur_drivers_URBasic_realTimeClientEvent - INFO - Program send to Robot:
servoj([-0.012271846303085088, -1.576932249946439, -1.601460604278711, -1.5677283652191252, 1.575413608966432, 3.1015864346417374], 0.5, 0.5, 0.002, 0.2, 100)

2025-07-07 16:38:22,454 - gym_custom_envs_real_ur_drivers_URBasic_realTimeClientEvent - INFO - Program send to Robot:
servoj([-0.012271846303085088, -1.576932249946439, -1.6014757891698699, -1.5677283652191252, 1.5753984225566318, 3.1017079259201368], 0.5, 0.5, 0.002, 0.2, 100)

2025-07-07 16:38:22,464 - gym_custom_envs_real_ur_drivers_URBasic_realTimeClientEvent - INFO - Program send to Robot:
servoj([-0.012271846303085088, -1.576932249946439, -1.6014759410187815, -1.5677283652191252, 1.5753982706925338, 3.1017091408329205], 0.5, 0.5, 0.002, 0.2, 100)

2025-07-07 16:38:22,471 - gym_custom_envs_real_ur_drivers_URBasic_realTimeClientEvent - INFO - Program send to Robot:
servoj([-0.012271846303085088, -1.576932249946439, -1.6014759425372707, -1.5677283652191252, 1.5753982691738928, 3.1017091529820484], 0.5, 0.5, 0.002, 0.2, 100)

2025-07-07 16:38:22,488 - gym_custom_envs_real_ur_drivers_URBasic_realTimeClientEvent - INFO - Program send to Robot:
servoj([-0.012271846303085088, -1.576932249946439, -1.6014759425524556, -1.5677283652191252, 1.5662864232786666, 3.1093023580035735], 0.5, 0.5, 0.002, 0.2, 100)

2025-07-07 16:38:22,496 - gym_custom_envs_real_ur_drivers_URBasic_realTimeClientEvent - INFO - Program send to Robot:
servoj([-0.012271846303085088, -1.576932249946439, -1.6014759425526075, -1.5677283652191252, 1.5661953048197144, 3.109378290053789], 0.5, 0.5, 0.002, 0.2, 100)

2025-07-07 16:38:22,502 - gym_custom_envs_real_ur_drivers_URBasic_realTimeClientEvent - INFO - Program send to Robot:
servoj([-0.012271846303085088, -1.576932249946439, -1.6014759425526088, -1.5677283652191252, 1.5661943936351248, 3.109379049374291], 0.5, 0.5, 0.002, 0.2, 100)

2025-07-07 16:38:22,512 - gym_custom_envs_real_ur_drivers_URBasic_realTimeClientEvent - INFO - Program send to Robot:
servoj([-0.012271846303085088, -1.576932249946439, -1.601475942552609, -1.5677283652191252, 1.555563897663231, 3.1184909028475363], 0.5, 0.5, 0.002, 0.2, 100)

2025-07-07 16:38:22,527 - gym_custom_envs_real_ur_drivers_URBasic_realTimeClientEvent - INFO - Program send to Robot:
servoj([-0.012271846303085088, -1.576932249946439, -1.601475942552609, -1.5677283652191252, 1.5554575927035121, 3.118582021382269], 0.5, 0.5, 0.002, 0.2, 100)

2025-07-07 16:38:22,536 - gym_custom_envs_real_ur_drivers_URBasic_realTimeClientEvent - INFO - Program send to Robot:
servoj([-0.012271846303085088, -1.576932249946439, -1.601475942552609, -1.5677283652191252, 1.5554565296539151, 3.1185829325676164], 0.5, 0.5, 0.002, 0.2, 100)

2025-07-07 16:38:22,543 - gym_custom_envs_real_ur_drivers_URBasic_realTimeClientEvent - INFO - Program send to Robot:
servoj([-0.012271846303085088, -1.576932249946439, -1.601475942552609, -1.5677283652191252, 1.5387514682433445, 3.1231388646194898], 0.5, 0.5, 0.002, 0.2, 100)

2025-07-07 16:38:22,560 - gym_custom_envs_real_ur_drivers_URBasic_realTimeClientEvent - INFO - Program send to Robot:
servoj([-0.012271846303085088, -1.576932249946439, -1.601475942552609, -1.5677283652191252, 1.5385844176292387, 3.123184423940008], 0.5, 0.5, 0.002, 0.2, 100)

2025-07-07 16:38:22,569 - gym_custom_envs_real_ur_drivers_URBasic_realTimeClientEvent - INFO - Program send to Robot:
servoj([-0.012271846303085088, -1.576932249946439, -1.601475942552609, -1.5677283652191252, 1.5385827471230977, 3.1231848795332136], 0.5, 0.5, 0.002, 0.2, 100)

2025-07-07 16:38:22,574 - gym_custom_envs_real_ur_drivers_URBasic_realTimeClientEvent - INFO - Program send to Robot:
servoj([-0.013790487283092031, -1.576932249946439, -1.601475942552609, -1.5677283652191252, 1.5218776796379616, 3.1231848840891456], 0.5, 0.5, 0.002, 0.2, 100)

2025-07-07 16:38:22,594 - gym_custom_envs_real_ur_drivers_URBasic_realTimeClientEvent - INFO - Program send to Robot:
servoj([-0.0138056736928921, -1.576932249946439, -1.601475942552609, -1.5677283652191252, 1.5217106289631102, 3.1231848841347047], 0.5, 0.5, 0.002, 0.2, 100)

2025-07-07 16:38:22,599 - gym_custom_envs_real_ur_drivers_URBasic_realTimeClientEvent - INFO - Program send to Robot:
servoj([-0.013805825556990102, -1.576932249946439, -1.601475942552609, -1.5677283652191252, 1.5217089584563617, 3.1231848841351604], 0.5, 0.5, 0.002, 0.2, 100)

2025-07-07 16:38:22,614 - gym_custom_envs_real_ur_drivers_URBasic_realTimeClientEvent - INFO - Program send to Robot:
servoj([-0.012287186095624139, -1.576932249946439, -1.601475942552609, -1.5677283652191252, 1.5141157368512603, 3.123184884135165], 0.5, 0.5, 0.002, 0.2, 100)

2025-07-07 16:38:22,622 - gym_custom_envs_real_ur_drivers_URBasic_realTimeClientEvent - INFO - Program send to Robot:
servoj([-0.01227199970101048, -1.576932249946439, -1.601475942552609, -1.5677283652191252, 1.5140398046352093, 3.1231848841351653], 0.5, 0.5, 0.002, 0.2, 100)

2025-07-07 16:38:22,639 - gym_custom_envs_real_ur_drivers_URBasic_realTimeClientEvent - INFO - Program send to Robot:
servoj([-0.012271847837064342, -1.576932249946439, -1.601475942552609, -1.5677283652191252, 1.5125204043330418, 3.1231848841351653], 0.5, 0.5, 0.002, 0.2, 100)

2025-07-07 16:38:22,646 - gym_custom_envs_real_ur_drivers_URBasic_realTimeClientEvent - INFO - Program send to Robot:
servoj([-0.012271846318424881, -1.576932249946439, -1.601475942552609, -1.5677283652191252, 1.5125052103300203, 3.1231848841351653], 0.5, 0.5, 0.002, 0.2, 100)

2025-07-07 16:38:22,660 - gym_custom_envs_real_ur_drivers_URBasic_realTimeClientEvent - INFO - Program send to Robot:
servoj([-0.012271846303238486, -1.576932249946439, -1.601475942552609, -1.5677283652191252, 1.51250505838999, 3.1231848841351653], 0.5, 0.5, 0.002, 0.2, 100)

2025-07-07 16:38:22,670 - gym_custom_envs_real_ur_drivers_URBasic_realTimeClientEvent - INFO - Program send to Robot:
servoj([-0.012271846303086621, -1.576932249946439, -1.5999573015726032, -1.5677283652191252, 1.5125050568705898, 3.1231848841351653], 0.5, 0.5, 0.002, 0.2, 100)

2025-07-07 16:38:22,685 - gym_custom_envs_real_ur_drivers_URBasic_realTimeClientEvent - INFO - Program send to Robot:
servoj([-0.012271846303085103, -1.576932249946439, -1.599942115162803, -1.5677283652191252, 1.5125050568553957, 3.1231848841351653], 0.5, 0.5, 0.002, 0.2, 100)

2025-07-07 16:38:22,695 - gym_custom_envs_real_ur_drivers_URBasic_realTimeClientEvent - INFO - Program send to Robot:
servoj([-0.012271846303085088, -1.576932249946439, -1.599941963298705, -1.5677283652191252, 1.5125050568552438, 3.1231848841351653], 0.5, 0.5, 0.002, 0.2, 100)

2025-07-07 16:38:22,703 - gym_custom_envs_real_ur_drivers_URBasic_realTimeClientEvent - INFO - Program send to Robot:
servoj([-0.012271846303085088, -1.576932249946439, -1.60146060276007, -1.5677283652191252, 1.5125050568552423, 3.1216662431551585], 0.5, 0.5, 0.002, 0.2, 100)

2025-07-07 16:38:22,719 - gym_custom_envs_real_ur_drivers_URBasic_realTimeClientEvent - INFO - Program send to Robot:
servoj([-0.012271846303085088, -1.576932249946439, -1.6014757891546836, -1.5677283652191252, 1.5125050568552423, 3.121651056745358], 0.5, 0.5, 0.002, 0.2, 100)

2025-07-07 16:38:22,727 - gym_custom_envs_real_ur_drivers_URBasic_realTimeClientEvent - INFO - Program send to Robot:
servoj([-0.012271846303085088, -1.576932249946439, -1.6014759410186297, -1.5677283652191252, 1.5125050568552423, 3.1216509048812604], 0.5, 0.5, 0.002, 0.2, 100)

2025-07-07 16:38:22,734 - gym_custom_envs_real_ur_drivers_URBasic_realTimeClientEvent - INFO - Program send to Robot:
servoj([-0.012271846303085088, -1.576932249946439, -1.601475942537269, -1.5677283652191252, 1.5125050568552423, 3.121650903362619], 0.5, 0.5, 0.002, 0.2, 100)

2025-07-07 16:38:22,742 - gym_custom_envs_real_ur_drivers_URBasic_realTimeClientEvent - INFO - Program send to Robot:
servoj([-0.012271846303085088, -1.576932249946439, -1.6014759425524556, -1.5677283652191252, 1.5125050568552423, 3.1216509033474327], 0.5, 0.5, 0.002, 0.2, 100)

2025-07-07 16:38:22,759 - gym_custom_envs_real_ur_drivers_URBasic_realTimeClientEvent - INFO - Program send to Robot:
servoj([-0.012271846303085088, -1.576932249946439, -1.6014759425526075, -1.5677283652191252, 1.5125050568552423, 3.121650903347281], 0.5, 0.5, 0.002, 0.2, 100)

2025-07-07 16:38:22,767 - gym_custom_envs_real_ur_drivers_URBasic_realTimeClientEvent - INFO - Program send to Robot:
servoj([-0.012271846303085088, -1.576932249946439, -1.599957301572603, -1.5677283652191252, 1.5125050568552423, 3.1216509033472795], 0.5, 0.5, 0.002, 0.2, 100)

2025-07-07 16:38:22,775 - gym_custom_envs_real_ur_drivers_URBasic_realTimeClientEvent - INFO - Program send to Robot:
servoj([-0.012271846303085088, -1.576932249946439, -1.599942115162803, -1.5677283652191252, 1.5125050568552423, 3.1216509033472795], 0.5, 0.5, 0.002, 0.2, 100)

2025-07-07 16:38:22,783 - gym_custom_envs_real_ur_drivers_URBasic_realTimeClientEvent - INFO - Program send to Robot:
servoj([-0.012271846303085088, -1.576932249946439, -1.599941963298705, -1.5677283652191252, 1.5125050568552423, 3.1216509033472795], 0.5, 0.5, 0.002, 0.2, 100)

2025-07-07 16:38:22,798 - gym_custom_envs_real_ur_drivers_URBasic_realTimeClientEvent - INFO - Program send to Robot:
servoj([-0.012271846303085088, -1.576932249946439, -1.599941961780064, -1.5677283652191252, 1.5125050568552423, 3.1216509033472795], 0.5, 0.5, 0.002, 0.2, 100)

2025-07-07 16:38:22,806 - gym_custom_envs_real_ur_drivers_URBasic_realTimeClientEvent - INFO - Program send to Robot:
servoj([-0.012271846303085088, -1.576932249946439, -1.5999419617648776, -1.5677283652191252, 1.5125050568552423, 3.1216509033472795], 0.5, 0.5, 0.002, 0.2, 100)

2025-07-07 16:38:22,814 - gym_custom_envs_real_ur_drivers_URBasic_realTimeClientEvent - INFO - Program send to Robot:
servoj([-0.012271846303085088, -1.576932249946439, -1.5999419617647257, -1.5677283652191252, 1.5125050568552423, 3.1216509033472795], 0.5, 0.5, 0.002, 0.2, 100)

2025-07-07 16:38:22,830 - gym_custom_envs_real_ur_drivers_URBasic_realTimeClientEvent - INFO - Program send to Robot:
servoj([-0.012271846303085088, -1.576932249946439, -1.5999419617647241, -1.5677283652191252, 1.5125050568552423, 3.1216509033472795], 0.5, 0.5, 0.002, 0.2, 100)

2025-07-07 16:38:22,839 - gym_custom_envs_real_ur_drivers_URBasic_realTimeClientEvent - INFO - Program send to Robot:
servoj([-0.012271846303085088, -1.576932249946439, -1.5999419617647241, -1.5677283652191252, 1.5125050568552423, 3.1216509033472795], 0.5, 0.5, 0.002, 0.2, 100)

2025-07-07 16:38:22,847 - gym_custom_envs_real_ur_drivers_URBasic_realTimeClientEvent - INFO - Program send to Robot:
servoj([-0.012271846303085088, -1.576932249946439, -1.5999419617647241, -1.5677283652191252, 1.5125050568552423, 3.1216509033472795], 0.5, 0.5, 0.002, 0.2, 100)

2025-07-07 16:38:22,855 - gym_custom_envs_real_ur_drivers_URBasic_realTimeClientEvent - INFO - Program send to Robot:
servoj([-0.012271846303085088, -1.576932249946439, -1.5999419617647241, -1.5677283652191252, 1.5125050568552423, 3.1216509033472795], 0.5, 0.5, 0.002, 0.2, 100)

2025-07-07 16:38:22,870 - gym_custom_envs_real_ur_drivers_URBasic_realTimeClientEvent - INFO - Program send to Robot:
servoj([-0.012271846303085088, -1.576932249946439, -1.5999419617647241, -1.5677283652191252, 1.5125050568552423, 3.1216509033472795], 0.5, 0.5, 0.002, 0.2, 100)

2025-07-07 16:38:22,880 - gym_custom_envs_real_ur_drivers_URBasic_realTimeClientEvent - INFO - Program send to Robot:
servoj([-0.012271846303085088, -1.576932249946439, -1.5999419617647241, -1.5677283652191252, 1.5125050568552423, 3.1216509033472795], 0.5, 0.5, 0.002, 0.2, 100)

2025-07-07 16:38:22,888 - gym_custom_envs_real_ur_drivers_URBasic_realTimeClientEvent - INFO - Program send to Robot:
servoj([-0.012271846303085088, -1.576932249946439, -1.5999419617647241, -1.5677283652191252, 1.5125050568552423, 3.1216509033472795], 0.5, 0.5, 0.002, 0.2, 100)

2025-07-07 16:38:22,894 - gym_custom_envs_real_ur_drivers_URBasic_realTimeClientEvent - INFO - Program send to Robot:
servoj([-0.012271846303085088, -1.576932249946439, -1.5999419617647241, -1.5677283652191252, 1.5125050568552423, 3.123169544327286], 0.5, 0.5, 0.002, 0.2, 100)

2025-07-07 16:38:22,913 - gym_custom_envs_real_ur_drivers_URBasic_realTimeClientEvent - INFO - Program send to Robot:
servoj([-0.012271846303085088, -1.576932249946439, -1.5999419617647241, -1.5677283652191252, 1.5125050568552423, 3.123184730737086], 0.5, 0.5, 0.002, 0.2, 100)

2025-07-07 16:38:22,918 - gym_custom_envs_real_ur_drivers_URBasic_realTimeClientEvent - INFO - Program send to Robot:
servoj([-0.012271846303085088, -1.576932249946439, -1.5999419617647241, -1.5677283652191252, 1.5125050568552423, 3.1231848826011843], 0.5, 0.5, 0.002, 0.2, 100)

2025-07-07 16:38:22,928 - gym_custom_envs_real_ur_drivers_URBasic_realTimeClientEvent - INFO - Program send to Robot:
servoj([-0.012271846303085088, -1.576932249946439, -1.5999419617647241, -1.5677283652191252, 1.5125050568552423, 3.123184884119825], 0.5, 0.5, 0.002, 0.2, 100)

2025-07-07 16:38:22,942 - gym_custom_envs_real_ur_drivers_URBasic_realTimeClientEvent - INFO - Program send to Robot:
servoj([-0.012271846303085088, -1.576932249946439, -1.5999419617647241, -1.5677283652191252, 1.5125050568552423, 3.1231848841350116], 0.5, 0.5, 0.002, 0.2, 100)

2025-07-07 16:38:22,951 - gym_custom_envs_real_ur_drivers_URBasic_realTimeClientEvent - INFO - Program send to Robot:
servoj([-0.012271846303085088, -1.576932249946439, -1.5999419617647241, -1.5677283652191252, 1.5125050568552423, 3.1231848841351635], 0.5, 0.5, 0.002, 0.2, 100)

2025-07-07 16:38:22,960 - gym_custom_envs_real_ur_drivers_URBasic_realTimeClientEvent - INFO - Program send to Robot:
servoj([-0.012271846303085088, -1.576932249946439, -1.5999419617647241, -1.5662097242391184, 1.5125050568552423, 3.1231848841351653], 0.5, 0.5, 0.002, 0.2, 100)

2025-07-07 16:38:22,966 - gym_custom_envs_real_ur_drivers_URBasic_realTimeClientEvent - INFO - Program send to Robot:
servoj([-0.012271846303085088, -1.576932249946439, -1.5999419617647241, -1.5661945378293183, 1.5125050568552423, 3.1231848841351653], 0.5, 0.5, 0.002, 0.2, 100)

2025-07-07 16:38:22,984 - gym_custom_envs_real_ur_drivers_URBasic_realTimeClientEvent - INFO - Program send to Robot:
servoj([-0.012271846303085088, -1.576932249946439, -1.5999419617647241, -1.5661943859652203, 1.5125050568552423, 3.1231848841351653], 0.5, 0.5, 0.002, 0.2, 100)

2025-07-07 16:38:22,990 - gym_custom_envs_real_ur_drivers_URBasic_realTimeClientEvent - INFO - Program send to Robot:
servoj([-0.012271846303085088, -1.576932249946439, -1.5999419617647241, -1.5661943844465793, 1.5170609797952623, 3.1216662431551585], 0.5, 0.5, 0.002, 0.2, 100)

2025-07-07 16:38:23,000 - gym_custom_envs_real_ur_drivers_URBasic_realTimeClientEvent - INFO - Program send to Robot:
servoj([-0.012271846303085088, -1.576932249946439, -1.5999419617647241, -1.566194384431393, 1.5171065390246625, 3.121651056745358], 0.5, 0.5, 0.002, 0.2, 100)

2025-07-07 16:38:23,014 - gym_custom_envs_real_ur_drivers_URBasic_realTimeClientEvent - INFO - Program send to Robot:
servoj([-0.012271846303085088, -1.576932249946439, -1.5999419617647241, -1.5661943844312411, 1.5171069946169564, 3.1216509048812604], 0.5, 0.5, 0.002, 0.2, 100)

2025-07-07 16:38:23,023 - gym_custom_envs_real_ur_drivers_URBasic_realTimeClientEvent - INFO - Program send to Robot:
servoj([-0.012271846303085088, -1.576932249946439, -1.5999419617647241, -1.5661943844312396, 1.523181563092907, 3.115576339442592], 0.5, 0.5, 0.002, 0.2, 100)

2025-07-07 16:38:23,031 - gym_custom_envs_real_ur_drivers_URBasic_realTimeClientEvent - INFO - Program send to Robot:
servoj([-0.012271846303085088, -1.576932249946439, -1.5999419617647241, -1.5661943844312396, 1.5232423087776665, 3.1155155937882055], 0.5, 0.5, 0.002, 0.2, 100)

2025-07-07 16:38:23,038 - gym_custom_envs_real_ur_drivers_URBasic_realTimeClientEvent - INFO - Program send to Robot:
servoj([-0.012271846303085088, -1.576932249946439, -1.5999419617647241, -1.5661943844312396, 1.5232429162345142, 3.115514986331662], 0.5, 0.5, 0.002, 0.2, 100)

2025-07-07 16:38:23,054 - gym_custom_envs_real_ur_drivers_URBasic_realTimeClientEvent - INFO - Program send to Robot:
servoj([-0.012271846303085088, -1.576932249946439, -1.5999419617647241, -1.5677130254112464, 1.5369106911291435, 3.1109590573170762], 0.5, 0.5, 0.002, 0.2, 100)

2025-07-07 16:38:23,062 - gym_custom_envs_real_ur_drivers_URBasic_realTimeClientEvent - INFO - Program send to Robot:
servoj([-0.012271846303085088, -1.576932249946439, -1.5999419617647241, -1.5677282118210465, 1.5370473688780897, 3.1109134980269304], 0.5, 0.5, 0.002, 0.2, 100)

2025-07-07 16:38:23,070 - gym_custom_envs_real_ur_drivers_URBasic_realTimeClientEvent - INFO - Program send to Robot:
servoj([-0.012271846303085088, -1.576932249946439, -1.5999419617647241, -1.5677283636851445, 1.5370487356555793, 3.110913042434029], 0.5, 0.5, 0.002, 0.2, 100)

2025-07-07 16:38:23,079 - gym_custom_envs_real_ur_drivers_URBasic_realTimeClientEvent - INFO - Program send to Robot:
servoj([-0.012271846303085088, -1.576932249946439, -1.5999419617647241, -1.5677283652037854, 1.5370487493233542, 3.1109130378781003], 0.5, 0.5, 0.002, 0.2, 100)

2025-07-07 16:38:23,094 - gym_custom_envs_real_ur_drivers_URBasic_realTimeClientEvent - INFO - Program send to Robot:
servoj([-0.012271846303085088, -1.576932249946439, -1.5999419617647241, -1.5677283652189717, 1.5583097231801266, 3.1078757558725267], 0.5, 0.5, 0.002, 0.2, 100)

2025-07-07 16:38:23,103 - gym_custom_envs_real_ur_drivers_URBasic_realTimeClientEvent - INFO - Program send to Robot:
servoj([-0.012271846303085088, -1.576932249946439, -1.5999419617647241, -1.5677283652191236, 1.5585223329186941, 3.1078453830524713], 0.5, 0.5, 0.002, 0.2, 100)

2025-07-07 16:38:23,109 - gym_custom_envs_real_ur_drivers_URBasic_realTimeClientEvent - INFO - Program send to Robot:
servoj([-0.012271846303085088, -1.576932249946439, -1.5999419617647241, -1.5677283652191252, 1.5585244590160798, 3.1078450793242705], 0.5, 0.5, 0.002, 0.2, 100)

2025-07-07 16:38:23,128 - gym_custom_envs_real_ur_drivers_URBasic_realTimeClientEvent - INFO - Program send to Robot:
servoj([-0.012271846303085088, -1.576932249946439, -1.5999419617647241, -1.5677283652191252, 1.581304094977156, 3.1093637172669957], 0.5, 0.5, 0.002, 0.2, 100)

2025-07-07 16:38:23,134 - gym_custom_envs_real_ur_drivers_URBasic_realTimeClientEvent - INFO - Program send to Robot:
servoj([-0.012271846303085088, -1.576932249946439, -1.5999419617647241, -1.5677283652191252, 1.5815318913367669, 3.109378903646423], 0.5, 0.5, 0.002, 0.2, 100)

2025-07-07 16:38:23,144 - gym_custom_envs_real_ur_drivers_URBasic_realTimeClientEvent - INFO - Program send to Robot:
servoj([-0.012271846303085088, -1.576932249946439, -1.5999419617647241, -1.5677283652191252, 1.5815341693003628, 3.1093790555102174], 0.5, 0.5, 0.002, 0.2, 100)

2025-07-07 16:38:23,158 - gym_custom_envs_real_ur_drivers_URBasic_realTimeClientEvent - INFO - Program send to Robot:
servoj([-0.012271846303085088, -1.576932249946439, -1.5984233207847172, -1.5677283652191252, 1.5952019609000596, 3.112416338988868], 0.5, 0.5, 0.002, 0.2, 100)

2025-07-07 16:38:23,168 - gym_custom_envs_real_ur_drivers_URBasic_realTimeClientEvent - INFO - Program send to Robot:
servoj([-0.012271846303085088, -1.576932249946439, -1.5984081343749172, -1.5677283652191252, 1.5953386388160566, 3.112446711823655], 0.5, 0.5, 0.002, 0.2, 100)

2025-07-07 16:38:23,176 - gym_custom_envs_real_ur_drivers_URBasic_realTimeClientEvent - INFO - Program send to Robot:
servoj([-0.012271846303085088, -1.576932249946439, -1.5984079825108193, -1.5677283652191252, 1.5953400055952167, 3.1124470155520028], 0.5, 0.5, 0.002, 0.2, 100)

2025-07-07 16:38:23,182 - gym_custom_envs_real_ur_drivers_URBasic_realTimeClientEvent - INFO - Program send to Robot:
servoj([-0.012271846303085088, -1.576932249946439, -1.5984079809921783, -1.5677283652191252, 1.5983773012230222, 3.112447018589286], 0.5, 0.5, 0.002, 0.2, 100)

2025-07-07 16:38:23,199 - gym_custom_envs_real_ur_drivers_URBasic_realTimeClientEvent - INFO - Program send to Robot:
servoj([-0.012271846303085088, -1.576932249946439, -1.5984079809769918, -1.5677283652191252, 1.5984076741793003, 3.112447018619659], 0.5, 0.5, 0.002, 0.2, 100)

2025-07-07 16:38:23,206 - gym_custom_envs_real_ur_drivers_URBasic_realTimeClientEvent - INFO - Program send to Robot:
servoj([-0.012271846303085088, -1.576932249946439, -1.59840798097684, -1.5677283652191252, 1.598407977908863, 3.112447018619963], 0.5, 0.5, 0.002, 0.2, 100)

2025-07-07 16:38:23,215 - gym_custom_envs_real_ur_drivers_URBasic_realTimeClientEvent - INFO - Program send to Robot:
servoj([-0.013790487283092031, -1.576932249946439, -1.5984079809768383, -1.5677283652191252, 1.5984079809461587, 3.1139656595999723], 0.5, 0.5, 0.002, 0.2, 100)

2025-07-07 16:38:23,225 - gym_custom_envs_real_ur_drivers_URBasic_realTimeClientEvent - INFO - Program send to Robot:
servoj([-0.0138056736928921, -1.576932249946439, -1.5984079809768383, -1.5677283652191252, 1.5984079809765317, 3.1139808460097727], 0.5, 0.5, 0.002, 0.2, 100)

2025-07-07 16:38:23,241 - gym_custom_envs_real_ur_drivers_URBasic_realTimeClientEvent - INFO - Program send to Robot:
servoj([-0.013805825556990102, -1.576932249946439, -1.5984079809768383, -1.5677283652191252, 1.5984079809768352, 3.1139809978738704], 0.5, 0.5, 0.002, 0.2, 100)

2025-07-07 16:38:23,250 - gym_custom_envs_real_ur_drivers_URBasic_realTimeClientEvent - INFO - Program send to Robot:
servoj([-0.013805827075631083, -1.576932249946439, -1.5984079809768383, -1.5677283652191252, 1.5968893399968314, 3.1139809993925116], 0.5, 0.5, 0.002, 0.2, 100)

2025-07-07 16:38:23,254 - gym_custom_envs_real_ur_drivers_URBasic_realTimeClientEvent - INFO - Program send to Robot:
servoj([-0.013805827090817492, -1.576932249946439, -1.5984079809768383, -1.5677283652191252, 1.5968741535870314, 3.113980999407698], 0.5, 0.5, 0.002, 0.2, 100)

2025-07-07 16:38:23,270 - gym_custom_envs_real_ur_drivers_URBasic_realTimeClientEvent - INFO - Program send to Robot:
servoj([-0.013805827090969355, -1.576932249946439, -1.5984079809768383, -1.5677283652191252, 1.5968740017229333, 3.11398099940785], 0.5, 0.5, 0.002, 0.2, 100)

2025-07-07 16:38:23,278 - gym_custom_envs_real_ur_drivers_URBasic_realTimeClientEvent - INFO - Program send to Robot:
servoj([-0.012287186110963931, -1.576932249946439, -1.5984079809768383, -1.5677283652191252, 1.5953553592242853, 3.115499640387858], 0.5, 0.5, 0.002, 0.2, 100)

2025-07-07 16:38:23,290 - gym_custom_envs_real_ur_drivers_URBasic_realTimeClientEvent - INFO - Program send to Robot:
servoj([-0.012271999701163876, -1.576932249946439, -1.5984079809768383, -1.5677283652191252, 1.5953401727992989, 3.115514826797658], 0.5, 0.5, 0.002, 0.2, 100)

2025-07-07 16:38:23,302 - gym_custom_envs_real_ur_drivers_URBasic_realTimeClientEvent - INFO - Program send to Robot:
servoj([-0.012271847837065876, -1.576932249946439, -1.5984079809768383, -1.5677283652191252, 1.595340020935049, 3.115514978661756], 0.5, 0.5, 0.002, 0.2, 100)

2025-07-07 16:38:23,314 - gym_custom_envs_real_ur_drivers_URBasic_realTimeClientEvent - INFO - Program send to Robot:
servoj([-0.012271846318424895, -1.576932249946439, -1.5984079809768383, -1.5677283652191252, 1.5923027374563925, 3.115514980180397], 0.5, 0.5, 0.002, 0.2, 100)

2025-07-07 16:38:23,319 - gym_custom_envs_real_ur_drivers_URBasic_realTimeClientEvent - INFO - Program send to Robot:
servoj([-0.012271846303238486, -1.576932249946439, -1.5984079809768383, -1.5677283652191252, 1.592272364621606, 3.1155149801955835], 0.5, 0.5, 0.002, 0.2, 100)

2025-07-07 16:38:23,327 - gym_custom_envs_real_ur_drivers_URBasic_realTimeClientEvent - INFO - Program send to Robot:
servoj([-0.012271846303086621, -1.576932249946439, -1.5984079809768383, -1.5677283652191252, 1.5922720608932581, 3.1155149801957354], 0.5, 0.5, 0.002, 0.2, 100)

2025-07-07 16:38:23,344 - gym_custom_envs_real_ur_drivers_URBasic_realTimeClientEvent - INFO - Program send to Robot:
servoj([-0.012271846303085103, -1.576932249946439, -1.5984079809768383, -1.5677283652191252, 1.5907534168759687, 3.115514980195737], 0.5, 0.5, 0.002, 0.2, 100)

2025-07-07 16:38:23,350 - gym_custom_envs_real_ur_drivers_URBasic_realTimeClientEvent - INFO - Program send to Robot:
servoj([-0.012271846303085088, -1.576932249946439, -1.5984079809768383, -1.5677283652191252, 1.590738230435796, 3.115514980195737], 0.5, 0.5, 0.002, 0.2, 100)

2025-07-07 16:38:23,360 - gym_custom_envs_real_ur_drivers_URBasic_realTimeClientEvent - INFO - Program send to Robot:
servoj([-0.012271846303085088, -1.576932249946439, -1.5984079809768383, -1.5677283652191252, 1.5907380785713943, 3.115514980195737], 0.5, 0.5, 0.002, 0.2, 100)

2025-07-07 16:38:23,374 - gym_custom_envs_real_ur_drivers_URBasic_realTimeClientEvent - INFO - Program send to Robot:
servoj([-0.012271846303085088, -1.576932249946439, -1.5984079809768383, -1.5677283652191252, 1.5892194360727432, 3.115514980195737], 0.5, 0.5, 0.002, 0.2, 100)

2025-07-07 16:38:23,384 - gym_custom_envs_real_ur_drivers_URBasic_realTimeClientEvent - INFO - Program send to Robot:
servoj([-0.012271846303085088, -1.576932249946439, -1.5984079809768383, -1.5677283652191252, 1.5892042496477568, 3.115514980195737], 0.5, 0.5, 0.002, 0.2, 100)

2025-07-07 16:38:23,394 - gym_custom_envs_real_ur_drivers_URBasic_realTimeClientEvent - INFO - Program send to Robot:
servoj([-0.012271846303085088, -1.576932249946439, -1.5984079809768383, -1.5677283652191252, 1.589204097783507, 3.115514980195737], 0.5, 0.5, 0.002, 0.2, 100)

2025-07-07 16:38:23,399 - gym_custom_envs_real_ur_drivers_URBasic_realTimeClientEvent - INFO - Program send to Robot:
servoj([-0.012271846303085088, -1.576932249946439, -1.5984079809768383, -1.5677283652191252, 1.5892040962648644, 3.115514980195737], 0.5, 0.5, 0.002, 0.2, 100)

2025-07-07 16:38:23,415 - gym_custom_envs_real_ur_drivers_URBasic_realTimeClientEvent - INFO - Program send to Robot:
servoj([-0.012271846303085088, -1.576932249946439, -1.5984079809768383, -1.5662097242391184, 1.5892040962496778, 3.1170336211757443], 0.5, 0.5, 0.002, 0.2, 100)

2025-07-07 16:38:23,422 - gym_custom_envs_real_ur_drivers_URBasic_realTimeClientEvent - INFO - Program send to Robot:
servoj([-0.012271846303085088, -1.576932249946439, -1.5984079809768383, -1.5661945378293183, 1.589204096249526, 3.1170488075855443], 0.5, 0.5, 0.002, 0.2, 100)

2025-07-07 16:38:23,434 - gym_custom_envs_real_ur_drivers_URBasic_realTimeClientEvent - INFO - Program send to Robot:
servoj([-0.012271846303085088, -1.576932249946439, -1.5984079809768383, -1.5661943859652203, 1.5892040962495244, 3.1170489594496424], 0.5, 0.5, 0.002, 0.2, 100)

2025-07-07 16:38:23,446 - gym_custom_envs_real_ur_drivers_URBasic_realTimeClientEvent - INFO - Program send to Robot:
servoj([-0.012271846303085088, -1.576932249946439, -1.5984079809768383, -1.5661943844465793, 1.5876854552695174, 3.115530319988276], 0.5, 0.5, 0.002, 0.2, 100)

2025-07-07 16:38:23,457 - gym_custom_envs_real_ur_drivers_URBasic_realTimeClientEvent - INFO - Program send to Robot:
servoj([-0.012271846303085088, -1.576932249946439, -1.5984079809768383, -1.566194384431393, 1.5876702688597175, 3.115515133593662], 0.5, 0.5, 0.002, 0.2, 100)

2025-07-07 16:38:23,462 - gym_custom_envs_real_ur_drivers_URBasic_realTimeClientEvent - INFO - Program send to Robot:
servoj([-0.012271846303085088, -1.576932249946439, -1.5984079809768383, -1.5661943844312411, 1.5876701169956193, 3.1155149817297163], 0.5, 0.5, 0.002, 0.2, 100)

2025-07-07 16:38:23,470 - gym_custom_envs_real_ur_drivers_URBasic_realTimeClientEvent - INFO - Program send to Robot:
servoj([-0.012271846303085088, -1.576932249946439, -1.5968893399968314, -1.563157102471226, 1.5876701154769783, 3.115514980211077], 0.5, 0.5, 0.002, 0.2, 100)

2025-07-07 16:38:23,486 - gym_custom_envs_real_ur_drivers_URBasic_realTimeClientEvent - INFO - Program send to Robot:
servoj([-0.012271846303085088, -1.576932249946439, -1.5968741535870314, -1.563126729651626, 1.587670115461792, 3.1155149801958903], 0.5, 0.5, 0.002, 0.2, 100)

2025-07-07 16:38:23,494 - gym_custom_envs_real_ur_drivers_URBasic_realTimeClientEvent - INFO - Program send to Robot:
servoj([-0.012271846303085088, -1.576932249946439, -1.5968740017229333, -1.5631264259234299, 1.5876701154616402, 3.1155149801957385], 0.5, 0.5, 0.002, 0.2, 100)

2025-07-07 16:38:23,506 - gym_custom_envs_real_ur_drivers_URBasic_realTimeClientEvent - INFO - Program send to Robot:
servoj([-0.012271846303085088, -1.576932249946439, -1.5968740002042923, -1.5585704999461276, 1.5876701154616386, 3.115514980195737], 0.5, 0.5, 0.002, 0.2, 100)

2025-07-07 16:38:23,519 - gym_custom_envs_real_ur_drivers_URBasic_realTimeClientEvent - INFO - Program send to Robot:
servoj([-0.012271846303085088, -1.576932249946439, -1.596874000189106, -1.5585249406863546, 1.5876701154616386, 3.115514980195737], 0.5, 0.5, 0.002, 0.2, 100)

2025-07-07 16:38:23,530 - gym_custom_envs_real_ur_drivers_URBasic_realTimeClientEvent - INFO - Program send to Robot:
servoj([-0.012271846303085088, -1.576932249946439, -1.596874000188954, -1.558524485093757, 1.5876701154616386, 3.115514980195737], 0.5, 0.5, 0.002, 0.2, 100)

2025-07-07 16:38:23,534 - gym_custom_envs_real_ur_drivers_URBasic_realTimeClientEvent - INFO - Program send to Robot:
servoj([-0.012271846303085088, -1.576932249946439, -1.5953553592089456, -1.5539685575978104, 1.5876701154616386, 3.115514980195737], 0.5, 0.5, 0.002, 0.2, 100)

2025-07-07 16:38:23,555 - gym_custom_envs_real_ur_drivers_URBasic_realTimeClientEvent - INFO - Program send to Robot:
servoj([-0.012271846303085088, -1.576932249946439, -1.5953401727991454, -1.553922998322851, 1.5876701154616386, 3.115514980195737], 0.5, 0.5, 0.002, 0.2, 100)

2025-07-07 16:38:23,559 - gym_custom_envs_real_ur_drivers_URBasic_realTimeClientEvent - INFO - Program send to Robot:
servoj([-0.012271846303085088, -1.576932249946439, -1.5953400209350475, -1.5539225427301013, 1.5876701154616386, 3.115514980195737], 0.5, 0.5, 0.002, 0.2, 100)

2025-07-07 16:38:23,574 - gym_custom_envs_real_ur_drivers_URBasic_realTimeClientEvent - INFO - Program send to Robot:
servoj([-0.012271846303085088, -1.576932249946439, -1.5892654554963797, -1.5463293332741401, 1.5876701154616386, 3.115514980195737], 0.5, 0.5, 0.002, 0.2, 100)

2025-07-07 16:38:23,582 - gym_custom_envs_real_ur_drivers_URBasic_realTimeClientEvent - INFO - Program send to Robot:
servoj([-0.012271846303085088, -1.576932249946439, -1.589204709841993, -1.5462534011795805, 1.5876701154616386, 3.115514980195737], 0.5, 0.5, 0.002, 0.2, 100)

2025-07-07 16:38:23,603 - gym_custom_envs_real_ur_drivers_URBasic_realTimeClientEvent - INFO - Program send to Robot:
servoj([-0.012271846303085088, -1.576932249946439, -1.581610897485415, -1.5356221549985873, 1.5876701154616386, 3.115514980195737], 0.5, 0.5, 0.002, 0.2, 100)

2025-07-07 16:38:23,606 - gym_custom_envs_real_ur_drivers_URBasic_realTimeClientEvent - INFO - Program send to Robot:
servoj([-0.012271846303085088, -1.576932249946439, -1.5815349593618493, -1.5355158425367774, 1.5876701154616386, 3.115514980195737], 0.5, 0.5, 0.002, 0.2, 100)

2025-07-07 16:38:23,627 - gym_custom_envs_real_ur_drivers_URBasic_realTimeClientEvent - INFO - Program send to Robot:
servoj([-0.012271846303085088, -1.576932249946439, -1.5815341999806136, -1.5355147794121593, 1.5876701154616386, 3.115514980195737], 0.5, 0.5, 0.002, 0.2, 100)

2025-07-07 16:38:23,631 - gym_custom_envs_real_ur_drivers_URBasic_realTimeClientEvent - INFO - Program send to Robot:
servoj([-0.012271846303085088, -1.576932249946439, -1.5709037055267538, -1.523365640940859, 1.5861514744816316, 3.115514980195737], 0.5, 0.5, 0.002, 0.2, 100)

2025-07-07 16:38:23,652 - gym_custom_envs_real_ur_drivers_URBasic_realTimeClientEvent - INFO - Program send to Robot:
servoj([-0.012271846303085088, -1.576932249946439, -1.5707974005822152, -1.523244149556146, 1.5861362880718315, 3.115514980195737], 0.5, 0.5, 0.002, 0.2, 100)

2025-07-07 16:38:23,662 - gym_custom_envs_real_ur_drivers_URBasic_realTimeClientEvent - INFO - Program send to Robot:
servoj([-0.012271846303085088, -1.576932249946439, -1.557128568712709, -1.5110938068022444, 1.5861361362077335, 3.1139963392157304], 0.5, 0.5, 0.002, 0.2, 100)

2025-07-07 16:38:23,671 - gym_custom_envs_real_ur_drivers_URBasic_realTimeClientEvent - INFO - Program send to Robot:
servoj([-0.012271846303085088, -1.576932249946439, -1.556991880394014, -1.5109723033747053, 1.5861361346890925, 3.11398115280593], 0.5, 0.5, 0.002, 0.2, 100)

2025-07-07 16:38:23,678 - gym_custom_envs_real_ur_drivers_URBasic_realTimeClientEvent - INFO - Program send to Robot:
servoj([-0.012271846303085088, -1.576932249946439, -1.556990513510827, -1.51097108834043, 1.5861361346739062, 3.1139810009418323], 0.5, 0.5, 0.002, 0.2, 100)

2025-07-07 16:38:23,694 - gym_custom_envs_real_ur_drivers_URBasic_realTimeClientEvent - INFO - Program send to Robot:
servoj([-0.012271846303085088, -1.576932249946439, -1.5402854490619207, -1.4988219483500331, 1.5861361346737544, 3.113980999423191], 0.5, 0.5, 0.002, 0.2, 100)

2025-07-07 16:38:23,711 - gym_custom_envs_real_ur_drivers_URBasic_realTimeClientEvent - INFO - Program send to Robot:
servoj([-0.012271846303085088, -1.576932249946439, -1.5401183984174316, -1.498700456950129, 1.5861361346737528, 3.113980999408005], 0.5, 0.5, 0.002, 0.2, 100)

2025-07-07 16:38:23,718 - gym_custom_envs_real_ur_drivers_URBasic_realTimeClientEvent - INFO - Program send to Robot:
servoj([-0.012271846303085088, -1.576932249946439, -1.5401167279109866, -1.49869924203613, 1.5861361346737528, 3.113980999407853], 0.5, 0.5, 0.002, 0.2, 100)

2025-07-07 16:38:23,726 - gym_custom_envs_real_ur_drivers_URBasic_realTimeClientEvent - INFO - Program send to Robot:
servoj([-0.010753205323078142, -1.576932249946439, -1.5264489423858605, -1.485031461066929, 1.5861361346737528, 3.1139809994078513], 0.5, 0.5, 0.002, 0.2, 100)

2025-07-07 16:38:23,734 - gym_custom_envs_real_ur_drivers_URBasic_realTimeClientEvent - INFO - Program send to Robot:
servoj([-0.010738018913278073, -1.576932249946439, -1.5263122645306093, -1.484894783257237, 1.5861361346737528, 3.1139809994078513], 0.5, 0.5, 0.002, 0.2, 100)

2025-07-07 16:38:23,750 - gym_custom_envs_real_ur_drivers_URBasic_realTimeClientEvent - INFO - Program send to Robot:
servoj([-0.010737867049180073, -1.576932249946439, -1.5263108977520567, -1.48489341647914, 1.5861361346737528, 3.1139809994078513], 0.5, 0.5, 0.002, 0.2, 100)

2025-07-07 16:38:23,758 - gym_custom_envs_real_ur_drivers_URBasic_realTimeClientEvent - INFO - Program send to Robot:
servoj([-0.010737865530539093, -1.576932249946439, -1.5126431152642104, -1.4697069930112914, 1.5861361346737528, 3.1139809994078513], 0.5, 0.5, 0.002, 0.2, 100)

2025-07-07 16:38:23,766 - gym_custom_envs_real_ur_drivers_URBasic_realTimeClientEvent - INFO - Program send to Robot:
servoj([-0.010737865515352683, -1.576932249946439, -1.512506437439332, -1.4695551287766129, 1.5861361346737528, 3.1139809994078513], 0.5, 0.5, 0.002, 0.2, 100)

2025-07-07 16:38:23,774 - gym_custom_envs_real_ur_drivers_URBasic_realTimeClientEvent - INFO - Program send to Robot:
servoj([-0.010737865515200819, -1.576932249946439, -1.5125050706610832, -1.469553610134266, 1.5861361346737528, 3.1139809994078513], 0.5, 0.5, 0.002, 0.2, 100)

2025-07-07 16:38:23,791 - gym_custom_envs_real_ur_drivers_URBasic_realTimeClientEvent - INFO - Program send to Robot:
servoj([-0.0107378655151993, -1.576932249946439, -1.500355929153246, -1.4513299031877611, 1.5861361346737528, 3.1124623584278446], 0.5, 0.5, 0.002, 0.2, 100)

2025-07-07 16:38:23,798 - gym_custom_envs_real_ur_drivers_URBasic_realTimeClientEvent - INFO - Program send to Robot:
servoj([-0.010737865515199285, -1.576932249946439, -1.5002344377381678, -1.451147666118296, 1.5861361346737528, 3.1124471720180447], 0.5, 0.5, 0.002, 0.2, 100)

2025-07-07 16:38:23,815 - gym_custom_envs_real_ur_drivers_URBasic_realTimeClientEvent - INFO - Program send to Robot:
servoj([-0.010737865515199285, -1.576932249946439, -1.500233222824017, -1.4511458437476012, 1.5861361346737528, 3.1124470201539465], 0.5, 0.5, 0.002, 0.2, 100)

2025-07-07 16:38:23,831 - gym_custom_envs_real_ur_drivers_URBasic_realTimeClientEvent - INFO - Program send to Robot:
servoj([-0.010737865515199285, -1.576932249946439, -1.4926400057748415, -1.4238102878837722, 1.5861361346737528, 3.1124470186353057], 0.5, 0.5, 0.002, 0.2, 100)

2025-07-07 16:38:23,839 - gym_custom_envs_real_ur_drivers_URBasic_realTimeClientEvent - INFO - Program send to Robot:
servoj([-0.010737865515199285, -1.576932249946439, -1.4925640736043497, -1.423536932325134, 1.5861361346737528, 3.112447018620119], 0.5, 0.5, 0.002, 0.2, 100)

2025-07-07 16:38:23,847 - gym_custom_envs_real_ur_drivers_URBasic_realTimeClientEvent - INFO - Program send to Robot:
servoj([-0.010737865515199285, -1.576932249946439, -1.4925633142826447, -1.4235341987695476, 1.5861361346737528, 3.1124470186199673], 0.5, 0.5, 0.002, 0.2, 100)

2025-07-07 16:38:23,855 - gym_custom_envs_real_ur_drivers_URBasic_realTimeClientEvent - INFO - Program send to Robot:
servoj([-0.010737865515199285, -1.576932249946439, -1.4895260247294149, -1.3916427108538492, 1.5861361346737528, 3.112447018619966], 0.5, 0.5, 0.002, 0.2, 100)

2025-07-07 16:38:23,871 - gym_custom_envs_real_ur_drivers_URBasic_realTimeClientEvent - INFO - Program send to Robot:
servoj([-0.010737865515199285, -1.576932249946439, -1.4894956518338827, -1.3913237959746922, 1.5861361346737528, 3.112447018619966], 0.5, 0.5, 0.002, 0.2, 100)

2025-07-07 16:38:23,878 - gym_custom_envs_real_ur_drivers_URBasic_realTimeClientEvent - INFO - Program send to Robot:
servoj([-0.010737865515199285, -1.576932249946439, -1.4894953481049273, -1.3913206068259005, 1.5861361346737528, 3.112447018619966], 0.5, 0.5, 0.002, 0.2, 100)

2025-07-07 16:38:23,886 - gym_custom_envs_real_ur_drivers_URBasic_realTimeClientEvent - INFO - Program send to Robot:
servoj([-0.010737865515199285, -1.576932249946439, -1.4894953450676376, -1.353354550434243, 1.5861361346737528, 3.1139656595999727], 0.5, 0.5, 0.002, 0.2, 100)

2025-07-07 16:38:23,894 - gym_custom_envs_real_ur_drivers_URBasic_realTimeClientEvent - INFO - Program send to Robot:
servoj([-0.010737865515199285, -1.576932249946439, -1.4894953450372648, -1.3529748898703264, 1.5861361346737528, 3.1139808460097727], 0.5, 0.5, 0.002, 0.2, 100)

2025-07-07 16:38:23,910 - gym_custom_envs_real_ur_drivers_URBasic_realTimeClientEvent - INFO - Program send to Robot:
servoj([-0.010737865515199285, -1.576932249946439, -1.489495345036961, -1.3529710932646872, 1.5861361346737528, 3.1139809978738704], 0.5, 0.5, 0.002, 0.2, 100)

2025-07-07 16:38:23,918 - gym_custom_envs_real_ur_drivers_URBasic_realTimeClientEvent - INFO - Program send to Robot:
servoj([-0.010737865515199285, -1.576932249946439, -1.4894953450369581, -1.3104491078584413, 1.5861361346737528, 3.1139809993925116], 0.5, 0.5, 0.002, 0.2, 100)

2025-07-07 16:38:23,935 - gym_custom_envs_real_ur_drivers_URBasic_realTimeClientEvent - INFO - Program send to Robot:
servoj([-0.010737865515199285, -1.576932249946439, -1.489495345036958, -1.3100238880043789, 1.5861361346737528, 3.113980999407698], 0.5, 0.5, 0.002, 0.2, 100)

2025-07-07 16:38:23,942 - gym_custom_envs_real_ur_drivers_URBasic_realTimeClientEvent - INFO - Program send to Robot:
servoj([-0.010737865515199285, -1.576932249946439, -1.489495345036958, -1.3100196358058382, 1.5861361346737528, 3.11398099940785], 0.5, 0.5, 0.002, 0.2, 100)

2025-07-07 16:38:23,958 - gym_custom_envs_real_ur_drivers_URBasic_realTimeClientEvent - INFO - Program send to Robot:
servoj([-0.010737865515199285, -1.576932249946439, -1.491013986016964, -1.2690162868236694, 1.5861361346737528, 3.1139809994078513], 0.5, 0.5, 0.002, 0.2, 100)

2025-07-07 16:38:23,975 - gym_custom_envs_real_ur_drivers_URBasic_realTimeClientEvent - INFO - Program send to Robot:
servoj([-0.010737865515199285, -1.576932249946439, -1.4910291724267641, -1.2686062533338478, 1.5861361346737528, 3.1139809994078513], 0.5, 0.5, 0.002, 0.2, 100)

2025-07-07 16:38:23,983 - gym_custom_envs_real_ur_drivers_URBasic_realTimeClientEvent - INFO - Program send to Robot:
servoj([-0.00921922453519278, -1.5784508909264459, -1.491029324290862, -1.2351920514388002, 1.5861361346737528, 3.1139809994078513], 0.5, 0.5, 0.002, 0.2, 100)

2025-07-07 16:38:23,991 - gym_custom_envs_real_ur_drivers_URBasic_realTimeClientEvent - INFO - Program send to Robot:
servoj([-0.009204038125392715, -1.578466077336246, -1.491029325809503, -1.2348579094198497, 1.5861361346737528, 3.1139809994078513], 0.5, 0.5, 0.002, 0.2, 100)

2025-07-07 16:38:24,000 - gym_custom_envs_real_ur_drivers_URBasic_realTimeClientEvent - INFO - Program send to Robot:
servoj([-0.009203886261294715, -1.578466229200344, -1.4910293258246896, -1.23485456799966, 1.5861361346737528, 3.1139809994078513], 0.5, 0.5, 0.002, 0.2, 100)

2025-07-07 16:38:24,015 - gym_custom_envs_real_ur_drivers_URBasic_realTimeClientEvent - INFO - Program send to Robot:
servoj([-0.009203884742653734, -1.578466230718985, -1.4910293258248415, -1.2075189969453362, 1.5846174936937458, 3.1139809994078513], 0.5, 0.5, 0.002, 0.2, 100)

2025-07-07 16:38:24,023 - gym_custom_envs_real_ur_drivers_URBasic_realTimeClientEvent - INFO - Program send to Robot:
servoj([-0.009203884727467325, -1.5784662307341712, -1.4910293258248428, -1.207245641234793, 1.5846023072839457, 3.1139809994078513], 0.5, 0.5, 0.002, 0.2, 100)

2025-07-07 16:38:24,031 - gym_custom_envs_real_ur_drivers_URBasic_realTimeClientEvent - INFO - Program send to Robot:
servoj([-0.00920388472731546, -1.5784662307343231, -1.4910293258248428, -1.2072429076776876, 1.5846021554198477, 3.1139809994078513], 0.5, 0.5, 0.002, 0.2, 100)

2025-07-07 16:38:24,038 - gym_custom_envs_real_ur_drivers_URBasic_realTimeClientEvent - INFO - Program send to Robot:
servoj([-0.009203884727313942, -1.5784662307343247, -1.4910293258248428, -1.2072428803421165, 1.5846021539012067, 3.1139809994078513], 0.5, 0.5, 0.002, 0.2, 100)

2025-07-07 16:38:24,054 - gym_custom_envs_real_ur_drivers_URBasic_realTimeClientEvent - INFO - Program send to Robot:
servoj([-0.009203884727313927, -1.5784662307343247, -1.4910293258248428, -1.1890191883086794, 1.5846021538860204, 3.1139809994078513], 0.5, 0.5, 0.002, 0.2, 100)

2025-07-07 16:38:24,062 - gym_custom_envs_real_ur_drivers_URBasic_realTimeClientEvent - INFO - Program send to Robot:
servoj([-0.009203884727313927, -1.5784662307343247, -1.4910293258248428, -1.188836951388345, 1.5846021538858686, 3.1139809994078513], 0.5, 0.5, 0.002, 0.2, 100)

2025-07-07 16:38:24,070 - gym_custom_envs_real_ur_drivers_URBasic_realTimeClientEvent - INFO - Program send to Robot:
servoj([-0.009203884727313927, -1.5784662307343247, -1.4910293258248428, -1.1888351290191417, 1.584602153885867, 3.1139809994078513], 0.5, 0.5, 0.002, 0.2, 100)

2025-07-07 16:38:24,086 - gym_custom_envs_real_ur_drivers_URBasic_realTimeClientEvent - INFO - Program send to Robot:
servoj([-0.009203884727313927, -1.5784662307343247, -1.4910293258248428, -1.1766859829553955, 1.584602153885867, 3.1139809994078513], 0.5, 0.5, 0.002, 0.2, 100)

2025-07-07 16:38:24,095 - gym_custom_envs_real_ur_drivers_URBasic_realTimeClientEvent - INFO - Program send to Robot:
servoj([-0.009203884727313927, -1.5784662307343247, -1.4910293258248428, -1.176564491494758, 1.584602153885867, 3.1139809994078513], 0.5, 0.5, 0.002, 0.2, 100)

2025-07-07 16:38:24,102 - gym_custom_envs_real_ur_drivers_URBasic_realTimeClientEvent - INFO - Program send to Robot:
servoj([-0.009203884727313927, -1.5784662307343247, -1.4910293258248428, -1.1765632765801517, 1.584602153885867, 3.1139809994078513], 0.5, 0.5, 0.002, 0.2, 100)

2025-07-07 16:38:24,112 - gym_custom_envs_real_ur_drivers_URBasic_realTimeClientEvent - INFO - Program send to Robot:
servoj([-0.009203884727313927, -1.5784662307343247, -1.4910293258248428, -1.1704887005109783, 1.584602153885867, 3.1139809994078513], 0.5, 0.5, 0.002, 0.2, 100)

2025-07-07 16:38:24,127 - gym_custom_envs_real_ur_drivers_URBasic_realTimeClientEvent - INFO - Program send to Robot:
servoj([-0.009203884727313927, -1.5784662307343247, -1.4910293258248428, -1.1704279547502865, 1.584602153885867, 3.1139809994078513], 0.5, 0.5, 0.002, 0.2, 100)

2025-07-07 16:38:24,136 - gym_custom_envs_real_ur_drivers_URBasic_realTimeClientEvent - INFO - Program send to Robot:
servoj([-0.009203884727313927, -1.5784662307343247, -1.4910293258248428, -1.1704273472926796, 1.584602153885867, 3.1139809994078513], 0.5, 0.5, 0.002, 0.2, 100)

2025-07-07 16:38:24,144 - gym_custom_envs_real_ur_drivers_URBasic_realTimeClientEvent - INFO - Program send to Robot:
servoj([-0.009203884727313927, -1.5784662307343247, -1.4910293258248428, -1.1704273412181037, 1.584602153885867, 3.1139809994078513], 0.5, 0.5, 0.002, 0.2, 100)

2025-07-07 16:38:24,150 - gym_custom_envs_real_ur_drivers_URBasic_realTimeClientEvent - INFO - Program send to Robot:
servoj([-0.009203884727313927, -1.5784662307343247, -1.4910293258248428, -1.1704273411573578, 1.584602153885867, 3.1139809994078513], 0.5, 0.5, 0.002, 0.2, 100)

2025-07-07 16:38:24,168 - gym_custom_envs_real_ur_drivers_URBasic_realTimeClientEvent - INFO - Program send to Robot:
servoj([-0.009203884727313927, -1.5784662307343247, -1.4910293258248428, -1.1704273411567503, 1.584602153885867, 3.1139809994078513], 0.5, 0.5, 0.002, 0.2, 100)

2025-07-07 16:38:24,174 - gym_custom_envs_real_ur_drivers_URBasic_realTimeClientEvent - INFO - Program send to Robot:
servoj([-0.009203884727313927, -1.5784662307343247, -1.4910293258248428, -1.1689087001767375, 1.584602153885867, 3.1139809994078513], 0.5, 0.5, 0.002, 0.2, 100)

2025-07-07 16:38:24,183 - gym_custom_envs_real_ur_drivers_URBasic_realTimeClientEvent - INFO - Program send to Robot:
servoj([-0.009203884727313927, -1.5784662307343247, -1.4910293258248428, -1.1688935137669374, 1.584602153885867, 3.1139809994078513], 0.5, 0.5, 0.002, 0.2, 100)

2025-07-07 16:38:24,199 - gym_custom_envs_real_ur_drivers_URBasic_realTimeClientEvent - INFO - Program send to Robot:
servoj([-0.009203884727313927, -1.5784662307343247, -1.4910293258248428, -1.1688933619028394, 1.584602153885867, 3.1139809994078513], 0.5, 0.5, 0.002, 0.2, 100)

2025-07-07 16:38:24,208 - gym_custom_envs_real_ur_drivers_URBasic_realTimeClientEvent - INFO - Program send to Robot:
servoj([-0.009203884727313927, -1.5784662307343247, -1.489510684844837, -1.1688933603841984, 1.584602153885867, 3.1139809994078513], 0.5, 0.5, 0.002, 0.2, 100)

2025-07-07 16:38:24,216 - gym_custom_envs_real_ur_drivers_URBasic_realTimeClientEvent - INFO - Program send to Robot:
servoj([-0.009203884727313927, -1.5784662307343247, -1.4894954984350368, -1.168893360369012, 1.584602153885867, 3.1139809994078513], 0.5, 0.5, 0.002, 0.2, 100)

2025-07-07 16:38:24,223 - gym_custom_envs_real_ur_drivers_URBasic_realTimeClientEvent - INFO - Program send to Robot:
servoj([-0.009203884727313927, -1.5784662307343247, -1.4894953465709388, -1.16889336036886, 1.584602153885867, 3.1139809994078513], 0.5, 0.5, 0.002, 0.2, 100)

2025-07-07 16:38:24,242 - gym_custom_envs_real_ur_drivers_URBasic_realTimeClientEvent - INFO - Program send to Robot:
servoj([-0.009203884727313927, -1.5784662307343247, -1.4894953450522979, -1.1688933603688585, 1.584602153885867, 3.1139809994078513], 0.5, 0.5, 0.002, 0.2, 100)

2025-07-07 16:38:24,246 - gym_custom_envs_real_ur_drivers_URBasic_realTimeClientEvent - INFO - Program send to Robot:
servoj([-0.009203884727313927, -1.5784662307343247, -1.4894953450371113, -1.1688933603688585, 1.584602153885867, 3.1139809994078513], 0.5, 0.5, 0.002, 0.2, 100)

2025-07-07 16:38:24,265 - gym_custom_envs_real_ur_drivers_URBasic_realTimeClientEvent - INFO - Program send to Robot:
servoj([-0.009203884727313927, -1.5784662307343247, -1.4894953450369595, -1.1688933603688585, 1.584602153885867, 3.1139809994078513], 0.5, 0.5, 0.002, 0.2, 100)

2025-07-07 16:38:24,270 - gym_custom_envs_real_ur_drivers_URBasic_realTimeClientEvent - INFO - Program send to Robot:
servoj([-0.009203884727313927, -1.5784662307343247, -1.489495345036958, -1.1688933603688585, 1.584602153885867, 3.1139809994078513], 0.5, 0.5, 0.002, 0.2, 100)

2025-07-07 16:38:24,280 - gym_custom_envs_real_ur_drivers_URBasic_realTimeClientEvent - INFO - Program send to Robot:
servoj([-0.009203884727313927, -1.5784662307343247, -1.489495345036958, -1.1688933603688585, 1.584602153885867, 3.1139809994078513], 0.5, 0.5, 0.002, 0.2, 100)

2025-07-07 16:38:24,295 - gym_custom_envs_real_ur_drivers_URBasic_realTimeClientEvent - INFO - Program send to Robot:
servoj([-0.009203884727313927, -1.5784662307343247, -1.489495345036958, -1.1688933603688585, 1.584602153885867, 3.1139809994078513], 0.5, 0.5, 0.002, 0.2, 100)

2025-07-07 16:38:24,303 - gym_custom_envs_real_ur_drivers_URBasic_realTimeClientEvent - INFO - Program send to Robot:
servoj([-0.009203884727313927, -1.5784662307343247, -1.489495345036958, -1.1688933603688585, 1.584602153885867, 3.1139809994078513], 0.5, 0.5, 0.002, 0.2, 100)

2025-07-07 16:38:24,310 - gym_custom_envs_real_ur_drivers_URBasic_realTimeClientEvent - INFO - Program send to Robot:
servoj([-0.009203884727313927, -1.5784662307343247, -1.489495345036958, -1.1688933603688585, 1.584602153885867, 3.1139809994078513], 0.5, 0.5, 0.002, 0.2, 100)

2025-07-07 16:38:24,318 - gym_custom_envs_real_ur_drivers_URBasic_realTimeClientEvent - INFO - Program send to Robot:
servoj([-0.009203884727313927, -1.5784662307343247, -1.489495345036958, -1.1688933603688585, 1.584602153885867, 3.1139809994078513], 0.5, 0.5, 0.002, 0.2, 100)

2025-07-07 16:38:24,334 - gym_custom_envs_real_ur_drivers_URBasic_realTimeClientEvent - INFO - Program send to Robot:
servoj([-0.009203884727313927, -1.5784662307343247, -1.489495345036958, -1.1688933603688585, 1.584602153885867, 3.1139809994078513], 0.5, 0.5, 0.002, 0.2, 100)

2025-07-07 16:38:24,342 - gym_custom_envs_real_ur_drivers_URBasic_realTimeClientEvent - INFO - Program send to Robot:
servoj([-0.009203884727313927, -1.5784662307343247, -1.489495345036958, -1.1688933603688585, 1.584602153885867, 3.1139809994078513], 0.5, 0.5, 0.002, 0.2, 100)

2025-07-07 16:38:24,351 - gym_custom_envs_real_ur_drivers_URBasic_realTimeClientEvent - INFO - Program send to Robot:
servoj([-0.009203884727313927, -1.5784662307343247, -1.489495345036958, -1.1688933603688585, 1.584602153885867, 3.1139809994078513], 0.5, 0.5, 0.002, 0.2, 100)

2025-07-07 16:38:24,367 - gym_custom_envs_real_ur_drivers_URBasic_realTimeClientEvent - INFO - Program send to Robot:
servoj([-0.009203884727313927, -1.5784662307343247, -1.489495345036958, -1.1688933603688585, 1.584602153885867, 3.1139809994078513], 0.5, 0.5, 0.002, 0.2, 100)

2025-07-07 16:38:24,376 - gym_custom_envs_real_ur_drivers_URBasic_realTimeClientEvent - INFO - Program send to Robot:
servoj([-0.009203884727313927, -1.5784662307343247, -1.489495345036958, -1.1688933603688585, 1.584602153885867, 3.1139809994078513], 0.5, 0.5, 0.002, 0.2, 100)

2025-07-07 16:38:24,385 - gym_custom_envs_real_ur_drivers_URBasic_realTimeClientEvent - INFO - Program send to Robot:
servoj([-0.009203884727313927, -1.5784662307343247, -1.489495345036958, -1.1688933603688585, 1.584602153885867, 3.1139809994078513], 0.5, 0.5, 0.002, 0.2, 100)

2025-07-07 16:38:24,390 - gym_custom_envs_real_ur_drivers_URBasic_realTimeClientEvent - INFO - Program send to Robot:
servoj([-0.009203884727313927, -1.5784662307343247, -1.489495345036958, -1.1688933603688585, 1.584602153885867, 3.1139809994078513], 0.5, 0.5, 0.002, 0.2, 100)

2025-07-07 16:38:24,409 - gym_custom_envs_real_ur_drivers_URBasic_realTimeClientEvent - INFO - Program send to Robot:
servoj([-0.009203884727313927, -1.5784662307343247, -1.489495345036958, -1.1688933603688585, 1.584602153885867, 3.1139809994078513], 0.5, 0.5, 0.002, 0.2, 100)

2025-07-07 16:38:24,414 - gym_custom_envs_real_ur_drivers_URBasic_realTimeClientEvent - INFO - Program send to Robot:
servoj([-0.009203884727313927, -1.5784662307343247, -1.489495345036958, -1.1688933603688585, 1.584602153885867, 3.1139809994078513], 0.5, 0.5, 0.002, 0.2, 100)

2025-07-07 16:38:24,425 - gym_custom_envs_real_ur_drivers_URBasic_realTimeClientEvent - INFO - Program send to Robot:
servoj([-0.009203884727313927, -1.5784662307343247, -1.489495345036958, -1.1688933603688585, 1.584602153885867, 3.1139809994078513], 0.5, 0.5, 0.002, 0.2, 100)

2025-07-07 16:38:24,438 - gym_custom_envs_real_ur_drivers_URBasic_realTimeClientEvent - INFO - Program send to Robot:
servoj([-0.009203884727313927, -1.5784662307343247, -1.489495345036958, -1.1688933603688585, 1.584602153885867, 3.1139809994078513], 0.5, 0.5, 0.002, 0.2, 100)

2025-07-07 16:38:24,448 - gym_custom_envs_real_ur_drivers_URBasic_realTimeClientEvent - INFO - Program send to Robot:
servoj([-0.009203884727313927, -1.5784662307343247, -1.489495345036958, -1.1688933603688585, 1.584602153885867, 3.1139809994078513], 0.5, 0.5, 0.002, 0.2, 100)

2025-07-07 16:38:24,456 - gym_custom_envs_real_ur_drivers_URBasic_realTimeClientEvent - INFO - Program send to Robot:
servoj([-0.009203884727313927, -1.5784662307343247, -1.489495345036958, -1.1688933603688585, 1.584602153885867, 3.1139809994078513], 0.5, 0.5, 0.002, 0.2, 100)

2025-07-07 16:38:24,462 - gym_custom_envs_real_ur_drivers_URBasic_realTimeClientEvent - INFO - Program send to Robot:
servoj([-0.009203884727313927, -1.5784662307343247, -1.489495345036958, -1.1688933603688585, 1.584602153885867, 3.1139809994078513], 0.5, 0.5, 0.002, 0.2, 100)

2025-07-07 16:38:24,480 - gym_custom_envs_real_ur_drivers_URBasic_realTimeClientEvent - INFO - Program send to Robot:
servoj([-0.009203884727313927, -1.5784662307343247, -1.489495345036958, -1.1688933603688585, 1.584602153885867, 3.1139809994078513], 0.5, 0.5, 0.002, 0.2, 100)

2025-07-07 16:38:24,486 - gym_custom_envs_real_ur_drivers_URBasic_realTimeClientEvent - INFO - Program send to Robot:
servoj([-0.009203884727313927, -1.5784662307343247, -1.489495345036958, -1.1688933603688585, 1.584602153885867, 3.1139809994078513], 0.5, 0.5, 0.002, 0.2, 100)

2025-07-07 16:38:24,495 - gym_custom_envs_real_ur_drivers_URBasic_realTimeClientEvent - INFO - Program send to Robot:
servoj([-0.009203884727313927, -1.5784662307343247, -1.489495345036958, -1.1673747193888517, 1.584602153885867, 3.1139809994078513], 0.5, 0.5, 0.002, 0.2, 100)

2025-07-07 16:38:24,510 - gym_custom_envs_real_ur_drivers_URBasic_realTimeClientEvent - INFO - Program send to Robot:
servoj([-0.009203884727313927, -1.5784662307343247, -1.489495345036958, -1.1673595329790518, 1.584602153885867, 3.1139809994078513], 0.5, 0.5, 0.002, 0.2, 100)

2025-07-07 16:38:24,521 - gym_custom_envs_real_ur_drivers_URBasic_realTimeClientEvent - INFO - Program send to Robot:
servoj([-0.009203884727313927, -1.5784662307343247, -1.489495345036958, -1.1673593811149539, 1.584602153885867, 3.1139809994078513], 0.5, 0.5, 0.002, 0.2, 100)

2025-07-07 16:38:24,530 - gym_custom_envs_real_ur_drivers_URBasic_realTimeClientEvent - INFO - Program send to Robot:
servoj([-0.009203884727313927, -1.5784662307343247, -1.489495345036958, -1.1673593795963129, 1.584602153885867, 3.1124623584278446], 0.5, 0.5, 0.002, 0.2, 100)

2025-07-07 16:38:24,534 - gym_custom_envs_real_ur_drivers_URBasic_realTimeClientEvent - INFO - Program send to Robot:
servoj([-0.009203884727313927, -1.5784662307343247, -1.489495345036958, -1.1673593795811263, 1.584602153885867, 3.1124471720180447], 0.5, 0.5, 0.002, 0.2, 100)

2025-07-07 16:38:24,553 - gym_custom_envs_real_ur_drivers_URBasic_realTimeClientEvent - INFO - Program send to Robot:
servoj([-0.009203884727313927, -1.5784662307343247, -1.489495345036958, -1.1673593795809745, 1.584602153885867, 3.1124470201539465], 0.5, 0.5, 0.002, 0.2, 100)

2025-07-07 16:38:24,558 - gym_custom_envs_real_ur_drivers_URBasic_realTimeClientEvent - INFO - Program send to Robot:
servoj([-0.009203884727313927, -1.5784662307343247, -1.489495345036958, -1.167359379580973, 1.584602153885867, 3.1124470186353057], 0.5, 0.5, 0.002, 0.2, 100)

2025-07-07 16:38:24,568 - gym_custom_envs_real_ur_drivers_URBasic_realTimeClientEvent - INFO - Program send to Robot:
servoj([-0.009203884727313927, -1.5784662307343247, -1.489495345036958, -1.167359379580973, 1.584602153885867, 3.112447018620119], 0.5, 0.5, 0.002, 0.2, 100)

2025-07-07 16:38:24,582 - gym_custom_envs_real_ur_drivers_URBasic_realTimeClientEvent - INFO - Program send to Robot:
servoj([-0.009203884727313927, -1.5784662307343247, -1.489495345036958, -1.167359379580973, 1.584602153885867, 3.1124470186199673], 0.5, 0.5, 0.002, 0.2, 100)

2025-07-07 16:38:24,593 - gym_custom_envs_real_ur_drivers_URBasic_realTimeClientEvent - INFO - Program send to Robot:
servoj([-0.009203884727313927, -1.5784662307343247, -1.489495345036958, -1.1658407386009662, 1.584602153885867, 3.112447018619966], 0.5, 0.5, 0.002, 0.2, 100)

2025-07-07 16:38:24,600 - gym_custom_envs_real_ur_drivers_URBasic_realTimeClientEvent - INFO - Program send to Robot:
servoj([-0.009203884727313927, -1.5784662307343247, -1.489495345036958, -1.1658255521911662, 1.584602153885867, 3.112447018619966], 0.5, 0.5, 0.002, 0.2, 100)

2025-07-07 16:38:24,606 - gym_custom_envs_real_ur_drivers_URBasic_realTimeClientEvent - INFO - Program send to Robot:
servoj([-0.009203884727313927, -1.5784662307343247, -1.489495345036958, -1.165825400327068, 1.584602153885867, 3.112447018619966], 0.5, 0.5, 0.002, 0.2, 100)

2025-07-07 16:38:24,625 - gym_custom_envs_real_ur_drivers_URBasic_realTimeClientEvent - INFO - Program send to Robot:
servoj([-0.009203884727313927, -1.5784662307343247, -1.489495345036958, -1.165825398808427, 1.584602153885867, 3.112447018619966], 0.5, 0.5, 0.002, 0.2, 100)

2025-07-07 16:38:24,631 - gym_custom_envs_real_ur_drivers_URBasic_realTimeClientEvent - INFO - Program send to Robot:
servoj([-0.009203884727313927, -1.5784662307343247, -1.489495345036958, -1.1658253987932408, 1.584602153885867, 3.112447018619966], 0.5, 0.5, 0.002, 0.2, 100)

2025-07-07 16:38:24,641 - gym_custom_envs_real_ur_drivers_URBasic_realTimeClientEvent - INFO - Program send to Robot:
servoj([-0.009203884727313927, -1.5784662307343247, -1.489495345036958, -1.1658253987930889, 1.584602153885867, 3.112447018619966], 0.5, 0.5, 0.002, 0.2, 100)

2025-07-07 16:38:24,655 - gym_custom_envs_real_ur_drivers_URBasic_realTimeClientEvent - INFO - Program send to Robot:
servoj([-0.007685243747306982, -1.5784662307343247, -1.487976704056951, -1.1643067578130806, 1.584602153885867, 3.112447018619966], 0.5, 0.5, 0.002, 0.2, 100)

2025-07-07 16:38:24,665 - gym_custom_envs_real_ur_drivers_URBasic_realTimeClientEvent - INFO - Program send to Robot:
servoj([-0.007670057337506912, -1.5784662307343247, -1.487961517647151, -1.1642915714032804, 1.584602153885867, 3.112447018619966], 0.5, 0.5, 0.002, 0.2, 100)

2025-07-07 16:38:24,670 - gym_custom_envs_real_ur_drivers_URBasic_realTimeClientEvent - INFO - Program send to Robot:
servoj([-0.007669905473408912, -1.5784662307343247, -1.487961365783053, -1.1642914195391825, 1.584602153885867, 3.112447018619966], 0.5, 0.5, 0.002, 0.2, 100)

2025-07-07 16:38:24,679 - gym_custom_envs_real_ur_drivers_URBasic_realTimeClientEvent - INFO - Program send to Robot:
servoj([-0.007669903954767932, -1.5784662307343247, -1.487961364264412, -1.1642914180205415, 1.584602153885867, 3.112447018619966], 0.5, 0.5, 0.002, 0.2, 100)

2025-07-07 16:38:24,697 - gym_custom_envs_real_ur_drivers_URBasic_realTimeClientEvent - INFO - Program send to Robot:
servoj([-0.0076699039395815224, -1.576947589754318, -1.4864427232692186, -1.1627727770253482, 1.584602153885867, 3.112447018619966], 0.5, 0.5, 0.002, 0.2, 100)

2025-07-07 16:38:24,702 - gym_custom_envs_real_ur_drivers_URBasic_realTimeClientEvent - INFO - Program send to Robot:
servoj([-0.007669903939429658, -1.576932403344518, -1.4864275368592665, -1.1627575906153962, 1.584602153885867, 3.112447018619966], 0.5, 0.5, 0.002, 0.2, 100)

2025-07-07 16:38:24,712 - gym_custom_envs_real_ur_drivers_URBasic_realTimeClientEvent - INFO - Program send to Robot:
servoj([-0.007669903939428139, -1.5769322514804198, -1.486427384995167, -1.1627574387512967, 1.584602153885867, 3.112447018619966], 0.5, 0.5, 0.002, 0.2, 100)

2025-07-07 16:38:24,726 - gym_custom_envs_real_ur_drivers_URBasic_realTimeClientEvent - INFO - Program send to Robot:
servoj([-0.007669903939428124, -1.5769322499617788, -1.484908742496519, -1.1597201552726422, 1.584602153885867, 3.112447018619966], 0.5, 0.5, 0.002, 0.2, 100)

2025-07-07 16:38:24,736 - gym_custom_envs_real_ur_drivers_URBasic_realTimeClientEvent - INFO - Program send to Robot:
servoj([-0.007669903939428124, -1.5769322499465925, -1.4848935560715326, -1.1596897824378556, 1.584602153885867, 3.112447018619966], 0.5, 0.5, 0.002, 0.2, 100)

2025-07-07 16:38:24,743 - gym_custom_envs_real_ur_drivers_URBasic_realTimeClientEvent - INFO - Program send to Robot:
servoj([-0.007669903939428124, -1.5769322499464407, -1.4848934042072828, -1.1596894787095078, 1.584602153885867, 3.112447018619966], 0.5, 0.5, 0.002, 0.2, 100)

2025-07-07 16:38:24,750 - gym_custom_envs_real_ur_drivers_URBasic_realTimeClientEvent - INFO - Program send to Robot:
servoj([-0.007669903939428124, -1.5784508909264459, -1.4803374797486204, -1.149058988812177, 1.584602153885867, 3.112447018619966], 0.5, 0.5, 0.002, 0.2, 100)

2025-07-07 16:38:24,769 - gym_custom_envs_real_ur_drivers_URBasic_realTimeClientEvent - INFO - Program send to Robot:
servoj([-0.007669903939428124, -1.578466077336246, -1.480291920504034, -1.1489526839132036, 1.584602153885867, 3.112447018619966], 0.5, 0.5, 0.002, 0.2, 100)

2025-07-07 16:38:24,773 - gym_custom_envs_real_ur_drivers_URBasic_realTimeClientEvent - INFO - Program send to Robot:
servoj([-0.007669903939428124, -1.578466229200344, -1.480291464911588, -1.1489516208642139, 1.584602153885867, 3.112447018619966], 0.5, 0.5, 0.002, 0.2, 100)

2025-07-07 16:38:24,785 - gym_custom_envs_real_ur_drivers_URBasic_realTimeClientEvent - INFO - Program send to Robot:
servoj([-0.007669903939428124, -1.578466230718985, -1.4787728193756566, -1.1307279184736423, 1.581564871925854, 3.112447018619966], 0.5, 0.5, 0.002, 0.2, 100)

2025-07-07 16:38:24,798 - gym_custom_envs_real_ur_drivers_URBasic_realTimeClientEvent - INFO - Program send to Robot:
servoj([-0.007669903939428124, -1.5784662307341712, -1.4787576329202972, -1.1305456814497366, 1.5815344991062537, 3.112447018619966], 0.5, 0.5, 0.002, 0.2, 100)

2025-07-07 16:38:24,809 - gym_custom_envs_real_ur_drivers_URBasic_realTimeClientEvent - INFO - Program send to Robot:
servoj([-0.007669903939428124, -1.5784662307343231, -1.4787574810557436, -1.1305438590794976, 1.5815341953780577, 3.112447018619966], 0.5, 0.5, 0.002, 0.2, 100)

2025-07-07 16:38:24,817 - gym_custom_envs_real_ur_drivers_URBasic_realTimeClientEvent - INFO - Program send to Robot:
servoj([-0.00615126295942162, -1.5784662307343247, -1.4772388385570911, -1.1092828671357002, 1.578496910380762, 3.112447018619966], 0.5, 0.5, 0.002, 0.2, 100)

2025-07-07 16:38:24,822 - gym_custom_envs_real_ur_drivers_URBasic_realTimeClientEvent - INFO - Program send to Robot:
servoj([-0.006136076549621554, -1.5784662307343247, -1.4772236521321045, -1.1090702572162623, 1.5784665375307891, 3.112447018619966], 0.5, 0.5, 0.002, 0.2, 100)

2025-07-07 16:38:24,840 - gym_custom_envs_real_ur_drivers_URBasic_realTimeClientEvent - INFO - Program send to Robot:
servoj([-0.006135924685523554, -1.5784662307343247, -1.4772235002678547, -1.109068131117068, 1.5784662338022895, 3.112447018619966], 0.5, 0.5, 0.002, 0.2, 100)

2025-07-07 16:38:24,846 - gym_custom_envs_real_ur_drivers_URBasic_realTimeClientEvent - INFO - Program send to Robot:
servoj([-0.004617282186875629, -1.5784662307343247, -1.4772234987492123, -1.0817325722159539, 1.5754289488049904, 3.112447018619966], 0.5, 0.5, 0.002, 0.2, 100)

2025-07-07 16:38:24,856 - gym_custom_envs_real_ur_drivers_URBasic_realTimeClientEvent - INFO - Program send to Robot:
servoj([-0.0046020957618891495, -1.5784662307343247, -1.4772234987340258, -1.0814592166269428, 1.5753985759550175, 3.112447018619966], 0.5, 0.5, 0.002, 0.2, 100)

2025-07-07 16:38:24,871 - gym_custom_envs_real_ur_drivers_URBasic_realTimeClientEvent - INFO - Program send to Robot:
servoj([-0.004601943897639285, -1.5784662307343247, -1.477223498733874, -1.0814564830710527, 1.5753982722265176, 3.112447018619966], 0.5, 0.5, 0.002, 0.2, 100)

2025-07-07 16:38:24,881 - gym_custom_envs_real_ur_drivers_URBasic_realTimeClientEvent - INFO - Program send to Robot:
servoj([-0.004601942378996787, -1.5784662307343247, -1.4772234987338724, -1.0541209180953715, 1.570842346249213, 3.112447018619966], 0.5, 0.5, 0.002, 0.2, 100)

2025-07-07 16:38:24,890 - gym_custom_envs_real_ur_drivers_URBasic_realTimeClientEvent - INFO - Program send to Robot:
servoj([-0.0046019423638103615, -1.5784662307343247, -1.4772234987338724, -1.0538475624456147, 1.57079678698944, 3.112447018619966], 0.5, 0.5, 0.002, 0.2, 100)

2025-07-07 16:38:24,894 - gym_custom_envs_real_ur_drivers_URBasic_realTimeClientEvent - INFO - Program send to Robot:
servoj([-0.004601942363658497, -1.5784662307343247, -1.4772234987338724, -1.0538448288891171, 1.570796331396842, 3.112447018619966], 0.5, 0.5, 0.002, 0.2, 100)

2025-07-07 16:38:24,911 - gym_custom_envs_real_ur_drivers_URBasic_realTimeClientEvent - INFO - Program send to Robot:
servoj([-0.004601942363656978, -1.5784662307343247, -1.4787421397138794, -1.0280279048934373, 1.5692776858609092, 3.112447018619966], 0.5, 0.5, 0.002, 0.2, 100)

2025-07-07 16:38:24,919 - gym_custom_envs_real_ur_drivers_URBasic_realTimeClientEvent - INFO - Program send to Robot:
servoj([-0.004601942363656963, -1.5784662307343247, -1.4787573261236795, -1.0277697356534805, 1.5692624994055497, 3.112447018619966], 0.5, 0.5, 0.002, 0.2, 100)

2025-07-07 16:38:24,931 - gym_custom_envs_real_ur_drivers_URBasic_realTimeClientEvent - INFO - Program send to Robot:
servoj([-0.004601942363656963, -1.5784662307343247, -1.4787574779877775, -1.0277671539610809, 1.5692623475409961, 3.112447018619966], 0.5, 0.5, 0.002, 0.2, 100)

2025-07-07 16:38:24,943 - gym_custom_envs_real_ur_drivers_URBasic_realTimeClientEvent - INFO - Program send to Robot:
servoj([-0.003083301383650019, -1.5784662307343247, -1.4787574795064184, -1.0004315905040344, 1.5692623460223507, 3.112447018619966], 0.5, 0.5, 0.002, 0.2, 100)

2025-07-07 16:38:24,954 - gym_custom_envs_real_ur_drivers_URBasic_realTimeClientEvent - INFO - Program send to Robot:
servoj([-0.0030681149738499493, -1.5784662307343247, -1.4787574795216047, -1.000158234869464, 1.5692623460071642, 3.112447018619966], 0.5, 0.5, 0.002, 0.2, 100)

2025-07-07 16:38:24,958 - gym_custom_envs_real_ur_drivers_URBasic_realTimeClientEvent - INFO - Program send to Robot:
servoj([-0.003067963109751949, -1.5784662307343247, -1.4787574795217566, -1.0001555013131183, 1.5692623460070123, 3.112447018619966], 0.5, 0.5, 0.002, 0.2, 100)

2025-07-07 16:38:24,977 - gym_custom_envs_real_ur_drivers_URBasic_realTimeClientEvent - INFO - Program send to Robot:
servoj([-0.001549320611104464, -1.5784662307343247, -1.4787574795217582, -0.9773758592774532, 1.5692623460070108, 3.112447018619966], 0.5, 0.5, 0.002, 0.2, 100)

2025-07-07 16:38:24,985 - gym_custom_envs_real_ur_drivers_URBasic_realTimeClientEvent - INFO - Program send to Robot:
servoj([-0.001534134186117989, -1.5784662307343247, -1.4787574795217582, -0.9771480628570965, 1.5692623460070108, 3.112447018619966], 0.5, 0.5, 0.002, 0.2, 100)

2025-07-07 16:38:24,990 - gym_custom_envs_real_ur_drivers_URBasic_realTimeClientEvent - INFO - Program send to Robot:
servoj([-0.0015339823218681243, -1.5784662307343247, -1.4787574795217582, -0.977145784892893, 1.5692623460070108, 3.112447018619966], 0.5, 0.5, 0.002, 0.2, 100)

2025-07-07 16:38:25,006 - gym_custom_envs_real_ur_drivers_URBasic_realTimeClientEvent - INFO - Program send to Robot:
servoj([-0.0015339808032256257, -1.5784662307343247, -1.4787574795217582, -0.9543661474131491, 1.5692623460070108, 3.112447018619966], 0.5, 0.5, 0.002, 0.2, 100)

2025-07-07 16:38:25,014 - gym_custom_envs_real_ur_drivers_URBasic_realTimeClientEvent - INFO - Program send to Robot:
servoj([-0.0015339807880392006, -1.5784662307343247, -1.4787574795217582, -0.9541383510383517, 1.5692623460070108, 3.112447018619966], 0.5, 0.5, 0.002, 0.2, 100)

2025-07-07 16:38:25,025 - gym_custom_envs_real_ur_drivers_URBasic_realTimeClientEvent - INFO - Program send to Robot:
servoj([-0.0015339807878873364, -1.5784662307343247, -1.4787574795217582, -0.9541360730746036, 1.5692623460070108, 3.112447018619966], 0.5, 0.5, 0.002, 0.2, 100)

2025-07-07 16:38:25,034 - gym_custom_envs_real_ur_drivers_URBasic_realTimeClientEvent - INFO - Program send to Robot:
servoj([-0.001533980787885818, -1.5784662307343247, -1.4787574795217582, -0.9541360502949662, 1.5692623460070108, 3.112447018619966], 0.5, 0.5, 0.002, 0.2, 100)

2025-07-07 16:38:25,050 - gym_custom_envs_real_ur_drivers_URBasic_realTimeClientEvent - INFO - Program send to Robot:
servoj([-1.5339807878858192e-05, -1.5784662307343247, -1.4787574795217582, -0.9328750763470747, 1.5692623460070108, 3.112447018619966], 0.5, 0.5, 0.002, 0.2, 100)

2025-07-07 16:38:25,054 - gym_custom_envs_real_ur_drivers_URBasic_realTimeClientEvent - INFO - Program send to Robot:
servoj([-1.5339807878858206e-07, -1.5784662307343247, -1.4787574795217582, -0.9326624666075958, 1.5692623460070108, 3.112447018619966], 0.5, 0.5, 0.002, 0.2, 100)

2025-07-07 16:38:25,062 - gym_custom_envs_real_ur_drivers_URBasic_realTimeClientEvent - INFO - Program send to Robot:
servoj([-1.533980787885822e-09, -1.5784662307343247, -1.4787574795217582, -0.932660340510201, 1.5692623460070108, 3.112447018619966], 0.5, 0.5, 0.002, 0.2, 100)

2025-07-07 16:38:25,078 - gym_custom_envs_real_ur_drivers_URBasic_realTimeClientEvent - INFO - Program send to Robot:
servoj([0.0015186409646671365, -1.5784662307343247, -1.4772388385417512, -0.912917986509139, 1.5692623460070108, 3.112447018619966], 0.5, 0.5, 0.002, 0.2, 100)

2025-07-07 16:38:25,086 - gym_custom_envs_real_ur_drivers_URBasic_realTimeClientEvent - INFO - Program send to Robot:
servoj([0.0015338273896536158, -1.5784662307343247, -1.4772236521319513, -0.9127205629691284, 1.5692623460070108, 3.112447018619966], 0.5, 0.5, 0.002, 0.2, 100)

2025-07-07 16:38:25,099 - gym_custom_envs_real_ur_drivers_URBasic_realTimeClientEvent - INFO - Program send to Robot:
servoj([0.0015339792539034807, -1.5784662307343247, -1.477223500267853, -0.9127185887337282, 1.5692623460070108, 3.112447018619966], 0.5, 0.5, 0.002, 0.2, 100)

2025-07-07 16:38:25,110 - gym_custom_envs_real_ur_drivers_URBasic_realTimeClientEvent - INFO - Program send to Robot:
servoj([0.003052621752552484, -1.5784662307343247, -1.477223498749212, -0.8914575952712792, 1.5692623460070108, 3.112447018619966], 0.5, 0.5, 0.002, 0.2, 100)

2025-07-07 16:38:25,123 - gym_custom_envs_real_ur_drivers_URBasic_realTimeClientEvent - INFO - Program send to Robot:
servoj([0.003067808177538974, -1.5784662307343247, -1.4772234987340258, -0.8912449853366547, 1.5692623460070108, 3.112447018619966], 0.5, 0.5, 0.002, 0.2, 100)

2025-07-07 16:38:25,127 - gym_custom_envs_real_ur_drivers_URBasic_realTimeClientEvent - INFO - Program send to Robot:
servoj([0.003067960041788839, -1.5784662307343247, -1.477223498733874, -0.8912428592373085, 1.5692623460070108, 3.112447018619966], 0.5, 0.5, 0.002, 0.2, 100)

2025-07-07 16:38:25,148 - gym_custom_envs_real_ur_drivers_URBasic_realTimeClientEvent - INFO - Program send to Robot:
servoj([0.004586602540438282, -1.5784662307343247, -1.4772234987338724, -0.8730191462162334, 1.5692623460070108, 3.112447018619966], 0.5, 0.5, 0.002, 0.2, 100)

2025-07-07 16:38:25,150 - gym_custom_envs_real_ur_drivers_URBasic_realTimeClientEvent - INFO - Program send to Robot:
servoj([0.0046017889654247765, -1.5784662307343247, -1.4772234987338724, -0.8728369090860227, 1.5692623460070108, 3.112447018619966], 0.5, 0.5, 0.002, 0.2, 100)

