2025-07-07 16:42:19,954 - gym_custom_envs_real_ur_drivers_URBasic_robotModelEvent - INFO - Init done
2025-07-07 16:42:20,455 - gym_custom_envs_real_ur_drivers_URBasic_realTimeClientEvent - INFO - Connected
2025-07-07 16:42:20,455 - gym_custom_envs_real_ur_drivers_URBasic_realTimeClientEvent - INFO - RT_CLient constructor done
2025-07-07 16:42:20,456 - gym_custom_envs_real_ur_drivers_URBasic_dataLogEvent - INFO - Data logging (not event logging) is disabled
2025-07-07 16:42:20,457 - gym_custom_envs_real_ur_drivers_URBasic_dataLogEvent - INFO - DataLog constructor done
2025-07-07 16:42:20,458 - gym_custom_envs_real_ur_drivers_URBasic_dataLogEvent - INFO - DataLog is stopped
2025-07-07 16:42:20,458 - gym_custom_envs_real_ur_drivers_URBasic_rtdeEvent - INFO - RTDE constructor done
2025-07-07 16:42:20,960 - gym_custom_envs_real_ur_drivers_URBasic_dashboardEvent - INFO - Connected
2025-07-07 16:42:20,961 - gym_custom_envs_real_ur_drivers_URBasic_dashboardEvent - INFO - UR Dashboard respond Connected: Universal Robots Dashboard Server
2025-07-07 16:42:20,961 - gym_custom_envs_real_ur_drivers_URBasic_dashboardEvent - INFO - Dashboard server constructor done
2025-07-07 16:42:20,962 - gym_custom_envs_real_ur_drivers_URBasic_robotConnectorEvent - INFO - Init done
2025-07-07 16:42:21,074 - gym_custom_envs_real_ur_drivers_URBasic_rtdeEvent - INFO - Controller version: 3.3.1-60
2025-07-07 16:42:21,077 - gym_custom_envs_real_ur_drivers_URBasic_rtdeEvent - INFO - RTDE started
2025-07-07 16:42:21,963 - gym_custom_envs_real_ur_drivers_URBasic_urScriptEvent - INFO - Init done!!!
2025-07-07 16:42:21,972 - gym_custom_envs_real_ur_drivers_URBasic_urScriptExtEvent - INFO - Init done
2025-07-07 16:42:23,586 - gym_custom_envs_real_ur_interfaceEvent - INFO - [] init done
2025-07-07 16:42:23,586 - gym_custom_envs_real_ur_drivers_URBasic_realTimeClientEvent - INFO - Program send to Robot:
end_freedrive_mode()

2025-07-07 16:42:24,279 - gym_custom_envs_real_ur_drivers_URBasic_realTimeClientEvent - INFO - Program send to Robot:
servoj([0.005791161948723419, -1.5801124693988724, -1.5363393942462367, -1.4854540329812937, 1.5653598091975915, 3.1060429013147397], 0.5, 0.5, 0.002, 0.2, 100)

2025-07-07 16:42:24,294 - gym_custom_envs_real_ur_drivers_URBasic_realTimeClientEvent - INFO - Program send to Robot:
servoj([0.0058196044088726015, -1.5801080516146373, -1.5362435499774378, -1.4854935696401255, 1.5653146512821985, 3.10604271670337], 0.5, 0.5, 0.002, 0.2, 100)

2025-07-07 16:42:24,310 - gym_custom_envs_real_ur_drivers_URBasic_realTimeClientEvent - INFO - Program send to Robot:
servoj([0.005760034028060071, -1.5801278722768262, -1.5362435499774378, -1.485480355865333, 1.5653343398066393, 3.1060892291906392], 0.5, 0.5, 0.002, 0.2, 100)

2025-07-07 16:42:24,325 - gym_custom_envs_real_ur_drivers_URBasic_realTimeClientEvent - INFO - Program send to Robot:
servoj([0.0057783266717972605, -1.5801259476959846, -1.5363274733172816, -1.4855227713297017, 1.5653582919495141, 3.106049613302463], 0.5, 0.5, 0.002, 0.2, 100)

2025-07-07 16:42:24,341 - gym_custom_envs_real_ur_drivers_URBasic_realTimeClientEvent - INFO - Program send to Robot:
servoj([0.0058056085879013165, -1.5801003566748197, -1.5362797896014613, -1.485506174098163, 1.5653192663854947, 3.1060826816958116], 0.5, 0.5, 0.002, 0.2, 100)

2025-07-07 16:42:24,358 - gym_custom_envs_real_ur_drivers_URBasic_realTimeClientEvent - INFO - Program send to Robot:
servoj([0.005791637875222359, -1.5801262321904812, -1.5363150755511683, -1.4855121153343984, 1.565343441325785, 3.1061026821218976], 0.5, 0.5, 0.002, 0.2, 100)

2025-07-07 16:42:24,375 - gym_custom_envs_real_ur_drivers_URBasic_realTimeClientEvent - INFO - Program send to Robot:
servoj([0.005779486948729165, -1.5801207091472167, -1.5362678686725062, -1.4855020269957158, 1.5653374330204708, 3.1061026114742263], 0.5, 0.5, 0.002, 0.2, 100)

2025-07-07 16:42:24,390 - gym_custom_envs_real_ur_drivers_URBasic_realTimeClientEvent - INFO - Program send to Robot:
servoj([0.006495915348397502, -1.5800934809744644, -1.5362917105304164, -1.485490508268398, 1.5653670173966168, 3.106082701241233], 0.5, 0.5, 0.002, 0.2, 100)

2025-07-07 16:42:24,406 - gym_custom_envs_real_ur_drivers_URBasic_realTimeClientEvent - INFO - Program send to Robot:
servoj([0.00648228577530377, -1.5801127418792595, -1.5363274733172816, -1.4855296383543988, 1.5653450201037054, 3.1060761569940807], 0.5, 0.5, 0.002, 0.2, 100)

2025-07-07 16:42:24,421 - gym_custom_envs_real_ur_drivers_URBasic_realTimeClientEvent - INFO - Program send to Robot:
servoj([0.006475882452557457, -1.580106421700833, -1.5363150755511683, -1.485551736313695, 1.5653699873819138, 3.10604959000964], 0.5, 0.5, 0.002, 0.2, 100)

2025-07-07 16:42:24,437 - gym_custom_envs_real_ur_drivers_URBasic_realTimeClientEvent - INFO - Program send to Robot:
servoj([0.0064749132190281035, -1.5801245790548402, -1.536387077962057, -1.4855900022933994, 1.565379147577355, 3.1060497253591697], 0.5, 0.5, 0.002, 0.2, 100)

2025-07-07 16:42:24,454 - gym_custom_envs_real_ur_drivers_URBasic_realTimeClientEvent - INFO - Program send to Robot:
servoj([0.0064881835090898135, -1.5801113788973933, -1.536387077962057, -1.4855702020572292, 1.565379147577355, 3.1060164609624032], 0.5, 0.5, 0.002, 0.2, 100)

2025-07-07 16:42:24,469 - gym_custom_envs_real_ur_drivers_URBasic_realTimeClientEvent - INFO - Program send to Robot:
servoj([0.006468645483956488, -1.580124852899574, -1.536375157033102, -1.4856257191247475, 1.5653643628791494, 3.106016435688033], 0.5, 0.5, 0.002, 0.2, 100)

2025-07-07 16:42:24,486 - gym_custom_envs_real_ur_drivers_URBasic_realTimeClientEvent - INFO - Program send to Robot:
servoj([0.0064732982280438535, -1.5801020432570274, -1.536506764088766, -1.4856649637039436, 1.5654010605422937, 3.1060366300663893], 0.5, 0.5, 0.002, 0.2, 100)

2025-07-07 16:42:24,503 - gym_custom_envs_real_ur_drivers_URBasic_realTimeClientEvent - INFO - Program send to Robot:
servoj([0.006479112752648022, -1.5800872211060386, -1.5365668455706996, -1.4857323332618395, 1.5654087266596324, 3.106050064045534], 0.5, 0.5, 0.002, 0.2, 100)

2025-07-07 16:42:24,519 - gym_custom_envs_real_ur_drivers_URBasic_realTimeClientEvent - INFO - Program send to Robot:
servoj([0.005805862925478308, -1.5800927114193835, -1.536615006123678, -1.4857823485397377, 1.565414877671817, 3.106036844720821], 0.5, 0.5, 0.002, 0.2, 100)

2025-07-07 16:42:24,534 - gym_custom_envs_real_ur_drivers_URBasic_realTimeClientEvent - INFO - Program send to Robot:
servoj([0.005771846856019343, -1.580118231473494, -1.5366626898394984, -1.4858385122411346, 1.5654143201816235, 3.1060435263694144], 0.5, 0.5, 0.002, 0.2, 100)

2025-07-07 16:42:24,550 - gym_custom_envs_real_ur_drivers_URBasic_realTimeClientEvent - INFO - Program send to Robot:
servoj([0.006470140106714836, -1.580083681605171, -1.5367218176471156, -1.485892335098277, 1.5654483566850035, 3.1060238886835467], 0.5, 0.5, 0.002, 0.2, 100)

2025-07-07 16:42:24,566 - gym_custom_envs_real_ur_drivers_URBasic_realTimeClientEvent - INFO - Program send to Robot:
servoj([0.0065022554731813936, -1.580075180608109, -1.5368057409869593, -1.4859150661327103, 1.5654657423370213, 3.1060438040979808], 0.5, 0.5, 0.002, 0.2, 100)

2025-07-07 16:42:24,581 - gym_custom_envs_real_ur_drivers_URBasic_realTimeClientEvent - INFO - Program send to Robot:
servoj([0.005781512844292324, -1.5801203870854772, -1.5368539015399378, -1.48598532079601, 1.5654520454541558, 3.1060373199477924], 0.5, 0.5, 0.002, 0.2, 100)

2025-07-07 16:42:24,605 - gym_custom_envs_real_ur_drivers_URBasic_realTimeClientEvent - INFO - Program send to Robot:
servoj([0.005795530517821518, -1.5800820337544057, -1.5367938200580042, -1.4859840766174945, 1.5654973172624136, 3.1060240388609808], 0.5, 0.5, 0.002, 0.2, 100)

2025-07-07 16:42:24,629 - gym_custom_envs_real_ur_drivers_URBasic_realTimeClientEvent - INFO - Program send to Robot:
servoj([0.005786712924952843, -1.5800929775347226, -1.5369015852557582, -1.4859951540937417, 1.5655505508056213, 3.106030839519742], 0.5, 0.5, 0.002, 0.2, 100)

2025-07-07 16:42:24,645 - gym_custom_envs_real_ur_drivers_URBasic_realTimeClientEvent - INFO - Program send to Robot:
servoj([0.005779385002302254, -1.5800853054561506, -1.5369378248797816, -1.4860409679437867, 1.5655551804747947, 3.1060573402221574], 0.5, 0.5, 0.002, 0.2, 100)

2025-07-07 16:42:24,661 - gym_custom_envs_real_ur_drivers_URBasic_realTimeClientEvent - INFO - Program send to Robot:
servoj([0.005766139274227592, -1.5801115869500955, -1.5369497458087367, -1.4860519747045629, 1.5655567040503309, 3.1060507890802715], 0.5, 0.5, 0.002, 0.2, 100)

2025-07-07 16:42:24,677 - gym_custom_envs_real_ur_drivers_URBasic_realTimeClientEvent - INFO - Program send to Robot:
servoj([0.005772276604381239, -1.5800844823622064, -1.5369735876666468, -1.4860866057146558, 1.5656125916513366, 3.1060375588016926], 0.5, 0.5, 0.002, 0.2, 100)

2025-07-07 16:42:24,694 - gym_custom_envs_real_ur_drivers_URBasic_realTimeClientEvent - INFO - Program send to Robot:
servoj([0.003067961575771161, -1.576932249946439, -1.5984079809768383, -1.533980787885641, 1.583068173097982, 3.106311095468423], 0.5, 0.5, 0.002, 0.2, 100)

2025-07-07 16:42:24,701 - gym_custom_envs_real_ur_drivers_URBasic_realTimeClientEvent - INFO - Program send to Robot:
servoj([0.004586602555778105, -1.576932249946439, -1.5984079809768383, -1.533980787885641, 1.583068173097982, 3.106311095468423], 0.5, 0.5, 0.002, 0.2, 100)

2025-07-07 16:42:24,708 - gym_custom_envs_real_ur_drivers_URBasic_realTimeClientEvent - INFO - Program send to Robot:
servoj([0.004601788965578175, -1.576932249946439, -1.5984079809768383, -1.533980787885641, 1.583068173097982, 3.106311095468423], 0.5, 0.5, 0.002, 0.2, 100)

2025-07-07 16:42:24,725 - gym_custom_envs_real_ur_drivers_URBasic_realTimeClientEvent - INFO - Program send to Robot:
servoj([0.0046019408296761755, -1.576932249946439, -1.5984079809768383, -1.533980787885641, 1.583068173097982, 3.106311095468423], 0.5, 0.5, 0.002, 0.2, 100)

2025-07-07 16:42:24,733 - gym_custom_envs_real_ur_drivers_URBasic_realTimeClientEvent - INFO - Program send to Robot:
servoj([0.003083301368310211, -1.576932249946439, -1.5984079809768383, -1.533980787885641, 1.583068173097982, 3.106311095468423], 0.5, 0.5, 0.002, 0.2, 100)

2025-07-07 16:42:24,750 - gym_custom_envs_real_ur_drivers_URBasic_realTimeClientEvent - INFO - Program send to Robot:
servoj([0.003068114973696551, -1.576932249946439, -1.5984079809768383, -1.533980787885641, 1.583068173097982, 3.106311095468423], 0.5, 0.5, 0.002, 0.2, 100)

2025-07-07 16:42:24,766 - gym_custom_envs_real_ur_drivers_URBasic_realTimeClientEvent - INFO - Program send to Robot:
servoj([0.004586604089757359, -1.576932249946439, -1.5984079809768383, -1.533980787885641, 1.583068173097982, 3.106311095468423], 0.5, 0.5, 0.002, 0.2, 100)

2025-07-07 16:42:24,774 - gym_custom_envs_real_ur_drivers_URBasic_realTimeClientEvent - INFO - Program send to Robot:
servoj([0.004601788980917967, -1.576932249946439, -1.5984079809768383, -1.533980787885641, 1.583068173097982, 3.106311095468423], 0.5, 0.5, 0.002, 0.2, 100)

2025-07-07 16:42:24,781 - gym_custom_envs_real_ur_drivers_URBasic_realTimeClientEvent - INFO - Program send to Robot:
servoj([0.004601940829829574, -1.576932249946439, -1.5984079809768383, -1.533980787885641, 1.583068173097982, 3.106311095468423], 0.5, 0.5, 0.002, 0.2, 100)

2025-07-07 16:42:24,789 - gym_custom_envs_real_ur_drivers_URBasic_realTimeClientEvent - INFO - Program send to Robot:
servoj([0.004601942348318689, -1.576932249946439, -1.5984079809768383, -1.533980787885641, 1.583068173097982, 3.106311095468423], 0.5, 0.5, 0.002, 0.2, 100)

2025-07-07 16:42:24,805 - gym_custom_envs_real_ur_drivers_URBasic_realTimeClientEvent - INFO - Program send to Robot:
servoj([0.003083301383496636, -1.576932249946439, -1.5984079809768383, -1.533980787885641, 1.583068173097982, 3.106311095468423], 0.5, 0.5, 0.002, 0.2, 100)

2025-07-07 16:42:24,812 - gym_custom_envs_real_ur_drivers_URBasic_realTimeClientEvent - INFO - Program send to Robot:
servoj([0.0030681149738484154, -1.576932249946439, -1.5984079809768383, -1.533980787885641, 1.583068173097982, 3.106311095468423], 0.5, 0.5, 0.002, 0.2, 100)

2025-07-07 16:42:24,820 - gym_custom_envs_real_ur_drivers_URBasic_realTimeClientEvent - INFO - Program send to Robot:
servoj([0.003067963109751933, -1.576932249946439, -1.5984079809768383, -1.533980787885641, 1.583068173097982, 3.106311095468423], 0.5, 0.5, 0.002, 0.2, 100)

2025-07-07 16:42:24,837 - gym_custom_envs_real_ur_drivers_URBasic_realTimeClientEvent - INFO - Program send to Robot:
servoj([0.004586602571117913, -1.576932249946439, -1.5984079809768383, -1.533980787885641, 1.583068173097982, 3.106311095468423], 0.5, 0.5, 0.002, 0.2, 100)

2025-07-07 16:42:24,851 - gym_custom_envs_real_ur_drivers_URBasic_realTimeClientEvent - INFO - Program send to Robot:
servoj([0.004601788965731573, -1.576932249946439, -1.5984079809768383, -1.533980787885641, 1.583068173097982, 3.106311095468423], 0.5, 0.5, 0.002, 0.2, 100)

2025-07-07 16:42:24,861 - gym_custom_envs_real_ur_drivers_URBasic_realTimeClientEvent - INFO - Program send to Robot:
servoj([0.004601940829677709, -1.576932249946439, -1.5984079809768383, -1.533980787885641, 1.583068173097982, 3.106311095468423], 0.5, 0.5, 0.002, 0.2, 100)

2025-07-07 16:42:24,868 - gym_custom_envs_real_ur_drivers_URBasic_realTimeClientEvent - INFO - Program send to Robot:
servoj([0.004601942348317171, -1.576932249946439, -1.5984079809768383, -1.533980787885641, 1.583068173097982, 3.106311095468423], 0.5, 0.5, 0.002, 0.2, 100)

2025-07-07 16:42:24,877 - gym_custom_envs_real_ur_drivers_URBasic_realTimeClientEvent - INFO - Program send to Robot:
servoj([0.004601942363503565, -1.576932249946439, -1.5984079809768383, -1.533980787885641, 1.583068173097982, 3.106311095468423], 0.5, 0.5, 0.002, 0.2, 100)

2025-07-07 16:42:24,893 - gym_custom_envs_real_ur_drivers_URBasic_realTimeClientEvent - INFO - Program send to Robot:
servoj([0.0030833013836484846, -1.576932249946439, -1.5984079809768383, -1.533980787885641, 1.583068173097982, 3.106311095468423], 0.5, 0.5, 0.002, 0.2, 100)

2025-07-07 16:42:24,901 - gym_custom_envs_real_ur_drivers_URBasic_realTimeClientEvent - INFO - Program send to Robot:
servoj([0.003068114973849934, -1.576932249946439, -1.5984079809768383, -1.533980787885641, 1.583068173097982, 3.106311095468423], 0.5, 0.5, 0.002, 0.2, 100)

2025-07-07 16:42:24,917 - gym_custom_envs_real_ur_drivers_URBasic_realTimeClientEvent - INFO - Program send to Robot:
servoj([0.0030679631097519484, -1.576932249946439, -1.5984079809768383, -1.533980787885641, 1.583068173097982, 3.106311095468423], 0.5, 0.5, 0.002, 0.2, 100)

2025-07-07 16:42:24,925 - gym_custom_envs_real_ur_drivers_URBasic_realTimeClientEvent - INFO - Program send to Robot:
servoj([0.0030679615911109685, -1.576932249946439, -1.5984079809768383, -1.533980787885641, 1.583068173097982, 3.106311095468423], 0.5, 0.5, 0.002, 0.2, 100)

2025-07-07 16:42:24,946 - gym_custom_envs_real_ur_drivers_URBasic_realTimeClientEvent - INFO - Program send to Robot:
servoj([0.003067961575924559, -1.576932249946439, -1.5984079809768383, -1.533980787885641, 1.583068173097982, 3.106311095468423], 0.5, 0.5, 0.002, 0.2, 100)

2025-07-07 16:42:24,948 - gym_custom_envs_real_ur_drivers_URBasic_realTimeClientEvent - INFO - Program send to Robot:
servoj([0.003067961575772695, -1.576932249946439, -1.5984079809768383, -1.533980787885641, 1.583068173097982, 3.106311095468423], 0.5, 0.5, 0.002, 0.2, 100)

2025-07-07 16:42:24,970 - gym_custom_envs_real_ur_drivers_URBasic_realTimeClientEvent - INFO - Program send to Robot:
servoj([0.003067961575771176, -1.576932249946439, -1.5984079809768383, -1.533980787885641, 1.583068173097982, 3.106311095468423], 0.5, 0.5, 0.002, 0.2, 100)

2025-07-07 16:42:24,973 - gym_custom_envs_real_ur_drivers_URBasic_realTimeClientEvent - INFO - Program send to Robot:
servoj([0.003067961575771161, -1.576932249946439, -1.5984079809768383, -1.533980787885641, 1.583068173097982, 3.106311095468423], 0.5, 0.5, 0.002, 0.2, 100)

2025-07-07 16:42:24,988 - gym_custom_envs_real_ur_drivers_URBasic_realTimeClientEvent - INFO - Program send to Robot:
servoj([0.003067961575771161, -1.576932249946439, -1.5984079809768383, -1.533980787885641, 1.583068173097982, 3.106311095468423], 0.5, 0.5, 0.002, 0.2, 100)

2025-07-07 16:42:24,997 - gym_custom_envs_real_ur_drivers_URBasic_realTimeClientEvent - INFO - Program send to Robot:
servoj([0.003067961575771161, -1.576932249946439, -1.5984079809768383, -1.533980787885641, 1.583068173097982, 3.106311095468423], 0.5, 0.5, 0.002, 0.2, 100)

2025-07-07 16:42:25,013 - gym_custom_envs_real_ur_drivers_URBasic_realTimeClientEvent - INFO - Program send to Robot:
servoj([0.003067961575771161, -1.576932249946439, -1.5984079809768383, -1.533980787885641, 1.583068173097982, 3.106311095468423], 0.5, 0.5, 0.002, 0.2, 100)

2025-07-07 16:42:25,021 - gym_custom_envs_real_ur_drivers_URBasic_realTimeClientEvent - INFO - Program send to Robot:
servoj([0.003067961575771161, -1.576932249946439, -1.5984079809768383, -1.533980787885641, 1.583068173097982, 3.106311095468423], 0.5, 0.5, 0.002, 0.2, 100)

2025-07-07 16:42:25,037 - gym_custom_envs_real_ur_drivers_URBasic_realTimeClientEvent - INFO - Program send to Robot:
servoj([0.003067961575771161, -1.576932249946439, -1.5984079809768383, -1.533980787885641, 1.583068173097982, 3.106311095468423], 0.5, 0.5, 0.002, 0.2, 100)

2025-07-07 16:42:25,045 - gym_custom_envs_real_ur_drivers_URBasic_realTimeClientEvent - INFO - Program send to Robot:
servoj([0.003067961575771161, -1.576932249946439, -1.5984079809768383, -1.533980787885641, 1.583068173097982, 3.106311095468423], 0.5, 0.5, 0.002, 0.2, 100)

2025-07-07 16:42:25,061 - gym_custom_envs_real_ur_drivers_URBasic_realTimeClientEvent - INFO - Program send to Robot:
servoj([0.003067961575771161, -1.576932249946439, -1.5984079809768383, -1.533980787885641, 1.583068173097982, 3.106311095468423], 0.5, 0.5, 0.002, 0.2, 100)

2025-07-07 16:42:25,069 - gym_custom_envs_real_ur_drivers_URBasic_realTimeClientEvent - INFO - Program send to Robot:
servoj([0.003067961575771161, -1.576932249946439, -1.5984079809768383, -1.533980787885641, 1.583068173097982, 3.106311095468423], 0.5, 0.5, 0.002, 0.2, 100)

2025-07-07 16:42:25,086 - gym_custom_envs_real_ur_drivers_URBasic_realTimeClientEvent - INFO - Program send to Robot:
servoj([0.003067961575771161, -1.576932249946439, -1.5984079809768383, -1.533980787885641, 1.583068173097982, 3.106311095468423], 0.5, 0.5, 0.002, 0.2, 100)

2025-07-07 16:42:25,093 - gym_custom_envs_real_ur_drivers_URBasic_realTimeClientEvent - INFO - Program send to Robot:
servoj([0.003067961575771161, -1.576932249946439, -1.5984079809768383, -1.533980787885641, 1.583068173097982, 3.106311095468423], 0.5, 0.5, 0.002, 0.2, 100)

2025-07-07 16:42:25,110 - gym_custom_envs_real_ur_drivers_URBasic_realTimeClientEvent - INFO - Program send to Robot:
servoj([0.003067961575771161, -1.576932249946439, -1.5984079809768383, -1.533980787885641, 1.583068173097982, 3.106311095468423], 0.5, 0.5, 0.002, 0.2, 100)

2025-07-07 16:42:25,117 - gym_custom_envs_real_ur_drivers_URBasic_realTimeClientEvent - INFO - Program send to Robot:
servoj([0.003067961575771161, -1.576932249946439, -1.5984079809768383, -1.533980787885641, 1.583068173097982, 3.106311095468423], 0.5, 0.5, 0.002, 0.2, 100)

2025-07-07 16:42:25,133 - gym_custom_envs_real_ur_drivers_URBasic_realTimeClientEvent - INFO - Program send to Robot:
servoj([0.003067961575771161, -1.576932249946439, -1.5984079809768383, -1.533980787885641, 1.583068173097982, 3.106311095468423], 0.5, 0.5, 0.002, 0.2, 100)

2025-07-07 16:42:25,150 - gym_custom_envs_real_ur_drivers_URBasic_realTimeClientEvent - INFO - Program send to Robot:
servoj([0.003067961575771161, -1.576932249946439, -1.5984079809768383, -1.533980787885641, 1.583068173097982, 3.106311095468423], 0.5, 0.5, 0.002, 0.2, 100)

2025-07-07 16:42:25,157 - gym_custom_envs_real_ur_drivers_URBasic_realTimeClientEvent - INFO - Program send to Robot:
servoj([0.003067961575771161, -1.576932249946439, -1.5984079809768383, -1.533980787885641, 1.583068173097982, 3.106311095468423], 0.5, 0.5, 0.002, 0.2, 100)

2025-07-07 16:42:25,165 - gym_custom_envs_real_ur_drivers_URBasic_realTimeClientEvent - INFO - Program send to Robot:
servoj([0.003067961575771161, -1.576932249946439, -1.5984079809768383, -1.533980787885641, 1.583068173097982, 3.106311095468423], 0.5, 0.5, 0.002, 0.2, 100)

2025-07-07 16:42:25,173 - gym_custom_envs_real_ur_drivers_URBasic_realTimeClientEvent - INFO - Program send to Robot:
servoj([0.003067961575771161, -1.576932249946439, -1.5984079809768383, -1.533980787885641, 1.583068173097982, 3.106311095468423], 0.5, 0.5, 0.002, 0.2, 100)

2025-07-07 16:42:25,189 - gym_custom_envs_real_ur_drivers_URBasic_realTimeClientEvent - INFO - Program send to Robot:
servoj([0.004586602555778105, -1.576932249946439, -1.5984079809768383, -1.533980787885641, 1.583068173097982, 3.106311095468423], 0.5, 0.5, 0.002, 0.2, 100)

2025-07-07 16:42:25,198 - gym_custom_envs_real_ur_drivers_URBasic_realTimeClientEvent - INFO - Program send to Robot:
servoj([0.004601788965578175, -1.576932249946439, -1.5984079809768383, -1.533980787885641, 1.583068173097982, 3.106311095468423], 0.5, 0.5, 0.002, 0.2, 100)

2025-07-07 16:42:25,205 - gym_custom_envs_real_ur_drivers_URBasic_realTimeClientEvent - INFO - Program send to Robot:
servoj([0.0046019408296761755, -1.576932249946439, -1.5984079809768383, -1.533980787885641, 1.583068173097982, 3.106311095468423], 0.5, 0.5, 0.002, 0.2, 100)

2025-07-07 16:42:25,213 - gym_custom_envs_real_ur_drivers_URBasic_realTimeClientEvent - INFO - Program send to Robot:
servoj([0.003083301368310211, -1.576932249946439, -1.5984079809768383, -1.533980787885641, 1.583068173097982, 3.106311095468423], 0.5, 0.5, 0.002, 0.2, 100)

2025-07-07 16:42:25,228 - gym_custom_envs_real_ur_drivers_URBasic_realTimeClientEvent - INFO - Program send to Robot:
servoj([0.003068114973696551, -1.576932249946439, -1.5984079809768383, -1.533980787885641, 1.583068173097982, 3.106311095468423], 0.5, 0.5, 0.002, 0.2, 100)

2025-07-07 16:42:25,236 - gym_custom_envs_real_ur_drivers_URBasic_realTimeClientEvent - INFO - Program send to Robot:
servoj([0.003067963109750415, -1.576932249946439, -1.5984079809768383, -1.533980787885641, 1.583068173097982, 3.106311095468423], 0.5, 0.5, 0.002, 0.2, 100)

2025-07-07 16:42:25,245 - gym_custom_envs_real_ur_drivers_URBasic_realTimeClientEvent - INFO - Program send to Robot:
servoj([0.0030679615911109533, -1.576932249946439, -1.5984079809768383, -1.533980787885641, 1.583068173097982, 3.106311095468423], 0.5, 0.5, 0.002, 0.2, 100)

2025-07-07 16:42:25,262 - gym_custom_envs_real_ur_drivers_URBasic_realTimeClientEvent - INFO - Program send to Robot:
servoj([0.0030679615759245586, -1.576932249946439, -1.5984079809768383, -1.533980787885641, 1.583068173097982, 3.106311095468423], 0.5, 0.5, 0.002, 0.2, 100)

2025-07-07 16:42:25,270 - gym_custom_envs_real_ur_drivers_URBasic_realTimeClientEvent - INFO - Program send to Robot:
servoj([0.003067961575772695, -1.576932249946439, -1.5984079809768383, -1.533980787885641, 1.583068173097982, 3.106311095468423], 0.5, 0.5, 0.002, 0.2, 100)

2025-07-07 16:42:25,277 - gym_custom_envs_real_ur_drivers_URBasic_realTimeClientEvent - INFO - Program send to Robot:
servoj([0.003067961575771176, -1.576932249946439, -1.5984079809768383, -1.533980787885641, 1.583068173097982, 3.106311095468423], 0.5, 0.5, 0.002, 0.2, 100)

2025-07-07 16:42:25,286 - gym_custom_envs_real_ur_drivers_URBasic_realTimeClientEvent - INFO - Program send to Robot:
servoj([0.003067961575771161, -1.576932249946439, -1.5984079809768383, -1.533980787885641, 1.583068173097982, 3.106311095468423], 0.5, 0.5, 0.002, 0.2, 100)

2025-07-07 16:42:25,301 - gym_custom_envs_real_ur_drivers_URBasic_realTimeClientEvent - INFO - Program send to Robot:
servoj([0.003067961575771161, -1.576932249946439, -1.5984079809768383, -1.533980787885641, 1.583068173097982, 3.106311095468423], 0.5, 0.5, 0.002, 0.2, 100)

2025-07-07 16:42:25,311 - gym_custom_envs_real_ur_drivers_URBasic_realTimeClientEvent - INFO - Program send to Robot:
servoj([0.004586602555778105, -1.576932249946439, -1.5984079809768383, -1.533980787885641, 1.583068173097982, 3.106311095468423], 0.5, 0.5, 0.002, 0.2, 100)

2025-07-07 16:42:25,319 - gym_custom_envs_real_ur_drivers_URBasic_realTimeClientEvent - INFO - Program send to Robot:
servoj([0.004601788965578175, -1.576932249946439, -1.5984079809768383, -1.533980787885641, 1.583068173097982, 3.106311095468423], 0.5, 0.5, 0.002, 0.2, 100)

2025-07-07 16:42:25,333 - gym_custom_envs_real_ur_drivers_URBasic_realTimeClientEvent - INFO - Program send to Robot:
servoj([0.0046019408296761755, -1.576932249946439, -1.5984079809768383, -1.533980787885641, 1.583068173097982, 3.106311095468423], 0.5, 0.5, 0.002, 0.2, 100)

2025-07-07 16:42:25,341 - gym_custom_envs_real_ur_drivers_URBasic_realTimeClientEvent - INFO - Program send to Robot:
servoj([0.003083301368310211, -1.576932249946439, -1.5984079809768383, -1.533980787885641, 1.583068173097982, 3.106311095468423], 0.5, 0.5, 0.002, 0.2, 100)

2025-07-07 16:42:25,349 - gym_custom_envs_real_ur_drivers_URBasic_realTimeClientEvent - INFO - Program send to Robot:
servoj([0.003068114973696551, -1.576932249946439, -1.5984079809768383, -1.533980787885641, 1.583068173097982, 3.106311095468423], 0.5, 0.5, 0.002, 0.2, 100)

2025-07-07 16:42:25,357 - gym_custom_envs_real_ur_drivers_URBasic_realTimeClientEvent - INFO - Program send to Robot:
servoj([0.003067963109750415, -1.576932249946439, -1.5984079809768383, -1.533980787885641, 1.583068173097982, 3.106311095468423], 0.5, 0.5, 0.002, 0.2, 100)

2025-07-07 16:42:25,373 - gym_custom_envs_real_ur_drivers_URBasic_realTimeClientEvent - INFO - Program send to Robot:
servoj([0.004586602571117898, -1.576932249946439, -1.5984079809768383, -1.533980787885641, 1.583068173097982, 3.106311095468423], 0.5, 0.5, 0.002, 0.2, 100)

2025-07-07 16:42:25,382 - gym_custom_envs_real_ur_drivers_URBasic_realTimeClientEvent - INFO - Program send to Robot:
servoj([0.004601788965731573, -1.576932249946439, -1.5984079809768383, -1.533980787885641, 1.583068173097982, 3.106311095468423], 0.5, 0.5, 0.002, 0.2, 100)

2025-07-07 16:42:25,391 - gym_custom_envs_real_ur_drivers_URBasic_realTimeClientEvent - INFO - Program send to Robot:
servoj([0.004601940829677709, -1.576932249946439, -1.5984079809768383, -1.533980787885641, 1.583068173097982, 3.106311095468423], 0.5, 0.5, 0.002, 0.2, 100)

2025-07-07 16:42:25,397 - gym_custom_envs_real_ur_drivers_URBasic_realTimeClientEvent - INFO - Program send to Robot:
servoj([0.004601942348317171, -1.576932249946439, -1.5984079809768383, -1.533980787885641, 1.583068173097982, 3.106311095468423], 0.5, 0.5, 0.002, 0.2, 100)

2025-07-07 16:42:25,416 - gym_custom_envs_real_ur_drivers_URBasic_realTimeClientEvent - INFO - Program send to Robot:
servoj([0.003083301383496621, -1.576932249946439, -1.5984079809768383, -1.533980787885641, 1.583068173097982, 3.106311095468423], 0.5, 0.5, 0.002, 0.2, 100)

2025-07-07 16:42:25,421 - gym_custom_envs_real_ur_drivers_URBasic_realTimeClientEvent - INFO - Program send to Robot:
servoj([0.0030681149738484154, -1.576932249946439, -1.5984079809768383, -1.533980787885641, 1.583068173097982, 3.106311095468423], 0.5, 0.5, 0.002, 0.2, 100)

2025-07-07 16:42:25,440 - gym_custom_envs_real_ur_drivers_URBasic_realTimeClientEvent - INFO - Program send to Robot:
servoj([0.003067963109751933, -1.576932249946439, -1.5984079809768383, -1.533980787885641, 1.583068173097982, 3.106311095468423], 0.5, 0.5, 0.002, 0.2, 100)

2025-07-07 16:42:25,445 - gym_custom_envs_real_ur_drivers_URBasic_realTimeClientEvent - INFO - Program send to Robot:
servoj([0.0030679615911109685, -1.576932249946439, -1.5984079809768383, -1.533980787885641, 1.583068173097982, 3.106311095468423], 0.5, 0.5, 0.002, 0.2, 100)

2025-07-07 16:42:25,455 - gym_custom_envs_real_ur_drivers_URBasic_realTimeClientEvent - INFO - Program send to Robot:
servoj([0.003067961575924559, -1.576932249946439, -1.5984079809768383, -1.533980787885641, 1.583068173097982, 3.106311095468423], 0.5, 0.5, 0.002, 0.2, 100)

2025-07-07 16:42:25,469 - gym_custom_envs_real_ur_drivers_URBasic_realTimeClientEvent - INFO - Program send to Robot:
servoj([0.003067961575772695, -1.576932249946439, -1.5968893399968314, -1.533980787885641, 1.583068173097982, 3.106311095468423], 0.5, 0.5, 0.002, 0.2, 100)

2025-07-07 16:42:25,480 - gym_custom_envs_real_ur_drivers_URBasic_realTimeClientEvent - INFO - Program send to Robot:
servoj([0.003067961575771176, -1.576932249946439, -1.5968741535870314, -1.533980787885641, 1.583068173097982, 3.106311095468423], 0.5, 0.5, 0.002, 0.2, 100)

2025-07-07 16:42:25,487 - gym_custom_envs_real_ur_drivers_URBasic_realTimeClientEvent - INFO - Program send to Robot:
servoj([0.003067961575771161, -1.576932249946439, -1.5968740017229333, -1.533980787885641, 1.583068173097982, 3.106311095468423], 0.5, 0.5, 0.002, 0.2, 100)

2025-07-07 16:42:25,503 - gym_custom_envs_real_ur_drivers_URBasic_realTimeClientEvent - INFO - Program send to Robot:
servoj([0.004586602555778105, -1.576932249946439, -1.5983926411842992, -1.533980787885641, 1.583068173097982, 3.106311095468423], 0.5, 0.5, 0.002, 0.2, 100)

2025-07-07 16:42:25,512 - gym_custom_envs_real_ur_drivers_URBasic_realTimeClientEvent - INFO - Program send to Robot:
servoj([0.004601788965578175, -1.576932249946439, -1.598407827578913, -1.533980787885641, 1.583068173097982, 3.106311095468423], 0.5, 0.5, 0.002, 0.2, 100)

2025-07-07 16:42:25,516 - gym_custom_envs_real_ur_drivers_URBasic_realTimeClientEvent - INFO - Program send to Robot:
servoj([0.0046019408296761755, -1.576932249946439, -1.5984079794428592, -1.533980787885641, 1.583068173097982, 3.106311095468423], 0.5, 0.5, 0.002, 0.2, 100)

2025-07-07 16:42:25,536 - gym_custom_envs_real_ur_drivers_URBasic_realTimeClientEvent - INFO - Program send to Robot:
servoj([0.003083301368310211, -1.576932249946439, -1.5984079809614986, -1.533980787885641, 1.583068173097982, 3.106311095468423], 0.5, 0.5, 0.002, 0.2, 100)

2025-07-07 16:42:25,540 - gym_custom_envs_real_ur_drivers_URBasic_realTimeClientEvent - INFO - Program send to Robot:
servoj([0.003068114973696551, -1.576932249946439, -1.598407980976685, -1.533980787885641, 1.583068173097982, 3.106311095468423], 0.5, 0.5, 0.002, 0.2, 100)

2025-07-07 16:42:25,557 - gym_custom_envs_real_ur_drivers_URBasic_realTimeClientEvent - INFO - Program send to Robot:
servoj([0.003067963109750415, -1.576932249946439, -1.5984079809768368, -1.533980787885641, 1.583068173097982, 3.106311095468423], 0.5, 0.5, 0.002, 0.2, 100)

2025-07-07 16:42:25,565 - gym_custom_envs_real_ur_drivers_URBasic_realTimeClientEvent - INFO - Program send to Robot:
servoj([0.004586602571117898, -1.576932249946439, -1.5984079809768383, -1.533980787885641, 1.583068173097982, 3.106311095468423], 0.5, 0.5, 0.002, 0.2, 100)

2025-07-07 16:42:25,576 - gym_custom_envs_real_ur_drivers_URBasic_realTimeClientEvent - INFO - Program send to Robot:
servoj([0.004601788965731573, -1.576932249946439, -1.5984079809768383, -1.533980787885641, 1.583068173097982, 3.106311095468423], 0.5, 0.5, 0.002, 0.2, 100)

2025-07-07 16:42:25,590 - gym_custom_envs_real_ur_drivers_URBasic_realTimeClientEvent - INFO - Program send to Robot:
servoj([0.004601940829677709, -1.576932249946439, -1.5984079809768383, -1.533980787885641, 1.583068173097982, 3.106311095468423], 0.5, 0.5, 0.002, 0.2, 100)

2025-07-07 16:42:25,599 - gym_custom_envs_real_ur_drivers_URBasic_realTimeClientEvent - INFO - Program send to Robot:
servoj([0.003083301368310226, -1.576932249946439, -1.5984079809768383, -1.533980787885641, 1.583068173097982, 3.106311095468423], 0.5, 0.5, 0.002, 0.2, 100)

2025-07-07 16:42:25,607 - gym_custom_envs_real_ur_drivers_URBasic_realTimeClientEvent - INFO - Program send to Robot:
servoj([0.0030681149736965516, -1.576932249946439, -1.5984079809768383, -1.533980787885641, 1.583068173097982, 3.106311095468423], 0.5, 0.5, 0.002, 0.2, 100)

2025-07-07 16:42:25,613 - gym_custom_envs_real_ur_drivers_URBasic_realTimeClientEvent - INFO - Program send to Robot:
servoj([0.003067963109750415, -1.576932249946439, -1.5984079809768383, -1.533980787885641, 1.583068173097982, 3.106311095468423], 0.5, 0.5, 0.002, 0.2, 100)

2025-07-07 16:42:25,630 - gym_custom_envs_real_ur_drivers_URBasic_realTimeClientEvent - INFO - Program send to Robot:
servoj([0.0030679615911109533, -1.576932249946439, -1.5984079809768383, -1.533980787885641, 1.583068173097982, 3.106311095468423], 0.5, 0.5, 0.002, 0.2, 100)

2025-07-07 16:42:25,636 - gym_custom_envs_real_ur_drivers_URBasic_realTimeClientEvent - INFO - Program send to Robot:
servoj([0.0030679615759245586, -1.576932249946439, -1.5984079809768383, -1.533980787885641, 1.583068173097982, 3.106311095468423], 0.5, 0.5, 0.002, 0.2, 100)

2025-07-07 16:42:25,646 - gym_custom_envs_real_ur_drivers_URBasic_realTimeClientEvent - INFO - Program send to Robot:
servoj([0.003067961575772695, -1.576932249946439, -1.5984079809768383, -1.533980787885641, 1.583068173097982, 3.106311095468423], 0.5, 0.5, 0.002, 0.2, 100)

2025-07-07 16:42:25,655 - gym_custom_envs_real_ur_drivers_URBasic_realTimeClientEvent - INFO - Program send to Robot:
servoj([0.003067961575771176, -1.576932249946439, -1.5984079809768383, -1.533980787885641, 1.583068173097982, 3.106311095468423], 0.5, 0.5, 0.002, 0.2, 100)

2025-07-07 16:42:25,671 - gym_custom_envs_real_ur_drivers_URBasic_realTimeClientEvent - INFO - Program send to Robot:
servoj([0.003067961575771161, -1.576932249946439, -1.5984079809768383, -1.533980787885641, 1.583068173097982, 3.106311095468423], 0.5, 0.5, 0.002, 0.2, 100)

2025-07-07 16:42:25,679 - gym_custom_envs_real_ur_drivers_URBasic_realTimeClientEvent - INFO - Program send to Robot:
servoj([0.003067961575771161, -1.576932249946439, -1.5984079809768383, -1.533980787885641, 1.583068173097982, 3.106311095468423], 0.5, 0.5, 0.002, 0.2, 100)

2025-07-07 16:42:25,684 - gym_custom_envs_real_ur_drivers_URBasic_realTimeClientEvent - INFO - Program send to Robot:
servoj([0.003067961575771161, -1.576932249946439, -1.5984079809768383, -1.533980787885641, 1.583068173097982, 3.106311095468423], 0.5, 0.5, 0.002, 0.2, 100)

2025-07-07 16:42:25,702 - gym_custom_envs_real_ur_drivers_URBasic_realTimeClientEvent - INFO - Program send to Robot:
servoj([0.003067961575771161, -1.576932249946439, -1.5984079809768383, -1.533980787885641, 1.583068173097982, 3.106311095468423], 0.5, 0.5, 0.002, 0.2, 100)

2025-07-07 16:42:25,708 - gym_custom_envs_real_ur_drivers_URBasic_realTimeClientEvent - INFO - Program send to Robot:
servoj([0.003067961575771161, -1.576932249946439, -1.5984079809768383, -1.533980787885641, 1.583068173097982, 3.106311095468423], 0.5, 0.5, 0.002, 0.2, 100)

2025-07-07 16:42:25,717 - gym_custom_envs_real_ur_drivers_URBasic_realTimeClientEvent - INFO - Program send to Robot:
servoj([0.003067961575771161, -1.576932249946439, -1.5984079809768383, -1.533980787885641, 1.583068173097982, 3.106311095468423], 0.5, 0.5, 0.002, 0.2, 100)

2025-07-07 16:42:25,733 - gym_custom_envs_real_ur_drivers_URBasic_realTimeClientEvent - INFO - Program send to Robot:
servoj([0.004586602555778105, -1.576932249946439, -1.5984079809768383, -1.533980787885641, 1.583068173097982, 3.106311095468423], 0.5, 0.5, 0.002, 0.2, 100)

2025-07-07 16:42:25,741 - gym_custom_envs_real_ur_drivers_URBasic_realTimeClientEvent - INFO - Program send to Robot:
servoj([0.004601788965578175, -1.576932249946439, -1.5984079809768383, -1.533980787885641, 1.583068173097982, 3.106311095468423], 0.5, 0.5, 0.002, 0.2, 100)

2025-07-07 16:42:25,749 - gym_custom_envs_real_ur_drivers_URBasic_realTimeClientEvent - INFO - Program send to Robot:
servoj([0.0046019408296761755, -1.576932249946439, -1.5984079809768383, -1.533980787885641, 1.583068173097982, 3.106311095468423], 0.5, 0.5, 0.002, 0.2, 100)

2025-07-07 16:42:25,757 - gym_custom_envs_real_ur_drivers_URBasic_realTimeClientEvent - INFO - Program send to Robot:
servoj([0.004601942348317155, -1.576932249946439, -1.5984079809768383, -1.533980787885641, 1.583068173097982, 3.106311095468423], 0.5, 0.5, 0.002, 0.2, 100)

2025-07-07 16:42:25,774 - gym_custom_envs_real_ur_drivers_URBasic_realTimeClientEvent - INFO - Program send to Robot:
servoj([0.004601942363503565, -1.576932249946439, -1.5984079809768383, -1.533980787885641, 1.583068173097982, 3.106311095468423], 0.5, 0.5, 0.002, 0.2, 100)

2025-07-07 16:42:25,781 - gym_custom_envs_real_ur_drivers_URBasic_realTimeClientEvent - INFO - Program send to Robot:
servoj([0.004601942363655429, -1.576932249946439, -1.5984079809768383, -1.533980787885641, 1.583068173097982, 3.106311095468423], 0.5, 0.5, 0.002, 0.2, 100)

2025-07-07 16:42:25,790 - gym_custom_envs_real_ur_drivers_URBasic_realTimeClientEvent - INFO - Program send to Robot:
servoj([0.004601942363656948, -1.576932249946439, -1.5984079809768383, -1.533980787885641, 1.583068173097982, 3.106311095468423], 0.5, 0.5, 0.002, 0.2, 100)

2025-07-07 16:42:25,799 - gym_custom_envs_real_ur_drivers_URBasic_realTimeClientEvent - INFO - Program send to Robot:
servoj([0.004601942363656963, -1.576932249946439, -1.5984079809768383, -1.533980787885641, 1.583068173097982, 3.106311095468423], 0.5, 0.5, 0.002, 0.2, 100)

2025-07-07 16:42:25,815 - gym_custom_envs_real_ur_drivers_URBasic_realTimeClientEvent - INFO - Program send to Robot:
servoj([0.004601942363656963, -1.576932249946439, -1.5984079809768383, -1.533980787885641, 1.583068173097982, 3.106311095468423], 0.5, 0.5, 0.002, 0.2, 100)

2025-07-07 16:42:25,823 - gym_custom_envs_real_ur_drivers_URBasic_realTimeClientEvent - INFO - Program send to Robot:
servoj([0.003083301383650019, -1.576932249946439, -1.5984079809768383, -1.533980787885641, 1.583068173097982, 3.106311095468423], 0.5, 0.5, 0.002, 0.2, 100)

2025-07-07 16:42:25,828 - gym_custom_envs_real_ur_drivers_URBasic_realTimeClientEvent - INFO - Program send to Robot:
servoj([0.0030681149738499493, -1.576932249946439, -1.5984079809768383, -1.533980787885641, 1.583068173097982, 3.106311095468423], 0.5, 0.5, 0.002, 0.2, 100)

2025-07-07 16:42:25,846 - gym_custom_envs_real_ur_drivers_URBasic_realTimeClientEvent - INFO - Program send to Robot:
servoj([0.003067963109751949, -1.576932249946439, -1.5984079809768383, -1.533980787885641, 1.583068173097982, 3.106311095468423], 0.5, 0.5, 0.002, 0.2, 100)

2025-07-07 16:42:25,853 - gym_custom_envs_real_ur_drivers_URBasic_realTimeClientEvent - INFO - Program send to Robot:
servoj([0.004586602571117913, -1.576932249946439, -1.5984079809768383, -1.533980787885641, 1.583068173097982, 3.10782973644843], 0.5, 0.5, 0.002, 0.2, 100)

2025-07-07 16:42:25,861 - gym_custom_envs_real_ur_drivers_URBasic_realTimeClientEvent - INFO - Program send to Robot:
servoj([0.004601788965731573, -1.576932249946439, -1.5984079809768383, -1.533980787885641, 1.583068173097982, 3.1078449228582303], 0.5, 0.5, 0.002, 0.2, 100)

2025-07-07 16:42:25,869 - gym_custom_envs_real_ur_drivers_URBasic_realTimeClientEvent - INFO - Program send to Robot:
servoj([0.004601940829677709, -1.576932249946439, -1.5984079809768383, -1.533980787885641, 1.583068173097982, 3.107845074722328], 0.5, 0.5, 0.002, 0.2, 100)

2025-07-07 16:42:25,885 - gym_custom_envs_real_ur_drivers_URBasic_realTimeClientEvent - INFO - Program send to Robot:
servoj([0.003083301368310226, -1.576932249946439, -1.5984079809768383, -1.533980787885641, 1.583068173097982, 3.1093637172209765], 0.5, 0.5, 0.002, 0.2, 100)

2025-07-07 16:42:25,895 - gym_custom_envs_real_ur_drivers_URBasic_realTimeClientEvent - INFO - Program send to Robot:
servoj([0.0030681149736965516, -1.576932249946439, -1.5984079809768383, -1.533980787885641, 1.583068173097982, 3.109378903645963], 0.5, 0.5, 0.002, 0.2, 100)

2025-07-07 16:42:25,901 - gym_custom_envs_real_ur_drivers_URBasic_realTimeClientEvent - INFO - Program send to Robot:
servoj([0.003067963109750415, -1.576932249946439, -1.5984079809768383, -1.533980787885641, 1.583068173097982, 3.1093790555102125], 0.5, 0.5, 0.002, 0.2, 100)

2025-07-07 16:42:25,910 - gym_custom_envs_real_ur_drivers_URBasic_realTimeClientEvent - INFO - Program send to Robot:
servoj([0.0030679615911109533, -1.576932249946439, -1.5984079809768383, -1.533980787885641, 1.583068173097982, 3.109379057028855], 0.5, 0.5, 0.002, 0.2, 100)

2025-07-07 16:42:25,924 - gym_custom_envs_real_ur_drivers_URBasic_realTimeClientEvent - INFO - Program send to Robot:
servoj([0.0045866025559315035, -1.576932249946439, -1.5984079809768383, -1.533980787885641, 1.583068173097982, 3.1108976980240484], 0.5, 0.5, 0.002, 0.2, 100)

2025-07-07 16:42:25,934 - gym_custom_envs_real_ur_drivers_URBasic_realTimeClientEvent - INFO - Program send to Robot:
servoj([0.004601788965579709, -1.576932249946439, -1.5984079809768383, -1.533980787885641, 1.583068173097982, 3.110912884434], 0.5, 0.5, 0.002, 0.2, 100)

2025-07-07 16:42:25,942 - gym_custom_envs_real_ur_drivers_URBasic_realTimeClientEvent - INFO - Program send to Robot:
servoj([0.00460194082967619, -1.576932249946439, -1.5984079809768383, -1.533980787885641, 1.583068173097982, 3.1109130362980997], 0.5, 0.5, 0.002, 0.2, 100)

2025-07-07 16:42:25,958 - gym_custom_envs_real_ur_drivers_URBasic_realTimeClientEvent - INFO - Program send to Robot:
servoj([0.004601942348317156, -1.576932249946439, -1.5984079809768383, -1.533980787885641, 1.583068173097982, 3.110913037816741], 0.5, 0.5, 0.002, 0.2, 100)

2025-07-07 16:42:25,966 - gym_custom_envs_real_ur_drivers_URBasic_realTimeClientEvent - INFO - Program send to Robot:
servoj([0.004601942363503565, -1.576932249946439, -1.5984079809768383, -1.533980787885641, 1.583068173097982, 3.1109130378319274], 0.5, 0.5, 0.002, 0.2, 100)

2025-07-07 16:42:25,973 - gym_custom_envs_real_ur_drivers_URBasic_realTimeClientEvent - INFO - Program send to Robot:
servoj([0.004601942363655429, -1.576932249946439, -1.5984079809768383, -1.533980787885641, 1.583068173097982, 3.110913037832079], 0.5, 0.5, 0.002, 0.2, 100)

2025-07-07 16:42:25,982 - gym_custom_envs_real_ur_drivers_URBasic_realTimeClientEvent - INFO - Program send to Robot:
servoj([0.0030833013836500034, -1.576932249946439, -1.5984079809768383, -1.5324621469056343, 1.583068173097982, 3.1109130378320806], 0.5, 0.5, 0.002, 0.2, 100)

2025-07-07 16:42:25,997 - gym_custom_envs_real_ur_drivers_URBasic_realTimeClientEvent - INFO - Program send to Robot:
servoj([0.0030681149738499493, -1.576932249946439, -1.5984079809768383, -1.5324469604958342, 1.583068173097982, 3.1109130378320806], 0.5, 0.5, 0.002, 0.2, 100)

2025-07-07 16:42:26,006 - gym_custom_envs_real_ur_drivers_URBasic_realTimeClientEvent - INFO - Program send to Robot:
servoj([0.003067963109751949, -1.576932249946439, -1.5984079809768383, -1.5324468086317362, 1.583068173097982, 3.1109130378320806], 0.5, 0.5, 0.002, 0.2, 100)

2025-07-07 16:42:26,015 - gym_custom_envs_real_ur_drivers_URBasic_realTimeClientEvent - INFO - Program send to Robot:
servoj([0.004586602571117913, -1.576932249946439, -1.5984079809768383, -1.5324468071130952, 1.581549532117975, 3.109394396852074], 0.5, 0.5, 0.002, 0.2, 100)

2025-07-07 16:42:26,031 - gym_custom_envs_real_ur_drivers_URBasic_realTimeClientEvent - INFO - Program send to Robot:
servoj([0.004601788965731573, -1.576932249946439, -1.5984079809768383, -1.5324468070979087, 1.581534345708175, 3.109379210442274], 0.5, 0.5, 0.002, 0.2, 100)

2025-07-07 16:42:26,040 - gym_custom_envs_real_ur_drivers_URBasic_realTimeClientEvent - INFO - Program send to Robot:
servoj([0.004601940829677709, -1.576932249946439, -1.5984079809768383, -1.5294095251377438, 1.583052834824084, 3.1093790585781758], 0.5, 0.5, 0.002, 0.2, 100)

2025-07-07 16:42:26,045 - gym_custom_envs_real_ur_drivers_URBasic_realTimeClientEvent - INFO - Program send to Robot:
servoj([0.004601942348317171, -1.576932249946439, -1.5984079809768383, -1.529379152318142, 1.5830680197152431, 3.109379057059535], 0.5, 0.5, 0.002, 0.2, 100)

2025-07-07 16:42:26,063 - gym_custom_envs_real_ur_drivers_URBasic_realTimeClientEvent - INFO - Program send to Robot:
servoj([0.004601942363503565, -1.576932249946439, -1.5984079809768383, -1.529378848589946, 1.5830681715641546, 3.1093790570443485], 0.5, 0.5, 0.002, 0.2, 100)

2025-07-07 16:42:26,069 - gym_custom_envs_real_ur_drivers_URBasic_realTimeClientEvent - INFO - Program send to Robot:
servoj([0.004601942363655429, -1.576932249946439, -1.5984079809768383, -1.529378845552664, 1.5830681730826437, 3.1093790570441966], 0.5, 0.5, 0.002, 0.2, 100)

2025-07-07 16:42:26,077 - gym_custom_envs_real_ur_drivers_URBasic_realTimeClientEvent - INFO - Program send to Robot:
servoj([0.0030833013836500034, -1.576932249946439, -1.5984079809768383, -1.523304281602264, 1.5830681730978287, 3.109379057044195], 0.5, 0.5, 0.002, 0.2, 100)

2025-07-07 16:42:26,094 - gym_custom_envs_real_ur_drivers_URBasic_realTimeClientEvent - INFO - Program send to Robot:
servoj([0.0030681149738499493, -1.576932249946439, -1.5984079809768383, -1.5232435359627599, 1.5830681730979805, 3.109379057044195], 0.5, 0.5, 0.002, 0.2, 100)

2025-07-07 16:42:26,101 - gym_custom_envs_real_ur_drivers_URBasic_realTimeClientEvent - INFO - Program send to Robot:
servoj([0.003067963109751949, -1.576932249946439, -1.5984079809768383, -1.523242928506365, 1.583068173097982, 3.109379057044195], 0.5, 0.5, 0.002, 0.2, 100)

2025-07-07 16:42:26,109 - gym_custom_envs_real_ur_drivers_URBasic_realTimeClientEvent - INFO - Program send to Robot:
servoj([0.004586602571117913, -1.576932249946439, -1.5968893399968314, -1.515649717531767, 1.583068173097982, 3.1078604160641876], 0.5, 0.5, 0.002, 0.2, 100)

2025-07-07 16:42:26,117 - gym_custom_envs_real_ur_drivers_URBasic_realTimeClientEvent - INFO - Program send to Robot:
servoj([0.004601788965731573, -1.576932249946439, -1.5968741535870314, -1.515573785422021, 1.583068173097982, 3.1078452296543877], 0.5, 0.5, 0.002, 0.2, 100)

2025-07-07 16:42:26,133 - gym_custom_envs_real_ur_drivers_URBasic_realTimeClientEvent - INFO - Program send to Robot:
servoj([0.004601940829677709, -1.576932249946439, -1.5968740017229333, -1.5155730261009235, 1.583068173097982, 3.1078450777902895], 0.5, 0.5, 0.002, 0.2, 100)

2025-07-07 16:42:26,141 - gym_custom_envs_real_ur_drivers_URBasic_realTimeClientEvent - INFO - Program send to Robot:
servoj([0.004601942348317171, -1.576932249946439, -1.5968740002042923, -1.504942531647665, 1.583068173097982, 3.1078450762716487], 0.5, 0.5, 0.002, 0.2, 100)

2025-07-07 16:42:26,149 - gym_custom_envs_real_ur_drivers_URBasic_realTimeClientEvent - INFO - Program send to Robot:
servoj([0.004601942363503565, -1.576932249946439, -1.596874000189106, -1.5048362267031323, 1.583068173097982, 3.1078450762564622], 0.5, 0.5, 0.002, 0.2, 100)

2025-07-07 16:42:26,158 - gym_custom_envs_real_ur_drivers_URBasic_realTimeClientEvent - INFO - Program send to Robot:
servoj([0.004601942363655429, -1.576932249946439, -1.596874000188954, -1.5048351636536872, 1.583068173097982, 3.1078450762563103], 0.5, 0.5, 0.002, 0.2, 100)

2025-07-07 16:42:26,175 - gym_custom_envs_real_ur_drivers_URBasic_realTimeClientEvent - INFO - Program send to Robot:
servoj([0.004601942363656948, -1.576932249946439, -1.5968740001889525, -1.4926860251831384, 1.583068173097982, 3.107845076256309], 0.5, 0.5, 0.002, 0.2, 100)

2025-07-07 16:42:26,182 - gym_custom_envs_real_ur_drivers_URBasic_realTimeClientEvent - INFO - Program send to Robot:
servoj([0.004601942363656963, -1.576932249946439, -1.5968740001889525, -1.4925645337984328, 1.583068173097982, 3.107845076256309], 0.5, 0.5, 0.002, 0.2, 100)

2025-07-07 16:42:26,189 - gym_custom_envs_real_ur_drivers_URBasic_realTimeClientEvent - INFO - Program send to Robot:
servoj([0.004601942363656963, -1.576932249946439, -1.5968740001889525, -1.4925633188845857, 1.583068173097982, 3.107845076256309], 0.5, 0.5, 0.002, 0.2, 100)

2025-07-07 16:42:26,206 - gym_custom_envs_real_ur_drivers_URBasic_realTimeClientEvent - INFO - Program send to Robot:
servoj([0.004601942363656963, -1.576932249946439, -1.5968740001889525, -1.474339614975366, 1.583068173097982, 3.107845076256309], 0.5, 0.5, 0.002, 0.2, 100)

2025-07-07 16:42:26,213 - gym_custom_envs_real_ur_drivers_URBasic_realTimeClientEvent - INFO - Program send to Robot:
servoj([0.004601942363656963, -1.576932249946439, -1.5968740001889525, -1.4741573779362738, 1.583068173097982, 3.107845076256309], 0.5, 0.5, 0.002, 0.2, 100)

2025-07-07 16:42:26,221 - gym_custom_envs_real_ur_drivers_URBasic_realTimeClientEvent - INFO - Program send to Robot:
servoj([0.004601942363656963, -1.576932249946439, -1.5968740001889525, -1.474155555565883, 1.583068173097982, 3.107845076256309], 0.5, 0.5, 0.002, 0.2, 100)

2025-07-07 16:42:26,229 - gym_custom_envs_real_ur_drivers_URBasic_realTimeClientEvent - INFO - Program send to Robot:
servoj([0.004601942363656963, -1.576932249946439, -1.5968740001889525, -1.474155537342179, 1.583068173097982, 3.107845076256309], 0.5, 0.5, 0.002, 0.2, 100)

2025-07-07 16:42:26,245 - gym_custom_envs_real_ur_drivers_URBasic_realTimeClientEvent - INFO - Program send to Robot:
servoj([0.004601942363656963, -1.576932249946439, -1.5968740001889525, -1.4483386404998266, 1.583068173097982, 3.107845076256309], 0.5, 0.5, 0.002, 0.2, 100)

2025-07-07 16:42:26,253 - gym_custom_envs_real_ur_drivers_URBasic_realTimeClientEvent - INFO - Program send to Robot:
servoj([0.004601942363656963, -1.576932249946439, -1.5968740001889525, -1.448080471531403, 1.583068173097982, 3.107845076256309], 0.5, 0.5, 0.002, 0.2, 100)

2025-07-07 16:42:26,261 - gym_custom_envs_real_ur_drivers_URBasic_realTimeClientEvent - INFO - Program send to Robot:
servoj([0.004601942363656963, -1.576932249946439, -1.5968740001889525, -1.4480778898417188, 1.583068173097982, 3.107845076256309], 0.5, 0.5, 0.002, 0.2, 100)

2025-07-07 16:42:26,269 - gym_custom_envs_real_ur_drivers_URBasic_realTimeClientEvent - INFO - Program send to Robot:
servoj([0.004601942363656963, -1.576932249946439, -1.5968740001889525, -1.4131491214846659, 1.583068173097982, 3.1063264352763023], 0.5, 0.5, 0.002, 0.2, 100)

2025-07-07 16:42:26,285 - gym_custom_envs_real_ur_drivers_URBasic_realTimeClientEvent - INFO - Program send to Robot:
servoj([0.004601942363656963, -1.576932249946439, -1.5968740001889525, -1.4127998338010954, 1.583068173097982, 3.106311248866502], 0.5, 0.5, 0.002, 0.2, 100)

2025-07-07 16:42:26,294 - gym_custom_envs_real_ur_drivers_URBasic_realTimeClientEvent - INFO - Program send to Robot:
servoj([0.004601942363656963, -1.576932249946439, -1.5968740001889525, -1.4127963409242597, 1.583068173097982, 3.106311097002404], 0.5, 0.5, 0.002, 0.2, 100)

2025-07-07 16:42:26,302 - gym_custom_envs_real_ur_drivers_URBasic_realTimeClientEvent - INFO - Program send to Robot:
servoj([0.003083301383650019, -1.576932249946439, -1.5968740001889525, -1.373311640515315, 1.583068173097982, 3.106311095483763], 0.5, 0.5, 0.002, 0.2, 100)

2025-07-07 16:42:26,318 - gym_custom_envs_real_ur_drivers_URBasic_realTimeClientEvent - INFO - Program send to Robot:
servoj([0.0030681149738499493, -1.576932249946439, -1.5968740001889525, -1.3729167935112254, 1.583068173097982, 3.106311095468577], 0.5, 0.5, 0.002, 0.2, 100)

2025-07-07 16:42:26,326 - gym_custom_envs_real_ur_drivers_URBasic_realTimeClientEvent - INFO - Program send to Robot:
servoj([0.003067963109751949, -1.576932249946439, -1.5968740001889525, -1.3729128450411847, 1.583068173097982, 3.106311095468425], 0.5, 0.5, 0.002, 0.2, 100)

2025-07-07 16:42:26,332 - gym_custom_envs_real_ur_drivers_URBasic_realTimeClientEvent - INFO - Program send to Robot:
servoj([0.004586602571117913, -1.576932249946439, -1.5953553592089456, -1.3288722171362877, 1.583068173097982, 3.104792454488416], 0.5, 0.5, 0.002, 0.2, 100)

2025-07-07 16:42:26,349 - gym_custom_envs_real_ur_drivers_URBasic_realTimeClientEvent - INFO - Program send to Robot:
servoj([0.004601788965731573, -1.576932249946439, -1.5953401727991454, -1.3284318108572386, 1.583068173097982, 3.104777268078616], 0.5, 0.5, 0.002, 0.2, 100)

2025-07-07 16:42:26,356 - gym_custom_envs_real_ur_drivers_URBasic_realTimeClientEvent - INFO - Program send to Robot:
servoj([0.004601940829677709, -1.576932249946439, -1.5953400209350475, -1.3284274067944482, 1.583068173097982, 3.104777116214518], 0.5, 0.5, 0.002, 0.2, 100)

2025-07-07 16:42:26,365 - gym_custom_envs_real_ur_drivers_URBasic_realTimeClientEvent - INFO - Program send to Robot:
servoj([0.004601942348317171, -1.576932249946439, -1.5953400194164065, -1.2843867743336232, 1.581549532117975, 3.103258473715871], 0.5, 0.5, 0.002, 0.2, 100)

2025-07-07 16:42:26,374 - gym_custom_envs_real_ur_drivers_URBasic_realTimeClientEvent - INFO - Program send to Robot:
servoj([0.004601942363503565, -1.576932249946439, -1.5953400194012202, -1.283946368009015, 1.581534345708175, 3.1032432872908844], 0.5, 0.5, 0.002, 0.2, 100)

2025-07-07 16:42:26,390 - gym_custom_envs_real_ur_drivers_URBasic_realTimeClientEvent - INFO - Program send to Robot:
servoj([0.004601942363655429, -1.576932249946439, -1.5953400194010683, -1.283941963945769, 1.581534193844077, 3.1032431354266343], 0.5, 0.5, 0.002, 0.2, 100)

2025-07-07 16:42:26,399 - gym_custom_envs_real_ur_drivers_URBasic_realTimeClientEvent - INFO - Program send to Robot:
servoj([0.004601942363656948, -1.576932249946439, -1.5953400194010667, -1.2414199724649464, 1.581534192325436, 3.103243133907992], 0.5, 0.5, 0.002, 0.2, 100)

2025-07-07 16:42:26,404 - gym_custom_envs_real_ur_drivers_URBasic_realTimeClientEvent - INFO - Program send to Robot:
servoj([0.004601942363656963, -1.576932249946439, -1.5953400194010667, -1.2409947525501381, 1.5815341923102495, 3.1032431338928053], 0.5, 0.5, 0.002, 0.2, 100)

2025-07-07 16:42:26,423 - gym_custom_envs_real_ur_drivers_URBasic_realTimeClientEvent - INFO - Program send to Robot:
servoj([0.004601942363656963, -1.576932249946439, -1.5953400194010667, -1.2030244758508204, 1.5815341923100976, 3.1032431338926534], 0.5, 0.5, 0.002, 0.2, 100)

2025-07-07 16:42:26,428 - gym_custom_envs_real_ur_drivers_URBasic_realTimeClientEvent - INFO - Program send to Robot:
servoj([0.004601942363656963, -1.576932249946439, -1.5953400194010667, -1.2026447730838272, 1.5815341923100963, 3.103243133892652], 0.5, 0.5, 0.002, 0.2, 100)

2025-07-07 16:42:26,438 - gym_custom_envs_real_ur_drivers_URBasic_realTimeClientEvent - INFO - Program send to Robot:
servoj([0.004601942363656963, -1.576932249946439, -1.5953400194010667, -1.2026409760561574, 1.5815341923100963, 3.103243133892652], 0.5, 0.5, 0.002, 0.2, 100)

2025-07-07 16:42:26,452 - gym_custom_envs_real_ur_drivers_URBasic_realTimeClientEvent - INFO - Program send to Robot:
servoj([0.004601942363656963, -1.576932249946439, -1.5953400194010667, -1.2026409380858807, 1.5815341923100963, 3.103243133892652], 0.5, 0.5, 0.002, 0.2, 100)

2025-07-07 16:42:26,461 - gym_custom_envs_real_ur_drivers_URBasic_realTimeClientEvent - INFO - Program send to Robot:
servoj([0.004601942363656963, -1.576932249946439, -1.5953400194010667, -1.1753054000660559, 1.5815341923100963, 3.103243133892652], 0.5, 0.5, 0.002, 0.2, 100)

2025-07-07 16:42:26,469 - gym_custom_envs_real_ur_drivers_URBasic_realTimeClientEvent - INFO - Program send to Robot:
servoj([0.004601942363656963, -1.576932249946439, -1.5953400194010667, -1.1750320446858575, 1.5815341923100963, 3.103243133892652], 0.5, 0.5, 0.002, 0.2, 100)

2025-07-07 16:42:26,476 - gym_custom_envs_real_ur_drivers_URBasic_realTimeClientEvent - INFO - Program send to Robot:
servoj([0.004601942363656963, -1.576932249946439, -1.5953400194010667, -1.1750293111320556, 1.5815341923100963, 3.103243133892652], 0.5, 0.5, 0.002, 0.2, 100)

2025-07-07 16:42:26,493 - gym_custom_envs_real_ur_drivers_URBasic_realTimeClientEvent - INFO - Program send to Robot:
servoj([0.004601942363656963, -1.576932249946439, -1.5953400194010667, -1.1522496690964157, 1.5815341923100963, 3.103243133892652], 0.5, 0.5, 0.002, 0.2, 100)

2025-07-07 16:42:26,501 - gym_custom_envs_real_ur_drivers_URBasic_realTimeClientEvent - INFO - Program send to Robot:
servoj([0.004601942363656963, -1.576932249946439, -1.5953400194010667, -1.1520218726760594, 1.5815341923100963, 3.103243133892652], 0.5, 0.5, 0.002, 0.2, 100)

2025-07-07 16:42:26,509 - gym_custom_envs_real_ur_drivers_URBasic_realTimeClientEvent - INFO - Program send to Robot:
servoj([0.004601942363656963, -1.576932249946439, -1.5953400194010667, -1.1520195947118559, 1.5815341923100963, 3.103243133892652], 0.5, 0.5, 0.002, 0.2, 100)

2025-07-07 16:42:26,518 - gym_custom_envs_real_ur_drivers_URBasic_realTimeClientEvent - INFO - Program send to Robot:
servoj([0.004601942363656963, -1.576932249946439, -1.5953400194010667, -1.1520195719322137, 1.5815341923100963, 3.103243133892652], 0.5, 0.5, 0.002, 0.2, 100)

2025-07-07 16:42:26,534 - gym_custom_envs_real_ur_drivers_URBasic_realTimeClientEvent - INFO - Program send to Robot:
servoj([0.004601942363656963, -1.576932249946439, -1.5953400194010667, -1.1383518028843562, 1.5815341923100963, 3.103243133892652], 0.5, 0.5, 0.002, 0.2, 100)

2025-07-07 16:42:26,542 - gym_custom_envs_real_ur_drivers_URBasic_realTimeClientEvent - INFO - Program send to Robot:
servoj([0.004601942363656963, -1.576932249946439, -1.5953400194010667, -1.1382151251938777, 1.5815341923100963, 3.103243133892652], 0.5, 0.5, 0.002, 0.2, 100)

2025-07-07 16:42:26,549 - gym_custom_envs_real_ur_drivers_URBasic_realTimeClientEvent - INFO - Program send to Robot:
servoj([0.004601942363656963, -1.576932249946439, -1.5953400194010667, -1.138213758416973, 1.5815341923100963, 3.103243133892652], 0.5, 0.5, 0.002, 0.2, 100)

2025-07-07 16:42:26,565 - gym_custom_envs_real_ur_drivers_URBasic_realTimeClientEvent - INFO - Program send to Robot:
servoj([0.004601942363656963, -1.576932249946439, -1.5938213784210598, -1.13062053984917, 1.5815341923100963, 3.1017244929126457], 0.5, 0.5, 0.002, 0.2, 100)

2025-07-07 16:42:26,572 - gym_custom_envs_real_ur_drivers_URBasic_realTimeClientEvent - INFO - Program send to Robot:
servoj([0.004601942363656963, -1.576932249946439, -1.5938061920112596, -1.130544607663492, 1.5815341923100963, 3.101709306502846], 0.5, 0.5, 0.002, 0.2, 100)

2025-07-07 16:42:26,580 - gym_custom_envs_real_ur_drivers_URBasic_realTimeClientEvent - INFO - Program send to Robot:
servoj([0.004601942363656963, -1.576932249946439, -1.5938060401471617, -1.130543848341635, 1.5815341923100963, 3.1017091546387476], 0.5, 0.5, 0.002, 0.2, 100)

2025-07-07 16:42:26,588 - gym_custom_envs_real_ur_drivers_URBasic_realTimeClientEvent - INFO - Program send to Robot:
servoj([0.004601942363656963, -1.576932249946439, -1.5938060386285207, -1.1290251997684102, 1.5815341923100963, 3.101709153120107], 0.5, 0.5, 0.002, 0.2, 100)

2025-07-07 16:42:26,605 - gym_custom_envs_real_ur_drivers_URBasic_realTimeClientEvent - INFO - Program send to Robot:
servoj([0.004601942363656963, -1.576932249946439, -1.5938060386133344, -1.129010013282678, 1.5815341923100963, 3.1017091531049203], 0.5, 0.5, 0.002, 0.2, 100)

2025-07-07 16:42:26,613 - gym_custom_envs_real_ur_drivers_URBasic_realTimeClientEvent - INFO - Program send to Robot:
servoj([0.004601942363656963, -1.576932249946439, -1.5938060386131825, -1.1290098614178206, 1.5815341923100963, 3.1017091531047685], 0.5, 0.5, 0.002, 0.2, 100)

2025-07-07 16:42:26,621 - gym_custom_envs_real_ur_drivers_URBasic_realTimeClientEvent - INFO - Program send to Robot:
servoj([0.004601942363656963, -1.576932249946439, -1.593806038613181, -1.127491218919165, 1.5815341923100963, 3.101709153104767], 0.5, 0.5, 0.002, 0.2, 100)

2025-07-07 16:42:26,628 - gym_custom_envs_real_ur_drivers_URBasic_realTimeClientEvent - INFO - Program send to Robot:
servoj([0.004601942363656963, -1.576932249946439, -1.593806038613181, -1.1274760324941786, 1.5815341923100963, 3.1017091531047667], 0.5, 0.5, 0.002, 0.2, 100)

2025-07-07 16:42:26,645 - gym_custom_envs_real_ur_drivers_URBasic_realTimeClientEvent - INFO - Program send to Robot:
servoj([0.004601942363656963, -1.576932249946439, -1.593806038613181, -1.1274758806299288, 1.5815341923100963, 3.1017091531047667], 0.5, 0.5, 0.002, 0.2, 100)

2025-07-07 16:42:26,653 - gym_custom_envs_real_ur_drivers_URBasic_realTimeClientEvent - INFO - Program send to Robot:
servoj([0.004601942363656963, -1.576932249946439, -1.593806038613181, -1.1274758791112862, 1.5830528332901033, 3.1017091531047667], 0.5, 0.5, 0.002, 0.2, 100)

2025-07-07 16:42:26,662 - gym_custom_envs_real_ur_drivers_URBasic_realTimeClientEvent - INFO - Program send to Robot:
servoj([0.004601942363656963, -1.576932249946439, -1.593806038613181, -1.1274758790960997, 1.5830680196999032, 3.1017091531047667], 0.5, 0.5, 0.002, 0.2, 100)

2025-07-07 16:42:26,669 - gym_custom_envs_real_ur_drivers_URBasic_realTimeClientEvent - INFO - Program send to Robot:
servoj([0.004601942363656963, -1.576932249946439, -1.593806038613181, -1.1274758790959478, 1.5830681715640011, 3.1017091531047667], 0.5, 0.5, 0.002, 0.2, 100)

2025-07-07 16:42:26,686 - gym_custom_envs_real_ur_drivers_URBasic_realTimeClientEvent - INFO - Program send to Robot:
servoj([0.004601942363656963, -1.576932249946439, -1.593806038613181, -1.1274758790959463, 1.5830681730826421, 3.1017091531047667], 0.5, 0.5, 0.002, 0.2, 100)

2025-07-07 16:42:26,692 - gym_custom_envs_real_ur_drivers_URBasic_realTimeClientEvent - INFO - Program send to Robot:
servoj([0.004601942363656963, -1.576932249946439, -1.593806038613181, -1.1274758790959463, 1.5830681730978287, 3.1017091531047667], 0.5, 0.5, 0.002, 0.2, 100)

2025-07-07 16:42:26,702 - gym_custom_envs_real_ur_drivers_URBasic_realTimeClientEvent - INFO - Program send to Robot:
servoj([0.004601942363656963, -1.576932249946439, -1.593806038613181, -1.1274758790959463, 1.5830681730979805, 3.1017091531047667], 0.5, 0.5, 0.002, 0.2, 100)

2025-07-07 16:42:26,710 - gym_custom_envs_real_ur_drivers_URBasic_realTimeClientEvent - INFO - Program send to Robot:
servoj([0.004601942363656963, -1.576932249946439, -1.593806038613181, -1.1274758790959463, 1.583068173097982, 3.1017091531047667], 0.5, 0.5, 0.002, 0.2, 100)

2025-07-07 16:42:26,726 - gym_custom_envs_real_ur_drivers_URBasic_realTimeClientEvent - INFO - Program send to Robot:
servoj([0.004601942363656963, -1.576932249946439, -1.593806038613181, -1.1274758790959463, 1.5845868140779882, 3.1017091531047667], 0.5, 0.5, 0.002, 0.2, 100)

2025-07-07 16:42:26,734 - gym_custom_envs_real_ur_drivers_URBasic_realTimeClientEvent - INFO - Program send to Robot:
servoj([0.004601942363656963, -1.576932249946439, -1.593806038613181, -1.1274758790959463, 1.584602000487788, 3.1017091531047667], 0.5, 0.5, 0.002, 0.2, 100)

2025-07-07 16:42:26,740 - gym_custom_envs_real_ur_drivers_URBasic_realTimeClientEvent - INFO - Program send to Robot:
servoj([0.004601942363656963, -1.576932249946439, -1.593806038613181, -1.1274758790959463, 1.5846021523518863, 3.1017091531047667], 0.5, 0.5, 0.002, 0.2, 100)

2025-07-07 16:42:26,760 - gym_custom_envs_real_ur_drivers_URBasic_realTimeClientEvent - INFO - Program send to Robot:
servoj([0.004601942363656963, -1.576932249946439, -1.595324679593188, -1.1274758790959463, 1.584602153870527, 3.1017091531047667], 0.5, 0.5, 0.002, 0.2, 100)

2025-07-07 16:42:26,765 - gym_custom_envs_real_ur_drivers_URBasic_realTimeClientEvent - INFO - Program send to Robot:
servoj([0.004601942363656963, -1.576932249946439, -1.5953398660029878, -1.1274758790959463, 1.5846021538857136, 3.1017091531047667], 0.5, 0.5, 0.002, 0.2, 100)

2025-07-07 16:42:26,776 - gym_custom_envs_real_ur_drivers_URBasic_realTimeClientEvent - INFO - Program send to Robot:
servoj([0.004601942363656963, -1.576932249946439, -1.593821376887079, -1.1274758790959463, 1.5830835129058594, 3.1017091531047667], 0.5, 0.5, 0.002, 0.2, 100)

2025-07-07 16:42:26,789 - gym_custom_envs_real_ur_drivers_URBasic_realTimeClientEvent - INFO - Program send to Robot:
servoj([0.004601942363656963, -1.576932249946439, -1.5938061919959199, -1.1274758790959463, 1.5830683264960608, 3.1017091531047667], 0.5, 0.5, 0.002, 0.2, 100)

2025-07-07 16:42:26,800 - gym_custom_envs_real_ur_drivers_URBasic_realTimeClientEvent - INFO - Program send to Robot:
servoj([0.004601942363656963, -1.576932249946439, -1.5938060401470082, -1.1274758790959463, 1.5830681746319628, 3.1017091531047667], 0.5, 0.5, 0.002, 0.2, 100)

2025-07-07 16:42:26,804 - gym_custom_envs_real_ur_drivers_URBasic_realTimeClientEvent - INFO - Program send to Robot:
servoj([0.004601942363656963, -1.576932249946439, -1.593806038628519, -1.1274758790959463, 1.5830681731133218, 3.1017091531047667], 0.5, 0.5, 0.002, 0.2, 100)

2025-07-07 16:42:26,825 - gym_custom_envs_real_ur_drivers_URBasic_realTimeClientEvent - INFO - Program send to Robot:
servoj([0.004601942363656963, -1.576932249946439, -1.5938060386133344, -1.1274758790959463, 1.5830681730981355, 3.1017091531047667], 0.5, 0.5, 0.002, 0.2, 100)

2025-07-07 16:42:26,829 - gym_custom_envs_real_ur_drivers_URBasic_realTimeClientEvent - INFO - Program send to Robot:
servoj([0.004601942363656963, -1.576932249946439, -1.5938060386131825, -1.1274758790959463, 1.5830681730979836, 3.1017091531047667], 0.5, 0.5, 0.002, 0.2, 100)

2025-07-07 16:42:26,849 - gym_custom_envs_real_ur_drivers_URBasic_realTimeClientEvent - INFO - Program send to Robot:
servoj([0.004601942363656963, -1.576932249946439, -1.595324679593188, -1.1274758790959463, 1.583068173097982, 3.1017091531047667], 0.5, 0.5, 0.002, 0.2, 100)

2025-07-07 16:42:26,853 - gym_custom_envs_real_ur_drivers_URBasic_realTimeClientEvent - INFO - Program send to Robot:
servoj([0.004601942363656963, -1.576932249946439, -1.5953398660029878, -1.1274758790959463, 1.583068173097982, 3.1017091531047667], 0.5, 0.5, 0.002, 0.2, 100)

2025-07-07 16:42:26,873 - gym_custom_envs_real_ur_drivers_URBasic_realTimeClientEvent - INFO - Program send to Robot:
servoj([0.004601942363656963, -1.576932249946439, -1.593821376887079, -1.1274758790959463, 1.5845868140779882, 3.1017091531047667], 0.5, 0.5, 0.002, 0.2, 100)

2025-07-07 16:42:26,877 - gym_custom_envs_real_ur_drivers_URBasic_realTimeClientEvent - INFO - Program send to Robot:
servoj([0.004601942363656963, -1.576932249946439, -1.5938061919959199, -1.1274758790959463, 1.584602000487788, 3.1017091531047667], 0.5, 0.5, 0.002, 0.2, 100)

2025-07-07 16:42:26,898 - gym_custom_envs_real_ur_drivers_URBasic_realTimeClientEvent - INFO - Program send to Robot:
servoj([0.004601942363656963, -1.576932249946439, -1.5938060401470082, -1.1274758790959463, 1.5846021523518863, 3.1017091531047667], 0.5, 0.5, 0.002, 0.2, 100)

2025-07-07 16:42:26,901 - gym_custom_envs_real_ur_drivers_URBasic_realTimeClientEvent - INFO - Program send to Robot:
servoj([0.004601942363656963, -1.576932249946439, -1.593806038628519, -1.1274758790959463, 1.584602153870527, 3.1017091531047667], 0.5, 0.5, 0.002, 0.2, 100)

2025-07-07 16:42:26,923 - gym_custom_envs_real_ur_drivers_URBasic_realTimeClientEvent - INFO - Program send to Robot:
servoj([0.004601942363656963, -1.576932249946439, -1.5938060386133344, -1.1274758790959463, 1.5846021538857136, 3.1017091531047667], 0.5, 0.5, 0.002, 0.2, 100)

2025-07-07 16:42:26,933 - gym_custom_envs_real_ur_drivers_URBasic_realTimeClientEvent - INFO - Program send to Robot:
servoj([0.004601942363656963, -1.576932249946439, -1.5938060386131825, -1.1274758790959463, 1.5846021538858654, 3.1017091531047667], 0.5, 0.5, 0.002, 0.2, 100)

2025-07-07 16:42:26,940 - gym_custom_envs_real_ur_drivers_URBasic_realTimeClientEvent - INFO - Program send to Robot:
servoj([0.004601942363656963, -1.576932249946439, -1.593806038613181, -1.1274758790959463, 1.584602153885867, 3.1017091531047667], 0.5, 0.5, 0.002, 0.2, 100)

2025-07-07 16:42:26,949 - gym_custom_envs_real_ur_drivers_URBasic_realTimeClientEvent - INFO - Program send to Robot:
servoj([0.004601942363656963, -1.576932249946439, -1.593806038613181, -1.1274758790959463, 1.584602153885867, 3.1017091531047667], 0.5, 0.5, 0.002, 0.2, 100)

2025-07-07 16:42:26,965 - gym_custom_envs_real_ur_drivers_URBasic_realTimeClientEvent - INFO - Program send to Robot:
servoj([0.004601942363656963, -1.576932249946439, -1.593806038613181, -1.1274758790959463, 1.584602153885867, 3.1017091531047667], 0.5, 0.5, 0.002, 0.2, 100)

2025-07-07 16:42:26,974 - gym_custom_envs_real_ur_drivers_URBasic_realTimeClientEvent - INFO - Program send to Robot:
servoj([0.004601942363656963, -1.576932249946439, -1.593806038613181, -1.1274758790959463, 1.584602153885867, 3.1017091531047667], 0.5, 0.5, 0.002, 0.2, 100)

2025-07-07 16:42:26,982 - gym_custom_envs_real_ur_drivers_URBasic_realTimeClientEvent - INFO - Program send to Robot:
servoj([0.004601942363656963, -1.576932249946439, -1.593806038613181, -1.1274758790959463, 1.584602153885867, 3.1017091531047667], 0.5, 0.5, 0.002, 0.2, 100)

2025-07-07 16:42:26,997 - gym_custom_envs_real_ur_drivers_URBasic_realTimeClientEvent - INFO - Program send to Robot:
servoj([0.004601942363656963, -1.576932249946439, -1.593806038613181, -1.1274758790959463, 1.584602153885867, 3.1017091531047667], 0.5, 0.5, 0.002, 0.2, 100)

2025-07-07 16:42:27,006 - gym_custom_envs_real_ur_drivers_URBasic_realTimeClientEvent - INFO - Program send to Robot:
servoj([0.004601942363656963, -1.576932249946439, -1.593806038613181, -1.1259572381159393, 1.584602153885867, 3.1017091531047667], 0.5, 0.5, 0.002, 0.2, 100)

2025-07-07 16:42:27,018 - gym_custom_envs_real_ur_drivers_URBasic_realTimeClientEvent - INFO - Program send to Robot:
servoj([0.004601942363656963, -1.576932249946439, -1.593806038613181, -1.1259420517061394, 1.584602153885867, 3.1017091531047667], 0.5, 0.5, 0.002, 0.2, 100)

2025-07-07 16:42:27,029 - gym_custom_envs_real_ur_drivers_URBasic_realTimeClientEvent - INFO - Program send to Robot:
servoj([0.004601942363656963, -1.576932249946439, -1.593806038613181, -1.1259418998420412, 1.584602153885867, 3.1017091531047667], 0.5, 0.5, 0.002, 0.2, 100)

2025-07-07 16:42:27,036 - gym_custom_envs_real_ur_drivers_URBasic_realTimeClientEvent - INFO - Program send to Robot:
servoj([0.004601942363656963, -1.576932249946439, -1.593806038613181, -1.1274605393034072, 1.583083512905861, 3.1017091531047667], 0.5, 0.5, 0.002, 0.2, 100)

2025-07-07 16:42:27,045 - gym_custom_envs_real_ur_drivers_URBasic_realTimeClientEvent - INFO - Program send to Robot:
servoj([0.004601942363656963, -1.576932249946439, -1.593806038613181, -1.127475725698021, 1.5830683264960608, 3.1017091531047667], 0.5, 0.5, 0.002, 0.2, 100)

2025-07-07 16:42:27,060 - gym_custom_envs_real_ur_drivers_URBasic_realTimeClientEvent - INFO - Program send to Robot:
servoj([0.004601942363656963, -1.576932249946439, -1.593806038613181, -1.127475877561967, 1.5830681746319628, 3.1017091531047667], 0.5, 0.5, 0.002, 0.2, 100)

2025-07-07 16:42:27,069 - gym_custom_envs_real_ur_drivers_URBasic_realTimeClientEvent - INFO - Program send to Robot:
servoj([0.004601942363656963, -1.576932249946439, -1.593806038613181, -1.1274758790806065, 1.5830681731133218, 3.1017091531047667], 0.5, 0.5, 0.002, 0.2, 100)

2025-07-07 16:42:27,077 - gym_custom_envs_real_ur_drivers_URBasic_realTimeClientEvent - INFO - Program send to Robot:
servoj([0.004601942363656963, -1.576932249946439, -1.593806038613181, -1.1274758790957928, 1.5830681730981355, 3.1017091531047667], 0.5, 0.5, 0.002, 0.2, 100)

2025-07-07 16:42:27,092 - gym_custom_envs_real_ur_drivers_URBasic_realTimeClientEvent - INFO - Program send to Robot:
servoj([0.004601942363656963, -1.576932249946439, -1.593806038613181, -1.1274758790959447, 1.5830681730979836, 3.1017091531047667], 0.5, 0.5, 0.002, 0.2, 100)

2025-07-07 16:42:27,101 - gym_custom_envs_real_ur_drivers_URBasic_realTimeClientEvent - INFO - Program send to Robot:
servoj([0.004601942363656963, -1.576932249946439, -1.593806038613181, -1.1274758790959463, 1.5845868140779882, 3.1017091531047667], 0.5, 0.5, 0.002, 0.2, 100)

2025-07-07 16:42:27,112 - gym_custom_envs_real_ur_drivers_URBasic_realTimeClientEvent - INFO - Program send to Robot:
servoj([0.004601942363656963, -1.576932249946439, -1.593806038613181, -1.1274758790959463, 1.584602000487788, 3.1017091531047667], 0.5, 0.5, 0.002, 0.2, 100)

2025-07-07 16:42:27,125 - gym_custom_envs_real_ur_drivers_URBasic_realTimeClientEvent - INFO - Program send to Robot:
servoj([0.004601942363656963, -1.576932249946439, -1.593806038613181, -1.1274758790959463, 1.5846021523518863, 3.1017091531047667], 0.5, 0.5, 0.002, 0.2, 100)

2025-07-07 16:42:27,137 - gym_custom_envs_real_ur_drivers_URBasic_realTimeClientEvent - INFO - Program send to Robot:
servoj([0.004601942363656963, -1.576932249946439, -1.593806038613181, -1.1274758790959463, 1.584602153870527, 3.103227794084773], 0.5, 0.5, 0.002, 0.2, 100)

2025-07-07 16:42:27,141 - gym_custom_envs_real_ur_drivers_URBasic_realTimeClientEvent - INFO - Program send to Robot:
servoj([0.004601942363656963, -1.576932249946439, -1.593806038613181, -1.1274758790959463, 1.5846021538857136, 3.1032429804945734], 0.5, 0.5, 0.002, 0.2, 100)

2025-07-07 16:42:27,162 - gym_custom_envs_real_ur_drivers_URBasic_realTimeClientEvent - INFO - Program send to Robot:
servoj([0.004601942363656963, -1.576932249946439, -1.593806038613181, -1.1274758790959463, 1.5846021538858654, 3.103243132358671], 0.5, 0.5, 0.002, 0.2, 100)

2025-07-07 16:42:27,165 - gym_custom_envs_real_ur_drivers_URBasic_realTimeClientEvent - INFO - Program send to Robot:
servoj([0.004601942363656963, -1.576932249946439, -1.593806038613181, -1.1274758790959463, 1.584602153885867, 3.1032431338773123], 0.5, 0.5, 0.002, 0.2, 100)

2025-07-07 16:42:27,185 - gym_custom_envs_real_ur_drivers_URBasic_realTimeClientEvent - INFO - Program send to Robot:
servoj([0.004601942363656963, -1.576932249946439, -1.593806038613181, -1.1274758790959463, 1.584602153885867, 3.103243133892499], 0.5, 0.5, 0.002, 0.2, 100)

2025-07-07 16:42:27,189 - gym_custom_envs_real_ur_drivers_URBasic_realTimeClientEvent - INFO - Program send to Robot:
servoj([0.004601942363656963, -1.576932249946439, -1.593806038613181, -1.1274758790959463, 1.584602153885867, 3.1032431338926507], 0.5, 0.5, 0.002, 0.2, 100)

2025-07-07 16:42:27,207 - gym_custom_envs_real_ur_drivers_URBasic_realTimeClientEvent - INFO - Program send to Robot:
servoj([0.004601942363656963, -1.576932249946439, -1.593806038613181, -1.1274758790959463, 1.583083512905861, 3.103243133892652], 0.5, 0.5, 0.002, 0.2, 100)

2025-07-07 16:42:27,215 - gym_custom_envs_real_ur_drivers_URBasic_realTimeClientEvent - INFO - Program send to Robot:
servoj([0.004601942363656963, -1.576932249946439, -1.593806038613181, -1.1274758790959463, 1.5830683264960608, 3.103243133892652], 0.5, 0.5, 0.002, 0.2, 100)

2025-07-07 16:42:27,221 - gym_custom_envs_real_ur_drivers_URBasic_realTimeClientEvent - INFO - Program send to Robot:
servoj([0.004601942363656963, -1.576932249946439, -1.593806038613181, -1.1274758790959463, 1.5830681746319628, 3.103243133892652], 0.5, 0.5, 0.002, 0.2, 100)

2025-07-07 16:42:27,239 - gym_custom_envs_real_ur_drivers_URBasic_realTimeClientEvent - INFO - Program send to Robot:
servoj([0.004601942363656963, -1.576932249946439, -1.593806038613181, -1.1274758790959463, 1.5830681731133218, 3.103243133892652], 0.5, 0.5, 0.002, 0.2, 100)

2025-07-07 16:42:27,245 - gym_custom_envs_real_ur_drivers_URBasic_realTimeClientEvent - INFO - Program send to Robot:
servoj([0.004601942363656963, -1.576932249946439, -1.593806038613181, -1.1274758790959463, 1.5830681730981355, 3.103243133892652], 0.5, 0.5, 0.002, 0.2, 100)

2025-07-07 16:42:27,254 - gym_custom_envs_real_ur_drivers_URBasic_realTimeClientEvent - INFO - Program send to Robot:
servoj([0.004601942363656963, -1.576932249946439, -1.593806038613181, -1.1274758790959463, 1.5830681730979836, 3.103243133892652], 0.5, 0.5, 0.002, 0.2, 100)

2025-07-07 16:42:27,269 - gym_custom_envs_real_ur_drivers_URBasic_realTimeClientEvent - INFO - Program send to Robot:
servoj([0.004601942363656963, -1.576932249946439, -1.593806038613181, -1.1274758790959463, 1.583068173097982, 3.1017244929126457], 0.5, 0.5, 0.002, 0.2, 100)

2025-07-07 16:42:27,280 - gym_custom_envs_real_ur_drivers_URBasic_realTimeClientEvent - INFO - Program send to Robot:
servoj([0.004601942363656963, -1.576932249946439, -1.593806038613181, -1.1274758790959463, 1.583068173097982, 3.101709306502846], 0.5, 0.5, 0.002, 0.2, 100)

2025-07-07 16:42:27,289 - gym_custom_envs_real_ur_drivers_URBasic_realTimeClientEvent - INFO - Program send to Robot:
servoj([0.004601942363656963, -1.576932249946439, -1.593806038613181, -1.1274758790959463, 1.5800308911379684, 3.1017091546387476], 0.5, 0.5, 0.002, 0.2, 100)

2025-07-07 16:42:27,293 - gym_custom_envs_real_ur_drivers_URBasic_realTimeClientEvent - INFO - Program send to Robot:
servoj([0.004601942363656963, -1.576932249946439, -1.593806038613181, -1.1274758790959463, 1.580000518318368, 3.101709153120107], 0.5, 0.5, 0.002, 0.2, 100)

2025-07-07 16:42:27,309 - gym_custom_envs_real_ur_drivers_URBasic_realTimeClientEvent - INFO - Program send to Robot:
servoj([0.004601942363656963, -1.576932249946439, -1.593806038613181, -1.1274758790959463, 1.5800002145901721, 3.1017091531049203], 0.5, 0.5, 0.002, 0.2, 100)

2025-07-07 16:42:27,317 - gym_custom_envs_real_ur_drivers_URBasic_realTimeClientEvent - INFO - Program send to Robot:
servoj([0.004601942363656963, -1.576932249946439, -1.593806038613181, -1.1274758790959463, 1.5800002115528902, 3.1017091531047685], 0.5, 0.5, 0.002, 0.2, 100)

2025-07-07 16:42:27,327 - gym_custom_envs_real_ur_drivers_URBasic_realTimeClientEvent - INFO - Program send to Robot:
servoj([0.004601942363656963, -1.576932249946439, -1.593806038613181, -1.1274758790959463, 1.5800002115225174, 3.101709153104767], 0.5, 0.5, 0.002, 0.2, 100)

2025-07-07 16:42:27,340 - gym_custom_envs_real_ur_drivers_URBasic_realTimeClientEvent - INFO - Program send to Robot:
servoj([0.004601942363656963, -1.576932249946439, -1.593806038613181, -1.1274758790959463, 1.5800002115222136, 3.1017091531047667], 0.5, 0.5, 0.002, 0.2, 100)

2025-07-07 16:42:27,350 - gym_custom_envs_real_ur_drivers_URBasic_realTimeClientEvent - INFO - Program send to Robot:
servoj([0.004601942363656963, -1.576932249946439, -1.593806038613181, -1.1274758790959463, 1.5800002115222107, 3.1017091531047667], 0.5, 0.5, 0.002, 0.2, 100)

2025-07-07 16:42:27,358 - gym_custom_envs_real_ur_drivers_URBasic_realTimeClientEvent - INFO - Program send to Robot:
servoj([0.004601942363656963, -1.576932249946439, -1.593806038613181, -1.1274758790959463, 1.5800002115222105, 3.1017091531047667], 0.5, 0.5, 0.002, 0.2, 100)

2025-07-07 16:42:27,365 - gym_custom_envs_real_ur_drivers_URBasic_realTimeClientEvent - INFO - Program send to Robot:
servoj([0.004601942363656963, -1.576932249946439, -1.593806038613181, -1.1274758790959463, 1.5800002115222105, 3.1017091531047667], 0.5, 0.5, 0.002, 0.2, 100)

2025-07-07 16:42:27,383 - gym_custom_envs_real_ur_drivers_URBasic_realTimeClientEvent - INFO - Program send to Robot:
servoj([0.004601942363656963, -1.576932249946439, -1.593806038613181, -1.1274758790959463, 1.5800002115222105, 3.1017091531047667], 0.5, 0.5, 0.002, 0.2, 100)

2025-07-07 16:42:27,389 - gym_custom_envs_real_ur_drivers_URBasic_realTimeClientEvent - INFO - Program send to Robot:
servoj([0.004601942363656963, -1.576932249946439, -1.595324679593188, -1.1274758790959463, 1.5800002115222105, 3.1017091531047667], 0.5, 0.5, 0.002, 0.2, 100)

2025-07-07 16:42:27,398 - gym_custom_envs_real_ur_drivers_URBasic_realTimeClientEvent - INFO - Program send to Robot:
servoj([0.004601942363656963, -1.576932249946439, -1.5953398660029878, -1.1274758790959463, 1.5800002115222105, 3.1017091531047667], 0.5, 0.5, 0.002, 0.2, 100)

2025-07-07 16:42:27,412 - gym_custom_envs_real_ur_drivers_URBasic_realTimeClientEvent - INFO - Program send to Robot:
servoj([0.004601942363656963, -1.576932249946439, -1.595340017867086, -1.1274758790959463, 1.5800002115222105, 3.1017091531047667], 0.5, 0.5, 0.002, 0.2, 100)

2025-07-07 16:42:27,423 - gym_custom_envs_real_ur_drivers_URBasic_realTimeClientEvent - INFO - Program send to Robot:
servoj([0.004601942363656963, -1.576932249946439, -1.59382137840572, -1.1274758790959463, 1.5800002115222105, 3.1017091531047667], 0.5, 0.5, 0.002, 0.2, 100)

2025-07-07 16:42:27,428 - gym_custom_envs_real_ur_drivers_URBasic_realTimeClientEvent - INFO - Program send to Robot:
servoj([0.004601942363656963, -1.576932249946439, -1.5938061920111062, -1.1274758790959463, 1.5800002115222105, 3.1017091531047667], 0.5, 0.5, 0.002, 0.2, 100)

2025-07-07 16:42:27,436 - gym_custom_envs_real_ur_drivers_URBasic_realTimeClientEvent - INFO - Program send to Robot:
servoj([0.004601942363656963, -1.576932249946439, -1.59380604014716, -1.1274758790959463, 1.5800002115222105, 3.1017091531047667], 0.5, 0.5, 0.002, 0.2, 100)

2025-07-07 16:42:27,457 - gym_custom_envs_real_ur_drivers_URBasic_realTimeClientEvent - INFO - Program send to Robot:
servoj([0.004601942363656963, -1.576932249946439, -1.5938060386285207, -1.1274758790959463, 1.5800002115222105, 3.1017091531047667], 0.5, 0.5, 0.002, 0.2, 100)

2025-07-07 16:42:27,461 - gym_custom_envs_real_ur_drivers_URBasic_realTimeClientEvent - INFO - Program send to Robot:
servoj([0.004601942363656963, -1.576932249946439, -1.5938060386133344, -1.1274758790959463, 1.5800002115222105, 3.1017091531047667], 0.5, 0.5, 0.002, 0.2, 100)

2025-07-07 16:42:27,479 - gym_custom_envs_real_ur_drivers_URBasic_realTimeClientEvent - INFO - Program send to Robot:
servoj([0.004601942363656963, -1.576932249946439, -1.5938060386131825, -1.1274758790959463, 1.5800002115222105, 3.1017091531047667], 0.5, 0.5, 0.002, 0.2, 100)

2025-07-07 16:42:27,485 - gym_custom_envs_real_ur_drivers_URBasic_realTimeClientEvent - INFO - Program send to Robot:
servoj([0.004601942363656963, -1.576932249946439, -1.593806038613181, -1.1274758790959463, 1.5800002115222105, 3.1017091531047667], 0.5, 0.5, 0.002, 0.2, 100)

2025-07-07 16:42:27,495 - gym_custom_envs_real_ur_drivers_URBasic_realTimeClientEvent - INFO - Program send to Robot:
servoj([0.004601942363656963, -1.576932249946439, -1.593806038613181, -1.1274758790959463, 1.5800002115222105, 3.1017091531047667], 0.5, 0.5, 0.002, 0.2, 100)

2025-07-07 16:42:27,509 - gym_custom_envs_real_ur_drivers_URBasic_realTimeClientEvent - INFO - Program send to Robot:
servoj([0.004601942363656963, -1.576932249946439, -1.593806038613181, -1.1274758790959463, 1.5800002115222105, 3.1017091531047667], 0.5, 0.5, 0.002, 0.2, 100)

2025-07-07 16:42:27,519 - gym_custom_envs_real_ur_drivers_URBasic_realTimeClientEvent - INFO - Program send to Robot:
servoj([0.004601942363656963, -1.576932249946439, -1.590768756653168, -1.1274758790959463, 1.5800002115222105, 3.1017091531047667], 0.5, 0.5, 0.002, 0.2, 100)

2025-07-07 16:42:27,527 - gym_custom_envs_real_ur_drivers_URBasic_realTimeClientEvent - INFO - Program send to Robot:
servoj([0.004601942363656963, -1.576932249946439, -1.5907383838335678, -1.1274758790959463, 1.5800002115222105, 3.1017091531047667], 0.5, 0.5, 0.002, 0.2, 100)

2025-07-07 16:42:27,533 - gym_custom_envs_real_ur_drivers_URBasic_realTimeClientEvent - INFO - Program send to Robot:
servoj([0.004601942363656963, -1.576932249946439, -1.5907380801053719, -1.1274758790959463, 1.5800002115222105, 3.1017091531047667], 0.5, 0.5, 0.002, 0.2, 100)

2025-07-07 16:42:27,552 - gym_custom_envs_real_ur_drivers_URBasic_realTimeClientEvent - INFO - Program send to Robot:
servoj([0.004601942363656963, -1.576932249946439, -1.584663513148062, -1.1274758790959463, 1.5784815705422035, 3.1017091531047667], 0.5, 0.5, 0.002, 0.2, 100)

2025-07-07 16:42:27,557 - gym_custom_envs_real_ur_drivers_URBasic_realTimeClientEvent - INFO - Program send to Robot:
servoj([0.004601942363656963, -1.576932249946439, -1.5846027674784888, -1.1274758790959463, 1.5784663841324036, 3.1017091531047667], 0.5, 0.5, 0.002, 0.2, 100)

2025-07-07 16:42:27,567 - gym_custom_envs_real_ur_drivers_URBasic_realTimeClientEvent - INFO - Program send to Robot:
servoj([0.004601942363656963, -1.576932249946439, -1.5846021600217932, -1.1274758790959463, 1.5784662322683056, 3.1017091531047667], 0.5, 0.5, 0.002, 0.2, 100)

2025-07-07 16:42:27,580 - gym_custom_envs_real_ur_drivers_URBasic_realTimeClientEvent - INFO - Program send to Robot:
servoj([0.004601942363656963, -1.576932249946439, -1.5739716670871793, -1.1289945200759532, 1.5799848717296716, 3.1017091531047667], 0.5, 0.5, 0.002, 0.2, 100)

2025-07-07 16:42:27,591 - gym_custom_envs_real_ur_drivers_URBasic_realTimeClientEvent - INFO - Program send to Robot:
servoj([0.004601942363656963, -1.576932249946439, -1.5738653621578331, -1.1290097064857534, 1.5800000581242852, 3.1017091531047667], 0.5, 0.5, 0.002, 0.2, 100)

2025-07-07 16:42:27,599 - gym_custom_envs_real_ur_drivers_URBasic_realTimeClientEvent - INFO - Program send to Robot:
servoj([0.004601942363656963, -1.576932249946439, -1.5738642991085399, -1.1290098583498513, 1.5800002099882313, 3.1017091531047667], 0.5, 0.5, 0.002, 0.2, 100)

2025-07-07 16:42:27,614 - gym_custom_envs_real_ur_drivers_URBasic_realTimeClientEvent - INFO - Program send to Robot:
servoj([0.004601942363656963, -1.576932249946439, -1.5632338016179992, -1.1335657828085126, 1.5800002115068708, 3.1017091531047667], 0.5, 0.5, 0.002, 0.2, 100)

2025-07-07 16:42:27,621 - gym_custom_envs_real_ur_drivers_URBasic_realTimeClientEvent - INFO - Program send to Robot:
servoj([0.004601942363656963, -1.576932249946439, -1.5631274966430937, -1.1336113420530993, 1.5800002115220573, 3.1017091531047667], 0.5, 0.5, 0.002, 0.2, 100)

2025-07-07 16:42:27,629 - gym_custom_envs_real_ur_drivers_URBasic_realTimeClientEvent - INFO - Program send to Robot:
servoj([0.004601942363656963, -1.576932249946439, -1.5631264335933446, -1.133611797645545, 1.580000211522209, 3.1017091531047667], 0.5, 0.5, 0.002, 0.2, 100)

2025-07-07 16:42:27,637 - gym_custom_envs_real_ur_drivers_URBasic_realTimeClientEvent - INFO - Program send to Robot:
servoj([0.004601942363656963, -1.576932249946439, -1.5631264229628472, -1.1336118022014696, 1.5800002115222105, 3.1017091531047667], 0.5, 0.5, 0.002, 0.2, 100)

2025-07-07 16:42:27,653 - gym_custom_envs_real_ur_drivers_URBasic_realTimeClientEvent - INFO - Program send to Robot:
servoj([0.004601942363656963, -1.576932249946439, -1.5509772950164877, -1.1366490842070422, 1.5800002115222105, 3.0986718711447527], 0.5, 0.5, 0.002, 0.2, 100)

2025-07-07 16:42:27,662 - gym_custom_envs_real_ur_drivers_URBasic_realTimeClientEvent - INFO - Program send to Robot:
servoj([0.004601942363656963, -1.576932249946439, -1.5508558037370241, -1.1366794570270982, 1.5800002115222105, 3.098641498325153], 0.5, 0.5, 0.002, 0.2, 100)

2025-07-07 16:42:27,671 - gym_custom_envs_real_ur_drivers_URBasic_realTimeClientEvent - INFO - Program send to Robot:
servoj([0.004601942363656963, -1.576932249946439, -1.5508545888242293, -1.1366797607552985, 1.5800002115222105, 3.098641194596957], 0.5, 0.5, 0.002, 0.2, 100)

2025-07-07 16:42:27,687 - gym_custom_envs_real_ur_drivers_URBasic_realTimeClientEvent - INFO - Program send to Robot:
servoj([0.004601942363656963, -1.576932249946439, -1.5402240898150545, -1.141235686732601, 1.5800002115222105, 3.089529345679634], 0.5, 0.5, 0.002, 0.2, 100)

2025-07-07 16:42:27,696 - gym_custom_envs_real_ur_drivers_URBasic_realTimeClientEvent - INFO - Program send to Robot:
servoj([0.004601942363656963, -1.576932249946439, -1.5401177848249628, -1.141281245992374, 1.5800002115222105, 3.0894382271904606], 0.5, 0.5, 0.002, 0.2, 100)

2025-07-07 16:42:27,701 - gym_custom_envs_real_ur_drivers_URBasic_realTimeClientEvent - INFO - Program send to Robot:
servoj([0.004601942363656963, -1.576932249946439, -1.540116721775062, -1.1412817015849717, 1.5800002115222105, 3.089437316005569], 0.5, 0.5, 0.002, 0.2, 100)

2025-07-07 16:42:27,719 - gym_custom_envs_real_ur_drivers_URBasic_realTimeClientEvent - INFO - Program send to Robot:
servoj([0.004601942363656963, -1.576932249946439, -1.5325235062445288, -1.1473562700609248, 1.5800002115222105, 3.0772881790536664], 0.5, 0.5, 0.002, 0.2, 100)

2025-07-07 16:42:27,725 - gym_custom_envs_real_ur_drivers_URBasic_realTimeClientEvent - INFO - Program send to Robot:
servoj([0.004601942363656963, -1.576932249946439, -1.5324475740892236, -1.1474170157456844, 1.5800002115222105, 3.0771666876841475], 0.5, 0.5, 0.002, 0.2, 100)

2025-07-07 16:42:27,734 - gym_custom_envs_real_ur_drivers_URBasic_realTimeClientEvent - INFO - Program send to Robot:
servoj([0.004601942363656963, -1.576932249946439, -1.5324468147676706, -1.147417623202532, 1.5800002115222105, 3.077165472770452], 0.5, 0.5, 0.002, 0.2, 100)

2025-07-07 16:42:27,749 - gym_custom_envs_real_ur_drivers_URBasic_realTimeClientEvent - INFO - Program send to Robot:
servoj([0.004601942363656963, -1.576932249946439, -1.5248536022744203, -1.1489362702571073, 1.5800002115222105, 3.0665349737612675], 0.5, 0.5, 0.002, 0.2, 100)

2025-07-07 16:42:27,758 - gym_custom_envs_real_ur_drivers_URBasic_realTimeClientEvent - INFO - Program send to Robot:
servoj([0.004601942363656963, -1.576932249946439, -1.5247776701494877, -1.148951456727653, 1.5800002115222105, 3.0664286687711755], 0.5, 0.5, 0.002, 0.2, 100)

2025-07-07 16:42:27,765 - gym_custom_envs_real_ur_drivers_URBasic_realTimeClientEvent - INFO - Program send to Robot:
servoj([0.004601942363656963, -1.576932249946439, -1.5247769108282385, -1.1489516085923586, 1.5800002115222105, 3.0664276057212745], 0.5, 0.5, 0.002, 0.2, 100)

2025-07-07 16:42:27,772 - gym_custom_envs_real_ur_drivers_URBasic_realTimeClientEvent - INFO - Program send to Robot:
servoj([0.004601942363656963, -1.5754136089664323, -1.5156650573549861, -1.1489516101110056, 1.5800002115222105, 3.055797108230728], 0.5, 0.5, 0.002, 0.2, 100)

2025-07-07 16:42:27,790 - gym_custom_envs_real_ur_drivers_URBasic_realTimeClientEvent - INFO - Program send to Robot:
servoj([0.004601942363656963, -1.5753984225566322, -1.5155739388202536, -1.148951610126192, 1.5800002115222105, 3.0556908032558225], 0.5, 0.5, 0.002, 0.2, 100)

2025-07-07 16:42:27,797 - gym_custom_envs_real_ur_drivers_URBasic_realTimeClientEvent - INFO - Program send to Robot:
servoj([0.004601942363656963, -1.5753982706925342, -1.5155730276349062, -1.148951610126344, 1.5800002115222105, 3.0556897402060734], 0.5, 0.5, 0.002, 0.2, 100)

2025-07-07 16:42:27,806 - gym_custom_envs_real_ur_drivers_URBasic_realTimeClientEvent - INFO - Program send to Robot:
servoj([0.004601942363656963, -1.5753982691738933, -1.506461172643012, -1.1489516101263453, 1.5815188525022172, 3.049615165655549], 0.5, 0.5, 0.002, 0.2, 100)

2025-07-07 16:42:27,815 - gym_custom_envs_real_ur_drivers_URBasic_realTimeClientEvent - INFO - Program send to Robot:
servoj([0.004601942363656963, -1.575398269158707, -1.506370054093093, -1.1489516101263453, 1.5815340389120174, 3.0495544199100437], 0.5, 0.5, 0.002, 0.2, 100)

2025-07-07 16:42:27,831 - gym_custom_envs_real_ur_drivers_URBasic_realTimeClientEvent - INFO - Program send to Robot:
servoj([0.004601942363656963, -1.575398269158555, -1.5063691429075938, -1.1489516101263453, 1.5815341907761153, 3.0495538124525887], 0.5, 0.5, 0.002, 0.2, 100)

2025-07-07 16:42:27,839 - gym_custom_envs_real_ur_drivers_URBasic_realTimeClientEvent - INFO - Program send to Robot:
servoj([0.004601942363656963, -1.5753982691585535, -1.4957386469356913, -1.1504702511063518, 1.5830528332747633, 3.049553806378014], 0.5, 0.5, 0.002, 0.2, 100)

2025-07-07 16:42:27,845 - gym_custom_envs_real_ur_drivers_URBasic_realTimeClientEvent - INFO - Program send to Robot:
servoj([0.004601942363656963, -1.5753982691585535, -1.495632341975972, -1.150485437516152, 1.5830680196997498, 3.0495538063172685], 0.5, 0.5, 0.002, 0.2, 100)

2025-07-07 16:42:27,862 - gym_custom_envs_real_ur_drivers_URBasic_realTimeClientEvent - INFO - Program send to Robot:
servoj([0.004601942363656963, -1.5753982691585535, -1.495631278926375, -1.15048558938025, 1.5830681715639996, 3.049553806316661], 0.5, 0.5, 0.002, 0.2, 100)

2025-07-07 16:42:27,869 - gym_custom_envs_real_ur_drivers_URBasic_realTimeClientEvent - INFO - Program send to Robot:
servoj([0.004601942363656963, -1.5738796281785468, -1.4850007814358313, -1.150485590898891, 1.5830681730826421, 3.0495538063166547], 0.5, 0.5, 0.002, 0.2, 100)

2025-07-07 16:42:27,877 - gym_custom_envs_real_ur_drivers_URBasic_realTimeClientEvent - INFO - Program send to Robot:
servoj([0.004601942363656963, -1.5738644417687466, -1.4848944764609258, -1.1504855909140774, 1.5830681730978287, 3.0495538063166547], 0.5, 0.5, 0.002, 0.2, 100)

2025-07-07 16:42:27,885 - gym_custom_envs_real_ur_drivers_URBasic_realTimeClientEvent - INFO - Program send to Robot:
servoj([0.004601942363656963, -1.5738642899046487, -1.4848934134111766, -1.1504855909142293, 1.5830681730979805, 3.0495538063166547], 0.5, 0.5, 0.002, 0.2, 100)

2025-07-07 16:42:27,901 - gym_custom_envs_real_ur_drivers_URBasic_realTimeClientEvent - INFO - Program send to Robot:
servoj([0.004601942363656963, -1.5738642883860077, -1.4727442749406254, -1.1504855909142309, 1.583068173097982, 3.048035165336648], 0.5, 0.5, 0.002, 0.2, 100)

2025-07-07 16:42:27,910 - gym_custom_envs_real_ur_drivers_URBasic_realTimeClientEvent - INFO - Program send to Robot:
servoj([0.004601942363656963, -1.5738642883708214, -1.4726227835559198, -1.1504855909142309, 1.583068173097982, 3.048019978926848], 0.5, 0.5, 0.002, 0.2, 100)

2025-07-07 16:42:27,916 - gym_custom_envs_real_ur_drivers_URBasic_realTimeClientEvent - INFO - Program send to Robot:
servoj([0.004601942363656963, -1.5738642883706695, -1.4726215686420727, -1.1504855909142309, 1.583068173097982, 3.04801982706275], 0.5, 0.5, 0.002, 0.2, 100)

2025-07-07 16:42:27,925 - gym_custom_envs_real_ur_drivers_URBasic_realTimeClientEvent - INFO - Program send to Robot:
servoj([0.004601942363656963, -1.573864288370668, -1.4726215564929344, -1.1504855909142309, 1.583068173097982, 3.0480198255441087], 0.5, 0.5, 0.002, 0.2, 100)

2025-07-07 16:42:27,941 - gym_custom_envs_real_ur_drivers_URBasic_realTimeClientEvent - INFO - Program send to Robot:
servoj([0.004601942363656963, -1.573864288370668, -1.463509710491402, -1.1504855909142309, 1.583068173097982, 3.0480198255289226], 0.5, 0.5, 0.002, 0.2, 100)

2025-07-07 16:42:27,950 - gym_custom_envs_real_ur_drivers_URBasic_realTimeClientEvent - INFO - Program send to Robot:
servoj([0.004601942363656963, -1.573864288370668, -1.463418592031387, -1.1504855909142309, 1.583068173097982, 3.0480198255287707], 0.5, 0.5, 0.002, 0.2, 100)

2025-07-07 16:42:27,957 - gym_custom_envs_real_ur_drivers_URBasic_realTimeClientEvent - INFO - Program send to Robot:
servoj([0.004601942363656963, -1.573864288370668, -1.4634176808467867, -1.1504855909142309, 1.583068173097982, 3.048019825528769], 0.5, 0.5, 0.002, 0.2, 100)

2025-07-07 16:42:27,973 - gym_custom_envs_real_ur_drivers_URBasic_realTimeClientEvent - INFO - Program send to Robot:
servoj([0.004601942363656963, -1.573864288370668, -1.452787184874893, -1.1504855909142309, 1.5845868140779882, 3.048019825528769], 0.5, 0.5, 0.002, 0.2, 100)

2025-07-07 16:42:27,981 - gym_custom_envs_real_ur_drivers_URBasic_realTimeClientEvent - INFO - Program send to Robot:
servoj([0.004601942363656963, -1.573864288370668, -1.452680879915174, -1.1504855909142309, 1.584602000487788, 3.048019825528769], 0.5, 0.5, 0.002, 0.2, 100)

2025-07-07 16:42:27,989 - gym_custom_envs_real_ur_drivers_URBasic_realTimeClientEvent - INFO - Program send to Robot:
servoj([0.004601942363656963, -1.573864288370668, -1.4526798168655768, -1.1504855909142309, 1.5846021523518863, 3.048019825528769], 0.5, 0.5, 0.002, 0.2, 100)

2025-07-07 16:42:27,997 - gym_custom_envs_real_ur_drivers_URBasic_realTimeClientEvent - INFO - Program send to Robot:
servoj([0.004601942363656963, -1.573864288370668, -1.4435679603550402, -1.1504855909142309, 1.583083512890521, 3.048019825528769], 0.5, 0.5, 0.002, 0.2, 100)

2025-07-07 16:42:28,013 - gym_custom_envs_real_ur_drivers_URBasic_realTimeClientEvent - INFO - Program send to Robot:
servoj([0.004601942363656963, -1.573864288370668, -1.4434768417899349, -1.1504855909142309, 1.5830683264959073, 3.048019825528769], 0.5, 0.5, 0.002, 0.2, 100)

2025-07-07 16:42:28,021 - gym_custom_envs_real_ur_drivers_URBasic_realTimeClientEvent - INFO - Program send to Robot:
servoj([0.004601942363656963, -1.573864288370668, -1.4434759306042837, -1.1504855909142309, 1.5830681746319613, 3.048019825528769], 0.5, 0.5, 0.002, 0.2, 100)

2025-07-07 16:42:28,036 - gym_custom_envs_real_ur_drivers_URBasic_realTimeClientEvent - INFO - Program send to Robot:
servoj([0.004601942363656963, -1.572345647390661, -1.4328454346323793, -1.1504855909142309, 1.5830681731133218, 3.048019825528769], 0.5, 0.5, 0.002, 0.2, 100)

2025-07-07 16:42:28,045 - gym_custom_envs_real_ur_drivers_URBasic_realTimeClientEvent - INFO - Program send to Robot:
servoj([0.004601942363656963, -1.5723304609808608, -1.4327391296726604, -1.1504855909142309, 1.5830681730981355, 3.048019825528769], 0.5, 0.5, 0.002, 0.2, 100)

2025-07-07 16:42:28,061 - gym_custom_envs_real_ur_drivers_URBasic_realTimeClientEvent - INFO - Program send to Robot:
servoj([0.004601942363656963, -1.5723303091167629, -1.4221075797630163, -1.1504855909142309, 1.5845868140779897, 3.048019825528769], 0.5, 0.5, 0.002, 0.2, 100)

2025-07-07 16:42:28,069 - gym_custom_envs_real_ur_drivers_URBasic_realTimeClientEvent - INFO - Program send to Robot:
servoj([0.004601942363656963, -1.5723303075981219, -1.42200126426392, -1.1504855909142309, 1.584602000487788, 3.048019825528769], 0.5, 0.5, 0.002, 0.2, 100)

2025-07-07 16:42:28,078 - gym_custom_envs_real_ur_drivers_URBasic_realTimeClientEvent - INFO - Program send to Robot:
servoj([0.004601942363656963, -1.5723303075829353, -1.422000201108929, -1.1504855909142309, 1.5846021523518863, 3.048019825528769], 0.5, 0.5, 0.002, 0.2, 100)

2025-07-07 16:42:28,085 - gym_custom_envs_real_ur_drivers_URBasic_realTimeClientEvent - INFO - Program send to Robot:
servoj([0.004601942363656963, -1.5723303075827837, -1.422000190477379, -1.1504855909142309, 1.584602153870527, 3.048019825528769], 0.5, 0.5, 0.002, 0.2, 100)

2025-07-07 16:42:28,101 - gym_custom_envs_real_ur_drivers_URBasic_realTimeClientEvent - INFO - Program send to Robot:
servoj([0.006120583343663908, -1.5723303075827821, -1.4128883444910227, -1.1520042318942376, 1.5846021538857136, 3.048019825528769], 0.5, 0.5, 0.002, 0.2, 100)

2025-07-07 16:42:28,109 - gym_custom_envs_real_ur_drivers_URBasic_realTimeClientEvent - INFO - Program send to Robot:
servoj([0.006135769753463977, -1.5723303075827821, -1.4127972260311592, -1.1520194183040375, 1.5846021538858654, 3.048019825528769], 0.5, 0.5, 0.002, 0.2, 100)

2025-07-07 16:42:28,118 - gym_custom_envs_real_ur_drivers_URBasic_realTimeClientEvent - INFO - Program send to Robot:
servoj([0.006135921617561978, -1.5723303075827821, -1.4127963148465605, -1.1520195701681355, 1.584602153885867, 3.048019825528769], 0.5, 0.5, 0.002, 0.2, 100)

2025-07-07 16:42:28,133 - gym_custom_envs_real_ur_drivers_URBasic_realTimeClientEvent - INFO - Program send to Robot:
servoj([0.0061359231362029575, -1.5723303075827821, -1.4052031008346808, -1.1520195716867765, 1.584602153885867, 3.048019825528769], 0.5, 0.5, 0.002, 0.2, 100)

2025-07-07 16:42:28,141 - gym_custom_envs_real_ur_drivers_URBasic_realTimeClientEvent - INFO - Program send to Robot:
servoj([0.006135923151389368, -1.5723303075827821, -1.405127168694562, -1.152019571701963, 1.584602153885867, 3.048019825528769], 0.5, 0.5, 0.002, 0.2, 100)

2025-07-07 16:42:28,149 - gym_custom_envs_real_ur_drivers_URBasic_realTimeClientEvent - INFO - Program send to Robot:
servoj([0.0061359231515412315, -1.5723303075827821, -1.4051264093731608, -1.1520195717021149, 1.584602153885867, 3.048019825528769], 0.5, 0.5, 0.002, 0.2, 100)

2025-07-07 16:42:28,156 - gym_custom_envs_real_ur_drivers_URBasic_realTimeClientEvent - INFO - Program send to Robot:
servoj([0.007654564131549255, -1.5708116666027756, -1.397533196879913, -1.1520195717021164, 1.584602153885867, 3.048019825528769], 0.5, 0.5, 0.002, 0.2, 100)

2025-07-07 16:42:28,173 - gym_custom_envs_real_ur_drivers_URBasic_realTimeClientEvent - INFO - Program send to Robot:
