2025-07-07 17:11:24,214 - gym_custom_envs_real_ur_drivers_URBasic_robotModelEvent - INFO - Init done
2025-07-07 17:11:24,715 - gym_custom_envs_real_ur_drivers_URBasic_realTimeClientEvent - INFO - Connected
2025-07-07 17:11:24,715 - gym_custom_envs_real_ur_drivers_URBasic_realTimeClientEvent - INFO - RT_CLient constructor done
2025-07-07 17:11:24,716 - gym_custom_envs_real_ur_drivers_URBasic_dataLogEvent - INFO - Data logging (not event logging) is disabled
2025-07-07 17:11:24,717 - gym_custom_envs_real_ur_drivers_URBasic_dataLogEvent - INFO - DataLog constructor done
2025-07-07 17:11:24,717 - gym_custom_envs_real_ur_drivers_URBasic_dataLogEvent - INFO - DataLog is stopped
2025-07-07 17:11:24,718 - gym_custom_envs_real_ur_drivers_URBasic_rtdeEvent - INFO - RTDE constructor done
2025-07-07 17:11:25,220 - gym_custom_envs_real_ur_drivers_URBasic_dashboardEvent - INFO - Connected
2025-07-07 17:11:25,220 - gym_custom_envs_real_ur_drivers_URBasic_dashboardEvent - INFO - UR Dashboard respond Connected: Universal Robots Dashboard Server
2025-07-07 17:11:25,221 - gym_custom_envs_real_ur_drivers_URBasic_dashboardEvent - INFO - Dashboard server constructor done
2025-07-07 17:11:25,221 - gym_custom_envs_real_ur_drivers_URBasic_robotConnectorEvent - INFO - Init done
2025-07-07 17:11:25,333 - gym_custom_envs_real_ur_drivers_URBasic_rtdeEvent - INFO - Controller version: 3.3.1-60
2025-07-07 17:11:25,335 - gym_custom_envs_real_ur_drivers_URBasic_rtdeEvent - INFO - RTDE started
2025-07-07 17:11:26,222 - gym_custom_envs_real_ur_drivers_URBasic_urScriptEvent - INFO - Init done!!!
2025-07-07 17:11:26,231 - gym_custom_envs_real_ur_drivers_URBasic_urScriptExtEvent - INFO - Init done
2025-07-07 17:11:27,851 - gym_custom_envs_real_ur_interfaceEvent - INFO - [] init done
2025-07-07 17:11:27,852 - gym_custom_envs_real_ur_drivers_URBasic_realTimeClientEvent - INFO - Program send to Robot:
end_freedrive_mode()

2025-07-07 17:11:28,079 - gym_custom_envs_real_ur_drivers_URBasic_realTimeClientEvent - INFO - Program send to Robot:
servoj([-0.010599940149092036, -1.574670315174202, -1.5985282724047902, -1.5935896403708456, 1.663464856147766, 3.1055393748172233], 0.5, 0.5, 0.01, 0.1, 100)

2025-07-07 17:11:28,098 - gym_custom_envs_real_ur_drivers_URBasic_realTimeClientEvent - INFO - Program send to Robot:
servoj([-0.010603302332295787, -1.5746325991525423, -1.5984914020092476, -1.5936108793243275, 1.663464856147766, 3.1055520237776717], 0.5, 0.5, 0.01, 0.1, 100)

2025-07-07 17:11:28,114 - gym_custom_envs_real_ur_drivers_URBasic_realTimeClientEvent - INFO - Program send to Robot:
servoj([-0.010265606420902216, -1.5726030544950276, -1.59810909326973, -1.5931625488836134, 1.6634528160095214, 3.1051051456211365], 0.5, 0.5, 0.01, 0.1, 100)

2025-07-07 17:11:28,127 - gym_custom_envs_real_ur_drivers_URBasic_realTimeClientEvent - INFO - Program send to Robot:
servoj([-0.010270406708655592, -1.5725918215224655, -1.5980943831465342, -1.5931729361893283, 1.6634888172149658, 3.1050951712455372], 0.5, 0.5, 0.01, 0.1, 100)

2025-07-07 17:11:28,148 - gym_custom_envs_real_ur_drivers_URBasic_realTimeClientEvent - INFO - Program send to Robot:
servoj([-0.011589038707828313, -1.5686832360100407, -1.5964892534829247, -1.5936294359909602, 1.6635007381439209, 3.1045389757848483], 0.5, 0.5, 0.01, 0.1, 100)

2025-07-07 17:11:28,166 - gym_custom_envs_real_ur_drivers_URBasic_realTimeClientEvent - INFO - Program send to Robot:
servoj([-0.011611396969568661, -1.5686250366074248, -1.5964916148403505, -1.593615029847314, 1.663464856147766, 3.104531394582337], 0.5, 0.5, 0.01, 0.1, 100)

2025-07-07 17:11:28,186 - gym_custom_envs_real_ur_drivers_URBasic_realTimeClientEvent - INFO - Program send to Robot:
servoj([-0.011576490527066628, -1.5656653938140135, -1.5955497731665476, -1.5935333191848748, 1.6633573293685913, 3.1054867952895706], 0.5, 0.5, 0.01, 0.1, 100)

2025-07-07 17:11:28,200 - gym_custom_envs_real_ur_drivers_URBasic_realTimeClientEvent - INFO - Program send to Robot:
servoj([-0.01146991928741498, -1.5655557434515381, -1.5957525634105116, -1.593378234083991, 1.6629862308502197, 3.1053588825659943], 0.5, 0.5, 0.01, 0.1, 100)

2025-07-07 17:11:28,217 - gym_custom_envs_real_ur_drivers_URBasic_realTimeClientEvent - INFO - Program send to Robot:
servoj([-0.0113386023275709, -1.5614289864170483, -1.5939719071728258, -1.5931577322308537, 1.6625200033187866, 3.1051570350803672], 0.5, 0.5, 0.01, 0.1, 100)

2025-07-07 17:11:28,233 - gym_custom_envs_real_ur_drivers_URBasic_realTimeClientEvent - INFO - Program send to Robot:
servoj([-0.011061429305803963, -1.561197673936106, -1.5943845128397995, -1.5928153697993732, 1.6616349935531616, 3.104786589615084], 0.5, 0.5, 0.01, 0.1, 100)

2025-07-07 17:11:28,248 - gym_custom_envs_real_ur_drivers_URBasic_realTimeClientEvent - INFO - Program send to Robot:
servoj([-0.010842164241885478, -1.5569241591576253, -1.5937034297967005, -1.592513477179724, 1.6609290361404419, 3.1045029896050993], 0.5, 0.5, 0.01, 0.1, 100)

2025-07-07 17:11:28,266 - gym_custom_envs_real_ur_drivers_URBasic_realTimeClientEvent - INFO - Program send to Robot:
servoj([-0.010519381229932182, -1.5565544790038541, -1.5941953519377159, -1.5920686735279623, 1.6599605798721313, 3.104076073068656], 0.5, 0.5, 0.01, 0.1, 100)

2025-07-07 17:11:28,282 - gym_custom_envs_real_ur_drivers_URBasic_realTimeClientEvent - INFO - Program send to Robot:
servoj([-0.01052080019390949, -1.5544881026417117, -1.5932527067897717, -1.5920709557797865, 1.6588359594345092, 3.1040459353593524], 0.5, 0.5, 0.01, 0.1, 100)

2025-07-07 17:11:28,296 - gym_custom_envs_real_ur_drivers_URBasic_realTimeClientEvent - INFO - Program send to Robot:
servoj([-0.01002274272942522, -1.5538786024498659, -1.5940244033515476, -1.5913627899315193, 1.6573168754577636, 3.1033908636829692], 0.5, 0.5, 0.01, 0.1, 100)

2025-07-07 17:11:28,314 - gym_custom_envs_real_ur_drivers_URBasic_realTimeClientEvent - INFO - Program send to Robot:
servoj([-0.009523122911795873, -1.5510816027968466, -1.5948408863232024, -1.5906580871155476, 1.6557024240493774, 3.1026799885988194], 0.5, 0.5, 0.01, 0.1, 100)

2025-07-07 17:11:28,329 - gym_custom_envs_real_ur_drivers_URBasic_realTimeClientEvent - INFO - Program send to Robot:
servoj([-0.008774900557369639, -1.550037304516277, -1.5959837685200764, -1.5896022667493073, 1.6533220529556274, 3.1016878333739166], 0.5, 0.5, 0.01, 0.1, 100)

2025-07-07 17:11:28,343 - gym_custom_envs_real_ur_drivers_URBasic_realTimeClientEvent - INFO - Program send to Robot:
servoj([-0.008467123273031986, -1.5451547745074068, -1.5964329480538153, -1.589196855727274, 1.651312780380249, 3.101291329308433], 0.5, 0.5, 0.01, 0.1, 100)

2025-07-07 17:11:28,361 - gym_custom_envs_real_ur_drivers_URBasic_realTimeClientEvent - INFO - Program send to Robot:
servoj([-0.007617686996744302, -1.5437107627751154, -1.597685094380882, -1.5879975889096527, 1.648574423789978, 3.1001743033861864], 0.5, 0.5, 0.01, 0.1, 100)

2025-07-07 17:11:28,377 - gym_custom_envs_real_ur_drivers_URBasic_realTimeClientEvent - INFO - Program send to Robot:
servoj([-0.006849487028133663, -1.5375224114897321, -1.5976490141339312, -1.5868952752243715, 1.6460982084274292, 3.0991352325313786], 0.5, 0.5, 0.01, 0.1, 100)

2025-07-07 17:11:28,391 - gym_custom_envs_real_ur_drivers_URBasic_realTimeClientEvent - INFO - Program send to Robot:
servoj([-0.005935151561451135, -1.5356311196292185, -1.5989453788263568, -1.5856002448440505, 1.6431320428848266, 3.097909033128281], 0.5, 0.5, 0.01, 0.1, 100)

2025-07-07 17:11:28,409 - gym_custom_envs_real_ur_drivers_URBasic_realTimeClientEvent - INFO - Program send to Robot:
servoj([-0.005080493566684831, -1.5298205973991856, -1.5988239649152751, -1.584406302472883, 1.6403573274612426, 3.0967633417833182], 0.5, 0.5, 0.01, 0.1, 100)

2025-07-07 17:11:28,425 - gym_custom_envs_real_ur_drivers_URBasic_realTimeClientEvent - INFO - Program send to Robot:
servoj([-0.004107414797654738, -1.5274246841204902, -1.6001058883710735, -1.5830194905727921, 1.6371519088745117, 3.0954540720691033], 0.5, 0.5, 0.01, 0.1, 100)

2025-07-07 17:11:28,439 - gym_custom_envs_real_ur_drivers_URBasic_realTimeClientEvent - INFO - Program send to Robot:
servoj([-0.003183676208394883, -1.5205583242678296, -1.601323222899753, -1.5817008806190913, 1.6340783357620239, 3.0941982050333965], 0.5, 0.5, 0.01, 0.1, 100)

2025-07-07 17:11:28,455 - gym_custom_envs_real_ur_drivers_URBasic_realTimeClientEvent - INFO - Program send to Robot:
servoj([-0.003067961575771161, -1.5201754210349325, -1.6014759425679503, -1.581534192310096, 1.6336895390982082, 3.0940392491653386], 0.5, 0.5, 0.01, 0.1, 100)

2025-07-07 17:11:28,472 - gym_custom_envs_real_ur_drivers_URBasic_realTimeClientEvent - INFO - Program send to Robot:
servoj([-0.003067961575771161, -1.5186563244170663, -1.5999573015727564, -1.581534192310096, 1.6336895390982082, 3.0940392491653386], 0.5, 0.5, 0.01, 0.1, 100)

2025-07-07 17:11:28,489 - gym_custom_envs_real_ur_drivers_URBasic_realTimeClientEvent - INFO - Program send to Robot:
servoj([-0.003067961575771161, -1.5186409815412258, -1.599941963298705, -1.581534192310096, 1.6336895390982082, 3.0940392491653386], 0.5, 0.5, 0.01, 0.1, 100)

2025-07-07 17:11:28,505 - gym_custom_envs_real_ur_drivers_URBasic_realTimeClientEvent - INFO - Program send to Robot:
servoj([-0.003067961575771161, -1.5156036980621155, -1.599941961780064, -1.581534192310096, 1.6336895390982082, 3.0940392491653386], 0.5, 0.5, 0.01, 0.1, 100)

2025-07-07 17:11:28,511 - gym_custom_envs_real_ur_drivers_URBasic_realTimeClientEvent - INFO - Program send to Robot:
servoj([-0.003067961575771161, -1.5155733252273245, -1.5999419617648776, -1.581534192310096, 1.6336895390982082, 3.0940392491653386], 0.5, 0.5, 0.01, 0.1, 100)

2025-07-07 17:11:28,521 - gym_custom_envs_real_ur_drivers_URBasic_realTimeClientEvent - INFO - Program send to Robot:
servoj([-0.003067961575771161, -1.5155730214989764, -1.5999419617647257, -1.581534192310096, 1.6336895390982082, 3.0940392491653386], 0.5, 0.5, 0.01, 0.1, 100)

2025-07-07 17:11:28,529 - gym_custom_envs_real_ur_drivers_URBasic_realTimeClientEvent - INFO - Program send to Robot:
servoj([-0.003067961575771161, -1.5155730184616931, -1.5999419617647241, -1.581534192310096, 1.6336895390982082, 3.0940392491653386], 0.5, 0.5, 0.01, 0.1, 100)

2025-07-07 17:11:28,544 - gym_custom_envs_real_ur_drivers_URBasic_realTimeClientEvent - INFO - Program send to Robot:
servoj([-0.003067961575771161, -1.5155730184313203, -1.5999419617647241, -1.581534192310096, 1.6336895390982082, 3.0940392491653386], 0.5, 0.5, 0.01, 0.1, 100)

2025-07-07 17:11:28,552 - gym_custom_envs_real_ur_drivers_URBasic_realTimeClientEvent - INFO - Program send to Robot:
servoj([-0.003067961575771161, -1.5155730184310165, -1.5999419617647241, -1.581534192310096, 1.6336895390982082, 3.0940392491653386], 0.5, 0.5, 0.01, 0.1, 100)

2025-07-07 17:11:28,560 - gym_custom_envs_real_ur_drivers_URBasic_realTimeClientEvent - INFO - Program send to Robot:
servoj([-0.003067961575771161, -1.5155730184310134, -1.5984233207847172, -1.581534192310096, 1.6336895390982082, 3.0940392491653386], 0.5, 0.5, 0.01, 0.1, 100)

2025-07-07 17:11:28,576 - gym_custom_envs_real_ur_drivers_URBasic_realTimeClientEvent - INFO - Program send to Robot:
servoj([-0.003067961575771161, -1.5155730184310134, -1.5984081343749172, -1.581534192310096, 1.6336895390982082, 3.0940392491653386], 0.5, 0.5, 0.01, 0.1, 100)

2025-07-07 17:11:28,584 - gym_custom_envs_real_ur_drivers_URBasic_realTimeClientEvent - INFO - Program send to Robot:
servoj([-0.003067961575771161, -1.5155730184310134, -1.5984079825108193, -1.581534192310096, 1.6336895390982082, 3.0940392491653386], 0.5, 0.5, 0.01, 0.1, 100)

2025-07-07 17:11:28,592 - gym_custom_envs_real_ur_drivers_URBasic_realTimeClientEvent - INFO - Program send to Robot:
servoj([-0.003067961575771161, -1.5155730184310134, -1.5984079809921783, -1.581534192310096, 1.6336895390982082, 3.0940392491653386], 0.5, 0.5, 0.01, 0.1, 100)

2025-07-07 17:11:28,607 - gym_custom_envs_real_ur_drivers_URBasic_realTimeClientEvent - INFO - Program send to Robot:
servoj([-0.003067961575771161, -1.5155730184310134, -1.5984079809769918, -1.581534192310096, 1.6336895390982082, 3.0940392491653386], 0.5, 0.5, 0.01, 0.1, 100)

2025-07-07 17:11:28,615 - gym_custom_envs_real_ur_drivers_URBasic_realTimeClientEvent - INFO - Program send to Robot:
servoj([-0.003067961575771161, -1.5155730184310134, -1.59840798097684, -1.581534192310096, 1.6336895390982082, 3.0940392491653386], 0.5, 0.5, 0.01, 0.1, 100)

2025-07-07 17:11:28,624 - gym_custom_envs_real_ur_drivers_URBasic_realTimeClientEvent - INFO - Program send to Robot:
servoj([-0.003067961575771161, -1.5155730184310134, -1.5968893399968314, -1.581534192310096, 1.6336895390982082, 3.0940392491653386], 0.5, 0.5, 0.01, 0.1, 100)

2025-07-07 17:11:28,640 - gym_custom_envs_real_ur_drivers_URBasic_realTimeClientEvent - INFO - Program send to Robot:
servoj([-0.003067961575771161, -1.5155730184310134, -1.5968741535870314, -1.581534192310096, 1.6336895390982082, 3.0940392491653386], 0.5, 0.5, 0.01, 0.1, 100)

2025-07-07 17:11:28,648 - gym_custom_envs_real_ur_drivers_URBasic_realTimeClientEvent - INFO - Program send to Robot:
servoj([-0.003067961575771161, -1.5155730184310134, -1.5968740017229333, -1.581534192310096, 1.6336895390982082, 3.0940392491653386], 0.5, 0.5, 0.01, 0.1, 100)

2025-07-07 17:11:28,656 - gym_custom_envs_real_ur_drivers_URBasic_realTimeClientEvent - INFO - Program send to Robot:
servoj([-0.003067961575771161, -1.5155730184310134, -1.5968740002042923, -1.5800155513300895, 1.6336895390982082, 3.0940392491653386], 0.5, 0.5, 0.01, 0.1, 100)

2025-07-07 17:11:28,664 - gym_custom_envs_real_ur_drivers_URBasic_realTimeClientEvent - INFO - Program send to Robot:
servoj([-0.003067961575771161, -1.5155730184310134, -1.596874000189106, -1.5800003649202894, 1.6336895390982082, 3.0940392491653386], 0.5, 0.5, 0.01, 0.1, 100)

2025-07-07 17:11:28,679 - gym_custom_envs_real_ur_drivers_URBasic_realTimeClientEvent - INFO - Program send to Robot:
servoj([-0.003067961575771161, -1.5155730184310134, -1.596874000188954, -1.5800002130561914, 1.6336895390982082, 3.0940392491653386], 0.5, 0.5, 0.01, 0.1, 100)

2025-07-07 17:11:28,688 - gym_custom_envs_real_ur_drivers_URBasic_realTimeClientEvent - INFO - Program send to Robot:
servoj([-0.003067961575771161, -1.5155730184310134, -1.5968740001889525, -1.5800002115375504, 1.6336895390982082, 3.0940392491653386], 0.5, 0.5, 0.01, 0.1, 100)

2025-07-07 17:11:28,696 - gym_custom_envs_real_ur_drivers_URBasic_realTimeClientEvent - INFO - Program send to Robot:
servoj([-0.003067961575771161, -1.5155730184310134, -1.5968740001889525, -1.580000211522364, 1.6336895390982082, 3.0940392491653386], 0.5, 0.5, 0.01, 0.1, 100)

2025-07-07 17:11:28,703 - gym_custom_envs_real_ur_drivers_URBasic_realTimeClientEvent - INFO - Program send to Robot:
servoj([-0.003067961575771161, -1.5155730184310134, -1.5968740001889525, -1.580000211522212, 1.6336895390982082, 3.0940392491653386], 0.5, 0.5, 0.01, 0.1, 100)

2025-07-07 17:11:28,720 - gym_custom_envs_real_ur_drivers_URBasic_realTimeClientEvent - INFO - Program send to Robot:
servoj([-0.003067961575771161, -1.5155730184310134, -1.5938367182289386, -1.5784815705422035, 1.6336895390982082, 3.0940392491653386], 0.5, 0.5, 0.01, 0.1, 100)

2025-07-07 17:11:28,727 - gym_custom_envs_real_ur_drivers_URBasic_realTimeClientEvent - INFO - Program send to Robot:
servoj([-0.003067961575771161, -1.5155730184310134, -1.5938063454093385, -1.5784663841324036, 1.6336895390982082, 3.0940392491653386], 0.5, 0.5, 0.01, 0.1, 100)

2025-07-07 17:11:28,736 - gym_custom_envs_real_ur_drivers_URBasic_realTimeClientEvent - INFO - Program send to Robot:
servoj([-0.003067961575771161, -1.5155730184310134, -1.5938060416811424, -1.5784662322683056, 1.6336895390982082, 3.0940392491653386], 0.5, 0.5, 0.01, 0.1, 100)

2025-07-07 17:11:28,745 - gym_custom_envs_real_ur_drivers_URBasic_realTimeClientEvent - INFO - Program send to Robot:
servoj([-0.003067961575771161, -1.5155730184310134, -1.5938060386438604, -1.5784662307496646, 1.6336895390982082, 3.0940392491653386], 0.5, 0.5, 0.01, 0.1, 100)

2025-07-07 17:11:28,761 - gym_custom_envs_real_ur_drivers_URBasic_realTimeClientEvent - INFO - Program send to Robot:
servoj([-0.003067961575771161, -1.5155730184310134, -1.5907687566534747, -1.579984871714485, 1.6336895390982082, 3.0940392491653386], 0.5, 0.5, 0.01, 0.1, 100)

2025-07-07 17:11:28,769 - gym_custom_envs_real_ur_drivers_URBasic_realTimeClientEvent - INFO - Program send to Robot:
servoj([-0.003067961575771161, -1.5155730184310134, -1.590738383833571, -1.5800000581241334, 1.6336895390982082, 3.0940392491653386], 0.5, 0.5, 0.01, 0.1, 100)

2025-07-07 17:11:28,776 - gym_custom_envs_real_ur_drivers_URBasic_realTimeClientEvent - INFO - Program send to Robot:
servoj([-0.003067961575771161, -1.5155730184310134, -1.5907380801053719, -1.5800002099882298, 1.6336895390982082, 3.0940392491653386], 0.5, 0.5, 0.01, 0.1, 100)

2025-07-07 17:11:28,785 - gym_custom_envs_real_ur_drivers_URBasic_realTimeClientEvent - INFO - Program send to Robot:
servoj([-0.003067961575771161, -1.5155730184310134, -1.589219436088083, -1.5800002115068708, 1.6336895390982082, 3.0940392491653386], 0.5, 0.5, 0.01, 0.1, 100)

2025-07-07 17:11:28,799 - gym_custom_envs_real_ur_drivers_URBasic_realTimeClientEvent - INFO - Program send to Robot:
servoj([-0.003067961575771161, -1.5155730184310134, -1.58920424964791, -1.5800002115220573, 1.6336895390982082, 3.0940392491653386], 0.5, 0.5, 0.01, 0.1, 100)

2025-07-07 17:11:28,809 - gym_custom_envs_real_ur_drivers_URBasic_realTimeClientEvent - INFO - Program send to Robot:
servoj([-0.003067961575771161, -1.5155730184310134, -1.5892040977835082, -1.580000211522209, 1.6336895390982082, 3.0940392491653386], 0.5, 0.5, 0.01, 0.1, 100)

2025-07-07 17:11:28,817 - gym_custom_envs_real_ur_drivers_URBasic_realTimeClientEvent - INFO - Program send to Robot:
servoj([-0.003067961575771161, -1.5140543774510067, -1.5861668143048504, -1.5800002115222105, 1.6336895390982082, 3.0940392491653386], 0.5, 0.5, 0.01, 0.1, 100)

2025-07-07 17:11:28,833 - gym_custom_envs_real_ur_drivers_URBasic_realTimeClientEvent - INFO - Program send to Robot:
servoj([-0.003067961575771161, -1.5140391910412065, -1.5861364414700638, -1.5800002115222105, 1.6336895390982082, 3.0940392491653386], 0.5, 0.5, 0.01, 0.1, 100)

2025-07-07 17:11:28,842 - gym_custom_envs_real_ur_drivers_URBasic_realTimeClientEvent - INFO - Program send to Robot:
servoj([-0.003067961575771161, -1.5140390391771086, -1.586136137741716, -1.5800002115222105, 1.6336895390982082, 3.0940392491653386], 0.5, 0.5, 0.01, 0.1, 100)

2025-07-07 17:11:28,848 - gym_custom_envs_real_ur_drivers_URBasic_realTimeClientEvent - INFO - Program send to Robot:
servoj([-0.003067961575771161, -1.5140390376584676, -1.5830988527444194, -1.5800002115222105, 1.6336895390982082, 3.0940392491653386], 0.5, 0.5, 0.01, 0.1, 100)

2025-07-07 17:11:28,858 - gym_custom_envs_real_ur_drivers_URBasic_realTimeClientEvent - INFO - Program send to Robot:
servoj([-0.003067961575771161, -1.5140390376432813, -1.5830684798944463, -1.5800002115222105, 1.6336895390982082, 3.0940392491653386], 0.5, 0.5, 0.01, 0.1, 100)

2025-07-07 17:11:28,872 - gym_custom_envs_real_ur_drivers_URBasic_realTimeClientEvent - INFO - Program send to Robot:
servoj([-0.003067961575771161, -1.5140390376431294, -1.5830681761659466, -1.5800002115222105, 1.6336895390982082, 3.0940392491653386], 0.5, 0.5, 0.01, 0.1, 100)

2025-07-07 17:11:28,883 - gym_custom_envs_real_ur_drivers_URBasic_realTimeClientEvent - INFO - Program send to Robot:
servoj([-0.003067961575771161, -1.512520396663121, -1.580030891168648, -1.5800002115222105, 1.6336895390982082, 3.0940392491653386], 0.5, 0.5, 0.01, 0.1, 100)

2025-07-07 17:11:28,888 - gym_custom_envs_real_ur_drivers_URBasic_realTimeClientEvent - INFO - Program send to Robot:
servoj([-0.003067961575771161, -1.512505210253321, -1.580000518318675, -1.5800002115222105, 1.6336895390982082, 3.0940392491653386], 0.5, 0.5, 0.01, 0.1, 100)

2025-07-07 17:11:28,907 - gym_custom_envs_real_ur_drivers_URBasic_realTimeClientEvent - INFO - Program send to Robot:
servoj([-0.003067961575771161, -1.512505058389223, -1.5800002145901753, -1.5800002115222105, 1.6336895390982082, 3.0940392491653386], 0.5, 0.5, 0.01, 0.1, 100)

2025-07-07 17:11:28,912 - gym_custom_envs_real_ur_drivers_URBasic_realTimeClientEvent - INFO - Program send to Robot:
servoj([-0.003067961575771161, -1.510986415890575, -1.5754442886128692, -1.5800002115222105, 1.6336895390982082, 3.0940392491653386], 0.5, 0.5, 0.01, 0.1, 100)

2025-07-07 17:11:28,920 - gym_custom_envs_real_ur_drivers_URBasic_realTimeClientEvent - INFO - Program send to Robot:
servoj([-0.003067961575771161, -1.5109712294655886, -1.5753987293530962, -1.5800002115222105, 1.6336895390982082, 3.0940392491653386], 0.5, 0.5, 0.01, 0.1, 100)

2025-07-07 17:11:28,936 - gym_custom_envs_real_ur_drivers_URBasic_realTimeClientEvent - INFO - Program send to Robot:
servoj([-0.003067961575771161, -1.5109710776013388, -1.5753982737604986, -1.5800002115222105, 1.6336895390982082, 3.0940392491653386], 0.5, 0.5, 0.01, 0.1, 100)

2025-07-07 17:11:28,943 - gym_custom_envs_real_ur_drivers_URBasic_realTimeClientEvent - INFO - Program send to Robot:
servoj([-0.003067961575771161, -1.5094524351026897, -1.5723609872445594, -1.5800002115222105, 1.6336895390982082, 3.0940392491653386], 0.5, 0.5, 0.01, 0.1, 100)

2025-07-07 17:11:28,955 - gym_custom_envs_real_ur_drivers_URBasic_realTimeClientEvent - INFO - Program send to Robot:
servoj([-0.003067961575771161, -1.5094372486777032, -1.5723306143794, -1.5800002115222105, 1.6336895390982082, 3.0940392491653386], 0.5, 0.5, 0.01, 0.1, 100)

2025-07-07 17:11:28,968 - gym_custom_envs_real_ur_drivers_URBasic_realTimeClientEvent - INFO - Program send to Robot:
servoj([-0.003067961575771161, -1.5094370968134534, -1.5723303106507485, -1.5800002115222105, 1.6336895390982082, 3.0940392491653386], 0.5, 0.5, 0.01, 0.1, 100)

2025-07-07 17:11:28,980 - gym_custom_envs_real_ur_drivers_URBasic_realTimeClientEvent - INFO - Program send to Robot:
servoj([-0.003067961575771161, -1.507918454314804, -1.5662557436934352, -1.5784815705422035, 1.6336895390982082, 3.0940392491653386], 0.5, 0.5, 0.01, 0.1, 100)

2025-07-07 17:11:28,984 - gym_custom_envs_real_ur_drivers_URBasic_realTimeClientEvent - INFO - Program send to Robot:
servoj([-0.003067961575771161, -1.5079032678898177, -1.566194998023862, -1.5784663841324036, 1.6336895390982082, 3.0940392491653386], 0.5, 0.5, 0.01, 0.1, 100)

2025-07-07 17:11:29,005 - gym_custom_envs_real_ur_drivers_URBasic_realTimeClientEvent - INFO - Program send to Robot:
servoj([-0.003067961575771161, -1.5079031160255676, -1.5661943905671663, -1.5784662322683056, 1.6336895390982082, 3.0940392491653386], 0.5, 0.5, 0.01, 0.1, 100)

2025-07-07 17:11:29,016 - gym_custom_envs_real_ur_drivers_URBasic_realTimeClientEvent - INFO - Program send to Robot:
servoj([-0.003067961575771161, -1.5079031145069253, -1.5586011795925647, -1.5784662307496646, 1.6336895390982082, 3.0940392491653386], 0.5, 0.5, 0.01, 0.1, 100)

2025-07-07 17:11:29,028 - gym_custom_envs_real_ur_drivers_URBasic_realTimeClientEvent - INFO - Program send to Robot:
servoj([-0.003067961575771161, -1.5079031144917387, -1.5585252474828186, -1.5784662307344781, 1.6336895390982082, 3.0940392491653386], 0.5, 0.5, 0.01, 0.1, 100)

2025-07-07 17:11:29,031 - gym_custom_envs_real_ur_drivers_URBasic_realTimeClientEvent - INFO - Program send to Robot:
servoj([-0.003067961575771161, -1.5079031144915869, -1.558524488161721, -1.5784662307343262, 1.6336895390982082, 3.0940392491653386], 0.5, 0.5, 0.01, 0.1, 100)

2025-07-07 17:11:29,052 - gym_custom_envs_real_ur_drivers_URBasic_realTimeClientEvent - INFO - Program send to Robot:
servoj([-0.003067961575771161, -1.5079031144915853, -1.5509312756684763, -1.5799848717143317, 1.6336895390982082, 3.0940392491653386], 0.5, 0.5, 0.01, 0.1, 100)

2025-07-07 17:11:29,056 - gym_custom_envs_real_ur_drivers_URBasic_realTimeClientEvent - INFO - Program send to Robot:
servoj([-0.003067961575771161, -1.5079031144915853, -1.550855343543544, -1.5800000581241318, 1.6336895390982082, 3.0940392491653386], 0.5, 0.5, 0.01, 0.1, 100)

2025-07-07 17:11:29,076 - gym_custom_envs_real_ur_drivers_URBasic_realTimeClientEvent - INFO - Program send to Robot:
servoj([-0.001549320595764656, -1.5079031144915853, -1.5417427383422537, -1.5800002099882298, 1.6321708981182013, 3.0940392491653386], 0.5, 0.5, 0.01, 0.1, 100)

2025-07-07 17:11:29,080 - gym_custom_envs_real_ur_drivers_URBasic_realTimeClientEvent - INFO - Program send to Robot:
servoj([-0.001534134185964591, -1.5079031144915853, -1.5416516122902406, -1.5800002115068708, 1.6321557117084011, 3.0940392491653386], 0.5, 0.5, 0.01, 0.1, 100)

2025-07-07 17:11:29,101 - gym_custom_envs_real_ur_drivers_URBasic_realTimeClientEvent - INFO - Program send to Robot:
servoj([-0.0015339823218665904, -1.5079031144915853, -1.5416507010297207, -1.5800002115220573, 1.6321555598443032, 3.0940392491653386], 0.5, 0.5, 0.01, 0.1, 100)

2025-07-07 17:11:29,104 - gym_custom_envs_real_ur_drivers_URBasic_realTimeClientEvent - INFO - Program send to Robot:
servoj([-0.0015339808032256103, -1.5079031144915853, -1.5340574870170816, -1.580000211522209, 1.6321555583256622, 3.0940392491653386], 0.5, 0.5, 0.01, 0.1, 100)

2025-07-07 17:11:29,119 - gym_custom_envs_real_ur_drivers_URBasic_realTimeClientEvent - INFO - Program send to Robot:
servoj([-0.0015339807880392006, -1.5079031144915853, -1.5339815548769553, -1.5800002115222105, 1.6321555583104757, 3.0940392491653386], 0.5, 0.5, 0.01, 0.1, 100)

2025-07-07 17:11:29,127 - gym_custom_envs_real_ur_drivers_URBasic_realTimeClientEvent - INFO - Program send to Robot:
servoj([-0.0015339807878873364, -1.5079031144915853, -1.533980795555554, -1.5800002115222105, 1.6321555583103238, 3.0940392491653386], 0.5, 0.5, 0.01, 0.1, 100)

2025-07-07 17:11:29,148 - gym_custom_envs_real_ur_drivers_URBasic_realTimeClientEvent - INFO - Program send to Robot:
servoj([-0.001533980787885818, -1.5079031144915853, -1.5263875830623062, -1.5800002115222105, 1.6321555583103224, 3.0940392491653386], 0.5, 0.5, 0.01, 0.1, 100)

2025-07-07 17:11:29,151 - gym_custom_envs_real_ur_drivers_URBasic_realTimeClientEvent - INFO - Program send to Robot:
servoj([-0.0015339807878858027, -1.5079031144915853, -1.5263116509373738, -1.5800002115222105, 1.6321555583103224, 3.0940392491653386], 0.5, 0.5, 0.01, 0.1, 100)

2025-07-07 17:11:29,172 - gym_custom_envs_real_ur_drivers_URBasic_realTimeClientEvent - INFO - Program send to Robot:
servoj([-0.0015339807878858025, -1.5063844735115786, -1.5171990457360836, -1.5800002115222105, 1.6321555583103224, 3.092520608185332], 0.5, 0.5, 0.01, 0.1, 100)

2025-07-07 17:11:29,175 - gym_custom_envs_real_ur_drivers_URBasic_realTimeClientEvent - INFO - Program send to Robot:
servoj([-0.0015339807878858025, -1.5063692871017786, -1.5171079196840707, -1.5800002115222105, 1.6321555583103224, 3.0925054217755314], 0.5, 0.5, 0.01, 0.1, 100)

2025-07-07 17:11:29,196 - gym_custom_envs_real_ur_drivers_URBasic_realTimeClientEvent - INFO - Program send to Robot:
servoj([-0.0015339807878858025, -1.5063691352376805, -1.5171070084235505, -1.5800002115222105, 1.6321555583103224, 3.0925052699114337], 0.5, 0.5, 0.01, 0.1, 100)

2025-07-07 17:11:29,200 - gym_custom_envs_real_ur_drivers_URBasic_realTimeClientEvent - INFO - Program send to Robot:
servoj([-0.0015339807878858025, -1.5048504927390325, -1.5110324353909184, -1.5784815705422035, 1.6321555583103224, 3.0925052683927925], 0.5, 0.5, 0.01, 0.1, 100)

2025-07-07 17:11:29,221 - gym_custom_envs_real_ur_drivers_URBasic_realTimeClientEvent - INFO - Program send to Robot:
servoj([-0.0015339807878858025, -1.504835306314046, -1.510971689660592, -1.5784663841324036, 1.6321555583103224, 3.092505268377606], 0.5, 0.5, 0.01, 0.1, 100)

2025-07-07 17:11:29,223 - gym_custom_envs_real_ur_drivers_URBasic_realTimeClientEvent - INFO - Program send to Robot:
servoj([-0.0015339807878858025, -1.5048351544497962, -1.5109710822032887, -1.5784662322683056, 1.6321555583103224, 3.092505268377454], 0.5, 0.5, 0.01, 0.1, 100)

2025-07-07 17:11:29,244 - gym_custom_envs_real_ur_drivers_URBasic_realTimeClientEvent - INFO - Program send to Robot:
servoj([-0.0015339807878858025, -1.5017978709711401, -1.5033778712286818, -1.5784662307496646, 1.6321555583103224, 3.0925052683774528], 0.5, 0.5, 0.01, 0.1, 100)

2025-07-07 17:11:29,248 - gym_custom_envs_real_ur_drivers_URBasic_realTimeClientEvent - INFO - Program send to Robot:
servoj([-0.0015339807878858025, -1.5017674981363536, -1.5033019391189357, -1.5784662307344781, 1.6321555583103224, 3.0925052683774528], 0.5, 0.5, 0.01, 0.1, 100)

2025-07-07 17:11:29,267 - gym_custom_envs_real_ur_drivers_URBasic_realTimeClientEvent - INFO - Program send to Robot:
servoj([-0.0015339807878858025, -1.4987299124479923, -1.5002638978378247, -1.5754289487743127, 1.6321555583103224, 3.0925052683774528], 0.5, 0.5, 0.01, 0.1, 100)

2025-07-07 17:11:29,271 - gym_custom_envs_real_ur_drivers_URBasic_realTimeClientEvent - INFO - Program send to Robot:
servoj([-0.0015339807878858025, -1.4986995365911087, -1.5002335174250134, -1.5753985759547111, 1.6321555583103224, 3.0925052683774528], 0.5, 0.5, 0.01, 0.1, 100)

2025-07-07 17:11:29,280 - gym_custom_envs_real_ur_drivers_URBasic_realTimeClientEvent - INFO - Program send to Robot:
servoj([-0.0015339807878858025, -1.49869923283254, -1.5002332136208854, -1.5753982722265152, 1.6321555583103224, 3.0925052683774528], 0.5, 0.5, 0.01, 0.1, 100)

2025-07-07 17:11:29,296 - gym_custom_envs_real_ur_drivers_URBasic_realTimeClientEvent - INFO - Program send to Robot:
servoj([-0.0015339807878858025, -1.4956619478349407, -1.4971959286228311, -1.5693237052692062, 1.6321555583103224, 3.0925052683774528], 0.5, 0.5, 0.01, 0.1, 100)

2025-07-07 17:11:29,304 - gym_custom_envs_real_ur_drivers_URBasic_realTimeClientEvent - INFO - Program send to Robot:
servoj([-0.0015339807878858025, -1.4956315749849647, -1.4971655557728505, -1.569262959599633, 1.6321555583103224, 3.0925052683774528], 0.5, 0.5, 0.01, 0.1, 100)

2025-07-07 17:11:29,315 - gym_custom_envs_real_ur_drivers_URBasic_realTimeClientEvent - INFO - Program send to Robot:
servoj([-0.0015339807878858025, -1.4956312712564648, -1.4971652520443508, -1.5692623521429372, 1.6321555583103224, 3.0925052683774528], 0.5, 0.5, 0.01, 0.1, 100)

2025-07-07 17:11:29,328 - gym_custom_envs_real_ur_drivers_URBasic_realTimeClientEvent - INFO - Program send to Robot:
servoj([-0.0015339807878858025, -1.4910753452791594, -1.4956466080270587, -1.5601505001883296, 1.6321555583103224, 3.0925052683774528], 0.5, 0.5, 0.01, 0.1, 100)

2025-07-07 17:11:29,340 - gym_custom_envs_real_ur_drivers_URBasic_realTimeClientEvent - INFO - Program send to Robot:
servoj([-0.0015339807878858025, -1.4910297860193864, -1.4956314215868858, -1.5600593816687836, 1.6321555583103224, 3.0925052683774528], 0.5, 0.5, 0.01, 0.1, 100)

2025-07-07 17:11:29,344 - gym_custom_envs_real_ur_drivers_URBasic_realTimeClientEvent - INFO - Program send to Robot:
servoj([-0.0015339807878858025, -1.4910293304267885, -1.495631269722484, -1.560058470483588, 1.6321555583103224, 3.0925052683774528], 0.5, 0.5, 0.01, 0.1, 100)

2025-07-07 17:11:29,364 - gym_custom_envs_real_ur_drivers_URBasic_realTimeClientEvent - INFO - Program send to Robot:
servoj([-0.0015339807878858025, -1.4879920439108492, -1.49563126820384, -1.5479093335316818, 1.6321555583103224, 3.0940239093574595], 0.5, 0.5, 0.01, 0.1, 100)

2025-07-07 17:11:29,368 - gym_custom_envs_real_ur_drivers_URBasic_realTimeClientEvent - INFO - Program send to Robot:
servoj([-0.0015339807878858025, -1.4879616710456898, -1.4956312681886537, -1.5477878421621627, 1.6321555583103224, 3.0940390957672594], 0.5, 0.5, 0.01, 0.1, 100)

2025-07-07 17:11:29,387 - gym_custom_envs_real_ur_drivers_URBasic_realTimeClientEvent - INFO - Program send to Robot:
servoj([-0.0015339807878858025, -1.4879613673170382, -1.4956312681885018, -1.5477866272484675, 1.6321555583103224, 3.0940392476313576], 0.5, 0.5, 0.01, 0.1, 100)

2025-07-07 17:11:29,395 - gym_custom_envs_real_ur_drivers_URBasic_realTimeClientEvent - INFO - Program send to Robot:
servoj([-1.533980787885804e-05, -1.483405441339731, -1.4956312681885002, -1.5326002052992624, 1.6321555583103224, 3.0940392491499984], 0.5, 0.5, 0.01, 0.1, 100)

2025-07-07 17:11:29,400 - gym_custom_envs_real_ur_drivers_URBasic_realTimeClientEvent - INFO - Program send to Robot:
servoj([-1.5339807878858053e-07, -1.483359882079958, -1.4956312681885002, -1.5324483410797705, 1.6321555583103224, 3.094039249165185], 0.5, 0.5, 0.01, 0.1, 100)

2025-07-07 17:11:29,415 - gym_custom_envs_real_ur_drivers_URBasic_realTimeClientEvent - INFO - Program send to Robot:
servoj([-1.5339807878858067e-09, -1.4833594264873602, -1.4956312681885002, -1.5324468224375756, 1.6321555583103224, 3.094039249165337], 0.5, 0.5, 0.01, 0.1, 100)

2025-07-07 17:11:29,423 - gym_custom_envs_real_ur_drivers_URBasic_realTimeClientEvent - INFO - Program send to Robot:
servoj([-1.5339807878858082e-11, -1.480322139971421, -1.4956312681885002, -1.5187790384310929, 1.6321555583103224, 3.0940392491653386], 0.5, 0.5, 0.01, 0.1, 100)

2025-07-07 17:11:29,435 - gym_custom_envs_real_ur_drivers_URBasic_realTimeClientEvent - INFO - Program send to Robot:
servoj([-1.5339807878858097e-13, -1.4802917671062616, -1.4956312681885002, -1.518642360591028, 1.6321555583103224, 3.0940392491653386], 0.5, 0.5, 0.01, 0.1, 100)

2025-07-07 17:11:29,448 - gym_custom_envs_real_ur_drivers_URBasic_realTimeClientEvent - INFO - Program send to Robot:
servoj([-1.533980787885811e-15, -1.48029146337761, -1.4956312681885002, -1.5186409938126273, 1.6321555583103224, 3.0940392491653386], 0.5, 0.5, 0.01, 0.1, 100)

2025-07-07 17:11:29,460 - gym_custom_envs_real_ur_drivers_URBasic_realTimeClientEvent - INFO - Program send to Robot:
servoj([0.001518640980006929, -1.4772541783803097, -1.4956312681885002, -1.5034545703447753, 1.6306369173303157, 3.0940392491653386], 0.5, 0.5, 0.01, 0.1, 100)

2025-07-07 17:11:29,465 - gym_custom_envs_real_ur_drivers_URBasic_realTimeClientEvent - INFO - Program send to Robot:
servoj([0.0015338273898070137, -1.4772238055303368, -1.4956312681885002, -1.5033027061100968, 1.6306217309205155, 3.0940392491653386], 0.5, 0.5, 0.01, 0.1, 100)

2025-07-07 17:11:29,483 - gym_custom_envs_real_ur_drivers_URBasic_realTimeClientEvent - INFO - Program send to Robot:
servoj([0.0015339792539050146, -1.4772235018018371, -1.4956312681885002, -1.50330118746775, 1.6306215790564176, 3.0940392491653386], 0.5, 0.5, 0.01, 0.1, 100)

2025-07-07 17:11:29,488 - gym_custom_envs_real_ur_drivers_URBasic_realTimeClientEvent - INFO - Program send to Robot:
servoj([0.0015339807725459945, -1.4741862168045385, -1.4956312681885002, -1.4896334034612657, 1.6306215775377766, 3.0940392491653386], 0.5, 0.5, 0.01, 0.1, 100)

2025-07-07 17:11:29,496 - gym_custom_envs_real_ur_drivers_URBasic_realTimeClientEvent - INFO - Program send to Robot:
servoj([0.0015339807877324044, -1.4741558439545654, -1.4956312681885002, -1.4894967256212008, 1.63062157752259, 3.0940392491653386], 0.5, 0.5, 0.01, 0.1, 100)

2025-07-07 17:11:29,514 - gym_custom_envs_real_ur_drivers_URBasic_realTimeClientEvent - INFO - Program send to Robot:
servoj([0.0015339807878842686, -1.4741555402260658, -1.4956312681885002, -1.4894953588428002, 1.6306215775224382, 3.0940392491653386], 0.5, 0.5, 0.01, 0.1, 100)

2025-07-07 17:11:29,520 - gym_custom_envs_real_ur_drivers_URBasic_realTimeClientEvent - INFO - Program send to Robot:
servoj([0.004571262747899236, -1.472636896208774, -1.4956312681885002, -1.4743089353749481, 1.6291029365424299, 3.0940392491653386], 0.5, 0.5, 0.01, 0.1, 100)

2025-07-07 17:11:29,530 - gym_custom_envs_real_ur_drivers_URBasic_realTimeClientEvent - INFO - Program send to Robot:
servoj([0.004601635567499386, -1.472621709768601, -1.4956312681885002, -1.4741570711402696, 1.6290877501326297, 3.0940392491653386], 0.5, 0.5, 0.01, 0.1, 100)

2025-07-07 17:11:29,544 - gym_custom_envs_real_ur_drivers_URBasic_realTimeClientEvent - INFO - Program send to Robot:
servoj([0.004601939295695388, -1.4726215579041992, -1.4956312681885002, -1.4741555524979228, 1.6290875982685318, 3.0940392491653386], 0.5, 0.5, 0.01, 0.1, 100)

2025-07-07 17:11:29,555 - gym_custom_envs_real_ur_drivers_URBasic_realTimeClientEvent - INFO - Program send to Robot:
servoj([0.006120583312984292, -1.4711029154055484, -1.4956312681885002, -1.4620064094714451, 1.6275689557698838, 3.0940392491653386], 0.5, 0.5, 0.01, 0.1, 100)

2025-07-07 17:11:29,560 - gym_custom_envs_real_ur_drivers_URBasic_realTimeClientEvent - INFO - Program send to Robot:
servoj([0.006135769753157181, -1.471087728980562, -1.4956312681885002, -1.4618849180411804, 1.6275537693448971, 3.0940392491653386], 0.5, 0.5, 0.01, 0.1, 100)

2025-07-07 17:11:29,568 - gym_custom_envs_real_ur_drivers_URBasic_realTimeClientEvent - INFO - Program send to Robot:
servoj([0.00613592161755891, -1.471087577116312, -1.4956312681885002, -1.4618837031268777, 1.6275536174806473, 3.0940392491653386], 0.5, 0.5, 0.01, 0.1, 100)

2025-07-07 17:11:29,583 - gym_custom_envs_real_ur_drivers_URBasic_realTimeClientEvent - INFO - Program send to Robot:
servoj([0.006135923136202927, -1.469568934617663, -1.4941126272084932, -1.451253204117687, 1.627553615962005, 3.0940392491653386], 0.5, 0.5, 0.01, 0.1, 100)

2025-07-07 17:11:29,591 - gym_custom_envs_real_ur_drivers_URBasic_realTimeClientEvent - INFO - Program send to Robot:
servoj([0.006135923151389367, -1.4695537481926766, -1.494097440798693, -1.4511468991275953, 1.6275536159468185, 3.0940392491653386], 0.5, 0.5, 0.01, 0.1, 100)

2025-07-07 17:11:29,603 - gym_custom_envs_real_ur_drivers_URBasic_realTimeClientEvent - INFO - Program send to Robot:
servoj([0.0061359231515412315, -1.4695535963284267, -1.4940972889345951, -1.4511458360776943, 1.6275536159466666, 3.0940392491653386], 0.5, 0.5, 0.01, 0.1, 100)

2025-07-07 17:11:29,611 - gym_custom_envs_real_ur_drivers_URBasic_realTimeClientEvent - INFO - Program send to Robot:
servoj([0.00613592315154275, -1.4695535948097842, -1.4940972874159542, -1.4511458254471954, 1.627553615946665, 3.0940392491653386], 0.5, 0.5, 0.01, 0.1, 100)

2025-07-07 17:11:29,626 - gym_custom_envs_real_ur_drivers_URBasic_realTimeClientEvent - INFO - Program send to Robot:
servoj([0.006135923151542766, -1.468034953814591, -1.4940972874007679, -1.4435526204408562, 1.627553615946665, 3.0940392491653386], 0.5, 0.5, 0.01, 0.1, 100)

2025-07-07 17:11:29,634 - gym_custom_envs_real_ur_drivers_URBasic_realTimeClientEvent - INFO - Program send to Robot:
servoj([0.006135923151542766, -1.4680197674046391, -1.494097287400616, -1.4434766883907928, 1.627553615946665, 3.0940392491653386], 0.5, 0.5, 0.01, 0.1, 100)

2025-07-07 17:11:29,639 - gym_custom_envs_real_ur_drivers_URBasic_realTimeClientEvent - INFO - Program send to Robot:
servoj([0.006135923151542766, -1.4680196155405396, -1.4940972874006144, -1.4434759290702923, 1.627553615946665, 3.0940392491653386], 0.5, 0.5, 0.01, 0.1, 100)

2025-07-07 17:11:29,658 - gym_custom_envs_real_ur_drivers_URBasic_realTimeClientEvent - INFO - Program send to Robot:
servoj([0.006135923151542766, -1.4680196140218986, -1.4925786464206074, -1.438919998537067, 1.627553615946665, 3.0940392491653386], 0.5, 0.5, 0.01, 0.1, 100)

2025-07-07 17:11:29,663 - gym_custom_envs_real_ur_drivers_URBasic_realTimeClientEvent - INFO - Program send to Robot:
servoj([0.006135923151542766, -1.468019614006712, -1.4925634600108073, -1.4388744392317347, 1.627553615946665, 3.0940392491653386], 0.5, 0.5, 0.01, 0.1, 100)

2025-07-07 17:11:29,674 - gym_custom_envs_real_ur_drivers_URBasic_realTimeClientEvent - INFO - Program send to Robot:
servoj([0.006135923151542766, -1.4680196140065602, -1.4925633081467093, -1.4388739836386815, 1.627553615946665, 3.0940392491653386], 0.5, 0.5, 0.01, 0.1, 100)

2025-07-07 17:11:29,688 - gym_custom_envs_real_ur_drivers_URBasic_realTimeClientEvent - INFO - Program send to Robot:
servoj([0.007654564131549271, -1.4665009730265517, -1.4910446656480616, -1.4373553381027442, 1.627553615946665, 3.0940392491653386], 0.5, 0.5, 0.01, 0.1, 100)

2025-07-07 17:11:29,699 - gym_custom_envs_real_ur_drivers_URBasic_realTimeClientEvent - INFO - Program send to Robot:
servoj([0.0076697505413493355, -1.4664857866167518, -1.4910294792230752, -1.4373401516473847, 1.627553615946665, 3.0940392491653386], 0.5, 0.5, 0.01, 0.1, 100)

2025-07-07 17:11:29,704 - gym_custom_envs_real_ur_drivers_URBasic_realTimeClientEvent - INFO - Program send to Robot:
servoj([0.0076699024054473364, -1.4664856347526536, -1.4910293273588253, -1.4373399997828311, 1.627553615946665, 3.0940392491653386], 0.5, 0.5, 0.01, 0.1, 100)

2025-07-07 17:11:29,712 - gym_custom_envs_real_ur_drivers_URBasic_realTimeClientEvent - INFO - Program send to Robot:
servoj([0.007669903924088316, -1.4664856332340126, -1.4879920438801697, -1.4373399982641857, 1.627553615946665, 3.0940392491653386], 0.5, 0.5, 0.01, 0.1, 100)

2025-07-07 17:11:29,727 - gym_custom_envs_real_ur_drivers_URBasic_realTimeClientEvent - INFO - Program send to Robot:
servoj([0.007669903939274726, -1.4664856332188263, -1.4879616710453831, -1.4373399982489992, 1.627553615946665, 3.0940392491653386], 0.5, 0.5, 0.01, 0.1, 100)

2025-07-07 17:11:29,735 - gym_custom_envs_real_ur_drivers_URBasic_realTimeClientEvent - INFO - Program send to Robot:
servoj([0.00766990393942659, -1.4664856332186744, -1.4879613673170353, -1.4373399982488473, 1.627553615946665, 3.0940392491653386], 0.5, 0.5, 0.01, 0.1, 100)

2025-07-07 17:11:29,747 - gym_custom_envs_real_ur_drivers_URBasic_realTimeClientEvent - INFO - Program send to Robot:
servoj([0.009188544919435052, -1.4664856332186729, -1.4849240823197378, -1.4373399982488457, 1.626034974966658, 3.0940392491653386], 0.5, 0.5, 0.01, 0.1, 100)

2025-07-07 17:11:29,760 - gym_custom_envs_real_ur_drivers_URBasic_realTimeClientEvent - INFO - Program send to Robot:
servoj([0.009203731329235137, -1.4664856332186729, -1.484893709469765, -1.4373399982488457, 1.626019788556858, 3.0940392491653386], 0.5, 0.5, 0.01, 0.1, 100)

2025-07-07 17:11:29,771 - gym_custom_envs_real_ur_drivers_URBasic_realTimeClientEvent - INFO - Program send to Robot:
servoj([0.009203883193333139, -1.4664856332186729, -1.484893405741265, -1.4373399982488457, 1.62601963669276, 3.0940392491653386], 0.5, 0.5, 0.01, 0.1, 100)

2025-07-07 17:11:29,780 - gym_custom_envs_real_ur_drivers_URBasic_realTimeClientEvent - INFO - Program send to Robot:
servoj([0.010722525691980624, -1.4664856332186729, -1.4833747617239732, -1.4373399982488457, 1.626019635174119, 3.0940392491653386], 0.5, 0.5, 0.01, 0.1, 100)

2025-07-07 17:11:29,784 - gym_custom_envs_real_ur_drivers_URBasic_realTimeClientEvent - INFO - Program send to Robot:
servoj([0.010737712116967097, -1.4664856332186729, -1.4833595752838002, -1.4373399982488457, 1.6260196351589327, 3.0940392491653386], 0.5, 0.5, 0.01, 0.1, 100)

2025-07-07 17:11:29,799 - gym_custom_envs_real_ur_drivers_URBasic_realTimeClientEvent - INFO - Program send to Robot:
servoj([0.010737863981216962, -1.4664856332186729, -1.4833594234193985, -1.4373399982488457, 1.6260196351587808, 3.0940392491653386], 0.5, 0.5, 0.01, 0.1, 100)

2025-07-07 17:11:29,807 - gym_custom_envs_real_ur_drivers_URBasic_realTimeClientEvent - INFO - Program send to Robot:
servoj([0.010737865499859462, -1.4664856332186729, -1.4818407809207483, -1.4373399982488457, 1.6260196351587792, 3.0940392491653386], 0.5, 0.5, 0.01, 0.1, 100)

2025-07-07 17:11:29,824 - gym_custom_envs_real_ur_drivers_URBasic_realTimeClientEvent - INFO - Program send to Robot:
servoj([0.010737865515045887, -1.4664856332186729, -1.481825594495762, -1.4373399982488457, 1.6260196351587792, 3.0940392491653386], 0.5, 0.5, 0.01, 0.1, 100)

2025-07-07 17:11:29,832 - gym_custom_envs_real_ur_drivers_URBasic_realTimeClientEvent - INFO - Program send to Robot:
servoj([0.01073786551519775, -1.4664856332186729, -1.481825442631512, -1.4373399982488457, 1.6260196351587792, 3.0940392491653386], 0.5, 0.5, 0.01, 0.1, 100)

2025-07-07 17:11:29,844 - gym_custom_envs_real_ur_drivers_URBasic_realTimeClientEvent - INFO - Program send to Robot:
servoj([0.01073786551519927, -1.4680042741986798, -1.4818254411128695, -1.4373399982488457, 1.6260196351587792, 3.0940392491653386], 0.5, 0.5, 0.01, 0.1, 100)

2025-07-07 17:11:29,848 - gym_custom_envs_real_ur_drivers_URBasic_realTimeClientEvent - INFO - Program send to Robot:
servoj([0.010737865515199285, -1.46801946060848, -1.481825441097683, -1.4373399982488457, 1.6260196351587792, 3.0940392491653386], 0.5, 0.5, 0.01, 0.1, 100)

2025-07-07 17:11:29,868 - gym_custom_envs_real_ur_drivers_URBasic_realTimeClientEvent - INFO - Program send to Robot:
servoj([0.010737865515199285, -1.468019612472578, -1.4818254410975313, -1.4373399982488457, 1.6260196351587792, 3.0940392491653386], 0.5, 0.5, 0.01, 0.1, 100)

2025-07-07 17:11:29,872 - gym_custom_envs_real_ur_drivers_URBasic_realTimeClientEvent - INFO - Program send to Robot:
servoj([0.010737865515199285, -1.468019613991219, -1.480306800117523, -1.4373399982488457, 1.6275382761387862, 3.0940392491653386], 0.5, 0.5, 0.01, 0.1, 100)

2025-07-07 17:11:29,892 - gym_custom_envs_real_ur_drivers_URBasic_realTimeClientEvent - INFO - Program send to Robot:
servoj([0.010737865515199285, -1.4680196140064052, -1.4802916137077229, -1.4373399982488457, 1.6275534625485863, 3.0940392491653386], 0.5, 0.5, 0.01, 0.1, 100)

2025-07-07 17:11:29,896 - gym_custom_envs_real_ur_drivers_URBasic_realTimeClientEvent - INFO - Program send to Robot:
servoj([0.010737865515199285, -1.4680196140065571, -1.480291461843625, -1.4373399982488457, 1.6275536144126843, 3.0940392491653386], 0.5, 0.5, 0.01, 0.1, 100)

2025-07-07 17:11:29,911 - gym_custom_envs_real_ur_drivers_URBasic_realTimeClientEvent - INFO - Program send to Robot:
servoj([0.010737865515199285, -1.4680196140065587, -1.480291460324984, -1.4373399982488457, 1.6275536159313253, 3.0940392491653386], 0.5, 0.5, 0.01, 0.1, 100)

2025-07-07 17:11:29,919 - gym_custom_envs_real_ur_drivers_URBasic_realTimeClientEvent - INFO - Program send to Robot:
servoj([0.010737865515199285, -1.4680196140065587, -1.4802914603097974, -1.4373399982488457, 1.6275536159465116, 3.0940392491653386], 0.5, 0.5, 0.01, 0.1, 100)

2025-07-07 17:11:29,936 - gym_custom_envs_real_ur_drivers_URBasic_realTimeClientEvent - INFO - Program send to Robot:
servoj([0.010737865515199285, -1.4680196140065587, -1.4802914603096455, -1.4373399982488457, 1.6275536159466635, 3.0940392491653386], 0.5, 0.5, 0.01, 0.1, 100)

2025-07-07 17:11:29,943 - gym_custom_envs_real_ur_drivers_URBasic_realTimeClientEvent - INFO - Program send to Robot:
servoj([0.010737865515199285, -1.4680196140065587, -1.4802914603096442, -1.4373399982488457, 1.627553615946665, 3.0940392491653386], 0.5, 0.5, 0.01, 0.1, 100)

2025-07-07 17:11:29,963 - gym_custom_envs_real_ur_drivers_URBasic_realTimeClientEvent - INFO - Program send to Robot:
servoj([0.010737865515199285, -1.4680196140065587, -1.480291460309644, -1.4373399982488457, 1.627553615946665, 3.0940392491653386], 0.5, 0.5, 0.01, 0.1, 100)

2025-07-07 17:11:29,968 - gym_custom_envs_real_ur_drivers_URBasic_realTimeClientEvent - INFO - Program send to Robot:
servoj([0.010737865515199285, -1.4680196140065587, -1.480291460309644, -1.4373399982488457, 1.627553615946665, 3.0940392491653386], 0.5, 0.5, 0.01, 0.1, 100)

2025-07-07 17:11:29,976 - gym_custom_envs_real_ur_drivers_URBasic_realTimeClientEvent - INFO - Program send to Robot:
servoj([0.010737865515199285, -1.4680196140065587, -1.480291460309644, -1.4373399982488457, 1.627553615946665, 3.0940392491653386], 0.5, 0.5, 0.01, 0.1, 100)

2025-07-07 17:11:29,993 - gym_custom_envs_real_ur_drivers_URBasic_realTimeClientEvent - INFO - Program send to Robot:
servoj([0.010737865515199285, -1.4680196140065587, -1.480291460309644, -1.4373399982488457, 1.627553615946665, 3.0940392491653386], 0.5, 0.5, 0.01, 0.1, 100)

2025-07-07 17:11:30,000 - gym_custom_envs_real_ur_drivers_URBasic_realTimeClientEvent - INFO - Program send to Robot:
servoj([0.01225650649520623, -1.4680196140065587, -1.478772819329637, -1.4373399982488457, 1.629072256926672, 3.0940392491653386], 0.5, 0.5, 0.01, 0.1, 100)

2025-07-07 17:11:30,011 - gym_custom_envs_real_ur_drivers_URBasic_realTimeClientEvent - INFO - Program send to Robot:
servoj([0.0122716929050063, -1.4680196140065587, -1.478757632919837, -1.4373399982488457, 1.6290874433364722, 3.0940392491653386], 0.5, 0.5, 0.01, 0.1, 100)

2025-07-07 17:11:30,024 - gym_custom_envs_real_ur_drivers_URBasic_realTimeClientEvent - INFO - Program send to Robot:
servoj([0.0122718447691043, -1.4680196140065587, -1.4787574810557391, -1.4373399982488457, 1.6290875952005701, 3.0940392491653386], 0.5, 0.5, 0.01, 0.1, 100)

2025-07-07 17:11:30,036 - gym_custom_envs_real_ur_drivers_URBasic_realTimeClientEvent - INFO - Program send to Robot:
servoj([0.01227184628774528, -1.4680196140065587, -1.4757201975770842, -1.4373399982488457, 1.629087596719211, 3.0940392491653386], 0.5, 0.5, 0.01, 0.1, 100)

2025-07-07 17:11:30,040 - gym_custom_envs_real_ur_drivers_URBasic_realTimeClientEvent - INFO - Program send to Robot:
servoj([0.01227184630293169, -1.4680196140065587, -1.4756898247422976, -1.4373399982488457, 1.6290875967343974, 3.0940392491653386], 0.5, 0.5, 0.01, 0.1, 100)

2025-07-07 17:11:30,060 - gym_custom_envs_real_ur_drivers_URBasic_realTimeClientEvent - INFO - Program send to Robot:
servoj([0.012271846303083554, -1.4680196140065587, -1.4756895210139498, -1.4373399982488457, 1.6290875967345493, 3.0940392491653386], 0.5, 0.5, 0.01, 0.1, 100)

2025-07-07 17:11:30,064 - gym_custom_envs_real_ur_drivers_URBasic_realTimeClientEvent - INFO - Program send to Robot:
servoj([0.012271846303085072, -1.4680196140065587, -1.4711335950366462, -1.4373399982488457, 1.6306062377145578, 3.0940392491653386], 0.5, 0.5, 0.01, 0.1, 100)

2025-07-07 17:11:30,083 - gym_custom_envs_real_ur_drivers_URBasic_realTimeClientEvent - INFO - Program send to Robot:
servoj([0.012271846303085088, -1.4680196140065587, -1.4710880357768732, -1.4373399982488457, 1.630621424124358, 3.0940392491653386], 0.5, 0.5, 0.01, 0.1, 100)

2025-07-07 17:11:30,090 - gym_custom_envs_real_ur_drivers_URBasic_realTimeClientEvent - INFO - Program send to Robot:
servoj([0.012271846303085088, -1.4680196140065587, -1.4710875801842753, -1.4373399982488457, 1.630621575988456, 3.0940392491653386], 0.5, 0.5, 0.01, 0.1, 100)

2025-07-07 17:11:30,096 - gym_custom_envs_real_ur_drivers_URBasic_realTimeClientEvent - INFO - Program send to Robot:
servoj([0.012271846303085088, -1.4665009730265517, -1.4650130117083227, -1.4388586392288525, 1.630621577507097, 3.0940392491653386], 0.5, 0.5, 0.01, 0.1, 100)

2025-07-07 17:11:30,114 - gym_custom_envs_real_ur_drivers_URBasic_realTimeClientEvent - INFO - Program send to Robot:
servoj([0.012271846303085088, -1.4664857866167518, -1.464952266023563, -1.4388738256386526, 1.6306215775222834, 3.0940392491653386], 0.5, 0.5, 0.01, 0.1, 100)

2025-07-07 17:11:30,120 - gym_custom_envs_real_ur_drivers_URBasic_realTimeClientEvent - INFO - Program send to Robot:
servoj([0.012271846303085088, -1.4664856347526536, -1.4649516585667155, -1.4388739775027506, 1.6306215775224353, 3.0940392491653386], 0.5, 0.5, 0.01, 0.1, 100)

2025-07-07 17:11:30,130 - gym_custom_envs_real_ur_drivers_URBasic_realTimeClientEvent - INFO - Program send to Robot:
servoj([0.012271846303085088, -1.4680042742140196, -1.4573584475921124, -1.4403926200013986, 1.6306215775224366, 3.0940392491653386], 0.5, 0.5, 0.01, 0.1, 100)

2025-07-07 17:11:30,144 - gym_custom_envs_real_ur_drivers_URBasic_realTimeClientEvent - INFO - Program send to Robot:
servoj([0.012271846303085088, -1.4680194606086334, -1.4572825154823663, -1.440407806426385, 1.6306215775224366, 3.0940392491653386], 0.5, 0.5, 0.01, 0.1, 100)

2025-07-07 17:11:30,155 - gym_custom_envs_real_ur_drivers_URBasic_realTimeClientEvent - INFO - Program send to Robot:
servoj([0.012271846303085088, -1.4680196124725795, -1.4572817561612688, -1.4404079582906348, 1.6306215775224366, 3.0940392491653386], 0.5, 0.5, 0.01, 0.1, 100)

2025-07-07 17:11:30,159 - gym_custom_envs_real_ur_drivers_URBasic_realTimeClientEvent - INFO - Program send to Robot:
servoj([0.013790487283092031, -1.468019613991219, -1.4512071846480308, -1.441926600789284, 1.6306215775224366, 3.0940392491653386], 0.5, 0.5, 0.01, 0.1, 100)

2025-07-07 17:11:30,180 - gym_custom_envs_real_ur_drivers_URBasic_realTimeClientEvent - INFO - Program send to Robot:
servoj([0.0138056736928921, -1.4680196140064052, -1.4511464389328985, -1.4419417872142704, 1.6306215775224366, 3.0940392491653386], 0.5, 0.5, 0.01, 0.1, 100)

2025-07-07 17:11:30,184 - gym_custom_envs_real_ur_drivers_URBasic_realTimeClientEvent - INFO - Program send to Robot:
servoj([0.013805825556990102, -1.4680196140065571, -1.451145831475747, -1.4419419390785202, 1.6306215775224366, 3.0940392491653386], 0.5, 0.5, 0.01, 0.1, 100)

2025-07-07 17:11:30,203 - gym_custom_envs_real_ur_drivers_URBasic_realTimeClientEvent - INFO - Program send to Robot:
servoj([0.013805827075631083, -1.4665009730265517, -1.4481085434411627, -1.4419419405971627, 1.6321402185024434, 3.0940392491653386], 0.5, 0.5, 0.01, 0.1, 100)

2025-07-07 17:11:30,210 - gym_custom_envs_real_ur_drivers_URBasic_realTimeClientEvent - INFO - Program send to Robot:
servoj([0.013805827090817492, -1.4664857866167518, -1.448078170560817, -1.4419419406123493, 1.6321554049122435, 3.0940392491653386], 0.5, 0.5, 0.01, 0.1, 100)

2025-07-07 17:11:30,216 - gym_custom_envs_real_ur_drivers_URBasic_realTimeClientEvent - INFO - Program send to Robot:
servoj([0.013805827090969355, -1.4664856347526536, -1.4480778668320136, -1.4419419406125011, 1.6321555567763415, 3.0940392491653386], 0.5, 0.5, 0.01, 0.1, 100)

2025-07-07 17:11:30,233 - gym_custom_envs_real_ur_drivers_URBasic_realTimeClientEvent - INFO - Program send to Robot:
servoj([0.01532446807097738, -1.4664856332340126, -1.4465592228147184, -1.4434605815925095, 1.6321555582949825, 3.0940392491653386], 0.5, 0.5, 0.01, 0.1, 100)

2025-07-07 17:11:30,241 - gym_custom_envs_real_ur_drivers_URBasic_realTimeClientEvent - INFO - Program send to Robot:
servoj([0.015339654480777459, -1.4664856332188263, -1.4465440363745454, -1.4434757680023094, 1.632155558310169, 3.0940392491653386], 0.5, 0.5, 0.01, 0.1, 100)

2025-07-07 17:11:30,249 - gym_custom_envs_real_ur_drivers_URBasic_realTimeClientEvent - INFO - Program send to Robot:
servoj([0.01533980634487546, -1.4664856332186744, -1.4465438845101437, -1.4434759198664073, 1.6321555583103209, 3.0940392491653386], 0.5, 0.5, 0.01, 0.1, 100)

2025-07-07 17:11:30,263 - gym_custom_envs_real_ur_drivers_URBasic_realTimeClientEvent - INFO - Program send to Robot:
servoj([0.016858448843523385, -1.4664856332186729, -1.4480625239715068, -1.446513203345062, 1.6321555583103224, 3.0940392491653386], 0.5, 0.5, 0.01, 0.1, 100)

2025-07-07 17:11:30,273 - gym_custom_envs_real_ur_drivers_URBasic_realTimeClientEvent - INFO - Program send to Robot:
servoj([0.01687363526850986, -1.4664856332186729, -1.4480777103661204, -1.4465435761798486, 1.6321555583103224, 3.0940392491653386], 0.5, 0.5, 0.01, 0.1, 100)

2025-07-07 17:11:30,282 - gym_custom_envs_real_ur_drivers_URBasic_realTimeClientEvent - INFO - Program send to Robot:
servoj([0.016873787132759728, -1.4664856332186729, -1.4480778622300665, -1.4465438799081967, 1.6321555583103224, 3.0940392491653386], 0.5, 0.5, 0.01, 0.1, 100)

2025-07-07 17:11:30,287 - gym_custom_envs_real_ur_drivers_URBasic_realTimeClientEvent - INFO - Program send to Robot:
servoj([0.018392429631409173, -1.4680042741986798, -1.449596504728712, -1.4541370878455138, 1.6336741992903294, 3.0955578901453453], 0.5, 0.5, 0.01, 0.1, 100)

2025-07-07 17:11:30,306 - gym_custom_envs_real_ur_drivers_URBasic_realTimeClientEvent - INFO - Program send to Robot:
servoj([0.018407616056395668, -1.46801946060848, -1.4496116911536985, -1.454213019924887, 1.6336893857001293, 3.0955730765551452], 0.5, 0.5, 0.01, 0.1, 100)

2025-07-07 17:11:30,311 - gym_custom_envs_real_ur_drivers_URBasic_realTimeClientEvent - INFO - Program send to Robot:
servoj([0.01840776792064553, -1.468019612472578, -1.4496118430179483, -1.4542137792456808, 1.6336895375642273, 3.0955732284192434], 0.5, 0.5, 0.01, 0.1, 100)

2025-07-07 17:11:30,321 - gym_custom_envs_real_ur_drivers_URBasic_realTimeClientEvent - INFO - Program send to Robot:
servoj([0.02144505139930148, -1.468019613991219, -1.4541677674766116, -1.46788155565895, 1.6367268210428814, 3.0970918709178905], 0.5, 0.5, 0.01, 0.1, 100)

2025-07-07 17:11:30,335 - gym_custom_envs_real_ur_drivers_URBasic_realTimeClientEvent - INFO - Program send to Robot:
servoj([0.02147542423408804, -1.4680196140064052, -1.4542133267211983, -1.4680182334230827, 1.636757193877668, 3.097107057342877], 0.5, 0.5, 0.01, 0.1, 100)

2025-07-07 17:11:30,344 - gym_custom_envs_real_ur_drivers_URBasic_realTimeClientEvent - INFO - Program send to Robot:
servoj([0.021475727962435905, -1.4680196140065571, -1.454213782313644, -1.468019600200724, 1.6367574976060157, 3.097107209207127], 0.5, 0.5, 0.01, 0.1, 100)

2025-07-07 17:11:30,352 - gym_custom_envs_real_ur_drivers_URBasic_realTimeClientEvent - INFO - Program send to Robot:
servoj([0.026031653939739777, -1.4680196140065587, -1.4633256327496094, -1.4892805875885955, 1.6397947826033132, 3.1001444926857835], 0.5, 0.5, 0.01, 0.1, 100)

2025-07-07 17:11:30,359 - gym_custom_envs_real_ur_drivers_URBasic_realTimeClientEvent - INFO - Program send to Robot:
servoj([0.026077213199512818, -1.4680196140065587, -1.4634167512539689, -1.489493197462474, 1.6398251554532863, 3.10017486552057], 0.5, 0.5, 0.01, 0.1, 100)

2025-07-07 17:11:30,376 - gym_custom_envs_real_ur_drivers_URBasic_realTimeClientEvent - INFO - Program send to Robot:
servoj([0.02607766879211055, -1.4680196140065587, -1.4634176624390125, -1.489495323561213, 1.639825459181786, 3.1001751692489177], 0.5, 0.5, 0.01, 0.1, 100)

2025-07-07 17:11:30,384 - gym_custom_envs_real_ur_drivers_URBasic_realTimeClientEvent - INFO - Program send to Robot:
servoj([0.03518951922807731, -1.471056895966572, -1.4740481584109097, -1.5153122414823155, 1.644381385159091, 3.1001751722862014], 0.5, 0.5, 0.01, 0.1, 100)

2025-07-07 17:11:30,392 - gym_custom_envs_real_ur_drivers_URBasic_realTimeClientEvent - INFO - Program send to Robot:
servoj([0.035280637732436976, -1.4710872687861722, -1.4741544633706287, -1.5155704106615264, 1.644426944418864, 3.100175172316574], 0.5, 0.5, 0.01, 0.1, 100)

2025-07-07 17:11:30,401 - gym_custom_envs_real_ur_drivers_URBasic_realTimeClientEvent - INFO - Program send to Robot:
servoj([0.035281548917480574, -1.4710875725143682, -1.474155526420226, -1.5155729923533185, 1.6444274000114616, 3.100175172316878], 0.5, 0.5, 0.01, 0.1, 100)

2025-07-07 17:11:30,417 - gym_custom_envs_real_ur_drivers_URBasic_realTimeClientEvent - INFO - Program send to Robot:
servoj([0.05198660880940564, -1.472606216531657, -1.4863046648907767, -1.5429085558103586, 1.6580951733874494, 3.1032124542768944], 0.5, 0.5, 0.01, 0.1, 100)

2025-07-07 17:11:30,425 - gym_custom_envs_real_ur_drivers_URBasic_realTimeClientEvent - INFO - Program send to Robot:
servoj([0.05215365940832489, -1.4726214029718299, -1.4864261562754821, -1.543181911444929, 1.658231851121209, 3.1032428270964947], 0.5, 0.5, 0.01, 0.1, 100)

2025-07-07 17:11:30,432 - gym_custom_envs_real_ur_drivers_URBasic_realTimeClientEvent - INFO - Program send to Robot:
servoj([0.05215532991431409, -1.4726215548362316, -1.4864273711893292, -1.5431846450012747, 1.6582332178985468, 3.1032431308246906], 0.5, 0.5, 0.01, 0.1, 100)

2025-07-07 17:11:30,441 - gym_custom_envs_real_ur_drivers_URBasic_realTimeClientEvent - INFO - Program send to Robot:
servoj([0.05215534661937398, -1.4726215563548755, -1.4864273833384678, -1.543184672336838, 1.6582332315663202, 3.1032431338619726], 0.5, 0.5, 0.01, 0.1, 100)

2025-07-07 17:11:30,455 - gym_custom_envs_real_ur_drivers_URBasic_realTimeClientEvent - INFO - Program send to Robot:
servoj([0.07189767952651266, -1.474140197350069, -1.4970578703200068, -1.5659642873102957, 1.6779755644430856, 3.1123549797723857], 0.5, 0.5, 0.01, 0.1, 100)

2025-07-07 17:11:30,465 - gym_custom_envs_real_ur_drivers_URBasic_realTimeClientEvent - INFO - Program send to Robot:
servoj([0.07209510285558404, -1.4741553837600208, -1.4971641751898224, -1.5661920834600302, 1.6781729877718532, 3.11244609823149], 0.5, 0.5, 0.01, 0.1, 100)

2025-07-07 17:11:30,474 - gym_custom_envs_real_ur_drivers_URBasic_realTimeClientEvent - INFO - Program send to Robot:
servoj([0.07209707708887475, -1.4741555356241203, -1.4971652382385203, -1.5661943614215275, 1.678174962005141, 3.112447009416081], 0.5, 0.5, 0.01, 0.1, 100)

2025-07-07 17:11:30,489 - gym_custom_envs_real_ur_drivers_URBasic_realTimeClientEvent - INFO - Program send to Robot:
servoj([0.09183942957129573, -1.4741555371427613, -1.5062770947490483, -1.5859367169412308, 1.6918427505675353, 3.126114787347988], 0.5, 0.5, 0.01, 0.1, 100)

2025-07-07 17:11:30,498 - gym_custom_envs_real_ur_drivers_URBasic_realTimeClientEvent - INFO - Program send to Robot:
servoj([0.09203685309611995, -1.4741555371579478, -1.5063682133141534, -1.5861341404964278, 1.691979428453159, 3.1262514651273072], 0.5, 0.5, 0.01, 0.1, 100)

2025-07-07 17:11:30,503 - gym_custom_envs_real_ur_drivers_URBasic_realTimeClientEvent - INFO - Program send to Robot:
servoj([0.09203882733136819, -1.4741555371580997, -1.5063691244998045, -1.5861361147319797, 1.6919807952320154, 3.1262528319051004], 0.5, 0.5, 0.01, 0.1, 100)

2025-07-07 17:11:30,523 - gym_custom_envs_real_ur_drivers_URBasic_realTimeClientEvent - INFO - Program send to Robot:
servoj([0.11026253883380226, -1.475674178138108, -1.5124436975316877, -1.6043598262344165, 1.696536731839824, 3.147513819292973], 0.5, 0.5, 0.01, 0.1, 100)

2025-07-07 17:11:30,528 - gym_custom_envs_real_ur_drivers_URBasic_realTimeClientEvent - INFO - Program send to Robot:
servoj([0.1104447759488266, -1.4756893645479081, -1.5125044432620067, -1.604542063349441, 1.696582291205902, 3.147726429166852], 0.5, 0.5, 0.01, 0.1, 100)

2025-07-07 17:11:30,539 - gym_custom_envs_real_ur_drivers_URBasic_realTimeClientEvent - INFO - Program send to Robot:
servoj([0.11044659831997684, -1.475689516412006, -1.5125050507193099, -1.6045438857205911, 1.696582746799563, 3.1477285552655907], 0.5, 0.5, 0.01, 0.1, 100)

2025-07-07 17:11:30,551 - gym_custom_envs_real_ur_drivers_URBasic_realTimeClientEvent - INFO - Program send to Robot:
servoj([0.12715166732376298, -1.4772081589106538, -1.517060979733903, -1.6197303137443708, 1.6996200333155134, 3.1735454731866932], 0.5, 0.5, 0.01, 0.1, 100)

2025-07-07 17:11:30,563 - gym_custom_envs_real_ur_drivers_URBasic_realTimeClientEvent - INFO - Program send to Robot:
servoj([0.12731871801380085, -1.4772233453356403, -1.5171065390240488, -1.6198821780246087, 1.699650406180673, 3.1738036423659044], 0.5, 0.5, 0.01, 0.1, 100)

2025-07-07 17:11:30,567 - gym_custom_envs_real_ur_drivers_URBasic_realTimeClientEvent - INFO - Program send to Robot:
servoj([0.1273203885207012, -1.47722349719989, -1.5171069946169504, -1.6198836966674108, 1.6996507099093245, 3.1738062240576963], 0.5, 0.5, 0.01, 0.1, 100)

2025-07-07 17:11:30,587 - gym_custom_envs_real_ur_drivers_URBasic_realTimeClientEvent - INFO - Program send to Robot:
servoj([0.1425068150258379, -1.4772234987185326, -1.5201442811328933, -1.632032839693893, 1.701169353926618, 3.1950672235947097], 0.5, 0.5, 0.01, 0.1, 100)

2025-07-07 17:11:30,591 - gym_custom_envs_real_ur_drivers_URBasic_realTimeClientEvent - INFO - Program send to Robot:
servoj([0.14265867929088927, -1.477223498733719, -1.5201746539980527, -1.6321543311241578, 1.701184540366791, 3.19527983359008], 0.5, 0.5, 0.01, 0.1, 100)

2025-07-07 17:11:30,611 - gym_custom_envs_real_ur_drivers_URBasic_realTimeClientEvent - INFO - Program send to Robot:
servoj([0.1578466077336079, -1.4772234987338708, -1.523212239686718, -1.6443046738785148, 1.7042219741912055, 3.2089497285100945], 0.5, 0.5, 0.01, 0.1, 100)

2025-07-07 17:11:30,615 - gym_custom_envs_real_ur_drivers_URBasic_realTimeClientEvent - INFO - Program send to Robot:
servoj([0.1579984870180351, -1.4772234987338724, -1.5232426155436047, -1.6444261773060584, 1.7042523485294496, 3.2090864274592947], 0.5, 0.5, 0.01, 0.1, 100)

2025-07-07 17:11:30,636 - gym_custom_envs_real_ur_drivers_URBasic_realTimeClientEvent - INFO - Program send to Robot:
servoj([0.15800000581087936, -1.4772234987338724, -1.5232429193021735, -1.6444273923403339, 1.704252652272832, 3.2090877944487866], 0.5, 0.5, 0.01, 0.1, 100)

2025-07-07 17:11:30,640 - gym_custom_envs_real_ur_drivers_URBasic_realTimeClientEvent - INFO - Program send to Robot:
servoj([0.17470507177888245, -1.4772234987338724, -1.5247615633197653, -1.6565765323307309, 1.7088085782502869, 3.2181996539987225], 0.5, 0.5, 0.01, 0.1, 100)

2025-07-07 17:11:30,656 - gym_custom_envs_real_ur_drivers_URBasic_realTimeClientEvent - INFO - Program send to Robot:
servoj([0.17487212243856248, -1.4772234987338724, -1.5247767497599414, -1.6566980237306348, 1.7088541375100614, 3.218290772594222], 0.5, 0.5, 0.01, 0.1, 100)

2025-07-07 17:11:30,664 - gym_custom_envs_real_ur_drivers_URBasic_realTimeClientEvent - INFO - Program send to Robot:
servoj([0.17487379294515928, -1.4772234987338724, -1.524776901624343, -1.6566992386446338, 1.708854593102659, 3.2182916837801767], 0.5, 0.5, 0.01, 0.1, 100)

2025-07-07 17:11:30,685 - gym_custom_envs_real_ur_drivers_URBasic_realTimeClientEvent - INFO - Program send to Robot:
servoj([0.19006021945029292, -1.4772234987338724, -1.526295544122994, -1.6658110966738147, 1.714929161578612, 3.22132897485205], 0.5, 0.5, 0.01, 0.1, 100)

2025-07-07 17:11:30,696 - gym_custom_envs_real_ur_drivers_URBasic_realTimeClientEvent - INFO - Program send to Robot:
servoj([0.19021208371534426, -1.4772234987338724, -1.5263107305479806, -1.6659022152541063, 1.7149899072633714, 3.2213593477627684], 0.5, 0.5, 0.01, 0.1, 100)

2025-07-07 17:11:30,709 - gym_custom_envs_real_ur_drivers_URBasic_realTimeClientEvent - INFO - Program send to Robot:
servoj([0.20388137117805594, -1.4787421397138794, -1.5278295233922374, -1.6704590493799298, 1.7195464376602392, 3.2213596514918756], 0.5, 0.5, 0.01, 0.1, 100)

2025-07-07 17:11:30,720 - gym_custom_envs_real_ur_drivers_URBasic_realTimeClientEvent - INFO - Program send to Robot:
servoj([0.20401806405268305, -1.4787573261236795, -1.52784471132068, -1.670504617721188, 1.7195920029642078, 3.221359654529167], 0.5, 0.5, 0.01, 0.1, 100)

2025-07-07 17:11:30,733 - gym_custom_envs_real_ur_drivers_URBasic_realTimeClientEvent - INFO - Program send to Robot:
servoj([0.21313127686147013, -1.4787574779877775, -1.5293635041799714, -1.672023714384607, 1.7211110995972545, 3.22135965455954], 0.5, 0.5, 0.01, 0.1, 100)

2025-07-07 17:11:30,745 - gym_custom_envs_real_ur_drivers_URBasic_realTimeClientEvent - INFO - Program send to Robot:
servoj([0.213222408989558, -1.4787574795064184, -1.5293786921085644, -1.6720389053512414, 1.721126290563585, 3.2213596545598437], 0.5, 0.5, 0.01, 0.1, 100)

2025-07-07 17:11:30,752 - gym_custom_envs_real_ur_drivers_URBasic_realTimeClientEvent - INFO - Program send to Robot:
servoj([0.21322332031083888, -1.4787574795216047, -1.5293788439878502, -1.6720390572609076, 1.7211264424732482, 3.2213596545598464], 0.5, 0.5, 0.01, 0.1, 100)

2025-07-07 17:11:30,760 - gym_custom_envs_real_ur_drivers_URBasic_realTimeClientEvent - INFO - Program send to Robot:
servoj([0.2132233294240517, -1.4787574795217566, -1.529378845506643, -1.6720390587800043, 1.7211264439923448, 3.2213596545598464], 0.5, 0.5, 0.01, 0.1, 100)

2025-07-07 17:11:30,776 - gym_custom_envs_real_ur_drivers_URBasic_realTimeClientEvent - INFO - Program send to Robot:
servoj([0.22081653441521767, -1.4787574795217582, -1.5308974865018377, -1.6720390587951952, 1.7226450849875425, 3.2213596545598464], 0.5, 0.5, 0.01, 0.1, 100)

2025-07-07 17:11:30,792 - gym_custom_envs_real_ur_drivers_URBasic_realTimeClientEvent - INFO - Program send to Robot:
servoj([0.22089246646512933, -1.4787574795217582, -1.5309126729117897, -1.6720390587953473, 1.7226602713974946, 3.2213596545598464], 0.5, 0.5, 0.01, 0.1, 100)

2025-07-07 17:11:30,799 - gym_custom_envs_real_ur_drivers_URBasic_realTimeClientEvent - INFO - Program send to Robot:
servoj([0.22696778970565534, -1.4787574795217582, -1.5324314657558962, -1.6720390587953486, 1.722660423261594, 3.2213596545598464], 0.5, 0.5, 0.01, 0.1, 100)

2025-07-07 17:11:30,807 - gym_custom_envs_real_ur_drivers_URBasic_realTimeClientEvent - INFO - Program send to Robot:
servoj([0.2270285429380606, -1.4787574795217582, -1.5324466536843373, -1.6720390587953489, 1.722660424780235, 3.2213596545598464], 0.5, 0.5, 0.01, 0.1, 100)

2025-07-07 17:11:30,815 - gym_custom_envs_real_ur_drivers_URBasic_realTimeClientEvent - INFO - Program send to Robot:
servoj([0.22702915047038463, -1.4787574795217582, -1.5324468055636218, -1.6720390587953489, 1.7226604247954216, 3.2213596545598464], 0.5, 0.5, 0.01, 0.1, 100)

2025-07-07 17:11:30,832 - gym_custom_envs_real_ur_drivers_URBasic_realTimeClientEvent - INFO - Program send to Robot:
servoj([0.23310372046573521, -1.4772388385417512, -1.5339654480624205, -1.6720390587953489, 1.7226604247955735, 3.2213596545598464], 0.5, 0.5, 0.01, 0.1, 100)

2025-07-07 17:11:30,840 - gym_custom_envs_real_ur_drivers_URBasic_realTimeClientEvent - INFO - Program send to Robot:
servoj([0.23316446616568873, -1.4772236521319513, -1.5339806344874085, -1.6720390587953489, 1.722660424795575, 3.2213596545598464], 0.5, 0.5, 0.01, 0.1, 100)

2025-07-07 17:11:30,848 - gym_custom_envs_real_ur_drivers_URBasic_realTimeClientEvent - INFO - Program send to Robot:
servoj([0.23316507362268826, -1.477223500267853, -1.5339807863516586, -1.6720390587953489, 1.722660424795575, 3.2213596545598464], 0.5, 0.5, 0.01, 0.1, 100)

2025-07-07 17:11:30,856 - gym_custom_envs_real_ur_drivers_URBasic_realTimeClientEvent - INFO - Program send to Robot:
servoj([0.23316507969725825, -1.477223498749212, -1.533980787870301, -1.6720390587953489, 1.722660424795575, 3.2213596545598464], 0.5, 0.5, 0.01, 0.1, 100)

2025-07-07 17:11:30,871 - gym_custom_envs_real_ur_drivers_URBasic_realTimeClientEvent - INFO - Program send to Robot:
servoj([0.23772100269802435, -1.4772234987340258, -1.5339807878854874, -1.6705204178153423, 1.724179065775582, 3.2213596545598464], 0.5, 0.5, 0.01, 0.1, 100)

2025-07-07 17:11:30,881 - gym_custom_envs_real_ur_drivers_URBasic_realTimeClientEvent - INFO - Program send to Robot:
servoj([0.237766561928032, -1.477223498733874, -1.5339807878856393, -1.6705052314055422, 1.724194252185382, 3.2213596545598464], 0.5, 0.5, 0.01, 0.1, 100)

2025-07-07 17:11:30,890 - gym_custom_envs_real_ur_drivers_URBasic_realTimeClientEvent - INFO - Program send to Robot:
servoj([0.23776701752033208, -1.4772234987338724, -1.5339807878856409, -1.6705050795414442, 1.7241944040494799, 3.2213596545598464], 0.5, 0.5, 0.01, 0.1, 100)

2025-07-07 17:11:30,896 - gym_custom_envs_real_ur_drivers_URBasic_realTimeClientEvent - INFO - Program send to Robot:
servoj([0.2392856630562616, -1.4787421397138794, -1.5339807878856409, -1.6705050780228032, 1.7241944055681209, 3.2213596545598464], 0.5, 0.5, 0.01, 0.1, 100)

2025-07-07 17:11:30,914 - gym_custom_envs_real_ur_drivers_URBasic_realTimeClientEvent - INFO - Program send to Robot:
servoj([0.2393008495116209, -1.4787573261236795, -1.5339807878856409, -1.6705050780076167, 1.7241944055833074, 3.2213596545598464], 0.5, 0.5, 0.01, 0.1, 100)

2025-07-07 17:11:30,919 - gym_custom_envs_real_ur_drivers_URBasic_realTimeClientEvent - INFO - Program send to Robot:
servoj([0.23930100137617447, -1.4787574779877775, -1.5339807878856409, -1.6705050780074648, 1.7241944055834593, 3.2213596545598464], 0.5, 0.5, 0.01, 0.1, 100)

2025-07-07 17:11:30,930 - gym_custom_envs_real_ur_drivers_URBasic_realTimeClientEvent - INFO - Program send to Robot:
servoj([0.24081964387482696, -1.4772388385264115, -1.5339807878856409, -1.6705050780074633, 1.7226757646034538, 3.2213596545598464], 0.5, 0.5, 0.01, 0.1, 100)

2025-07-07 17:11:30,944 - gym_custom_envs_real_ur_drivers_URBasic_realTimeClientEvent - INFO - Program send to Robot:
servoj([0.24083483029981348, -1.4772236521317978, -1.5339807878856409, -1.6705050780074633, 1.7226605781936537, 3.2213596545598464], 0.5, 0.5, 0.01, 0.1, 100)

2025-07-07 17:11:30,955 - gym_custom_envs_real_ur_drivers_URBasic_realTimeClientEvent - INFO - Program send to Robot:
servoj([0.24083498216406335, -1.4772235002678518, -1.5339807878856409, -1.6705050780074633, 1.7226604263295557, 3.2213596545598464], 0.5, 0.5, 0.01, 0.1, 100)

2025-07-07 17:11:30,963 - gym_custom_envs_real_ur_drivers_URBasic_realTimeClientEvent - INFO - Program send to Robot:
servoj([0.24235362466271282, -1.477223498749212, -1.5339807878856409, -1.6705050780074633, 1.7241790657909217, 3.2213596545598464], 0.5, 0.5, 0.01, 0.1, 100)

2025-07-07 17:11:30,968 - gym_custom_envs_real_ur_drivers_URBasic_realTimeClientEvent - INFO - Program send to Robot:
servoj([0.2423688110876993, -1.4772234987340258, -1.5339807878856409, -1.6705050780074633, 1.7241942521855353, 3.2213596545598464], 0.5, 0.5, 0.01, 0.1, 100)

2025-07-07 17:11:30,987 - gym_custom_envs_real_ur_drivers_URBasic_realTimeClientEvent - INFO - Program send to Robot:
servoj([0.24236896295194915, -1.477223498733874, -1.5339807878856409, -1.6705050780074633, 1.7241944040494814, 3.2213596545598464], 0.5, 0.5, 0.01, 0.1, 100)

2025-07-07 17:11:30,991 - gym_custom_envs_real_ur_drivers_URBasic_realTimeClientEvent - INFO - Program send to Robot:
servoj([0.24236896447059167, -1.4772234987338724, -1.5354994288656478, -1.6705050780074633, 1.7241944055681209, 3.2213596545598464], 0.5, 0.5, 0.01, 0.1, 100)

2025-07-07 17:11:31,008 - gym_custom_envs_real_ur_drivers_URBasic_realTimeClientEvent - INFO - Program send to Robot:
servoj([0.24236896448577808, -1.4772234987338724, -1.5355146152754477, -1.6705050780074633, 1.7241944055833074, 3.2213596545598464], 0.5, 0.5, 0.01, 0.1, 100)

2025-07-07 17:11:31,015 - gym_custom_envs_real_ur_drivers_URBasic_realTimeClientEvent - INFO - Program send to Robot:
servoj([0.24236896448592996, -1.4772234987338724, -1.535514767139546, -1.6705050780074633, 1.7241944055834593, 3.2213596545598464], 0.5, 0.5, 0.01, 0.1, 100)

2025-07-07 17:11:31,028 - gym_custom_envs_real_ur_drivers_URBasic_realTimeClientEvent - INFO - Program send to Robot:
servoj([0.24236896448593148, -1.4772234987338724, -1.537033409638194, -1.6705050780074633, 1.7226757646034538, 3.2213596545598464], 0.5, 0.5, 0.01, 0.1, 100)

2025-07-07 17:11:31,040 - gym_custom_envs_real_ur_drivers_URBasic_realTimeClientEvent - INFO - Program send to Robot:
servoj([0.24236896448593148, -1.4772234987338724, -1.5370485960631803, -1.6705050780074633, 1.7226605781936537, 3.2213596545598464], 0.5, 0.5, 0.01, 0.1, 100)

2025-07-07 17:11:31,051 - gym_custom_envs_real_ur_drivers_URBasic_realTimeClientEvent - INFO - Program send to Robot:
servoj([0.24236896448593148, -1.4772234987338724, -1.5370487479274302, -1.6705050780074633, 1.7226604263295557, 3.2213596545598464], 0.5, 0.5, 0.01, 0.1, 100)

2025-07-07 17:11:31,056 - gym_custom_envs_real_ur_drivers_URBasic_realTimeClientEvent - INFO - Program send to Robot:
servoj([0.24236896448593148, -1.4772234987338724, -1.5370487494460727, -1.6705050780074633, 1.7226604248109147, 3.2213596545598464], 0.5, 0.5, 0.01, 0.1, 100)

2025-07-07 17:11:31,064 - gym_custom_envs_real_ur_drivers_URBasic_realTimeClientEvent - INFO - Program send to Robot:
servoj([0.24236896448593148, -1.4772234987338724, -1.537048749461259, -1.6705050780074633, 1.7226604247957282, 3.2213596545598464], 0.5, 0.5, 0.01, 0.1, 100)

2025-07-07 17:11:31,080 - gym_custom_envs_real_ur_drivers_URBasic_realTimeClientEvent - INFO - Program send to Robot:
servoj([0.24236896448593148, -1.4772234987338724, -1.537048749461411, -1.6705050780074633, 1.7226604247955764, 3.2213596545598464], 0.5, 0.5, 0.01, 0.1, 100)

2025-07-07 17:11:31,088 - gym_custom_envs_real_ur_drivers_URBasic_realTimeClientEvent - INFO - Program send to Robot:
servoj([0.24085032350592453, -1.4772234987338724, -1.5385673904414194, -1.6705050780074633, 1.7211417838155683, 3.2213596545598464], 0.5, 0.5, 0.01, 0.1, 100)

2025-07-07 17:11:31,099 - gym_custom_envs_real_ur_drivers_URBasic_realTimeClientEvent - INFO - Program send to Robot:
servoj([0.24083513709612447, -1.4772234987338724, -1.5385825768512196, -1.6705050780074633, 1.7211265974057681, 3.2213596545598464], 0.5, 0.5, 0.01, 0.1, 100)

2025-07-07 17:11:31,112 - gym_custom_envs_real_ur_drivers_URBasic_realTimeClientEvent - INFO - Program send to Robot:
servoj([0.24083498523202646, -1.4772234987338724, -1.5385827287153175, -1.6705050780074633, 1.7211264455416702, 3.2213596545598464], 0.5, 0.5, 0.01, 0.1, 100)

2025-07-07 17:11:31,124 - gym_custom_envs_real_ur_drivers_URBasic_realTimeClientEvent - INFO - Program send to Robot:
servoj([0.2408349837133855, -1.4772234987338724, -1.5401013712139655, -1.6705050780074633, 1.7196078030430222, 3.2213596545598464], 0.5, 0.5, 0.01, 0.1, 100)

2025-07-07 17:11:31,128 - gym_custom_envs_real_ur_drivers_URBasic_realTimeClientEvent - INFO - Program send to Robot:
servoj([0.24083498369819908, -1.4772234987338724, -1.540116557638952, -1.6705050780074633, 1.7195926166180358, 3.2213596545598464], 0.5, 0.5, 0.01, 0.1, 100)

2025-07-07 17:11:31,149 - gym_custom_envs_real_ur_drivers_URBasic_realTimeClientEvent - INFO - Program send to Robot:
servoj([0.23931634271804025, -1.4772234987338724, -1.5416353504832077, -1.6705050780074633, 1.7195924647537857, 3.2198410135798397], 0.5, 0.5, 0.01, 0.1, 100)

2025-07-07 17:11:31,160 - gym_custom_envs_real_ur_drivers_URBasic_realTimeClientEvent - INFO - Program send to Robot:
servoj([0.23930115630823867, -1.4772234987338724, -1.5416505384116503, -1.6705050780074633, 1.7195924632351434, 3.2198258271700397], 0.5, 0.5, 0.01, 0.1, 100)

2025-07-07 17:11:31,173 - gym_custom_envs_real_ur_drivers_URBasic_realTimeClientEvent - INFO - Program send to Robot:
servoj([0.23930100444414065, -1.4772234987338724, -1.5416506902909346, -1.6705050780074633, 1.7195924632199568, 3.219825675305942], 0.5, 0.5, 0.01, 0.1, 100)

2025-07-07 17:11:31,176 - gym_custom_envs_real_ur_drivers_URBasic_realTimeClientEvent - INFO - Program send to Robot:
servoj([0.23930100292549966, -1.4772234987338724, -1.5416506918097275, -1.6705050780074633, 1.719592463219805, 3.219825673787301], 0.5, 0.5, 0.01, 0.1, 100)

2025-07-07 17:11:31,197 - gym_custom_envs_real_ur_drivers_URBasic_realTimeClientEvent - INFO - Program send to Robot:
servoj([0.23930100291031325, -1.4772234987338724, -1.5416506918249155, -1.6705050780074633, 1.7180738222397973, 3.2183070327921075], 0.5, 0.5, 0.01, 0.1, 100)

2025-07-07 17:11:31,200 - gym_custom_envs_real_ur_drivers_URBasic_realTimeClientEvent - INFO - Program send to Robot:
servoj([0.2393010029101614, -1.4772234987338724, -1.5416506918250674, -1.6705050780074633, 1.7180586358299974, 3.2182918463821557], 0.5, 0.5, 0.01, 0.1, 100)

2025-07-07 17:11:31,221 - gym_custom_envs_real_ur_drivers_URBasic_realTimeClientEvent - INFO - Program send to Robot:
servoj([0.23778236193015337, -1.4772234987338724, -1.5431693328050757, -1.6705050780074633, 1.7165398429858922, 3.219810335498063], 0.5, 0.5, 0.01, 0.1, 100)

2025-07-07 17:11:31,224 - gym_custom_envs_real_ur_drivers_URBasic_realTimeClientEvent - INFO - Program send to Robot:
servoj([0.23776717552035329, -1.4772234987338724, -1.5431845192148759, -1.6705050780074633, 1.7165246550574513, 3.219825520389222], 0.5, 0.5, 0.01, 0.1, 100)

2025-07-07 17:11:31,239 - gym_custom_envs_real_ur_drivers_URBasic_realTimeClientEvent - INFO - Program send to Robot:
servoj([0.2377670236562553, -1.4772234987338724, -1.5431846710789738, -1.6705050780074633, 1.7165245031781668, 3.2198256722381338], 0.5, 0.5, 0.01, 0.1, 100)

2025-07-07 17:11:31,247 - gym_custom_envs_real_ur_drivers_URBasic_realTimeClientEvent - INFO - Program send to Robot:
servoj([0.2377670221376143, -1.4772234987338724, -1.5431846725976148, -1.6689864370274565, 1.715005860679367, 3.218307032776616], 0.5, 0.5, 0.01, 0.1, 100)

2025-07-07 17:11:31,264 - gym_custom_envs_real_ur_drivers_URBasic_realTimeClientEvent - INFO - Program send to Robot:
servoj([0.2377670221224279, -1.4772234987338724, -1.5431846726128013, -1.6689712506176566, 1.714990674254379, 3.2182918463820007], 0.5, 0.5, 0.01, 0.1, 100)

2025-07-07 17:11:31,280 - gym_custom_envs_real_ur_drivers_URBasic_realTimeClientEvent - INFO - Program send to Robot:
servoj([0.22865517624223528, -1.4787421397138794, -1.5416660316329462, -1.6644151758135382, 1.7134718814101222, 3.2122171305980274], 0.5, 0.5, 0.01, 0.1, 100)

2025-07-07 17:11:31,288 - gym_custom_envs_real_ur_drivers_URBasic_realTimeClientEvent - INFO - Program send to Robot:
servoj([0.22856405778343333, -1.4787573261236795, -1.5416508452231477, -1.664369615065497, 1.7134566934816797, 3.212156383440188], 0.5, 0.5, 0.01, 0.1, 100)

2025-07-07 17:11:31,295 - gym_custom_envs_real_ur_drivers_URBasic_realTimeClientEvent - INFO - Program send to Robot:
servoj([0.22856314659884533, -1.4787574779877775, -1.5416506933590497, -1.6643691594580166, 1.7134565416023952, 3.2121557759686095], 0.5, 0.5, 0.01, 0.1, 100)

2025-07-07 17:11:31,312 - gym_custom_envs_real_ur_drivers_URBasic_realTimeClientEvent - INFO - Program send to Robot:
servoj([0.2118580867069248, -1.4833134024464385, -1.535576127920382, -1.649182745101874, 1.7089006171435825, 3.1969693600938256], 0.5, 0.5, 0.01, 0.1, 100)

2025-07-07 17:11:31,319 - gym_custom_envs_real_ur_drivers_URBasic_realTimeClientEvent - INFO - Program send to Robot:
servoj([0.2116910361080056, -1.483358961691025, -1.5355153822659953, -1.6490308809583125, 1.7088550578989945, 3.1968174959350777], 0.5, 0.5, 0.01, 0.1, 100)

2025-07-07 17:11:31,336 - gym_custom_envs_real_ur_drivers_URBasic_realTimeClientEvent - INFO - Program send to Robot:
servoj([0.2116893656020164, -1.483359417283471, -1.5355147748094513, -1.6490293623168768, 1.7088546023065485, 3.1968159772934905], 0.5, 0.5, 0.01, 0.1, 100)

2025-07-07 17:11:31,343 - gym_custom_envs_real_ur_drivers_URBasic_realTimeClientEvent - INFO - Program send to Robot:
servoj([0.18739109321684805, -1.49550854967945, -1.527921563834852, -1.6262497324303606, 1.704298674810603, 3.174036347406972], 0.5, 0.5, 0.01, 0.1, 100)

2025-07-07 17:11:31,360 - gym_custom_envs_real_ur_drivers_URBasic_realTimeClientEvent - INFO - Program send to Robot:
servoj([0.18714811049299637, -1.4956300410034098, -1.5278456317251061, -1.6260219361314954, 1.7042531155356437, 3.173808551108107], 0.5, 0.5, 0.01, 0.1, 100)

2025-07-07 17:11:31,376 - gym_custom_envs_real_ur_drivers_URBasic_realTimeClientEvent - INFO - Program send to Robot:
servoj([0.15981014302563548, -1.510817665716717, -1.5202516675039748, -1.6002027615083916, 1.702734018962887, 3.151026658445017], 0.5, 0.5, 0.01, 0.1, 100)

2025-07-07 17:11:31,384 - gym_custom_envs_real_ur_drivers_URBasic_realTimeClientEvent - INFO - Program send to Robot:
servoj([0.15953676335096187, -1.51096954196385, -1.5201757278617636, -1.5999445697621604, 1.7027188279971595, 3.150798839518386], 0.5, 0.5, 0.01, 0.1, 100)

2025-07-07 17:11:31,392 - gym_custom_envs_real_ur_drivers_URBasic_realTimeClientEvent - INFO - Program send to Robot:
servoj([0.15953402955421514, -1.5109710607263214, -1.5201749684653414, -1.599941987844698, 1.7027186760875022, 3.15079656132912], 0.5, 0.5, 0.01, 0.1, 100)

2025-07-07 17:11:31,400 - gym_custom_envs_real_ur_drivers_URBasic_realTimeClientEvent - INFO - Program send to Robot:
servoj([0.15953400221624767, -1.510971075913946, -1.5201749608713773, -1.5999419620255235, 1.7027186745684058, 3.150796538547227], 0.5, 0.5, 0.01, 0.1, 100)

2025-07-07 17:11:31,415 - gym_custom_envs_real_ur_drivers_URBasic_realTimeClientEvent - INFO - Program send to Robot:
servoj([0.12460525940271223, -1.5231202039058769, -1.5171376788354236, -1.5741250651072165, 1.7042373155332218, 3.128016923619307], 0.5, 0.5, 0.01, 0.1, 100)

2025-07-07 17:11:31,423 - gym_custom_envs_real_ur_drivers_URBasic_realTimeClientEvent - INFO - Program send to Robot:
servoj([0.12425597197457687, -1.523241695185796, -1.5171073060150642, -1.5738668961380333, 1.7042525019428698, 3.127789127470028], 0.5, 0.5, 0.01, 0.1, 100)

2025-07-07 17:11:31,431 - gym_custom_envs_real_ur_drivers_URBasic_realTimeClientEvent - INFO - Program send to Robot:
servoj([0.12425247910029552, -1.5232429100985954, -1.5171070022868605, -1.5738643144483415, 1.7042526538069664, 3.127786849508535], 0.5, 0.5, 0.01, 0.1, 100)

2025-07-07 17:11:31,439 - gym_custom_envs_real_ur_drivers_URBasic_realTimeClientEvent - INFO - Program send to Robot:
servoj([0.08476777869137611, -1.5308361271477573, -1.5140697172895654, -1.5465287509913226, 1.7042526553256072, 3.1065258530088244], 0.5, 0.5, 0.01, 0.1, 100)

2025-07-07 17:11:31,455 - gym_custom_envs_real_ur_drivers_URBasic_realTimeClientEvent - INFO - Program send to Robot:
servoj([0.08437293168728692, -1.5309120593182488, -1.5140393444395923, -1.5462553953567524, 1.7042526553407937, 3.1063132430438274], 0.5, 0.5, 0.01, 0.1, 100)

2025-07-07 17:11:31,463 - gym_custom_envs_real_ur_drivers_URBasic_realTimeClientEvent - INFO - Program send to Robot:
servoj([0.08436898321724604, -1.5309128186399539, -1.5140390407110926, -1.5462526618004067, 1.7042526553409456, 3.1063111169441773], 0.5, 0.5, 0.01, 0.1, 100)

2025-07-07 17:11:31,479 - gym_custom_envs_real_ur_drivers_URBasic_realTimeClientEvent - INFO - Program send to Robot:
servoj([0.05551476511241675, -1.5400246721132116, -1.509483114733787, -1.5189170968247212, 1.7042526553409472, 3.085050121963086], 0.5, 0.5, 0.01, 0.1, 100)

2025-07-07 17:11:31,496 - gym_custom_envs_real_ur_drivers_URBasic_realTimeClientEvent - INFO - Program send to Robot:
servoj([0.05522622293136845, -1.5401157906479441, -1.5094375554740138, -1.5186437411749643, 1.7042526553409472, 3.084837512013275], 0.5, 0.5, 0.01, 0.1, 100)

2025-07-07 17:11:31,504 - gym_custom_envs_real_ur_drivers_URBasic_realTimeClientEvent - INFO - Program send to Robot:
servoj([0.036999645749476395, -1.5522658296733456, -1.5033625359613891, -1.4913054699783443, 1.7042526553409472, 3.066611694153696], 0.5, 0.5, 0.01, 0.1, 100)

2025-07-07 17:11:31,512 - gym_custom_envs_real_ur_drivers_URBasic_realTimeClientEvent - INFO - Program send to Robot:
servoj([0.03681737997765747, -1.5523873300635995, -1.503301785766263, -1.4910320872663783, 1.7042526553409472, 3.0664294359751], 0.5, 0.5, 0.01, 0.1, 100)

2025-07-07 17:11:31,520 - gym_custom_envs_real_ur_drivers_URBasic_realTimeClientEvent - INFO - Program send to Robot:
servoj([0.03681555731993929, -1.5523885450675021, -1.5033011782643115, -1.4910293534392585, 1.7042526553409472, 3.066427613393314], 0.5, 0.5, 0.01, 0.1, 100)

2025-07-07 17:11:31,536 - gym_custom_envs_real_ur_drivers_URBasic_realTimeClientEvent - INFO - Program send to Robot:
servoj([0.023147770273301362, -1.5615004030975816, -1.5017825312092852, -1.471286993360899, 1.7042526553409472, 3.0497225443874214], 0.5, 0.5, 0.01, 0.1, 100)

2025-07-07 17:11:31,543 - gym_custom_envs_real_ur_drivers_URBasic_realTimeClientEvent - INFO - Program send to Robot:
servoj([0.023011092402834984, -1.5615915216778826, -1.501767344738735, -1.4710895697601154, 1.7042526553409472, 3.0495554936973623], 0.5, 0.5, 0.01, 0.1, 100)

2025-07-07 17:11:31,552 - gym_custom_envs_real_ur_drivers_URBasic_realTimeClientEvent - INFO - Program send to Robot:
servoj([0.02300972562413032, -1.5615924328636854, -1.5017671928740295, -1.4710875955241076, 1.7042526553409472, 3.049553823190462], 0.5, 0.5, 0.01, 0.1, 100)

2025-07-07 17:11:31,559 - gym_custom_envs_real_ur_drivers_URBasic_realTimeClientEvent - INFO - Program send to Robot:
servoj([0.023009711956343274, -1.5615924419755436, -1.5017671913553823, -1.4710875757817474, 1.7042526553409472, 3.0495538064853926], 0.5, 0.5, 0.01, 0.1, 100)

2025-07-07 17:11:31,575 - gym_custom_envs_real_ur_drivers_URBasic_realTimeClientEvent - INFO - Program send to Robot:
servoj([0.006304661039590771, -1.5661483650066825, -1.5017671913401958, -1.455901165784256, 1.7027340143609402, 3.035886037498281], 0.5, 0.5, 0.01, 0.1, 100)

2025-07-07 17:11:31,584 - gym_custom_envs_real_ur_drivers_URBasic_realTimeClientEvent - INFO - Program send to Robot:
servoj([0.006137610530423246, -1.566193924236994, -1.5017671913400439, -1.4557493016842813, 1.70271882795114, 3.0357493598084098], 0.5, 0.5, 0.01, 0.1, 100)

2025-07-07 17:11:31,592 - gym_custom_envs_real_ur_drivers_URBasic_realTimeClientEvent - INFO - Program send to Robot:
servoj([0.0061359400253315705, -1.5661943798292972, -1.5017671913400426, -1.4557477830432815, 1.702718676087042, 3.035747993031511], 0.5, 0.5, 0.01, 0.1, 100)

2025-07-07 17:11:31,600 - gym_custom_envs_real_ur_drivers_URBasic_realTimeClientEvent - INFO - Program send to Robot:
servoj([-0.012087768439800922, -1.5661943843852202, -1.5017671913400426, -1.4451172809968242, 1.702718674568401, 3.0266361334837013], 0.5, 0.5, 0.01, 0.1, 100)

2025-07-07 17:11:31,617 - gym_custom_envs_real_ur_drivers_URBasic_realTimeClientEvent - INFO - Program send to Robot:
servoj([-0.012270005524452246, -1.5661943844307793, -1.5017671913400426, -1.4450109759763596, 1.7027186745532146, 3.026545014888223], 0.5, 0.5, 0.01, 0.1, 100)

2025-07-07 17:11:31,623 - gym_custom_envs_real_ur_drivers_URBasic_realTimeClientEvent - INFO - Program send to Robot:
servoj([-0.01227182789529876, -1.566194384431235, -1.5017671913400426, -1.4450099129261549, 1.7027186745530627, 3.0265441037022685], 0.5, 0.5, 0.01, 0.1, 100)

2025-07-07 17:11:31,632 - gym_custom_envs_real_ur_drivers_URBasic_realTimeClientEvent - INFO - Program send to Robot:
servoj([-0.032014178859095306, -1.5677130254112464, -1.5017671913400426, -1.435898056415612, 1.7027186745530614, 3.0189508896903754], 0.5, 0.5, 0.01, 0.1, 100)

2025-07-07 17:11:31,648 - gym_custom_envs_real_ur_drivers_URBasic_realTimeClientEvent - INFO - Program send to Robot:
servoj([-0.03221160236873327, -1.5677282118210465, -1.5017671913400426, -1.4358069378505067, 1.7027186745530614, 3.0188749575502563], 0.5, 0.5, 0.01, 0.1, 100)

2025-07-07 17:11:31,656 - gym_custom_envs_real_ur_drivers_URBasic_realTimeClientEvent - INFO - Program send to Robot:
servoj([-0.032213576603829654, -1.5677283636851445, -1.5017671913400426, -1.4358060266648556, 1.7027186745530614, 3.018874198228855], 0.5, 0.5, 0.01, 0.1, 100)

2025-07-07 17:11:31,664 - gym_custom_envs_real_ur_drivers_URBasic_realTimeClientEvent - INFO - Program send to Robot:
servoj([-0.051955929086269136, -1.5677283652037854, -1.5017671913400426, -1.4297314536329722, 1.7027186745530614, 3.01431826769562], 0.5, 0.5, 0.01, 0.1, 100)

2025-07-07 17:11:31,672 - gym_custom_envs_real_ur_drivers_URBasic_realTimeClientEvent - INFO - Program send to Robot:
servoj([-0.05215335261109353, -1.5677283652189717, -1.5017671913400426, -1.4296707079026532, 1.7027186745530614, 3.014272708390288], 0.5, 0.5, 0.01, 0.1, 100)

2025-07-07 17:11:31,687 - gym_custom_envs_real_ur_drivers_URBasic_realTimeClientEvent - INFO - Program send to Robot:
servoj([-0.052155326846341776, -1.5677283652191236, -1.5017671913400426, -1.42967010044535, 1.7027186745530614, 3.0142722527972348], 0.5, 0.5, 0.01, 0.1, 100)

2025-07-07 17:11:31,695 - gym_custom_envs_real_ur_drivers_URBasic_realTimeClientEvent - INFO - Program send to Robot:
servoj([-0.06430447442874848, -1.5677283652191252, -1.5017671913400426, -1.4235955304507497, 1.7012000335730555, 3.0097163253012837], 0.5, 0.5, 0.01, 0.1, 100)

2025-07-07 17:11:31,703 - gym_custom_envs_real_ur_drivers_URBasic_realTimeClientEvent - INFO - Program send to Robot:
servoj([-0.06442596590457256, -1.5677283652191252, -1.5017671913400426, -1.4235347847508037, 1.7011848471632554, 3.0096707660263244], 0.5, 0.5, 0.01, 0.1, 100)

2025-07-07 17:11:31,712 - gym_custom_envs_real_ur_drivers_URBasic_realTimeClientEvent - INFO - Program send to Robot:
servoj([-0.0644271808193308, -1.5677283652191252, -1.5017671913400426, -1.4235341772938044, 1.7011846952991574, 3.0096703104335747], 0.5, 0.5, 0.01, 0.1, 100)

2025-07-07 17:11:31,728 - gym_custom_envs_real_ur_drivers_URBasic_realTimeClientEvent - INFO - Program send to Robot:
servoj([-0.07353903884851917, -1.5677283652191252, -1.5017671913400426, -1.4220155302392272, 1.7011846937805164, 3.008151664897641], 0.5, 0.5, 0.01, 0.1, 100)

2025-07-07 17:11:31,736 - gym_custom_envs_real_ur_drivers_URBasic_realTimeClientEvent - INFO - Program send to Robot:
servoj([-0.07363015742881106, -1.5677283652191252, -1.5017671913400426, -1.4220003437686815, 1.7011846937653299, 3.0081364784422817], 0.5, 0.5, 0.01, 0.1, 100)

2025-07-07 17:11:31,743 - gym_custom_envs_real_ur_drivers_URBasic_realTimeClientEvent - INFO - Program send to Robot:
servoj([-0.07363106861461398, -1.5677283652191252, -1.5017671913400426, -1.4220001919039762, 1.701184693765178, 3.008136326577728], 0.5, 0.5, 0.01, 0.1, 100)

2025-07-07 17:11:31,751 - gym_custom_envs_real_ur_drivers_URBasic_realTimeClientEvent - INFO - Program send to Robot:
servoj([-0.07363107772647201, -1.5677283652191252, -1.5017671913400426, -1.422000190385329, 1.7011846937651767, 3.0081363250590827], 0.5, 0.5, 0.01, 0.1, 100)

2025-07-07 17:11:31,767 - gym_custom_envs_real_ur_drivers_URBasic_realTimeClientEvent - INFO - Program send to Robot:
servoj([-0.08122428271762441, -1.5677283652191252, -1.5063231142800635, -1.4220001903701425, 1.7011846937651764, 3.008136325043896], 0.5, 0.5, 0.01, 0.1, 100)

2025-07-07 17:11:31,775 - gym_custom_envs_real_ur_drivers_URBasic_realTimeClientEvent - INFO - Program send to Robot:
servoj([-0.08130021476753595, -1.5677283652191252, -1.5063686735094637, -1.4220001903699908, 1.7011846937651764, 3.0081363250437443], 0.5, 0.5, 0.01, 0.1, 100)

2025-07-07 17:11:31,784 - gym_custom_envs_real_ur_drivers_URBasic_realTimeClientEvent - INFO - Program send to Robot:
servoj([-0.08130097408803506, -1.5677283652191252, -1.5063691291017576, -1.4220001903699893, 1.7011846937651764, 3.0081363250437425], 0.5, 0.5, 0.01, 0.1, 100)

2025-07-07 17:11:31,792 - gym_custom_envs_real_ur_drivers_URBasic_realTimeClientEvent - INFO - Program send to Robot:
servoj([-0.09041282756128084, -1.5677283652191252, -1.5094064156176936, -1.4220001903699893, 1.7011846937651764, 3.0081363250437425], 0.5, 0.5, 0.01, 0.1, 100)

2025-07-07 17:11:31,807 - gym_custom_envs_real_ur_drivers_URBasic_realTimeClientEvent - INFO - Program send to Robot:
servoj([-0.09050394609601331, -1.5677283652191252, -1.509436788482853, -1.4220001903699893, 1.7011846937651764, 3.0081363250437425], 0.5, 0.5, 0.01, 0.1, 100)

2025-07-07 17:11:31,815 - gym_custom_envs_real_ur_drivers_URBasic_realTimeClientEvent - INFO - Program send to Robot:
servoj([-0.09050485728136062, -1.5677283652191252, -1.5094370922115046, -1.4220001903699893, 1.7011846937651764, 3.0081363250437425], 0.5, 0.5, 0.01, 0.1, 100)

2025-07-07 17:11:31,823 - gym_custom_envs_real_ur_drivers_URBasic_realTimeClientEvent - INFO - Program send to Robot:
servoj([-0.10417263521327484, -1.5677283652191252, -1.5109557362287978, -1.4235188313499962, 1.7042219757251893, 3.0081363250437425], 0.5, 0.5, 0.01, 0.1, 100)

2025-07-07 17:11:31,840 - gym_custom_envs_real_ur_drivers_URBasic_realTimeClientEvent - INFO - Program send to Robot:
servoj([-0.10430931299259398, -1.5677283652191252, -1.5109709226689707, -1.4235340177597962, 1.7042523485447896, 3.0081363250437425], 0.5, 0.5, 0.01, 0.1, 100)

2025-07-07 17:11:31,856 - gym_custom_envs_real_ur_drivers_URBasic_realTimeClientEvent - INFO - Program send to Robot:
servoj([-0.1194970895704553, -1.5677283652191252, -1.5124897155133794, -1.4235341696238941, 1.7057712932529925, 3.0081363250437425], 0.5, 0.5, 0.01, 0.1, 100)

2025-07-07 17:11:31,864 - gym_custom_envs_real_ur_drivers_URBasic_realTimeClientEvent - INFO - Program send to Robot:
servoj([-0.11964896733623391, -1.5677283652191252, -1.5125049034418236, -1.423534171142535, 1.7057864827000746, 3.0081363250437425], 0.5, 0.5, 0.01, 0.1, 100)

2025-07-07 17:11:31,872 - gym_custom_envs_real_ur_drivers_URBasic_realTimeClientEvent - INFO - Program send to Robot:
servoj([-0.1196504861138917, -1.5677283652191252, -1.5125050553211081, -1.4235341711577216, 1.7057866345945454, 3.0081363250437425], 0.5, 0.5, 0.01, 0.1, 100)

2025-07-07 17:11:31,880 - gym_custom_envs_real_ur_drivers_URBasic_realTimeClientEvent - INFO - Program send to Robot:
servoj([-0.11965050130166827, -1.5677283652191252, -1.5125050568399008, -1.4235341711578735, 1.7057866361134901, 3.0081363250437425], 0.5, 0.5, 0.01, 0.1, 100)

2025-07-07 17:11:31,895 - gym_custom_envs_real_ur_drivers_URBasic_realTimeClientEvent - INFO - Program send to Robot:
servoj([-0.1333182702736068, -1.5677283652191252, -1.5140236978350958, -1.423534171157875, 1.7042679951486726, 3.0066176840637353], 0.5, 0.5, 0.01, 0.1, 100)

2025-07-07 17:11:31,903 - gym_custom_envs_real_ur_drivers_URBasic_realTimeClientEvent - INFO - Program send to Robot:
servoj([-0.1334549479633262, -1.5677283652191252, -1.5140388842450476, -1.423534171157875, 1.7042528087390243, 3.0066024976539354], 0.5, 0.5, 0.01, 0.1, 100)

2025-07-07 17:11:31,911 - gym_custom_envs_real_ur_drivers_URBasic_realTimeClientEvent - INFO - Program send to Robot:
servoj([-0.13345631474022338, -1.5677283652191252, -1.5140390361091471, -1.423534171157875, 1.7042526568749279, 3.006602345789837], 0.5, 0.5, 0.01, 0.1, 100)

2025-07-07 17:11:31,919 - gym_custom_envs_real_ur_drivers_URBasic_realTimeClientEvent - INFO - Program send to Robot:
servoj([-0.14408681526804007, -1.5677283652191252, -1.5170763195878012, -1.4250528121378818, 1.704252655356287, 3.0050837032911897], 0.5, 0.5, 0.01, 0.1, 100)

2025-07-07 17:11:31,936 - gym_custom_envs_real_ur_drivers_URBasic_realTimeClientEvent - INFO - Program send to Robot:
servoj([-0.14419312027331824, -1.5677283652191252, -1.5171066924225878, -1.4250679985476817, 1.7042526553411006, 3.0050685168662032], 0.5, 0.5, 0.01, 0.1, 100)

2025-07-07 17:11:31,944 - gym_custom_envs_real_ur_drivers_URBasic_realTimeClientEvent - INFO - Program send to Robot:
servoj([-0.144194183323371, -1.5677283652191252, -1.5171069961509358, -1.42506815041178, 1.7042526553409487, 3.005068365001953], 0.5, 0.5, 0.01, 0.1, 100)

2025-07-07 17:11:31,953 - gym_custom_envs_real_ur_drivers_URBasic_realTimeClientEvent - INFO - Program send to Robot:
servoj([-0.15330603983391233, -1.5662097242391184, -1.5216629221282398, -1.425068151930421, 1.7042526553409472, 3.0035497225033034], 0.5, 0.5, 0.01, 0.1, 100)

2025-07-07 17:11:31,959 - gym_custom_envs_real_ur_drivers_URBasic_realTimeClientEvent - INFO - Program send to Robot:
servoj([-0.15339715839901774, -1.5661945378293183, -1.5217084813880128, -1.4250681519456072, 1.7042526553409472, 3.003534536078317], 0.5, 0.5, 0.01, 0.1, 100)

2025-07-07 17:11:31,977 - gym_custom_envs_real_ur_drivers_URBasic_realTimeClientEvent - INFO - Program send to Robot:
servoj([-0.1533980695846688, -1.5661943859652203, -1.5217089369806107, -1.425068151945759, 1.7042526553409472, 3.0035343842140674], 0.5, 0.5, 0.01, 0.1, 100)

2025-07-07 17:11:31,983 - gym_custom_envs_real_ur_drivers_URBasic_realTimeClientEvent - INFO - Program send to Robot:
servoj([-0.1594726426165522, -1.5646757434665726, -1.5247462234965496, -1.4265867929257674, 1.7042526553409472, 3.000497100735412], 0.5, 0.5, 0.01, 0.1, 100)

2025-07-07 17:11:31,994 - gym_custom_envs_real_ur_drivers_URBasic_realTimeClientEvent - INFO - Program send to Robot:
servoj([-0.15953338834687103, -1.5646605570415861, -1.524776596361709, -1.4266019793355675, 1.7042526553409472, 3.0004667279006254], 0.5, 0.5, 0.01, 0.1, 100)

2025-07-07 17:11:32,008 - gym_custom_envs_real_ur_drivers_URBasic_realTimeClientEvent - INFO - Program send to Robot:
servoj([-0.15953399580417424, -1.5646604051773363, -1.5247769000903608, -1.4266021311996655, 1.7042526553409472, 3.0004664241722776], 0.5, 0.5, 0.01, 0.1, 100)

2025-07-07 17:11:32,018 - gym_custom_envs_real_ur_drivers_URBasic_realTimeClientEvent - INFO - Program send to Robot:
