2025-07-07 17:22:00,389 - gym_custom_envs_real_ur_drivers_URBasic_robotModelEvent - INFO - Init done
2025-07-07 17:22:00,890 - gym_custom_envs_real_ur_drivers_URBasic_realTimeClientEvent - INFO - Connected
2025-07-07 17:22:00,890 - gym_custom_envs_real_ur_drivers_URBasic_realTimeClientEvent - INFO - RT_CLient constructor done
2025-07-07 17:22:00,892 - gym_custom_envs_real_ur_drivers_URBasic_dataLogEvent - INFO - Data logging (not event logging) is disabled
2025-07-07 17:22:00,892 - gym_custom_envs_real_ur_drivers_URBasic_dataLogEvent - INFO - DataLog constructor done
2025-07-07 17:22:00,893 - gym_custom_envs_real_ur_drivers_URBasic_dataLogEvent - INFO - DataLog is stopped
2025-07-07 17:22:00,893 - gym_custom_envs_real_ur_drivers_URBasic_rtdeEvent - INFO - RTDE constructor done
2025-07-07 17:22:01,319 - gym_custom_envs_real_ur_drivers_URBasic_rtdeEvent - INFO - Controller version: 3.3.1-60
2025-07-07 17:22:01,322 - gym_custom_envs_real_ur_drivers_URBasic_rtdeEvent - INFO - RTDE started
2025-07-07 17:22:01,395 - gym_custom_envs_real_ur_drivers_URBasic_dashboardEvent - INFO - Connected
2025-07-07 17:22:01,396 - gym_custom_envs_real_ur_drivers_URBasic_dashboardEvent - INFO - UR Dashboard respond Connected: Universal Robots Dashboard Server
2025-07-07 17:22:01,396 - gym_custom_envs_real_ur_drivers_URBasic_dashboardEvent - INFO - Dashboard server constructor done
2025-07-07 17:22:01,396 - gym_custom_envs_real_ur_drivers_URBasic_robotConnectorEvent - INFO - Init done
2025-07-07 17:22:01,397 - gym_custom_envs_real_ur_drivers_URBasic_urScriptEvent - INFO - Init done!!!
2025-07-07 17:22:01,410 - gym_custom_envs_real_ur_drivers_URBasic_urScriptExtEvent - INFO - Init done
2025-07-07 17:22:03,000 - gym_custom_envs_real_ur_interfaceEvent - INFO - [] init done
2025-07-07 17:22:03,000 - gym_custom_envs_real_ur_drivers_URBasic_realTimeClientEvent - INFO - Program send to Robot:
end_freedrive_mode()

2025-07-07 17:22:06,050 - gym_custom_envs_real_ur_drivers_URBasic_realTimeClientEvent - INFO - Program send to Robot:
servoj([-0.08108665147890264, -1.609427570787839, -1.5562240476558507, -1.519524447717646, 1.6748979921140896, 3.030265924568295], 0.5, 0.5, 0.04, 0.05, 300)

2025-07-07 17:22:06,066 - gym_custom_envs_real_ur_drivers_URBasic_realTimeClientEvent - INFO - Program send to Robot:
servoj([-0.08108665147890264, -1.6094531255632338, -1.556347464853065, -1.5194138642545032, 1.6756169638444045, 3.030585969263981], 0.5, 0.5, 0.04, 0.05, 300)

2025-07-07 17:22:06,081 - gym_custom_envs_real_ur_drivers_URBasic_realTimeClientEvent - INFO - Program send to Robot:
servoj([-0.08107473054994756, -1.60945374072222, -1.5563753174423902, -1.5193940453259847, 1.6756613914451741, 3.030627367617641], 0.5, 0.5, 0.04, 0.05, 300)

2025-07-07 17:22:06,098 - gym_custom_envs_real_ur_drivers_URBasic_realTimeClientEvent - INFO - Program send to Robot:
servoj([-0.08106280962099248, -1.60945401475562, -1.5563585881998165, -1.5194362808436264, 1.6751956685940428, 3.030604016328827], 0.5, 0.5, 0.04, 0.05, 300)

2025-07-07 17:22:06,113 - gym_custom_envs_real_ur_drivers_URBasic_realTimeClientEvent - INFO - Program send to Robot:
servoj([-0.08107473054994756, -1.6094709124604714, -1.5563492316254077, -1.5194115438964046, 1.6752234611494548, 3.030558044897594], 0.5, 0.5, 0.04, 0.05, 300)

2025-07-07 17:22:06,130 - gym_custom_envs_real_ur_drivers_URBasic_realTimeClientEvent - INFO - Program send to Robot:
servoj([-0.08109857240785771, -1.6099125691912277, -1.5563476864016526, -1.5194049887139451, 1.675218490927828, 3.0305782102851104], 0.5, 0.5, 0.04, 0.05, 300)

2025-07-07 17:22:06,146 - gym_custom_envs_real_ur_drivers_URBasic_realTimeClientEvent - INFO - Program send to Robot:
servoj([-0.08106280962099248, -1.6098833787756772, -1.5563500043934653, -1.5193930178278612, 1.6752086289263641, 3.030586848887844], 0.5, 0.5, 0.04, 0.05, 300)

2025-07-07 17:22:06,162 - gym_custom_envs_real_ur_drivers_URBasic_realTimeClientEvent - INFO - Program send to Robot:
servoj([-0.08109857240785771, -1.609466354377995, -1.5562845545429131, -1.5195241617632589, 1.6748986868351714, 3.0302059303557374], 0.5, 0.5, 0.04, 0.05, 300)

2025-07-07 17:22:06,178 - gym_custom_envs_real_ur_drivers_URBasic_realTimeClientEvent - INFO - Program send to Robot:
servoj([-0.08107473054994756, -1.609419269983147, -1.5562678803417382, -1.5195323948128252, 1.6748917470902878, 3.030190588529023], 0.5, 0.5, 0.04, 0.05, 300)

2025-07-07 17:22:06,194 - gym_custom_envs_real_ur_drivers_URBasic_realTimeClientEvent - INFO - Program send to Robot:
servoj([-0.08108665147890264, -1.609822825707332, -1.5562498860287048, -1.5195506303747162, 1.674906605184136, 3.0301877210865795], 0.5, 0.5, 0.04, 0.05, 300)

2025-07-07 17:22:06,209 - gym_custom_envs_real_ur_drivers_URBasic_realTimeClientEvent - INFO - Program send to Robot:
servoj([-0.08109857240785771, -1.6098529285366387, -1.5562663524241676, -1.51955162814653, 1.6748782578895327, 3.0301762767529623], 0.5, 0.5, 0.04, 0.05, 300)

2025-07-07 17:22:06,225 - gym_custom_envs_real_ur_drivers_URBasic_realTimeClientEvent - INFO - Program send to Robot:
servoj([-0.08108665147890264, -1.6094490528207703, -1.5562843369644748, -1.519524447717633, 1.6748633688254595, 3.0301791079639266], 0.5, 0.5, 0.04, 0.05, 300)

2025-07-07 17:22:06,242 - gym_custom_envs_real_ur_drivers_URBasic_realTimeClientEvent - INFO - Program send to Robot:
servoj([-0.08107473054994756, -1.6094192665604792, -1.5562678705726911, -1.519523450606348, 1.6748831033736966, 3.0301905520926113], 0.5, 0.5, 0.04, 0.05, 300)

2025-07-07 17:22:06,266 - gym_custom_envs_real_ur_drivers_URBasic_realTimeClientEvent - INFO - Program send to Robot:
servoj([-0.08107473054994756, -1.609445062036618, -1.5562678705726911, -1.5195496327263647, 1.6748917159131753, 3.030216561961838], 0.5, 0.5, 0.04, 0.05, 300)

2025-07-07 17:22:06,282 - gym_custom_envs_real_ur_drivers_URBasic_realTimeClientEvent - INFO - Program send to Robot:
servoj([-0.08107473054994756, -1.6094192239967577, -1.5562506454937328, -1.5195410201868855, 1.6744529395818226, 3.0302427440818547], 0.5, 0.5, 0.04, 0.05, 300)

2025-07-07 17:22:06,298 - gym_custom_envs_real_ur_drivers_URBasic_realTimeClientEvent - INFO - Program send to Robot:
servoj([-0.08107473054994756, -1.6094278365320227, -1.5562420329542537, -1.5195496327263647, 1.6744574235954264, 3.030225174501317], 0.5, 0.5, 0.04, 0.05, 300)

2025-07-07 17:22:06,314 - gym_custom_envs_real_ur_drivers_URBasic_realTimeClientEvent - INFO - Program send to Robot:
servoj([-0.08106280962099248, -1.609445326952403, -1.55626862979813, -1.5195486348175782, 1.6748898818393827, 3.030254186820798], 0.5, 0.5, 0.04, 0.05, 300)

2025-07-07 17:22:06,330 - gym_custom_envs_real_ur_drivers_URBasic_realTimeClientEvent - INFO - Program send to Robot:
servoj([-0.08109857240785771, -1.6094186921016218, -1.5562491264687133, -1.5195344021933361, 1.6748868283013092, 3.0302109009178193], 0.5, 0.5, 0.04, 0.05, 300)

2025-07-07 17:22:06,346 - gym_custom_envs_real_ur_drivers_URBasic_realTimeClientEvent - INFO - Program send to Robot:
servoj([-0.08111049333681279, -1.609865647278545, -1.5562483671069394, -1.5195526256605287, 1.6748844483940826, 3.0302602669257825], 0.5, 0.5, 0.04, 0.05, 300)

2025-07-07 17:22:06,361 - gym_custom_envs_real_ur_drivers_URBasic_realTimeClientEvent - INFO - Program send to Robot:
servoj([-0.08112241426576787, -1.609869567739051, -1.556256221260512, -1.5195363962115067, 1.6748734136770007, 3.0302224682014844], 0.5, 0.5, 0.04, 0.05, 300)

2025-07-07 17:22:06,378 - gym_custom_envs_real_ur_drivers_URBasic_realTimeClientEvent - INFO - Program send to Robot:
servoj([-0.08111049333681279, -1.6098440636432811, -1.5562483671069394, -1.5195178283483848, 1.6748844488196353, 3.030268880121858], 0.5, 0.5, 0.04, 0.05, 300)

2025-07-07 17:22:06,394 - gym_custom_envs_real_ur_drivers_URBasic_realTimeClientEvent - INFO - Program send to Robot:
servoj([-0.08106280962099248, -1.609862465149065, -1.5562514051570184, -1.5195138410425326, 1.6748855265982907, 3.0302366176868643], 0.5, 0.5, 0.04, 0.05, 300)

2025-07-07 17:22:06,410 - gym_custom_envs_real_ur_drivers_URBasic_realTimeClientEvent - INFO - Program send to Robot:
servoj([-0.08107473054994756, -1.609850987968798, -1.55618095130292, -1.519658407800613, 1.6745856427499244, 3.029902659889289], 0.5, 0.5, 0.04, 0.05, 300)

2025-07-07 17:22:06,426 - gym_custom_envs_real_ur_drivers_URBasic_realTimeClientEvent - INFO - Program send to Robot:
servoj([-0.08103849092592412, -1.6098342173409574, -1.5561387248369762, -1.5196217705894237, 1.6745985771330167, 3.0298811370398795], 0.5, 0.5, 0.04, 0.05, 300)

2025-07-07 17:22:06,442 - gym_custom_envs_real_ur_drivers_URBasic_realTimeClientEvent - INFO - Program send to Robot:
servoj([-0.08109857240785771, -1.6093819242105913, -1.556084252667431, -1.5197854886486455, 1.6742943672691974, 3.029929976919941], 0.5, 0.5, 0.04, 0.05, 300)

2025-07-07 17:22:06,458 - gym_custom_envs_real_ur_drivers_URBasic_realTimeClientEvent - INFO - Program send to Robot:
servoj([0.052155345253977775, -1.619883713541218, -1.5861361346737528, -1.4802914603096438, 1.7702138292200296, 3.143126632843698], 0.5, 0.5, 0.04, 0.05, 300)

2025-07-07 17:22:06,466 - gym_custom_envs_real_ur_drivers_URBasic_realTimeClientEvent - INFO - Program send to Robot:
servoj([0.05215534677277062, -1.619883712022577, -1.5861361346737528, -1.4802914603096438, 1.7702138292200296, 3.143126634362339], 0.5, 0.5, 0.04, 0.05, 300)

2025-07-07 17:22:06,482 - gym_custom_envs_real_ur_drivers_URBasic_realTimeClientEvent - INFO - Program send to Robot:
servoj([0.053673987767965045, -1.6198837120073906, -1.5861361346737528, -1.4802914603096438, 1.7702138292200296, 3.1431266343775257], 0.5, 0.5, 0.04, 0.05, 300)

2025-07-07 17:22:06,490 - gym_custom_envs_real_ur_drivers_URBasic_realTimeClientEvent - INFO - Program send to Robot:
servoj([0.05368917417791699, -1.6198837120072387, -1.5861361346737528, -1.4802914603096438, 1.7702138292200296, 3.1431266343776776], 0.5, 0.5, 0.04, 0.05, 300)

2025-07-07 17:22:06,498 - gym_custom_envs_real_ur_drivers_URBasic_realTimeClientEvent - INFO - Program send to Robot:
servoj([0.05368932604201651, -1.6198837120072371, -1.5861361346737528, -1.4802914603096438, 1.7702138292200296, 3.143126634377679], 0.5, 0.5, 0.04, 0.05, 300)

2025-07-07 17:22:06,514 - gym_custom_envs_real_ur_drivers_URBasic_realTimeClientEvent - INFO - Program send to Robot:
servoj([0.055207968540664454, -1.6198837120072371, -1.5861361346737528, -1.4802914603096438, 1.7702138292200296, 3.143126634377679], 0.5, 0.5, 0.04, 0.05, 300)

2025-07-07 17:22:06,522 - gym_custom_envs_real_ur_drivers_URBasic_realTimeClientEvent - INFO - Program send to Robot:
servoj([0.05522315496565093, -1.6198837120072371, -1.5861361346737528, -1.4802914603096438, 1.7702138292200296, 3.143126634377679], 0.5, 0.5, 0.04, 0.05, 300)

2025-07-07 17:22:06,530 - gym_custom_envs_real_ur_drivers_URBasic_realTimeClientEvent - INFO - Program send to Robot:
servoj([0.055223306829900794, -1.6198837120072371, -1.5861361346737528, -1.4802914603096438, 1.7702138292200296, 3.143126634377679], 0.5, 0.5, 0.04, 0.05, 300)

2025-07-07 17:22:06,538 - gym_custom_envs_real_ur_drivers_URBasic_realTimeClientEvent - INFO - Program send to Robot:
servoj([0.0552233083485433, -1.6198837120072371, -1.5861361346737528, -1.4802914603096438, 1.7702138292200296, 3.143126634377679], 0.5, 0.5, 0.04, 0.05, 300)

2025-07-07 17:22:06,553 - gym_custom_envs_real_ur_drivers_URBasic_realTimeClientEvent - INFO - Program send to Robot:
servoj([0.05522330836372972, -1.6198837120072371, -1.5861361346737528, -1.4802914603096438, 1.7702138292200296, 3.143126634377679], 0.5, 0.5, 0.04, 0.05, 300)

2025-07-07 17:22:06,561 - gym_custom_envs_real_ur_drivers_URBasic_realTimeClientEvent - INFO - Program send to Robot:
servoj([0.05522330836388158, -1.6198837120072371, -1.5861361346737528, -1.4802914603096438, 1.7702138292200296, 3.143126634377679], 0.5, 0.5, 0.04, 0.05, 300)

2025-07-07 17:22:06,569 - gym_custom_envs_real_ur_drivers_URBasic_realTimeClientEvent - INFO - Program send to Robot:
servoj([0.0552233083638831, -1.6198837120072371, -1.5861361346737528, -1.4802914603096438, 1.7702138292200296, 3.143126634377679], 0.5, 0.5, 0.04, 0.05, 300)

2025-07-07 17:22:06,577 - gym_custom_envs_real_ur_drivers_URBasic_realTimeClientEvent - INFO - Program send to Robot:
servoj([0.05522330836388312, -1.6198837120072371, -1.5861361346737528, -1.4802914603096438, 1.7702138292200296, 3.143126634377679], 0.5, 0.5, 0.04, 0.05, 300)

2025-07-07 17:22:06,594 - gym_custom_envs_real_ur_drivers_URBasic_realTimeClientEvent - INFO - Program send to Robot:
servoj([0.05522330836388312, -1.6198837120072371, -1.5861361346737528, -1.4802914603096438, 1.7702138292200296, 3.143126634377679], 0.5, 0.5, 0.04, 0.05, 300)

2025-07-07 17:22:06,601 - gym_custom_envs_real_ur_drivers_URBasic_realTimeClientEvent - INFO - Program send to Robot:
servoj([0.05522330836388312, -1.6198837120072371, -1.5861361346737528, -1.4802914603096438, 1.7702138292200296, 3.143126634377679], 0.5, 0.5, 0.04, 0.05, 300)

2025-07-07 17:22:06,609 - gym_custom_envs_real_ur_drivers_URBasic_realTimeClientEvent - INFO - Program send to Robot:
servoj([0.05522330836388312, -1.6198837120072371, -1.5861361346737528, -1.4802914603096438, 1.7702138292200296, 3.143126634377679], 0.5, 0.5, 0.04, 0.05, 300)

2025-07-07 17:22:06,617 - gym_custom_envs_real_ur_drivers_URBasic_realTimeClientEvent - INFO - Program send to Robot:
servoj([0.05522330836388312, -1.6198837120072371, -1.5861361346737528, -1.4802914603096438, 1.7702138292200296, 3.143126634377679], 0.5, 0.5, 0.04, 0.05, 300)

2025-07-07 17:22:06,635 - gym_custom_envs_real_ur_drivers_URBasic_realTimeClientEvent - INFO - Program send to Robot:
servoj([0.05522330836388312, -1.6198837120072371, -1.5861361346737528, -1.4802914603096438, 1.7702138292200296, 3.143126634377679], 0.5, 0.5, 0.04, 0.05, 300)

2025-07-07 17:22:06,642 - gym_custom_envs_real_ur_drivers_URBasic_realTimeClientEvent - INFO - Program send to Robot:
servoj([0.05522330836388312, -1.6198837120072371, -1.5861361346737528, -1.4802914603096438, 1.7702138292200296, 3.143126634377679], 0.5, 0.5, 0.04, 0.05, 300)

2025-07-07 17:22:06,650 - gym_custom_envs_real_ur_drivers_URBasic_realTimeClientEvent - INFO - Program send to Robot:
servoj([0.05522330836388312, -1.6198837120072371, -1.5861361346737528, -1.4802914603096438, 1.7702138292200296, 3.143126634377679], 0.5, 0.5, 0.04, 0.05, 300)

2025-07-07 17:22:06,665 - gym_custom_envs_real_ur_drivers_URBasic_realTimeClientEvent - INFO - Program send to Robot:
servoj([0.05522330836388312, -1.6214023529872437, -1.5861361346737528, -1.4802914603096438, 1.7686951882400235, 3.143126634377679], 0.5, 0.5, 0.04, 0.05, 300)

2025-07-07 17:22:06,673 - gym_custom_envs_real_ur_drivers_URBasic_realTimeClientEvent - INFO - Program send to Robot:
servoj([0.05522330836388312, -1.6214175393970438, -1.5861361346737528, -1.4802914603096438, 1.7686800018302236, 3.143126634377679], 0.5, 0.5, 0.04, 0.05, 300)

2025-07-07 17:22:06,681 - gym_custom_envs_real_ur_drivers_URBasic_realTimeClientEvent - INFO - Program send to Robot:
servoj([0.05522330836388312, -1.6214176912611418, -1.5861361346737528, -1.4802914603096438, 1.7686798499661256, 3.143126634377679], 0.5, 0.5, 0.04, 0.05, 300)

2025-07-07 17:22:06,689 - gym_custom_envs_real_ur_drivers_URBasic_realTimeClientEvent - INFO - Program send to Robot:
servoj([0.05522330836388312, -1.6214176927797828, -1.5861361346737528, -1.4802914603096438, 1.7686798484474846, 3.143126634377679], 0.5, 0.5, 0.04, 0.05, 300)

2025-07-07 17:22:06,705 - gym_custom_envs_real_ur_drivers_URBasic_realTimeClientEvent - INFO - Program send to Robot:
servoj([0.05522330836388312, -1.6214176927949693, -1.5861361346737528, -1.4802914603096438, 1.768679848432298, 3.143126634377679], 0.5, 0.5, 0.04, 0.05, 300)

2025-07-07 17:22:06,713 - gym_custom_envs_real_ur_drivers_URBasic_realTimeClientEvent - INFO - Program send to Robot:
servoj([0.05522330836388312, -1.6214176927951212, -1.5861361346737528, -1.4802914603096438, 1.7686798484321462, 3.143126634377679], 0.5, 0.5, 0.04, 0.05, 300)

2025-07-07 17:22:06,721 - gym_custom_envs_real_ur_drivers_URBasic_realTimeClientEvent - INFO - Program send to Robot:
servoj([0.05522330836388312, -1.6214176927951225, -1.5861361346737528, -1.4802914603096438, 1.7686798484321447, 3.143126634377679], 0.5, 0.5, 0.04, 0.05, 300)

2025-07-07 17:22:06,729 - gym_custom_envs_real_ur_drivers_URBasic_realTimeClientEvent - INFO - Program send to Robot:
servoj([0.05522330836388312, -1.6214176927951227, -1.5861361346737528, -1.4802914603096438, 1.7686798484321447, 3.143126634377679], 0.5, 0.5, 0.04, 0.05, 300)

2025-07-07 17:22:06,746 - gym_custom_envs_real_ur_drivers_URBasic_realTimeClientEvent - INFO - Program send to Robot:
servoj([0.05522330836388312, -1.6214176927951227, -1.5861361346737528, -1.4802914603096438, 1.7686798484321447, 3.143126634377679], 0.5, 0.5, 0.04, 0.05, 300)

2025-07-07 17:22:06,762 - gym_custom_envs_real_ur_drivers_URBasic_realTimeClientEvent - INFO - Program send to Robot:
servoj([0.05522330836388312, -1.6214176927951227, -1.5861361346737528, -1.4802914603096438, 1.7686798484321447, 3.143126634377679], 0.5, 0.5, 0.04, 0.05, 300)

2025-07-07 17:22:06,770 - gym_custom_envs_real_ur_drivers_URBasic_realTimeClientEvent - INFO - Program send to Robot:
servoj([0.05522330836388312, -1.6214176927951227, -1.5861361346737528, -1.4802914603096438, 1.7686798484321447, 3.143126634377679], 0.5, 0.5, 0.04, 0.05, 300)

2025-07-07 17:22:06,778 - gym_custom_envs_real_ur_drivers_URBasic_realTimeClientEvent - INFO - Program send to Robot:
servoj([0.05522330836388312, -1.6214176927951227, -1.5861361346737528, -1.4802914603096438, 1.7686798484321447, 3.143126634377679], 0.5, 0.5, 0.04, 0.05, 300)

2025-07-07 17:22:06,786 - gym_custom_envs_real_ur_drivers_URBasic_realTimeClientEvent - INFO - Program send to Robot:
servoj([0.05522330836388312, -1.6214176927951227, -1.5861361346737528, -1.4802914603096438, 1.7686798484321447, 3.143126634377679], 0.5, 0.5, 0.04, 0.05, 300)

2025-07-07 17:22:06,801 - gym_custom_envs_real_ur_drivers_URBasic_realTimeClientEvent - INFO - Program send to Robot:
servoj([0.05522330836388312, -1.6214176927951227, -1.5861361346737528, -1.4802914603096438, 1.7686798484321447, 3.143126634377679], 0.5, 0.5, 0.04, 0.05, 300)

2025-07-07 17:22:06,809 - gym_custom_envs_real_ur_drivers_URBasic_realTimeClientEvent - INFO - Program send to Robot:
servoj([0.05522330836388312, -1.6214176927951227, -1.5861361346737528, -1.4802914603096438, 1.7686798484321447, 3.143126634377679], 0.5, 0.5, 0.04, 0.05, 300)

2025-07-07 17:22:06,817 - gym_custom_envs_real_ur_drivers_URBasic_realTimeClientEvent - INFO - Program send to Robot:
servoj([0.05522330836388312, -1.6214176927951227, -1.5861361346737528, -1.4802914603096438, 1.7686798484321447, 3.143126634377679], 0.5, 0.5, 0.04, 0.05, 300)

2025-07-07 17:22:06,825 - gym_custom_envs_real_ur_drivers_URBasic_realTimeClientEvent - INFO - Program send to Robot:
servoj([0.05674194934389006, -1.6214176927951227, -1.5846174936937458, -1.4802914603096438, 1.7686798484321447, 3.143126634377679], 0.5, 0.5, 0.04, 0.05, 300)

2025-07-07 17:22:06,842 - gym_custom_envs_real_ur_drivers_URBasic_realTimeClientEvent - INFO - Program send to Robot:
servoj([0.05675713575369013, -1.6214176927951227, -1.5846023072839457, -1.4802914603096438, 1.7686798484321447, 3.143126634377679], 0.5, 0.5, 0.04, 0.05, 300)

2025-07-07 17:22:06,849 - gym_custom_envs_real_ur_drivers_URBasic_realTimeClientEvent - INFO - Program send to Robot:
servoj([0.05675728761778813, -1.6214176927951227, -1.5846021554198477, -1.4802914603096438, 1.7686798484321447, 3.143126634377679], 0.5, 0.5, 0.04, 0.05, 300)

2025-07-07 17:22:06,857 - gym_custom_envs_real_ur_drivers_URBasic_realTimeClientEvent - INFO - Program send to Robot:
servoj([0.056757289136429113, -1.6214176927951227, -1.5846021539012067, -1.4802914603096438, 1.7686798484321447, 3.143126634377679], 0.5, 0.5, 0.04, 0.05, 300)

2025-07-07 17:22:06,865 - gym_custom_envs_real_ur_drivers_URBasic_realTimeClientEvent - INFO - Program send to Robot:
servoj([0.05675728915161552, -1.6214176927951227, -1.5846021538860204, -1.4802914603096438, 1.7686798484321447, 3.143126634377679], 0.5, 0.5, 0.04, 0.05, 300)

2025-07-07 17:22:06,881 - gym_custom_envs_real_ur_drivers_URBasic_realTimeClientEvent - INFO - Program send to Robot:
servoj([0.056757289151767386, -1.6214176927951227, -1.5846021538858686, -1.4802914603096438, 1.7686798484321447, 3.143126634377679], 0.5, 0.5, 0.04, 0.05, 300)

2025-07-07 17:22:06,890 - gym_custom_envs_real_ur_drivers_URBasic_realTimeClientEvent - INFO - Program send to Robot:
servoj([0.056757289151768905, -1.6214176927951227, -1.584602153885867, -1.4802914603096438, 1.7686798484321447, 3.143126634377679], 0.5, 0.5, 0.04, 0.05, 300)

2025-07-07 17:22:06,897 - gym_custom_envs_real_ur_drivers_URBasic_realTimeClientEvent - INFO - Program send to Robot:
servoj([0.05675728915176892, -1.6214176927951227, -1.584602153885867, -1.4802914603096438, 1.7686798484321447, 3.143126634377679], 0.5, 0.5, 0.04, 0.05, 300)

2025-07-07 17:22:06,906 - gym_custom_envs_real_ur_drivers_URBasic_realTimeClientEvent - INFO - Program send to Robot:
servoj([0.05675728915176892, -1.6214176927951227, -1.584602153885867, -1.4802914603096438, 1.7686798484321447, 3.143126634377679], 0.5, 0.5, 0.04, 0.05, 300)

2025-07-07 17:22:06,921 - gym_custom_envs_real_ur_drivers_URBasic_realTimeClientEvent - INFO - Program send to Robot:
servoj([0.05675728915176892, -1.6214176927951227, -1.584602153885867, -1.4802914603096438, 1.7686798484321447, 3.143126634377679], 0.5, 0.5, 0.04, 0.05, 300)

2025-07-07 17:22:06,929 - gym_custom_envs_real_ur_drivers_URBasic_realTimeClientEvent - INFO - Program send to Robot:
servoj([0.05675728915176892, -1.6214176927951227, -1.584602153885867, -1.4802914603096438, 1.7686798484321447, 3.143126634377679], 0.5, 0.5, 0.04, 0.05, 300)

2025-07-07 17:22:06,937 - gym_custom_envs_real_ur_drivers_URBasic_realTimeClientEvent - INFO - Program send to Robot:
servoj([0.05675728915176892, -1.6214176927951227, -1.584602153885867, -1.4802914603096438, 1.7686798484321447, 3.143126634377679], 0.5, 0.5, 0.04, 0.05, 300)

2025-07-07 17:22:06,954 - gym_custom_envs_real_ur_drivers_URBasic_realTimeClientEvent - INFO - Program send to Robot:
servoj([0.05675728915176892, -1.6214176927951227, -1.584602153885867, -1.4802914603096438, 1.7686798484321447, 3.143126634377679], 0.5, 0.5, 0.04, 0.05, 300)

2025-07-07 17:22:06,961 - gym_custom_envs_real_ur_drivers_URBasic_realTimeClientEvent - INFO - Program send to Robot:
servoj([0.05675728915176892, -1.6214176927951227, -1.584602153885867, -1.4802914603096438, 1.7686798484321447, 3.143126634377679], 0.5, 0.5, 0.04, 0.05, 300)

2025-07-07 17:22:06,970 - gym_custom_envs_real_ur_drivers_URBasic_realTimeClientEvent - INFO - Program send to Robot:
servoj([0.05675728915176892, -1.6214176927951227, -1.584602153885867, -1.4802914603096438, 1.7686798484321447, 3.143126634377679], 0.5, 0.5, 0.04, 0.05, 300)

2025-07-07 17:22:06,978 - gym_custom_envs_real_ur_drivers_URBasic_realTimeClientEvent - INFO - Program send to Robot:
servoj([0.05675728915176892, -1.6214176927951227, -1.584602153885867, -1.4802914603096438, 1.7686798484321447, 3.143126634377679], 0.5, 0.5, 0.04, 0.05, 300)

2025-07-07 17:22:06,993 - gym_custom_envs_real_ur_drivers_URBasic_realTimeClientEvent - INFO - Program send to Robot:
servoj([0.05675728915176892, -1.6214176927951227, -1.584602153885867, -1.4802914603096438, 1.7686798484321447, 3.143126634377679], 0.5, 0.5, 0.04, 0.05, 300)

2025-07-07 17:22:07,001 - gym_custom_envs_real_ur_drivers_URBasic_realTimeClientEvent - INFO - Program send to Robot:
servoj([0.05675728915176892, -1.6214176927951227, -1.584602153885867, -1.4802914603096438, 1.7686798484321447, 3.143126634377679], 0.5, 0.5, 0.04, 0.05, 300)

2025-07-07 17:22:07,010 - gym_custom_envs_real_ur_drivers_URBasic_realTimeClientEvent - INFO - Program send to Robot:
servoj([0.05675728915176892, -1.6214176927951227, -1.584602153885867, -1.4802914603096438, 1.7686798484321447, 3.143126634377679], 0.5, 0.5, 0.04, 0.05, 300)

2025-07-07 17:22:07,018 - gym_custom_envs_real_ur_drivers_URBasic_realTimeClientEvent - INFO - Program send to Robot:
servoj([0.05675728915176892, -1.6214176927951227, -1.584602153885867, -1.4802914603096438, 1.7686798484321447, 3.143126634377679], 0.5, 0.5, 0.04, 0.05, 300)

2025-07-07 17:22:07,034 - gym_custom_envs_real_ur_drivers_URBasic_realTimeClientEvent - INFO - Program send to Robot:
servoj([0.05675728915176892, -1.6214176927951227, -1.584602153885867, -1.4802914603096438, 1.7686798484321447, 3.143126634377679], 0.5, 0.5, 0.04, 0.05, 300)

2025-07-07 17:22:07,042 - gym_custom_envs_real_ur_drivers_URBasic_realTimeClientEvent - INFO - Program send to Robot:
servoj([0.05675728915176892, -1.6214176927951227, -1.584602153885867, -1.4802914603096438, 1.7686798484321447, 3.143126634377679], 0.5, 0.5, 0.04, 0.05, 300)

2025-07-07 17:22:07,050 - gym_custom_envs_real_ur_drivers_URBasic_realTimeClientEvent - INFO - Program send to Robot:
servoj([0.05675728915176892, -1.6214176927951227, -1.584602153885867, -1.4802914603096438, 1.7686798484321447, 3.143126634377679], 0.5, 0.5, 0.04, 0.05, 300)

2025-07-07 17:22:07,058 - gym_custom_envs_real_ur_drivers_URBasic_realTimeClientEvent - INFO - Program send to Robot:
servoj([0.05675728915176892, -1.6214176927951227, -1.584602153885867, -1.4802914603096438, 1.7686798484321447, 3.143126634377679], 0.5, 0.5, 0.04, 0.05, 300)

2025-07-07 17:22:07,074 - gym_custom_envs_real_ur_drivers_URBasic_realTimeClientEvent - INFO - Program send to Robot:
servoj([0.05675728915176892, -1.6214176927951227, -1.584602153885867, -1.4802914603096438, 1.7686798484321447, 3.143126634377679], 0.5, 0.5, 0.04, 0.05, 300)

2025-07-07 17:22:07,081 - gym_custom_envs_real_ur_drivers_URBasic_realTimeClientEvent - INFO - Program send to Robot:
servoj([0.05675728915176892, -1.6214176927951227, -1.584602153885867, -1.4802914603096438, 1.7686798484321447, 3.143126634377679], 0.5, 0.5, 0.04, 0.05, 300)

2025-07-07 17:22:07,089 - gym_custom_envs_real_ur_drivers_URBasic_realTimeClientEvent - INFO - Program send to Robot:
servoj([0.05675728915176892, -1.6214176927951227, -1.584602153885867, -1.4802914603096438, 1.7686798484321447, 3.143126634377679], 0.5, 0.5, 0.04, 0.05, 300)

2025-07-07 17:22:07,106 - gym_custom_envs_real_ur_drivers_URBasic_realTimeClientEvent - INFO - Program send to Robot:
servoj([0.05675728915176892, -1.6214176927951227, -1.584602153885867, -1.4802914603096438, 1.7686798484321447, 3.143126634377679], 0.5, 0.5, 0.04, 0.05, 300)

2025-07-07 17:22:07,114 - gym_custom_envs_real_ur_drivers_URBasic_realTimeClientEvent - INFO - Program send to Robot:
servoj([0.05675728915176892, -1.6214176927951227, -1.584602153885867, -1.4802914603096438, 1.7686798484321447, 3.143126634377679], 0.5, 0.5, 0.04, 0.05, 300)

2025-07-07 17:22:07,122 - gym_custom_envs_real_ur_drivers_URBasic_realTimeClientEvent - INFO - Program send to Robot:
servoj([0.05675728915176892, -1.6214176927951227, -1.584602153885867, -1.4802914603096438, 1.7686798484321447, 3.143126634377679], 0.5, 0.5, 0.04, 0.05, 300)

2025-07-07 17:22:07,130 - gym_custom_envs_real_ur_drivers_URBasic_realTimeClientEvent - INFO - Program send to Robot:
servoj([0.05675728915176892, -1.6214176927951227, -1.584602153885867, -1.4802914603096438, 1.7686798484321447, 3.143126634377679], 0.5, 0.5, 0.04, 0.05, 300)

2025-07-07 17:22:07,145 - gym_custom_envs_real_ur_drivers_URBasic_realTimeClientEvent - INFO - Program send to Robot:
servoj([0.05827593013177542, -1.6214176927951227, -1.584602153885867, -1.4802914603096438, 1.7686798484321447, 3.143126634377679], 0.5, 0.5, 0.04, 0.05, 300)

2025-07-07 17:22:07,153 - gym_custom_envs_real_ur_drivers_URBasic_realTimeClientEvent - INFO - Program send to Robot:
servoj([0.05829111654157549, -1.6214176927951227, -1.584602153885867, -1.4802914603096438, 1.7686798484321447, 3.143126634377679], 0.5, 0.5, 0.04, 0.05, 300)

2025-07-07 17:22:07,161 - gym_custom_envs_real_ur_drivers_URBasic_realTimeClientEvent - INFO - Program send to Robot:
servoj([0.05829126840567349, -1.6214176927951227, -1.584602153885867, -1.4802914603096438, 1.7686798484321447, 3.143126634377679], 0.5, 0.5, 0.04, 0.05, 300)

2025-07-07 17:22:07,169 - gym_custom_envs_real_ur_drivers_URBasic_realTimeClientEvent - INFO - Program send to Robot:
servoj([0.058291269924314465, -1.6214176927951227, -1.584602153885867, -1.4802914603096438, 1.7686798484321447, 3.143126634377679], 0.5, 0.5, 0.04, 0.05, 300)

2025-07-07 17:22:07,186 - gym_custom_envs_real_ur_drivers_URBasic_realTimeClientEvent - INFO - Program send to Robot:
servoj([0.05677262895949438, -1.6214176927951227, -1.584602153885867, -1.4802914603096438, 1.7686798484321447, 3.143126634377679], 0.5, 0.5, 0.04, 0.05, 300)

2025-07-07 17:22:07,193 - gym_custom_envs_real_ur_drivers_URBasic_realTimeClientEvent - INFO - Program send to Robot:
servoj([0.056757442549846174, -1.6214176927951227, -1.584602153885867, -1.4802914603096438, 1.7686798484321447, 3.143126634377679], 0.5, 0.5, 0.04, 0.05, 300)

2025-07-07 17:22:07,201 - gym_custom_envs_real_ur_drivers_URBasic_realTimeClientEvent - INFO - Program send to Robot:
servoj([0.056757290685749695, -1.6214176927951227, -1.584602153885867, -1.4802914603096438, 1.7686798484321447, 3.143126634377679], 0.5, 0.5, 0.04, 0.05, 300)

2025-07-07 17:22:07,209 - gym_custom_envs_real_ur_drivers_URBasic_realTimeClientEvent - INFO - Program send to Robot:
servoj([0.058275930147115226, -1.6214176927951227, -1.584602153885867, -1.4802914603096438, 1.7686798484321447, 3.143126634377679], 0.5, 0.5, 0.04, 0.05, 300)

2025-07-07 17:22:07,226 - gym_custom_envs_real_ur_drivers_URBasic_realTimeClientEvent - INFO - Program send to Robot:
servoj([0.05829111654172889, -1.6214176927951227, -1.584602153885867, -1.4802914603096438, 1.7686798484321447, 3.143126634377679], 0.5, 0.5, 0.04, 0.05, 300)

2025-07-07 17:22:07,241 - gym_custom_envs_real_ur_drivers_URBasic_realTimeClientEvent - INFO - Program send to Robot:
servoj([0.05829126840567502, -1.619899051815116, -1.584602153885867, -1.4802914603096438, 1.7686798484321447, 3.143126634377679], 0.5, 0.5, 0.04, 0.05, 300)

2025-07-07 17:22:07,249 - gym_custom_envs_real_ur_drivers_URBasic_realTimeClientEvent - INFO - Program send to Robot:
servoj([0.058291269924314486, -1.619883865405316, -1.584602153885867, -1.4802914603096438, 1.7686798484321447, 3.143126634377679], 0.5, 0.5, 0.04, 0.05, 300)

2025-07-07 17:22:07,257 - gym_custom_envs_real_ur_drivers_URBasic_realTimeClientEvent - INFO - Program send to Robot:
servoj([0.05829126993950088, -1.619883713541218, -1.584602153885867, -1.4802914603096438, 1.7686798484321447, 3.143126634377679], 0.5, 0.5, 0.04, 0.05, 300)

2025-07-07 17:22:07,266 - gym_custom_envs_real_ur_drivers_URBasic_realTimeClientEvent - INFO - Program send to Robot:
servoj([0.058291269939652744, -1.619883712022577, -1.584602153885867, -1.4802914603096438, 1.7686798484321447, 3.143126634377679], 0.5, 0.5, 0.04, 0.05, 300)

2025-07-07 17:22:07,281 - gym_custom_envs_real_ur_drivers_URBasic_realTimeClientEvent - INFO - Program send to Robot:
servoj([0.05829126993965426, -1.621402352987397, -1.584602153885867, -1.4802914603096438, 1.7686798484321447, 3.143126634377679], 0.5, 0.5, 0.04, 0.05, 300)

2025-07-07 17:22:07,289 - gym_custom_envs_real_ur_drivers_URBasic_realTimeClientEvent - INFO - Program send to Robot:
servoj([0.05829126993965428, -1.6214175393970454, -1.584602153885867, -1.4802914603096438, 1.7686798484321447, 3.143126634377679], 0.5, 0.5, 0.04, 0.05, 300)

2025-07-07 17:22:07,297 - gym_custom_envs_real_ur_drivers_URBasic_realTimeClientEvent - INFO - Program send to Robot:
servoj([0.05829126993965428, -1.6214176912611418, -1.584602153885867, -1.4802914603096438, 1.7686798484321447, 3.143126634377679], 0.5, 0.5, 0.04, 0.05, 300)

2025-07-07 17:22:07,305 - gym_custom_envs_real_ur_drivers_URBasic_realTimeClientEvent - INFO - Program send to Robot:
servoj([0.05829126993965428, -1.6198990517997762, -1.584602153885867, -1.4802914603096438, 1.7686798484321447, 3.143126634377679], 0.5, 0.5, 0.04, 0.05, 300)

2025-07-07 17:22:07,321 - gym_custom_envs_real_ur_drivers_URBasic_realTimeClientEvent - INFO - Program send to Robot:
servoj([0.05829126993965428, -1.6198838654051626, -1.584602153885867, -1.4802914603096438, 1.7686798484321447, 3.143126634377679], 0.5, 0.5, 0.04, 0.05, 300)

2025-07-07 17:22:07,329 - gym_custom_envs_real_ur_drivers_URBasic_realTimeClientEvent - INFO - Program send to Robot:
servoj([0.05829126993965428, -1.6198837135412165, -1.584602153885867, -1.4802914603096438, 1.7686798484321447, 3.143126634377679], 0.5, 0.5, 0.04, 0.05, 300)

2025-07-07 17:22:07,337 - gym_custom_envs_real_ur_drivers_URBasic_realTimeClientEvent - INFO - Program send to Robot:
servoj([0.05829126993965428, -1.619883712022577, -1.584602153885867, -1.4802914603096438, 1.7686798484321447, 3.143126634377679], 0.5, 0.5, 0.04, 0.05, 300)

2025-07-07 17:22:07,345 - gym_custom_envs_real_ur_drivers_URBasic_realTimeClientEvent - INFO - Program send to Robot:
servoj([0.05829126993965428, -1.6198837120073906, -1.584602153885867, -1.4802914603096438, 1.7686798484321447, 3.143126634377679], 0.5, 0.5, 0.04, 0.05, 300)

2025-07-07 17:22:07,362 - gym_custom_envs_real_ur_drivers_URBasic_realTimeClientEvent - INFO - Program send to Robot:
servoj([0.05829126993965428, -1.6198837120072387, -1.584602153885867, -1.4802914603096438, 1.7686798484321447, 3.143126634377679], 0.5, 0.5, 0.04, 0.05, 300)

2025-07-07 17:22:07,369 - gym_custom_envs_real_ur_drivers_URBasic_realTimeClientEvent - INFO - Program send to Robot:
servoj([0.05829126993965428, -1.6198837120072371, -1.584602153885867, -1.4802914603096438, 1.7686798484321447, 3.143126634377679], 0.5, 0.5, 0.04, 0.05, 300)

2025-07-07 17:22:07,377 - gym_custom_envs_real_ur_drivers_URBasic_realTimeClientEvent - INFO - Program send to Robot:
servoj([0.05829126993965428, -1.6198837120072371, -1.584602153885867, -1.4802914603096438, 1.7686798484321447, 3.143126634377679], 0.5, 0.5, 0.04, 0.05, 300)

2025-07-07 17:22:07,386 - gym_custom_envs_real_ur_drivers_URBasic_realTimeClientEvent - INFO - Program send to Robot:
servoj([0.05829126993965428, -1.6198837120072371, -1.584602153885867, -1.4802914603096438, 1.7686798484321447, 3.143126634377679], 0.5, 0.5, 0.04, 0.05, 300)

2025-07-07 17:22:07,401 - gym_custom_envs_real_ur_drivers_URBasic_realTimeClientEvent - INFO - Program send to Robot:
servoj([0.05829126993965428, -1.6198837120072371, -1.584602153885867, -1.4802914603096438, 1.7686798484321447, 3.143126634377679], 0.5, 0.5, 0.04, 0.05, 300)

2025-07-07 17:22:07,409 - gym_custom_envs_real_ur_drivers_URBasic_realTimeClientEvent - INFO - Program send to Robot:
servoj([0.05829126993965428, -1.6198837120072371, -1.584602153885867, -1.4802914603096438, 1.7686798484321447, 3.143126634377679], 0.5, 0.5, 0.04, 0.05, 300)

2025-07-07 17:22:07,417 - gym_custom_envs_real_ur_drivers_URBasic_realTimeClientEvent - INFO - Program send to Robot:
servoj([0.05829126993965428, -1.6198837120072371, -1.584602153885867, -1.4802914603096438, 1.7686798484321447, 3.143126634377679], 0.5, 0.5, 0.04, 0.05, 300)

2025-07-07 17:22:07,434 - gym_custom_envs_real_ur_drivers_URBasic_realTimeClientEvent - INFO - Program send to Robot:
servoj([0.05829126993965428, -1.6198837120072371, -1.584602153885867, -1.4802914603096438, 1.7686798484321447, 3.143126634377679], 0.5, 0.5, 0.04, 0.05, 300)

2025-07-07 17:22:07,442 - gym_custom_envs_real_ur_drivers_URBasic_realTimeClientEvent - INFO - Program send to Robot:
servoj([0.05829126993965428, -1.6198837120072371, -1.584602153885867, -1.4802914603096438, 1.7686798484321447, 3.143126634377679], 0.5, 0.5, 0.04, 0.05, 300)

2025-07-07 17:22:07,450 - gym_custom_envs_real_ur_drivers_URBasic_realTimeClientEvent - INFO - Program send to Robot:
servoj([0.05829126993965428, -1.6198837120072371, -1.584602153885867, -1.4802914603096438, 1.7686798484321447, 3.143126634377679], 0.5, 0.5, 0.04, 0.05, 300)

2025-07-07 17:22:07,458 - gym_custom_envs_real_ur_drivers_URBasic_realTimeClientEvent - INFO - Program send to Robot:
servoj([0.05829126993965428, -1.6198837120072371, -1.584602153885867, -1.4802914603096438, 1.7686798484321447, 3.143126634377679], 0.5, 0.5, 0.04, 0.05, 300)

2025-07-07 17:22:07,474 - gym_custom_envs_real_ur_drivers_URBasic_realTimeClientEvent - INFO - Program send to Robot:
servoj([0.05829126993965428, -1.6198837120072371, -1.584602153885867, -1.4802914603096438, 1.7686798484321447, 3.143126634377679], 0.5, 0.5, 0.04, 0.05, 300)

2025-07-07 17:22:07,482 - gym_custom_envs_real_ur_drivers_URBasic_realTimeClientEvent - INFO - Program send to Robot:
servoj([0.05829126993965428, -1.6198837120072371, -1.584602153885867, -1.4802914603096438, 1.7686798484321447, 3.143126634377679], 0.5, 0.5, 0.04, 0.05, 300)

2025-07-07 17:22:07,490 - gym_custom_envs_real_ur_drivers_URBasic_realTimeClientEvent - INFO - Program send to Robot:
servoj([0.05829126993965428, -1.6198837120072371, -1.584602153885867, -1.4802914603096438, 1.7686798484321447, 3.143126634377679], 0.5, 0.5, 0.04, 0.05, 300)

2025-07-07 17:22:07,497 - gym_custom_envs_real_ur_drivers_URBasic_realTimeClientEvent - INFO - Program send to Robot:
servoj([0.05829126993965428, -1.6198837120072371, -1.584602153885867, -1.4802914603096438, 1.7686798484321447, 3.143126634377679], 0.5, 0.5, 0.04, 0.05, 300)

2025-07-07 17:22:07,514 - gym_custom_envs_real_ur_drivers_URBasic_realTimeClientEvent - INFO - Program send to Robot:
servoj([0.05829126993965428, -1.6198837120072371, -1.584602153885867, -1.4802914603096438, 1.7686798484321447, 3.143126634377679], 0.5, 0.5, 0.04, 0.05, 300)

2025-07-07 17:22:07,522 - gym_custom_envs_real_ur_drivers_URBasic_realTimeClientEvent - INFO - Program send to Robot:
servoj([0.05829126993965428, -1.6198837120072371, -1.584602153885867, -1.4802914603096438, 1.7686798484321447, 3.143126634377679], 0.5, 0.5, 0.04, 0.05, 300)

2025-07-07 17:22:07,529 - gym_custom_envs_real_ur_drivers_URBasic_realTimeClientEvent - INFO - Program send to Robot:
servoj([0.05829126993965428, -1.6198837120072371, -1.584602153885867, -1.4802914603096438, 1.7686798484321447, 3.143126634377679], 0.5, 0.5, 0.04, 0.05, 300)

2025-07-07 17:22:07,537 - gym_custom_envs_real_ur_drivers_URBasic_realTimeClientEvent - INFO - Program send to Robot:
servoj([0.05829126993965428, -1.6198837120072371, -1.584602153885867, -1.4802914603096438, 1.7686798484321447, 3.143126634377679], 0.5, 0.5, 0.04, 0.05, 300)

2025-07-07 17:22:07,556 - gym_custom_envs_real_ur_drivers_URBasic_realTimeClientEvent - INFO - Program send to Robot:
servoj([0.05829126993965428, -1.6198837120072371, -1.584602153885867, -1.4802914603096438, 1.7686798484321447, 3.143126634377679], 0.5, 0.5, 0.04, 0.05, 300)

2025-07-07 17:22:07,561 - gym_custom_envs_real_ur_drivers_URBasic_realTimeClientEvent - INFO - Program send to Robot:
servoj([0.05829126993965428, -1.6198837120072371, -1.584602153885867, -1.4818101012896503, 1.7686798484321447, 3.143126634377679], 0.5, 0.5, 0.04, 0.05, 300)

2025-07-07 17:22:07,569 - gym_custom_envs_real_ur_drivers_URBasic_realTimeClientEvent - INFO - Program send to Robot:
servoj([0.05829126993965428, -1.6198837120072371, -1.584602153885867, -1.4818252876994504, 1.7686798484321447, 3.143126634377679], 0.5, 0.5, 0.04, 0.05, 300)

2025-07-07 17:22:07,586 - gym_custom_envs_real_ur_drivers_URBasic_realTimeClientEvent - INFO - Program send to Robot:
servoj([0.05829126993965428, -1.6198837120072371, -1.584602153885867, -1.4818254395635484, 1.7686798484321447, 3.143126634377679], 0.5, 0.5, 0.04, 0.05, 300)

2025-07-07 17:22:07,594 - gym_custom_envs_real_ur_drivers_URBasic_realTimeClientEvent - INFO - Program send to Robot:
servoj([0.05829126993965428, -1.6198837120072371, -1.584602153885867, -1.4803068001021829, 1.7686798484321447, 3.143126634377679], 0.5, 0.5, 0.04, 0.05, 300)

2025-07-07 17:22:07,602 - gym_custom_envs_real_ur_drivers_URBasic_realTimeClientEvent - INFO - Program send to Robot:
servoj([0.05829126993965428, -1.6198837120072371, -1.584602153885867, -1.4802916137075692, 1.7686798484321447, 3.143126634377679], 0.5, 0.5, 0.04, 0.05, 300)

2025-07-07 17:22:07,610 - gym_custom_envs_real_ur_drivers_URBasic_realTimeClientEvent - INFO - Program send to Robot:
servoj([0.05829126993965428, -1.6198837120072371, -1.584602153885867, -1.4802914618436231, 1.7686798484321447, 3.143126634377679], 0.5, 0.5, 0.04, 0.05, 300)

2025-07-07 17:22:07,625 - gym_custom_envs_real_ur_drivers_URBasic_realTimeClientEvent - INFO - Program send to Robot:
servoj([0.05829126993965428, -1.6198837120072371, -1.584602153885867, -1.4802914603249837, 1.7686798484321447, 3.143126634377679], 0.5, 0.5, 0.04, 0.05, 300)

2025-07-07 17:22:07,633 - gym_custom_envs_real_ur_drivers_URBasic_realTimeClientEvent - INFO - Program send to Robot:
servoj([0.05829126993965428, -1.6198837120072371, -1.584602153885867, -1.4802914603097972, 1.7686798484321447, 3.143126634377679], 0.5, 0.5, 0.04, 0.05, 300)

2025-07-07 17:22:07,641 - gym_custom_envs_real_ur_drivers_URBasic_realTimeClientEvent - INFO - Program send to Robot:
servoj([0.05829126993965428, -1.6198837120072371, -1.584602153885867, -1.4802914603096453, 1.7686798484321447, 3.143126634377679], 0.5, 0.5, 0.04, 0.05, 300)

2025-07-07 17:22:07,657 - gym_custom_envs_real_ur_drivers_URBasic_realTimeClientEvent - INFO - Program send to Robot:
servoj([0.05829126993965428, -1.6198837120072371, -1.584602153885867, -1.480291460309644, 1.7686798484321447, 3.143126634377679], 0.5, 0.5, 0.04, 0.05, 300)

2025-07-07 17:22:07,665 - gym_custom_envs_real_ur_drivers_URBasic_realTimeClientEvent - INFO - Program send to Robot:
servoj([0.05829126993965428, -1.6198837120072371, -1.584602153885867, -1.4802914603096438, 1.7686798484321447, 3.143126634377679], 0.5, 0.5, 0.04, 0.05, 300)

2025-07-07 17:22:07,673 - gym_custom_envs_real_ur_drivers_URBasic_realTimeClientEvent - INFO - Program send to Robot:
servoj([0.05829126993965428, -1.6198837120072371, -1.584602153885867, -1.4802914603096438, 1.7686798484321447, 3.143126634377679], 0.5, 0.5, 0.04, 0.05, 300)

2025-07-07 17:22:07,681 - gym_custom_envs_real_ur_drivers_URBasic_realTimeClientEvent - INFO - Program send to Robot:
servoj([0.05829126993965428, -1.6198837120072371, -1.584602153885867, -1.4802914603096438, 1.7686798484321447, 3.143126634377679], 0.5, 0.5, 0.04, 0.05, 300)

2025-07-07 17:22:07,698 - gym_custom_envs_real_ur_drivers_URBasic_realTimeClientEvent - INFO - Program send to Robot:
servoj([0.05829126993965428, -1.6198837120072371, -1.584602153885867, -1.4802914603096438, 1.7686798484321447, 3.143126634377679], 0.5, 0.5, 0.04, 0.05, 300)

2025-07-07 17:22:07,705 - gym_custom_envs_real_ur_drivers_URBasic_realTimeClientEvent - INFO - Program send to Robot:
servoj([0.05829126993965428, -1.6198837120072371, -1.584602153885867, -1.4802914603096438, 1.7686798484321447, 3.143126634377679], 0.5, 0.5, 0.04, 0.05, 300)

2025-07-07 17:22:07,713 - gym_custom_envs_real_ur_drivers_URBasic_realTimeClientEvent - INFO - Program send to Robot:
servoj([0.05829126993965428, -1.6198837120072371, -1.584602153885867, -1.4802914603096438, 1.7686798484321447, 3.143126634377679], 0.5, 0.5, 0.04, 0.05, 300)

2025-07-07 17:22:07,722 - gym_custom_envs_real_ur_drivers_URBasic_realTimeClientEvent - INFO - Program send to Robot:
servoj([0.05829126993965428, -1.6198837120072371, -1.583083512905861, -1.4802914603096438, 1.7686798484321447, 3.143126634377679], 0.5, 0.5, 0.04, 0.05, 300)

2025-07-07 17:22:07,738 - gym_custom_envs_real_ur_drivers_URBasic_realTimeClientEvent - INFO - Program send to Robot:
servoj([0.05829126993965428, -1.6198837120072371, -1.5830683264960608, -1.4802914603096438, 1.7686798484321447, 3.143126634377679], 0.5, 0.5, 0.04, 0.05, 300)

2025-07-07 17:22:07,745 - gym_custom_envs_real_ur_drivers_URBasic_realTimeClientEvent - INFO - Program send to Robot:
servoj([0.05829126993965428, -1.6198837120072371, -1.5830681746319628, -1.4802914603096438, 1.7686798484321447, 3.143126634377679], 0.5, 0.5, 0.04, 0.05, 300)

2025-07-07 17:22:07,753 - gym_custom_envs_real_ur_drivers_URBasic_realTimeClientEvent - INFO - Program send to Robot:
servoj([0.05829126993965428, -1.6198837120072371, -1.5830681731133218, -1.4802914603096438, 1.7686798484321447, 3.143126634377679], 0.5, 0.5, 0.04, 0.05, 300)

2025-07-07 17:22:07,761 - gym_custom_envs_real_ur_drivers_URBasic_realTimeClientEvent - INFO - Program send to Robot:
servoj([0.05829126993965428, -1.6198837120072371, -1.5830681730981355, -1.4802914603096438, 1.7686798484321447, 3.143126634377679], 0.5, 0.5, 0.04, 0.05, 300)

2025-07-07 17:22:07,778 - gym_custom_envs_real_ur_drivers_URBasic_realTimeClientEvent - INFO - Program send to Robot:
servoj([0.05829126993965428, -1.6198837120072371, -1.5830681730979836, -1.4802914603096438, 1.7686798484321447, 3.143126634377679], 0.5, 0.5, 0.04, 0.05, 300)

2025-07-07 17:22:07,786 - gym_custom_envs_real_ur_drivers_URBasic_realTimeClientEvent - INFO - Program send to Robot:
servoj([0.05829126993965428, -1.6198837120072371, -1.583068173097982, -1.4802914603096438, 1.7686798484321447, 3.143126634377679], 0.5, 0.5, 0.04, 0.05, 300)

2025-07-07 17:22:07,794 - gym_custom_envs_real_ur_drivers_URBasic_realTimeClientEvent - INFO - Program send to Robot:
servoj([0.05829126993965428, -1.6198837120072371, -1.583068173097982, -1.4802914603096438, 1.7686798484321447, 3.143126634377679], 0.5, 0.5, 0.04, 0.05, 300)

2025-07-07 17:22:07,802 - gym_custom_envs_real_ur_drivers_URBasic_realTimeClientEvent - INFO - Program send to Robot:
servoj([0.05829126993965428, -1.6198837120072371, -1.583068173097982, -1.4802914603096438, 1.7686798484321447, 3.143126634377679], 0.5, 0.5, 0.04, 0.05, 300)

2025-07-07 17:22:07,817 - gym_custom_envs_real_ur_drivers_URBasic_realTimeClientEvent - INFO - Program send to Robot:
servoj([0.05829126993965428, -1.6198837120072371, -1.583068173097982, -1.4802914603096438, 1.7686798484321447, 3.143126634377679], 0.5, 0.5, 0.04, 0.05, 300)

2025-07-07 17:22:07,825 - gym_custom_envs_real_ur_drivers_URBasic_realTimeClientEvent - INFO - Program send to Robot:
servoj([0.05829126993965428, -1.6198837120072371, -1.583068173097982, -1.4802914603096438, 1.7686798484321447, 3.143126634377679], 0.5, 0.5, 0.04, 0.05, 300)

2025-07-07 17:22:07,833 - gym_custom_envs_real_ur_drivers_URBasic_realTimeClientEvent - INFO - Program send to Robot:
servoj([0.05829126993965428, -1.6198837120072371, -1.583068173097982, -1.4802914603096438, 1.7686798484321447, 3.143126634377679], 0.5, 0.5, 0.04, 0.05, 300)

2025-07-07 17:22:07,850 - gym_custom_envs_real_ur_drivers_URBasic_realTimeClientEvent - INFO - Program send to Robot:
servoj([0.05829126993965428, -1.6198837120072371, -1.583068173097982, -1.4802914603096438, 1.7686798484321447, 3.143126634377679], 0.5, 0.5, 0.04, 0.05, 300)

2025-07-07 17:22:07,857 - gym_custom_envs_real_ur_drivers_URBasic_realTimeClientEvent - INFO - Program send to Robot:
servoj([0.05829126993965428, -1.6198837120072371, -1.583068173097982, -1.4802914603096438, 1.7686798484321447, 3.143126634377679], 0.5, 0.5, 0.04, 0.05, 300)

2025-07-07 17:22:07,866 - gym_custom_envs_real_ur_drivers_URBasic_realTimeClientEvent - INFO - Program send to Robot:
servoj([0.05829126993965428, -1.6198837120072371, -1.583068173097982, -1.4802914603096438, 1.7686798484321447, 3.143126634377679], 0.5, 0.5, 0.04, 0.05, 300)

2025-07-07 17:22:07,873 - gym_custom_envs_real_ur_drivers_URBasic_realTimeClientEvent - INFO - Program send to Robot:
servoj([0.05829126993965428, -1.6198837120072371, -1.583068173097982, -1.4802914603096438, 1.7686798484321447, 3.143126634377679], 0.5, 0.5, 0.04, 0.05, 300)

2025-07-07 17:22:07,889 - gym_custom_envs_real_ur_drivers_URBasic_realTimeClientEvent - INFO - Program send to Robot:
servoj([0.05829126993965428, -1.6198837120072371, -1.581549532117975, -1.4802914603096438, 1.7686798484321447, 3.143126634377679], 0.5, 0.5, 0.04, 0.05, 300)

2025-07-07 17:22:07,898 - gym_custom_envs_real_ur_drivers_URBasic_realTimeClientEvent - INFO - Program send to Robot:
servoj([0.05829126993965428, -1.6198837120072371, -1.581534345708175, -1.4802914603096438, 1.7686798484321447, 3.143126634377679], 0.5, 0.5, 0.04, 0.05, 300)

2025-07-07 17:22:07,906 - gym_custom_envs_real_ur_drivers_URBasic_realTimeClientEvent - INFO - Program send to Robot:
servoj([0.05829126993965428, -1.6198837120072371, -1.581534193844077, -1.4802914603096438, 1.7686798484321447, 3.143126634377679], 0.5, 0.5, 0.04, 0.05, 300)

2025-07-07 17:22:07,914 - gym_custom_envs_real_ur_drivers_URBasic_realTimeClientEvent - INFO - Program send to Robot:
servoj([0.05829126993965428, -1.6198837120072371, -1.5800155513454293, -1.4802914603096438, 1.7656425664721307, 3.143126634377679], 0.5, 0.5, 0.04, 0.05, 300)

2025-07-07 17:22:07,930 - gym_custom_envs_real_ur_drivers_URBasic_realTimeClientEvent - INFO - Program send to Robot:
servoj([0.05829126993965428, -1.6198837120072371, -1.5800003649204428, -1.4802914603096438, 1.7656121936525306, 3.143126634377679], 0.5, 0.5, 0.04, 0.05, 300)

2025-07-07 17:22:07,938 - gym_custom_envs_real_ur_drivers_URBasic_realTimeClientEvent - INFO - Program send to Robot:
servoj([0.05829126993965428, -1.6198837120072371, -1.580000213056193, -1.4802914603096438, 1.7656118899243345, 3.143126634377679], 0.5, 0.5, 0.04, 0.05, 300)

2025-07-07 17:22:07,946 - gym_custom_envs_real_ur_drivers_URBasic_realTimeClientEvent - INFO - Program send to Robot:
servoj([0.05829126993965428, -1.6198837120072371, -1.5769629295775365, -1.4802914603096438, 1.7656118868870527, 3.143126634377679], 0.5, 0.5, 0.04, 0.05, 300)

2025-07-07 17:22:07,953 - gym_custom_envs_real_ur_drivers_URBasic_realTimeClientEvent - INFO - Program send to Robot:
servoj([0.05829126993965428, -1.6198837120072371, -1.57693255674275, -1.4802914603096438, 1.76561188685668, 3.143126634377679], 0.5, 0.5, 0.04, 0.05, 300)

2025-07-07 17:22:07,971 - gym_custom_envs_real_ur_drivers_URBasic_realTimeClientEvent - INFO - Program send to Robot:
servoj([0.05829126993965428, -1.6198837120072371, -1.576932253014402, -1.4802914603096438, 1.7656118868563762, 3.143126634377679], 0.5, 0.5, 0.04, 0.05, 300)

2025-07-07 17:22:07,978 - gym_custom_envs_real_ur_drivers_URBasic_realTimeClientEvent - INFO - Program send to Robot:
servoj([0.056772628959647777, -1.6198837120072371, -1.5738949680171055, -1.4802914603096438, 1.765611886856373, 3.143126634377679], 0.5, 0.5, 0.04, 0.05, 300)

2025-07-07 17:22:07,986 - gym_custom_envs_real_ur_drivers_URBasic_realTimeClientEvent - INFO - Program send to Robot:
servoj([0.05675744254984771, -1.6198837120072371, -1.5738645951671324, -1.4802914603096438, 1.765611886856373, 3.143126634377679], 0.5, 0.5, 0.04, 0.05, 300)

2025-07-07 17:22:07,994 - gym_custom_envs_real_ur_drivers_URBasic_realTimeClientEvent - INFO - Program send to Robot:
servoj([0.05675729068574971, -1.6198837120072371, -1.5738642914386327, -1.4802914603096438, 1.765611886856373, 3.143126634377679], 0.5, 0.5, 0.04, 0.05, 300)

2025-07-07 17:22:08,009 - gym_custom_envs_real_ur_drivers_URBasic_realTimeClientEvent - INFO - Program send to Robot:
servoj([0.05675728916710873, -1.6198837120072371, -1.5723456474213409, -1.4802914603096438, 1.765611886856373, 3.143126634377679], 0.5, 0.5, 0.04, 0.05, 300)

2025-07-07 17:22:08,017 - gym_custom_envs_real_ur_drivers_URBasic_realTimeClientEvent - INFO - Program send to Robot:
servoj([0.05675728915192232, -1.6198837120072371, -1.572330460981168, -1.4802914603096438, 1.765611886856373, 3.143126634377679], 0.5, 0.5, 0.04, 0.05, 300)

2025-07-07 17:22:08,026 - gym_custom_envs_real_ur_drivers_URBasic_realTimeClientEvent - INFO - Program send to Robot:
servoj([0.05675728915177045, -1.6198837120072371, -1.5723303091167662, -1.4802914603096438, 1.765611886856373, 3.143126634377679], 0.5, 0.5, 0.04, 0.05, 300)

2025-07-07 17:22:08,042 - gym_custom_envs_real_ur_drivers_URBasic_realTimeClientEvent - INFO - Program send to Robot:
servoj([0.05675728915176893, -1.6198837120072371, -1.5692930256381084, -1.4802914603096438, 1.765611886856373, 3.143126634377679], 0.5, 0.5, 0.04, 0.05, 300)

2025-07-07 17:22:08,049 - gym_custom_envs_real_ur_drivers_URBasic_realTimeClientEvent - INFO - Program send to Robot:
servoj([0.05675728915176892, -1.6198837120072371, -1.5692626528033218, -1.4802914603096438, 1.765611886856373, 3.143126634377679], 0.5, 0.5, 0.04, 0.05, 300)

2025-07-07 17:22:08,057 - gym_custom_envs_real_ur_drivers_URBasic_realTimeClientEvent - INFO - Program send to Robot:
servoj([0.05675728915176892, -1.6198837120072371, -1.569262349074974, -1.4802914603096438, 1.765611886856373, 3.143126634377679], 0.5, 0.5, 0.04, 0.05, 300)

2025-07-07 17:22:08,065 - gym_custom_envs_real_ur_drivers_URBasic_realTimeClientEvent - INFO - Program send to Robot:
servoj([0.05675728915176892, -1.6198837120072371, -1.5692623460376904, -1.4802914603096438, 1.765611886856373, 3.143126634377679], 0.5, 0.5, 0.04, 0.05, 300)

2025-07-07 17:22:08,082 - gym_custom_envs_real_ur_drivers_URBasic_realTimeClientEvent - INFO - Program send to Robot:
servoj([0.05675728915176892, -1.6198837120072371, -1.5677437050273106, -1.4802914603096438, 1.765611886856373, 3.143126634377679], 0.5, 0.5, 0.04, 0.05, 300)

2025-07-07 17:22:08,090 - gym_custom_envs_real_ur_drivers_URBasic_realTimeClientEvent - INFO - Program send to Robot:
servoj([0.05675728915176892, -1.6198837120072371, -1.5677285186172067, -1.4802914603096438, 1.765611886856373, 3.143126634377679], 0.5, 0.5, 0.04, 0.05, 300)

2025-07-07 17:22:08,103 - gym_custom_envs_real_ur_drivers_URBasic_realTimeClientEvent - INFO - Program send to Robot:
servoj([0.05675728915176892, -1.6198837120072371, -1.567728366753106, -1.4802914603096438, 1.765611886856373, 3.143126634377679], 0.5, 0.5, 0.04, 0.05, 300)

2025-07-07 17:22:08,117 - gym_custom_envs_real_ur_drivers_URBasic_realTimeClientEvent - INFO - Program send to Robot:
servoj([0.05675728915176892, -1.6198837120072371, -1.5677283652344647, -1.4802914603096438, 1.765611886856373, 3.141607993397672], 0.5, 0.5, 0.04, 0.05, 300)

2025-07-07 17:22:08,129 - gym_custom_envs_real_ur_drivers_URBasic_realTimeClientEvent - INFO - Program send to Robot:
servoj([0.05675728915176892, -1.6198837120072371, -1.5677283652192784, -1.4802914603096438, 1.765611886856373, 3.1415928069878722], 0.5, 0.5, 0.04, 0.05, 300)

2025-07-07 17:22:08,137 - gym_custom_envs_real_ur_drivers_URBasic_realTimeClientEvent - INFO - Program send to Robot:
servoj([0.05675728915176892, -1.6198837120072371, -1.5677283652191265, -1.4802914603096438, 1.765611886856373, 3.143111296103781], 0.5, 0.5, 0.04, 0.05, 300)

2025-07-07 17:22:08,146 - gym_custom_envs_real_ur_drivers_URBasic_realTimeClientEvent - INFO - Program send to Robot:
servoj([0.05675728915176892, -1.6198837120072371, -1.567728365219125, -1.4802914603096438, 1.765611886856373, 3.14312648099494], 0.5, 0.5, 0.04, 0.05, 300)

2025-07-07 17:22:08,161 - gym_custom_envs_real_ur_drivers_URBasic_realTimeClientEvent - INFO - Program send to Robot:
servoj([0.05675728915176892, -1.6198837120072371, -1.567728365219125, -1.4802914603096438, 1.765611886856373, 3.1431266328438516], 0.5, 0.5, 0.04, 0.05, 300)

2025-07-07 17:22:08,169 - gym_custom_envs_real_ur_drivers_URBasic_realTimeClientEvent - INFO - Program send to Robot:
servoj([0.055238648171761974, -1.6183650710272302, -1.5662097242391189, -1.4802914603096438, 1.765611886856373, 3.1416079933823338], 0.5, 0.5, 0.04, 0.05, 300)

2025-07-07 17:22:08,177 - gym_custom_envs_real_ur_drivers_URBasic_realTimeClientEvent - INFO - Program send to Robot:
servoj([0.055223461761961905, -1.6183498846174302, -1.5661945378293187, -1.4802914603096438, 1.765611886856373, 3.1415928069877186], 0.5, 0.5, 0.04, 0.05, 300)

2025-07-07 17:22:08,185 - gym_custom_envs_real_ur_drivers_URBasic_realTimeClientEvent - INFO - Program send to Robot:
servoj([0.055223309897863906, -1.618349732753332, -1.5661943859652208, -1.4802914603096438, 1.765611886856373, 3.1415926551237727], 0.5, 0.5, 0.04, 0.05, 300)

2025-07-07 17:22:08,202 - gym_custom_envs_real_ur_drivers_URBasic_realTimeClientEvent - INFO - Program send to Robot:
servoj([0.05522330837922292, -1.6183497312346913, -1.5646757434665728, -1.4818101012896503, 1.765611886856373, 3.14311129458514], 0.5, 0.5, 0.04, 0.05, 300)

2025-07-07 17:22:08,210 - gym_custom_envs_real_ur_drivers_URBasic_realTimeClientEvent - INFO - Program send to Robot:
servoj([0.055223308364036515, -1.6183497312195048, -1.5646605570415864, -1.4818252876994504, 1.765611886856373, 3.1431264809797534], 0.5, 0.5, 0.04, 0.05, 300)

2025-07-07 17:22:08,218 - gym_custom_envs_real_ur_drivers_URBasic_realTimeClientEvent - INFO - Program send to Robot:
servoj([0.05522330836388465, -1.6183497312193529, -1.5646604051773365, -1.4818254395635484, 1.765611886856373, 3.1431266328436998], 0.5, 0.5, 0.04, 0.05, 300)

2025-07-07 17:22:08,233 - gym_custom_envs_real_ur_drivers_URBasic_realTimeClientEvent - INFO - Program send to Robot:
servoj([0.05522330836388313, -1.6168310902393446, -1.563141762678687, -1.4818254410821894, 1.765611886856373, 3.1416079933823324], 0.5, 0.5, 0.04, 0.05, 300)

2025-07-07 17:22:08,241 - gym_custom_envs_real_ur_drivers_URBasic_realTimeClientEvent - INFO - Program send to Robot:
servoj([0.05522330836388312, -1.6168159038295447, -1.5631265762537006, -1.481825441097376, 1.765611886856373, 3.1415928069877186], 0.5, 0.5, 0.04, 0.05, 300)

2025-07-07 17:22:08,249 - gym_custom_envs_real_ur_drivers_URBasic_realTimeClientEvent - INFO - Program send to Robot:
servoj([0.05522330836388312, -1.6168157519654465, -1.5631264243894507, -1.4818254410975278, 1.765611886856373, 3.1415926551237727], 0.5, 0.5, 0.04, 0.05, 300)

2025-07-07 17:22:08,257 - gym_custom_envs_real_ur_drivers_URBasic_realTimeClientEvent - INFO - Program send to Robot:
servoj([0.05522330836388312, -1.6168157504468055, -1.5631264228708082, -1.4818254410975293, 1.765611886856373, 3.1415926536051333], 0.5, 0.5, 0.04, 0.05, 300)

2025-07-07 17:22:08,274 - gym_custom_envs_real_ur_drivers_URBasic_realTimeClientEvent - INFO - Program send to Robot:
servoj([0.05522330836388312, -1.6152971094516124, -1.5646450638356288, -1.4818254410975293, 1.764093245876366, 3.1415926535899468], 0.5, 0.5, 0.04, 0.05, 300)

2025-07-07 17:22:08,282 - gym_custom_envs_real_ur_drivers_URBasic_realTimeClientEvent - INFO - Program send to Robot:
servoj([0.05522330836388312, -1.6152819230416604, -1.5646602502452769, -1.4818254410975293, 1.764078059466566, 3.141592653589795], 0.5, 0.5, 0.04, 0.05, 300)

2025-07-07 17:22:08,290 - gym_custom_envs_real_ur_drivers_URBasic_realTimeClientEvent - INFO - Program send to Robot:
servoj([0.05522330836388312, -1.6152817711775609, -1.5646604021093735, -1.4818254410975293, 1.764077907602468, 3.141592653589793], 0.5, 0.5, 0.04, 0.05, 300)

2025-07-07 17:22:08,298 - gym_custom_envs_real_ur_drivers_URBasic_realTimeClientEvent - INFO - Program send to Robot:
servoj([0.05522330836388312, -1.61528176965892, -1.5631417626480075, -1.4818254410975293, 1.764077906083827, 3.141592653589793], 0.5, 0.5, 0.04, 0.05, 300)

2025-07-07 17:22:08,313 - gym_custom_envs_real_ur_drivers_URBasic_realTimeClientEvent - INFO - Program send to Robot:
servoj([0.05522330836388312, -1.6152817696437336, -1.5631265762533937, -1.4818254410975293, 1.7640779060686407, 3.141592653589793], 0.5, 0.5, 0.04, 0.05, 300)

2025-07-07 17:22:08,321 - gym_custom_envs_real_ur_drivers_URBasic_realTimeClientEvent - INFO - Program send to Robot:
servoj([0.05522330836388312, -1.6152817696435817, -1.5631264243894476, -1.4818254410975293, 1.7640779060684888, 3.141592653589793], 0.5, 0.5, 0.04, 0.05, 300)

2025-07-07 17:22:08,329 - gym_custom_envs_real_ur_drivers_URBasic_realTimeClientEvent - INFO - Program send to Robot:
servoj([0.05522330836388312, -1.6137631286635734, -1.5646450638508151, -1.4818254410975293, 1.7640779060684872, 3.1431112945698], 0.5, 0.5, 0.04, 0.05, 300)

2025-07-07 17:22:08,346 - gym_custom_envs_real_ur_drivers_URBasic_realTimeClientEvent - INFO - Program send to Robot:
servoj([0.05522330836388312, -1.6137479422537733, -1.5646602502454288, -1.4818254410975293, 1.7640779060684872, 3.1431264809796002], 0.5, 0.5, 0.04, 0.05, 300)

2025-07-07 17:22:08,354 - gym_custom_envs_real_ur_drivers_URBasic_realTimeClientEvent - INFO - Program send to Robot:
servoj([0.05522330836388312, -1.6137477903896753, -1.5646604021093748, -1.4818254410975293, 1.7640779060684872, 3.143126632843698], 0.5, 0.5, 0.04, 0.05, 300)

2025-07-07 17:22:08,362 - gym_custom_envs_real_ur_drivers_URBasic_realTimeClientEvent - INFO - Program send to Robot:
servoj([0.05522330836388312, -1.6137477888710343, -1.5646604036280145, -1.4818254410975293, 1.7640779060684872, 3.143126634362339], 0.5, 0.5, 0.04, 0.05, 300)

2025-07-07 17:22:08,377 - gym_custom_envs_real_ur_drivers_URBasic_realTimeClientEvent - INFO - Program send to Robot:
servoj([0.05522330836388312, -1.613747788855848, -1.5646604036432008, -1.4818254410975293, 1.7640779060684872, 3.1431266343775257], 0.5, 0.5, 0.04, 0.05, 300)

2025-07-07 17:22:08,385 - gym_custom_envs_real_ur_drivers_URBasic_realTimeClientEvent - INFO - Program send to Robot:
servoj([0.05522330836388312, -1.6137477888556961, -1.5646604036433527, -1.4818254410975293, 1.7640779060684872, 3.1431266343776776], 0.5, 0.5, 0.04, 0.05, 300)

2025-07-07 17:22:08,393 - gym_custom_envs_real_ur_drivers_URBasic_realTimeClientEvent - INFO - Program send to Robot:
servoj([0.05522330836388312, -1.6137477888556946, -1.5646604036433542, -1.4818254410975293, 1.7640779060684872, 3.141607993397672], 0.5, 0.5, 0.04, 0.05, 300)

2025-07-07 17:22:08,401 - gym_custom_envs_real_ur_drivers_URBasic_realTimeClientEvent - INFO - Program send to Robot:
servoj([0.05522330836388312, -1.6137477888556946, -1.5646604036433542, -1.4818254410975293, 1.7640779060684872, 3.1415928069878722], 0.5, 0.5, 0.04, 0.05, 300)

2025-07-07 17:22:08,418 - gym_custom_envs_real_ur_drivers_URBasic_realTimeClientEvent - INFO - Program send to Robot:
servoj([0.05522330836388312, -1.6137477888556946, -1.5646604036433542, -1.4818254410975293, 1.7640779060684872, 3.141592655123774], 0.5, 0.5, 0.04, 0.05, 300)

2025-07-07 17:22:08,426 - gym_custom_envs_real_ur_drivers_URBasic_realTimeClientEvent - INFO - Program send to Robot:
servoj([0.05522330836388312, -1.6137477888556946, -1.5646604036433542, -1.4818254410975293, 1.7640779060684872, 3.1415926536051333], 0.5, 0.5, 0.04, 0.05, 300)

2025-07-07 17:22:08,433 - gym_custom_envs_real_ur_drivers_URBasic_realTimeClientEvent - INFO - Program send to Robot:
servoj([0.05522330836388312, -1.6137477888556946, -1.5646604036433542, -1.4818254410975293, 1.7640779060684872, 3.1415926535899468], 0.5, 0.5, 0.04, 0.05, 300)

2025-07-07 17:22:08,441 - gym_custom_envs_real_ur_drivers_URBasic_realTimeClientEvent - INFO - Program send to Robot:
servoj([0.05522330836388312, -1.6137477888556946, -1.5646604036433542, -1.4818254410975293, 1.7640779060684872, 3.141592653589795], 0.5, 0.5, 0.04, 0.05, 300)

2025-07-07 17:22:08,460 - gym_custom_envs_real_ur_drivers_URBasic_realTimeClientEvent - INFO - Program send to Robot:
servoj([0.05522330836388312, -1.6137477888556946, -1.5646604036433542, -1.4818254410975293, 1.7640779060684872, 3.1431112945698], 0.5, 0.5, 0.04, 0.05, 300)

2025-07-07 17:22:08,465 - gym_custom_envs_real_ur_drivers_URBasic_realTimeClientEvent - INFO - Program send to Robot:
servoj([0.05522330836388312, -1.6137477888556946, -1.5646604036433542, -1.4818254410975293, 1.7640779060684872, 3.1431264809796002], 0.5, 0.5, 0.04, 0.05, 300)

2025-07-07 17:22:08,473 - gym_custom_envs_real_ur_drivers_URBasic_realTimeClientEvent - INFO - Program send to Robot:
servoj([0.05522330836388312, -1.6137477888556946, -1.5646604036433542, -1.4818254410975293, 1.7640779060684872, 3.143126632843698], 0.5, 0.5, 0.04, 0.05, 300)

2025-07-07 17:22:08,490 - gym_custom_envs_real_ur_drivers_URBasic_realTimeClientEvent - INFO - Program send to Robot:
servoj([0.05522330836388312, -1.6137477888556946, -1.5646604036433542, -1.4818254410975293, 1.7655965470484942, 3.143126634362339], 0.5, 0.5, 0.04, 0.05, 300)

2025-07-07 17:22:08,498 - gym_custom_envs_real_ur_drivers_URBasic_realTimeClientEvent - INFO - Program send to Robot:
servoj([0.05522330836388312, -1.6137477888556946, -1.5646604036433542, -1.4818254410975293, 1.7656117334582941, 3.1431266343775257], 0.5, 0.5, 0.04, 0.05, 300)

2025-07-07 17:22:08,506 - gym_custom_envs_real_ur_drivers_URBasic_realTimeClientEvent - INFO - Program send to Robot:
servoj([0.05522330836388312, -1.6137477888556946, -1.5646604036433542, -1.4818254410975293, 1.7656118853223923, 3.1431266343776776], 0.5, 0.5, 0.04, 0.05, 300)

2025-07-07 17:22:08,514 - gym_custom_envs_real_ur_drivers_URBasic_realTimeClientEvent - INFO - Program send to Robot:
servoj([0.05522330836388312, -1.6137477888556946, -1.5646604036433542, -1.4818254410975293, 1.7656118868410333, 3.143126634377679], 0.5, 0.5, 0.04, 0.05, 300)

2025-07-07 17:22:08,529 - gym_custom_envs_real_ur_drivers_URBasic_realTimeClientEvent - INFO - Program send to Robot:
servoj([0.05522330836388312, -1.6137477888556946, -1.5646604036433542, -1.4818254410975293, 1.7656118868562196, 3.143126634377679], 0.5, 0.5, 0.04, 0.05, 300)

2025-07-07 17:22:08,537 - gym_custom_envs_real_ur_drivers_URBasic_realTimeClientEvent - INFO - Program send to Robot:
servoj([0.05522330836388312, -1.6137477888556946, -1.5646604036433542, -1.4818254410975293, 1.7656118868563715, 3.143126634377679], 0.5, 0.5, 0.04, 0.05, 300)

2025-07-07 17:22:08,545 - gym_custom_envs_real_ur_drivers_URBasic_realTimeClientEvent - INFO - Program send to Robot:
servoj([0.05522330836388312, -1.6137477888556946, -1.5646604036433542, -1.4818254410975293, 1.765611886856373, 3.143126634377679], 0.5, 0.5, 0.04, 0.05, 300)

2025-07-07 17:22:08,561 - gym_custom_envs_real_ur_drivers_URBasic_realTimeClientEvent - INFO - Program send to Robot:
servoj([0.05522330836388312, -1.6137477888556946, -1.5646604036433542, -1.4818254410975293, 1.764093245876366, 3.141607993397672], 0.5, 0.5, 0.04, 0.05, 300)

2025-07-07 17:22:08,570 - gym_custom_envs_real_ur_drivers_URBasic_realTimeClientEvent - INFO - Program send to Robot:
servoj([0.05522330836388312, -1.6137477888556946, -1.5646604036433542, -1.4818254410975293, 1.764078059466566, 3.1415928069878722], 0.5, 0.5, 0.04, 0.05, 300)

2025-07-07 17:22:08,578 - gym_custom_envs_real_ur_drivers_URBasic_realTimeClientEvent - INFO - Program send to Robot:
servoj([0.05522330836388312, -1.6137477888556946, -1.5646604036433542, -1.4818254410975293, 1.764077907602468, 3.141592655123774], 0.5, 0.5, 0.04, 0.05, 300)

2025-07-07 17:22:08,587 - gym_custom_envs_real_ur_drivers_URBasic_realTimeClientEvent - INFO - Program send to Robot:
servoj([0.05522330836388312, -1.6137477888556946, -1.5646604036433542, -1.4818254410975293, 1.765596547063834, 3.14311129458514], 0.5, 0.5, 0.04, 0.05, 300)

2025-07-07 17:22:08,603 - gym_custom_envs_real_ur_drivers_URBasic_realTimeClientEvent - INFO - Program send to Robot:
servoj([0.05522330836388312, -1.6137477888556946, -1.5646604036433542, -1.4818254410975293, 1.7656117334584476, 3.1431264809797534], 0.5, 0.5, 0.04, 0.05, 300)

2025-07-07 17:22:08,610 - gym_custom_envs_real_ur_drivers_URBasic_realTimeClientEvent - INFO - Program send to Robot:
servoj([0.05522330836388312, -1.6137477888556946, -1.5646604036433542, -1.4818254410975293, 1.7656118853223937, 3.1431266328436998], 0.5, 0.5, 0.04, 0.05, 300)

2025-07-07 17:22:08,618 - gym_custom_envs_real_ur_drivers_URBasic_realTimeClientEvent - INFO - Program send to Robot:
servoj([0.05522330836388312, -1.6152664298357013, -1.5646604036433542, -1.4818254410975293, 1.7656118868410333, 3.1416079933823324], 0.5, 0.5, 0.04, 0.05, 300)

2025-07-07 17:22:08,634 - gym_custom_envs_real_ur_drivers_URBasic_realTimeClientEvent - INFO - Program send to Robot:
servoj([0.05522330836388312, -1.6152816162455013, -1.5646604036433542, -1.4818254410975293, 1.7656118868562196, 3.1415928069877186], 0.5, 0.5, 0.04, 0.05, 300)

2025-07-07 17:22:08,642 - gym_custom_envs_real_ur_drivers_URBasic_realTimeClientEvent - INFO - Program send to Robot:
servoj([0.05522330836388312, -1.6152817681095994, -1.5646604036433542, -1.4818254410975293, 1.7656118868563715, 3.1415926551237727], 0.5, 0.5, 0.04, 0.05, 300)

2025-07-07 17:22:08,649 - gym_custom_envs_real_ur_drivers_URBasic_realTimeClientEvent - INFO - Program send to Robot:
servoj([0.05522330836388312, -1.6152817696282404, -1.5646604036433542, -1.4818254410975293, 1.765611886856373, 3.14311129458514], 0.5, 0.5, 0.04, 0.05, 300)

2025-07-07 17:22:08,657 - gym_custom_envs_real_ur_drivers_URBasic_realTimeClientEvent - INFO - Program send to Robot:
servoj([0.05522330836388312, -1.6152817696434267, -1.5646604036433542, -1.4818254410975293, 1.765611886856373, 3.1431264809797534], 0.5, 0.5, 0.04, 0.05, 300)

2025-07-07 17:22:08,674 - gym_custom_envs_real_ur_drivers_URBasic_realTimeClientEvent - INFO - Program send to Robot:
servoj([0.05522330836388312, -1.6152817696435786, -1.5646604036433542, -1.4818254410975293, 1.765611886856373, 3.1431266328436998], 0.5, 0.5, 0.04, 0.05, 300)

2025-07-07 17:22:08,682 - gym_custom_envs_real_ur_drivers_URBasic_realTimeClientEvent - INFO - Program send to Robot:
servoj([0.05522330836388312, -1.6152817696435802, -1.5646604036433542, -1.4818254410975293, 1.765611886856373, 3.143126634362339], 0.5, 0.5, 0.04, 0.05, 300)

2025-07-07 17:22:08,690 - gym_custom_envs_real_ur_drivers_URBasic_realTimeClientEvent - INFO - Program send to Robot:
servoj([0.05522330836388312, -1.6152817696435802, -1.5646604036433542, -1.4818254410975293, 1.765611886856373, 3.1431266343775257], 0.5, 0.5, 0.04, 0.05, 300)

2025-07-07 17:22:08,698 - gym_custom_envs_real_ur_drivers_URBasic_realTimeClientEvent - INFO - Program send to Robot:
servoj([0.05522330836388312, -1.6152817696435802, -1.5646604036433542, -1.4818254410975293, 1.765611886856373, 3.1431266343776776], 0.5, 0.5, 0.04, 0.05, 300)

2025-07-07 17:22:08,714 - gym_custom_envs_real_ur_drivers_URBasic_realTimeClientEvent - INFO - Program send to Robot:
servoj([0.05522330836388312, -1.6152817696435802, -1.5646604036433542, -1.4818254410975293, 1.765611886856373, 3.141607993397672], 0.5, 0.5, 0.04, 0.05, 300)

2025-07-07 17:22:08,721 - gym_custom_envs_real_ur_drivers_URBasic_realTimeClientEvent - INFO - Program send to Robot:
servoj([0.05522330836388312, -1.6152817696435802, -1.5646604036433542, -1.4818254410975293, 1.765611886856373, 3.1415928069878722], 0.5, 0.5, 0.04, 0.05, 300)

2025-07-07 17:22:08,729 - gym_custom_envs_real_ur_drivers_URBasic_realTimeClientEvent - INFO - Program send to Robot:
servoj([0.05522330836388312, -1.6152817696435802, -1.5646604036433542, -1.4818254410975293, 1.765611886856373, 3.141592655123774], 0.5, 0.5, 0.04, 0.05, 300)

2025-07-07 17:22:08,746 - gym_custom_envs_real_ur_drivers_URBasic_realTimeClientEvent - INFO - Program send to Robot:
servoj([0.05522330836388312, -1.6152817696435802, -1.5661790446233612, -1.4818254410975293, 1.765611886856373, 3.1415926536051333], 0.5, 0.5, 0.04, 0.05, 300)

2025-07-07 17:22:08,754 - gym_custom_envs_real_ur_drivers_URBasic_realTimeClientEvent - INFO - Program send to Robot:
servoj([0.05522330836388312, -1.6152817696435802, -1.5661942310331614, -1.4818254410975293, 1.765611886856373, 3.1415926535899468], 0.5, 0.5, 0.04, 0.05, 300)

2025-07-07 17:22:08,761 - gym_custom_envs_real_ur_drivers_URBasic_realTimeClientEvent - INFO - Program send to Robot:
servoj([0.05522330836388312, -1.6152817696435802, -1.5661943828972593, -1.4818254410975293, 1.765611886856373, 3.141592653589795], 0.5, 0.5, 0.04, 0.05, 300)

2025-07-07 17:22:08,769 - gym_custom_envs_real_ur_drivers_URBasic_realTimeClientEvent - INFO - Program send to Robot:
servoj([0.05522330836388312, -1.6152817696435802, -1.5661943844159003, -1.4818254410975293, 1.765611886856373, 3.141592653589793], 0.5, 0.5, 0.04, 0.05, 300)

2025-07-07 17:22:08,786 - gym_custom_envs_real_ur_drivers_URBasic_realTimeClientEvent - INFO - Program send to Robot:
servoj([0.05522330836388312, -1.6152817696435802, -1.5661943844310866, -1.4818254410975293, 1.765611886856373, 3.141592653589793], 0.5, 0.5, 0.04, 0.05, 300)

2025-07-07 17:22:08,793 - gym_custom_envs_real_ur_drivers_URBasic_realTimeClientEvent - INFO - Program send to Robot:
servoj([0.05522330836388312, -1.6152817696435802, -1.5661943844312385, -1.4818254410975293, 1.765611886856373, 3.141592653589793], 0.5, 0.5, 0.04, 0.05, 300)

2025-07-07 17:22:08,801 - gym_custom_envs_real_ur_drivers_URBasic_realTimeClientEvent - INFO - Program send to Robot:
servoj([0.05522330836388312, -1.6152817696435802, -1.56619438443124, -1.4818254410975293, 1.765611886856373, 3.141592653589793], 0.5, 0.5, 0.04, 0.05, 300)

2025-07-07 17:22:08,809 - gym_custom_envs_real_ur_drivers_URBasic_realTimeClientEvent - INFO - Program send to Robot:
servoj([0.05674194934389006, -1.6152817696435802, -1.56619438443124, -1.4818254410975293, 1.765611886856373, 3.141592653589793], 0.5, 0.5, 0.04, 0.05, 300)

2025-07-07 17:22:08,826 - gym_custom_envs_real_ur_drivers_URBasic_realTimeClientEvent - INFO - Program send to Robot:
servoj([0.05675713575369013, -1.6152817696435802, -1.56619438443124, -1.4818254410975293, 1.765611886856373, 3.141592653589793], 0.5, 0.5, 0.04, 0.05, 300)

2025-07-07 17:22:08,834 - gym_custom_envs_real_ur_drivers_URBasic_realTimeClientEvent - INFO - Program send to Robot:
servoj([0.05675728761778813, -1.6152817696435802, -1.56619438443124, -1.4818254410975293, 1.765611886856373, 3.141592653589793], 0.5, 0.5, 0.04, 0.05, 300)

2025-07-07 17:22:08,841 - gym_custom_envs_real_ur_drivers_URBasic_realTimeClientEvent - INFO - Program send to Robot:
servoj([0.056757289136429113, -1.6152817696435802, -1.5677130254112461, -1.4818254410975293, 1.765611886856373, 3.141592653589793], 0.5, 0.5, 0.04, 0.05, 300)

2025-07-07 17:22:08,850 - gym_custom_envs_real_ur_drivers_URBasic_realTimeClientEvent - INFO - Program send to Robot:
servoj([0.05675728915161552, -1.6152817696435802, -1.5677282118210463, -1.4818254410975293, 1.765611886856373, 3.141592653589793], 0.5, 0.5, 0.04, 0.05, 300)

2025-07-07 17:22:08,865 - gym_custom_envs_real_ur_drivers_URBasic_realTimeClientEvent - INFO - Program send to Robot:
servoj([0.056757289151767386, -1.6152817696435802, -1.5677283636851442, -1.4818254410975293, 1.765611886856373, 3.141592653589793], 0.5, 0.5, 0.04, 0.05, 300)

2025-07-07 17:22:08,874 - gym_custom_envs_real_ur_drivers_URBasic_realTimeClientEvent - INFO - Program send to Robot:
servoj([0.056757289151768905, -1.6152817696435802, -1.5692470061837922, -1.4818254410975293, 1.765611886856373, 3.141592653589793], 0.5, 0.5, 0.04, 0.05, 300)

2025-07-07 17:22:08,882 - gym_custom_envs_real_ur_drivers_URBasic_realTimeClientEvent - INFO - Program send to Robot:
servoj([0.05675728915176892, -1.6152817696435802, -1.5692621926087786, -1.4818254410975293, 1.765611886856373, 3.141592653589793], 0.5, 0.5, 0.04, 0.05, 300)

2025-07-07 17:22:08,890 - gym_custom_envs_real_ur_drivers_URBasic_realTimeClientEvent - INFO - Program send to Robot:
servoj([0.05675728915176892, -1.6152817696435802, -1.5692623444730285, -1.4818254410975293, 1.765611886856373, 3.141592653589793], 0.5, 0.5, 0.04, 0.05, 300)

2025-07-07 17:22:08,905 - gym_custom_envs_real_ur_drivers_URBasic_realTimeClientEvent - INFO - Program send to Robot:
servoj([0.05675728915176892, -1.6152817696435802, -1.570780986971678, -1.483344082077536, 1.765611886856373, 3.140074012609786], 0.5, 0.5, 0.04, 0.05, 300)

2025-07-07 17:22:08,914 - gym_custom_envs_real_ur_drivers_URBasic_realTimeClientEvent - INFO - Program send to Robot:
servoj([0.05675728915176892, -1.6152817696435802, -1.5707961733966644, -1.483359268487336, 1.765611886856373, 3.140058826199986], 0.5, 0.5, 0.04, 0.05, 300)

2025-07-07 17:22:08,929 - gym_custom_envs_real_ur_drivers_URBasic_realTimeClientEvent - INFO - Program send to Robot:
servoj([0.05675728915176892, -1.6152817696435802, -1.5707963252609143, -1.483359420351434, 1.765611886856373, 3.1400586743358883], 0.5, 0.5, 0.04, 0.05, 300)

2025-07-07 17:22:08,938 - gym_custom_envs_real_ur_drivers_URBasic_realTimeClientEvent - INFO - Program send to Robot:
servoj([0.05675728915176892, -1.6152817696435802, -1.5707963267795568, -1.483359421870075, 1.765611886856373, 3.140058672817247], 0.5, 0.5, 0.04, 0.05, 300)

2025-07-07 17:22:08,954 - gym_custom_envs_real_ur_drivers_URBasic_realTimeClientEvent - INFO - Program send to Robot:
servoj([0.05675728915176892, -1.6152817696435802, -1.5707963267947433, -1.4833594218852615, 1.765611886856373, 3.1400586728020605], 0.5, 0.5, 0.04, 0.05, 300)

2025-07-07 17:22:08,964 - gym_custom_envs_real_ur_drivers_URBasic_realTimeClientEvent - INFO - Program send to Robot:
servoj([0.05675728915176892, -1.6152817696435802, -1.5707963267948952, -1.4833594218854134, 1.765611886856373, 3.1400586728019086], 0.5, 0.5, 0.04, 0.05, 300)

2025-07-07 17:22:08,970 - gym_custom_envs_real_ur_drivers_URBasic_realTimeClientEvent - INFO - Program send to Robot:
servoj([0.05675728915176892, -1.6152817696435802, -1.5707963267948966, -1.483359421885415, 1.768649168816387, 3.1400586728019073], 0.5, 0.5, 0.04, 0.05, 300)

2025-07-07 17:22:08,986 - gym_custom_envs_real_ur_drivers_URBasic_realTimeClientEvent - INFO - Program send to Robot:
servoj([0.05675728915176892, -1.6152817696435802, -1.5707963267948966, -1.483359421885415, 1.768679541635987, 3.1400586728019073], 0.5, 0.5, 0.04, 0.05, 300)

2025-07-07 17:22:08,994 - gym_custom_envs_real_ur_drivers_URBasic_realTimeClientEvent - INFO - Program send to Robot:
servoj([0.05675728915176892, -1.6152817696435802, -1.5707963267948966, -1.483359421885415, 1.7686798453641832, 3.1400586728019073], 0.5, 0.5, 0.04, 0.05, 300)

2025-07-07 17:22:09,001 - gym_custom_envs_real_ur_drivers_URBasic_realTimeClientEvent - INFO - Program send to Robot:
servoj([0.05675728915176892, -1.6152817696435802, -1.5707963267948966, -1.484878062865422, 1.768679848401465, 3.1385400318219006], 0.5, 0.5, 0.04, 0.05, 300)

2025-07-07 17:22:09,010 - gym_custom_envs_real_ur_drivers_URBasic_realTimeClientEvent - INFO - Program send to Robot:
servoj([0.05675728915176892, -1.6152817696435802, -1.5707963267948966, -1.4848932492752218, 1.7686798484318378, 3.1385248454121006], 0.5, 0.5, 0.04, 0.05, 300)

2025-07-07 17:22:09,026 - gym_custom_envs_real_ur_drivers_URBasic_realTimeClientEvent - INFO - Program send to Robot:
servoj([0.05675728915176892, -1.6152817696435802, -1.5707963267948966, -1.48489340113932, 1.7686798484321415, 3.1385246935480025], 0.5, 0.5, 0.04, 0.05, 300)

2025-07-07 17:22:09,034 - gym_custom_envs_real_ur_drivers_URBasic_realTimeClientEvent - INFO - Program send to Robot:
servoj([0.05675728915176892, -1.6152817696435802, -1.5707963267948966, -1.484893402657961, 1.7686798484321447, 3.1385246920293612], 0.5, 0.5, 0.04, 0.05, 300)

2025-07-07 17:22:09,041 - gym_custom_envs_real_ur_drivers_URBasic_realTimeClientEvent - INFO - Program send to Robot:
servoj([0.05675728915176892, -1.6152817696435802, -1.5707963267948966, -1.4848934026731473, 1.7686798484321447, 3.138524692014175], 0.5, 0.5, 0.04, 0.05, 300)

2025-07-07 17:22:09,049 - gym_custom_envs_real_ur_drivers_URBasic_realTimeClientEvent - INFO - Program send to Robot:
servoj([0.05675728915176892, -1.6152817696435802, -1.5707963267948966, -1.4848934026732992, 1.7686798484321447, 3.1385246920140233], 0.5, 0.5, 0.04, 0.05, 300)

2025-07-07 17:22:09,066 - gym_custom_envs_real_ur_drivers_URBasic_realTimeClientEvent - INFO - Program send to Robot:
servoj([0.05675728915176892, -1.6152817696435802, -1.5707963267948966, -1.4864120436533075, 1.7686798484321447, 3.1385246920140215], 0.5, 0.5, 0.04, 0.05, 300)

2025-07-07 17:22:09,074 - gym_custom_envs_real_ur_drivers_URBasic_realTimeClientEvent - INFO - Program send to Robot:
servoj([0.05675728915176892, -1.6152817696435802, -1.5707963267948966, -1.4864272300631076, 1.7686798484321447, 3.1385246920140215], 0.5, 0.5, 0.04, 0.05, 300)

2025-07-07 17:22:09,081 - gym_custom_envs_real_ur_drivers_URBasic_realTimeClientEvent - INFO - Program send to Robot:
servoj([0.05675728915176892, -1.6152817696435802, -1.5707963267948966, -1.4864273819272056, 1.7686798484321447, 3.1385246920140215], 0.5, 0.5, 0.04, 0.05, 300)

2025-07-07 17:22:09,090 - gym_custom_envs_real_ur_drivers_URBasic_realTimeClientEvent - INFO - Program send to Robot:
servoj([0.05675728915176892, -1.6152817696435802, -1.5707963267948966, -1.4864273834458466, 1.7686798484321447, 3.1385246920140215], 0.5, 0.5, 0.04, 0.05, 300)

2025-07-07 17:22:09,105 - gym_custom_envs_real_ur_drivers_URBasic_realTimeClientEvent - INFO - Program send to Robot:
servoj([0.05675728915176892, -1.6152817696435802, -1.5707963267948966, -1.4894646654210466, 1.7686798484321447, 3.1385246920140215], 0.5, 0.5, 0.04, 0.05, 300)

2025-07-07 17:22:09,113 - gym_custom_envs_real_ur_drivers_URBasic_realTimeClientEvent - INFO - Program send to Robot:
servoj([0.05675728915176892, -1.6152817696435802, -1.5707963267948966, -1.4894950382407988, 1.7686798484321447, 3.1385246920140215], 0.5, 0.5, 0.04, 0.05, 300)

2025-07-07 17:22:09,122 - gym_custom_envs_real_ur_drivers_URBasic_realTimeClientEvent - INFO - Program send to Robot:
servoj([0.05675728915176892, -1.6152817696435802, -1.5707963267948966, -1.4894953419689962, 1.7686798484321447, 3.1385246920140215], 0.5, 0.5, 0.04, 0.05, 300)

2025-07-07 17:22:09,137 - gym_custom_envs_real_ur_drivers_URBasic_realTimeClientEvent - INFO - Program send to Robot:
servoj([0.05675728915176892, -1.6152817696435802, -1.5707963267948966, -1.4894953450062782, 1.7701984894121507, 3.1385246920140215], 0.5, 0.5, 0.04, 0.05, 300)

2025-07-07 17:22:09,145 - gym_custom_envs_real_ur_drivers_URBasic_realTimeClientEvent - INFO - Program send to Robot:
servoj([0.05675728915176892, -1.6152817696435802, -1.5707963267948966, -1.489495345036651, 1.7702136758219509, 3.1385246920140215], 0.5, 0.5, 0.04, 0.05, 300)

2025-07-07 17:22:09,153 - gym_custom_envs_real_ur_drivers_URBasic_realTimeClientEvent - INFO - Program send to Robot:
servoj([0.05675728915176892, -1.6152817696435802, -1.5707963267948966, -1.4894953450369548, 1.7702138276860488, 3.1385246920140215], 0.5, 0.5, 0.04, 0.05, 300)

2025-07-07 17:22:09,161 - gym_custom_envs_real_ur_drivers_URBasic_realTimeClientEvent - INFO - Program send to Robot:
servoj([0.05675728915176892, -1.6152817696435802, -1.5707963267948966, -1.4910139860169642, 1.7702138292046898, 3.1385246920140215], 0.5, 0.5, 0.04, 0.05, 300)

2025-07-07 17:22:09,178 - gym_custom_envs_real_ur_drivers_URBasic_realTimeClientEvent - INFO - Program send to Robot:
servoj([0.05675728915176892, -1.6152817696435802, -1.5707963267948966, -1.4910291724267644, 1.7702138292198761, 3.1385246920140215], 0.5, 0.5, 0.04, 0.05, 300)

2025-07-07 17:22:09,185 - gym_custom_envs_real_ur_drivers_URBasic_realTimeClientEvent - INFO - Program send to Robot:
servoj([0.05675728915176892, -1.6152817696435802, -1.5707963267948966, -1.4910293242908623, 1.770213829220028, 3.1385246920140215], 0.5, 0.5, 0.04, 0.05, 300)

2025-07-07 17:22:09,193 - gym_custom_envs_real_ur_drivers_URBasic_realTimeClientEvent - INFO - Program send to Robot:
servoj([0.05675728915176892, -1.6152817696435802, -1.5707963267948966, -1.49254796678951, 1.7702138292200296, 3.1385246920140215], 0.5, 0.5, 0.04, 0.05, 300)

2025-07-07 17:22:09,201 - gym_custom_envs_real_ur_drivers_URBasic_realTimeClientEvent - INFO - Program send to Robot:
servoj([0.05675728915176892, -1.6152817696435802, -1.5707963267948966, -1.4925631532144965, 1.7702138292200296, 3.1385246920140215], 0.5, 0.5, 0.04, 0.05, 300)

2025-07-07 17:22:09,218 - gym_custom_envs_real_ur_drivers_URBasic_realTimeClientEvent - INFO - Program send to Robot:
servoj([0.05675728915176892, -1.6152817696435802, -1.5707963267948966, -1.4925633050787463, 1.7702138292200296, 3.1385246920140215], 0.5, 0.5, 0.04, 0.05, 300)

2025-07-07 17:22:09,225 - gym_custom_envs_real_ur_drivers_URBasic_realTimeClientEvent - INFO - Program send to Robot:
servoj([0.05675728915176892, -1.6152817696435802, -1.5723149677749033, -1.4940819475773957, 1.7702138292200296, 3.1385246920140215], 0.5, 0.5, 0.04, 0.05, 300)

2025-07-07 17:22:09,233 - gym_custom_envs_real_ur_drivers_URBasic_realTimeClientEvent - INFO - Program send to Robot:
servoj([0.05675728915176892, -1.6152817696435802, -1.5723301541847035, -1.494097134002382, 1.7702138292200296, 3.1385246920140215], 0.5, 0.5, 0.04, 0.05, 300)

2025-07-07 17:22:09,241 - gym_custom_envs_real_ur_drivers_URBasic_realTimeClientEvent - INFO - Program send to Robot:
servoj([0.05675728915176892, -1.6152817696435802, -1.5723303060488014, -1.4940972858666322, 1.7702138292200296, 3.1385246920140215], 0.5, 0.5, 0.04, 0.05, 300)

2025-07-07 17:22:09,258 - gym_custom_envs_real_ur_drivers_URBasic_realTimeClientEvent - INFO - Program send to Robot:
servoj([0.05675728915176892, -1.6152817696435802, -1.5708116665874357, -1.5001718513053017, 1.7717324702000365, 3.1385246920140215], 0.5, 0.5, 0.04, 0.05, 300)

2025-07-07 17:22:09,266 - gym_custom_envs_real_ur_drivers_URBasic_realTimeClientEvent - INFO - Program send to Robot:
servoj([0.05675728915176892, -1.6152817696435802, -1.570796480192822, -1.5002325969596886, 1.7717476566098367, 3.1385246920140215], 0.5, 0.5, 0.04, 0.05, 300)

2025-07-07 17:22:09,274 - gym_custom_envs_real_ur_drivers_URBasic_realTimeClientEvent - INFO - Program send to Robot:
servoj([0.05675728915176892, -1.6152817696435802, -1.570796328328876, -1.5002332044162323, 1.7717478084739346, 3.1385246920140215], 0.5, 0.5, 0.04, 0.05, 300)

2025-07-07 17:22:09,281 - gym_custom_envs_real_ur_drivers_URBasic_realTimeClientEvent - INFO - Program send to Robot:
servoj([0.05675728915176892, -1.6152817696435802, -1.5707963268102365, -1.5002332104907978, 1.7717478099925756, 3.1385246920140215], 0.5, 0.5, 0.04, 0.05, 300)

2025-07-07 17:22:09,297 - gym_custom_envs_real_ur_drivers_URBasic_realTimeClientEvent - INFO - Program send to Robot:
servoj([0.05827593013177542, -1.6152817696435802, -1.57079632679505, -1.503270492511557, 1.7702291690277552, 3.1385246920140215], 0.5, 0.5, 0.04, 0.05, 300)

2025-07-07 17:22:09,305 - gym_custom_envs_real_ur_drivers_URBasic_realTimeClientEvent - INFO - Program send to Robot:
servoj([0.05829111654157549, -1.6152817696435802, -1.5707963267948981, -1.5033008653317645, 1.770213982618107, 3.1385246920140215], 0.5, 0.5, 0.04, 0.05, 300)

2025-07-07 17:22:09,312 - gym_custom_envs_real_ur_drivers_URBasic_rtdeEvent - INFO - Total packages: 1000
2025-07-07 17:22:09,314 - gym_custom_envs_real_ur_drivers_URBasic_realTimeClientEvent - INFO - Program send to Robot:
servoj([0.05829126840567349, -1.6152817696435802, -1.5707963267948968, -1.5033011690599667, 1.7702138307540105, 3.1385246920140215], 0.5, 0.5, 0.04, 0.05, 300)

2025-07-07 17:22:09,330 - gym_custom_envs_real_ur_drivers_URBasic_realTimeClientEvent - INFO - Program send to Robot:
servoj([0.058291269924314465, -1.6152817696435802, -1.5707963267948966, -1.5048198130772554, 1.7717324702153765, 3.1385246920140215], 0.5, 0.5, 0.04, 0.05, 300)

2025-07-07 17:22:09,337 - gym_custom_envs_real_ur_drivers_URBasic_realTimeClientEvent - INFO - Program send to Robot:
servoj([0.05829126993950088, -1.6152817696435802, -1.5707963267948966, -1.5048349995174284, 1.7717476566099901, 3.1385246920140215], 0.5, 0.5, 0.04, 0.05, 300)

2025-07-07 17:22:09,345 - gym_custom_envs_real_ur_drivers_URBasic_realTimeClientEvent - INFO - Program send to Robot:
servoj([0.058291269939652744, -1.6152817696435802, -1.5707963267948966, -1.50483515138183, 1.7717478084739362, 3.1385246920140215], 0.5, 0.5, 0.04, 0.05, 300)

2025-07-07 17:22:09,354 - gym_custom_envs_real_ur_drivers_URBasic_realTimeClientEvent - INFO - Program send to Robot:
servoj([0.05829126993965426, -1.6152817696435802, -1.5707963267948966, -1.504835152900474, 1.7717478099925756, 3.1385246920140215], 0.5, 0.5, 0.04, 0.05, 300)

2025-07-07 17:22:09,370 - gym_custom_envs_real_ur_drivers_URBasic_realTimeClientEvent - INFO - Program send to Robot:
servoj([0.05829126993965428, -1.6152817696435802, -1.5707963267948966, -1.5048351529156605, 1.7717478100077622, 3.1385246920140215], 0.5, 0.5, 0.04, 0.05, 300)

2025-07-07 17:22:09,378 - gym_custom_envs_real_ur_drivers_URBasic_realTimeClientEvent - INFO - Program send to Robot:
servoj([0.05829126993965428, -1.6152817696435802, -1.5707963267948966, -1.5048351529158124, 1.771747810007914, 3.1385246920140215], 0.5, 0.5, 0.04, 0.05, 300)

2025-07-07 17:22:09,385 - gym_custom_envs_real_ur_drivers_URBasic_realTimeClientEvent - INFO - Program send to Robot:
servoj([0.05829126993965428, -1.6152817696435802, -1.5707963267948966, -1.5093910758558344, 1.7717478100079154, 3.1385246920140215], 0.5, 0.5, 0.04, 0.05, 300)

2025-07-07 17:22:09,402 - gym_custom_envs_real_ur_drivers_URBasic_realTimeClientEvent - INFO - Program send to Robot:
servoj([0.05829126993965428, -1.6152817696435802, -1.5707963267948966, -1.5094366350852346, 1.7717478100079154, 3.1385246920140215], 0.5, 0.5, 0.04, 0.05, 300)

2025-07-07 17:22:09,409 - gym_custom_envs_real_ur_drivers_URBasic_realTimeClientEvent - INFO - Program send to Robot:
servoj([0.05829126993965428, -1.6152817696435802, -1.5707963267948966, -1.5094370906775285, 1.7717478100079154, 3.1385246920140215], 0.5, 0.5, 0.04, 0.05, 300)

2025-07-07 17:22:09,417 - gym_custom_envs_real_ur_drivers_URBasic_realTimeClientEvent - INFO - Program send to Robot:
servoj([0.05829126993965428, -1.6152817696435802, -1.5707963267948966, -1.5155116591534785, 1.7717478100079154, 3.1385246920140215], 0.5, 0.5, 0.04, 0.05, 300)

2025-07-07 17:22:09,433 - gym_custom_envs_real_ur_drivers_URBasic_realTimeClientEvent - INFO - Program send to Robot:
servoj([0.05829126993965428, -1.6152817696435802, -1.5707963267948966, -1.5155724048382382, 1.7717478100079154, 3.1385246920140215], 0.5, 0.5, 0.04, 0.05, 300)

2025-07-07 17:22:09,441 - gym_custom_envs_real_ur_drivers_URBasic_realTimeClientEvent - INFO - Program send to Robot:
servoj([0.05829126993965428, -1.6152817696435802, -1.5707963267948966, -1.5155730122950857, 1.7717478100079154, 3.1385246920140215], 0.5, 0.5, 0.04, 0.05, 300)

2025-07-07 17:22:09,450 - gym_custom_envs_real_ur_drivers_URBasic_realTimeClientEvent - INFO - Program send to Robot:
servoj([0.05980991091966122, -1.6152817696435802, -1.5707963267948966, -1.523166223269688, 1.7732664509879221, 3.1385246920140215], 0.5, 0.5, 0.04, 0.05, 300)

2025-07-07 17:22:09,458 - gym_custom_envs_real_ur_drivers_URBasic_realTimeClientEvent - INFO - Program send to Robot:
servoj([0.05982509732946129, -1.6152817696435802, -1.5707963267948966, -1.5232421553794342, 1.7732816373977223, 3.1385246920140215], 0.5, 0.5, 0.04, 0.05, 300)

2025-07-07 17:22:09,473 - gym_custom_envs_real_ur_drivers_URBasic_realTimeClientEvent - INFO - Program send to Robot:
servoj([0.05982524919355929, -1.6152817696435802, -1.5707963267948966, -1.5232429147005317, 1.7732817892618202, 3.1385246920140215], 0.5, 0.5, 0.04, 0.05, 300)

2025-07-07 17:22:09,482 - gym_custom_envs_real_ur_drivers_URBasic_realTimeClientEvent - INFO - Program send to Robot:
servoj([0.061343891692206776, -1.6152817696435802, -1.5707963267948966, -1.5308361271937767, 1.7748004317604682, 3.1385246920140215], 0.5, 0.5, 0.04, 0.05, 300)

2025-07-07 17:22:09,490 - gym_custom_envs_real_ur_drivers_URBasic_realTimeClientEvent - INFO - Program send to Robot:
servoj([0.06135907811719325, -1.6152817696435802, -1.5707963267948966, -1.530912059318709, 1.7748156181854546, 3.1385246920140215], 0.5, 0.5, 0.04, 0.05, 300)

2025-07-07 17:22:09,498 - gym_custom_envs_real_ur_drivers_URBasic_realTimeClientEvent - INFO - Program send to Robot:
servoj([0.061359229981443116, -1.6152817696435802, -1.5707963267948966, -1.5309128186399583, 1.7748157700497047, 3.1385246920140215], 0.5, 0.5, 0.04, 0.05, 300)

2025-07-07 17:22:09,513 - gym_custom_envs_real_ur_drivers_URBasic_realTimeClientEvent - INFO - Program send to Robot:
servoj([0.06135923150008562, -1.6152817696435802, -1.5692776858148896, -1.5369873901531979, 1.776334412548354, 3.1385246920140215], 0.5, 0.5, 0.04, 0.05, 300)

2025-07-07 17:22:09,522 - gym_custom_envs_real_ur_drivers_URBasic_realTimeClientEvent - INFO - Program send to Robot:
servoj([0.06135923151527204, -1.6152817696435802, -1.5692624994050897, -1.5370481358683303, 1.7763495989733407, 3.1385246920140215], 0.5, 0.5, 0.04, 0.05, 300)

2025-07-07 17:22:09,538 - gym_custom_envs_real_ur_drivers_URBasic_realTimeClientEvent - INFO - Program send to Robot:
servoj([0.061359231515423905, -1.6152817696435802, -1.5692623475409917, -1.5370487433254816, 1.7763497508375905, 3.1385246920140215], 0.5, 0.5, 0.04, 0.05, 300)

2025-07-07 17:22:09,545 - gym_custom_envs_real_ur_drivers_URBasic_realTimeClientEvent - INFO - Program send to Robot:
servoj([0.061359231515425425, -1.616800410623587, -1.5677437050423437, -1.5431233133200801, 1.7793870343162461, 3.1385246920140215], 0.5, 0.5, 0.04, 0.05, 300)

2025-07-07 17:22:09,562 - gym_custom_envs_real_ur_drivers_URBasic_realTimeClientEvent - INFO - Program send to Robot:
servoj([0.06135923151542544, -1.616815597033387, -1.567728518617357, -1.543184059020026, 1.7794174071510325, 3.1385246920140215], 0.5, 0.5, 0.04, 0.05, 300)

2025-07-07 17:22:09,569 - gym_custom_envs_real_ur_drivers_URBasic_realTimeClientEvent - INFO - Program send to Robot:
servoj([0.06135923151542544, -1.616815748897485, -1.5677283667531072, -1.5431846664770257, 1.7794177108793805, 3.1385246920140215], 0.5, 0.5, 0.04, 0.05, 300)

2025-07-07 17:22:09,578 - gym_custom_envs_real_ur_drivers_URBasic_realTimeClientEvent - INFO - Program send to Robot:
servoj([0.06135923151542544, -1.6183343913961328, -1.5662097242544588, -1.5462219545116094, 1.7870109188166976, 3.1385246920140215], 0.5, 0.5, 0.04, 0.05, 300)

2025-07-07 17:22:09,593 - gym_custom_envs_real_ur_drivers_URBasic_realTimeClientEvent - INFO - Program send to Robot:
servoj([0.06135923151542544, -1.6183495778211192, -1.5661945378294722, -1.5462523273919553, 1.7870868508960709, 3.1385246920140215], 0.5, 0.5, 0.04, 0.05, 300)

2025-07-07 17:22:09,601 - gym_custom_envs_real_ur_drivers_URBasic_realTimeClientEvent - INFO - Program send to Robot:
servoj([0.06135923151542544, -1.618349729685369, -1.5661943859652223, -1.5462526311207587, 1.7870876102168647, 3.1385246920140215], 0.5, 0.5, 0.04, 0.05, 300)

2025-07-07 17:22:09,609 - gym_custom_envs_real_ur_drivers_URBasic_realTimeClientEvent - INFO - Program send to Robot:
servoj([0.06135923151542544, -1.6198683721840186, -1.5631571024865658, -1.5462526341580467, 1.7992367456501273, 3.1385246920140215], 0.5, 0.5, 0.04, 0.05, 300)

2025-07-07 17:22:09,626 - gym_custom_envs_real_ur_drivers_URBasic_realTimeClientEvent - INFO - Program send to Robot:
servoj([0.06135923151542544, -1.619883558609005, -1.5631267296517792, -1.5462526341884195, 1.7993582370044598, 3.1385246920140215], 0.5, 0.5, 0.04, 0.05, 300)

2025-07-07 17:22:09,634 - gym_custom_envs_real_ur_drivers_URBasic_realTimeClientEvent - INFO - Program send to Robot:
servoj([0.06135923151542544, -1.6198837104732549, -1.5631264259234314, -1.5462526341887233, 1.7993594519180032, 3.1385246920140215], 0.5, 0.5, 0.04, 0.05, 300)

2025-07-07 17:22:09,642 - gym_custom_envs_real_ur_drivers_URBasic_realTimeClientEvent - INFO - Program send to Robot:
servoj([0.05984059053541893, -1.6198837119918974, -1.5600891409261342, -1.5462526341887264, 1.8054340279871655, 3.1370060510340148], 0.5, 0.5, 0.04, 0.05, 300)

2025-07-07 17:22:09,657 - gym_custom_envs_real_ur_drivers_URBasic_realTimeClientEvent - INFO - Program send to Robot:
servoj([0.05982540412561887, -1.619883712007084, -1.5600587680761613, -1.5462526341887264, 1.805494773747857, 3.136990864624215], 0.5, 0.5, 0.04, 0.05, 300)

2025-07-07 17:22:09,666 - gym_custom_envs_real_ur_drivers_URBasic_realTimeClientEvent - INFO - Program send to Robot:
servoj([0.05982525226152087, -1.6198837120072356, -1.5600584643476616, -1.5462526341887264, 1.805495381205464, 3.1369907127601167], 0.5, 0.5, 0.04, 0.05, 300)

2025-07-07 17:22:09,682 - gym_custom_envs_real_ur_drivers_URBasic_realTimeClientEvent - INFO - Program send to Robot:
servoj([0.059825250742879886, -1.6198837120072371, -1.5555025383703565, -1.5462526341887264, 1.807014028260047, 3.1354720702614696], 0.5, 0.5, 0.04, 0.05, 300)

2025-07-07 17:22:09,689 - gym_custom_envs_real_ur_drivers_URBasic_realTimeClientEvent - INFO - Program send to Robot:
servoj([0.05982525072769348, -1.6198837120072371, -1.5554569791105834, -1.5462526341887264, 1.8070292147305929, 3.135456883836483], 0.5, 0.5, 0.04, 0.05, 300)

2025-07-07 17:22:09,706 - gym_custom_envs_real_ur_drivers_URBasic_realTimeClientEvent - INFO - Program send to Robot:
servoj([0.05830660974753467, -1.6183650710272302, -1.547863318617952, -1.5462526341887264, 1.8070293665952983, 3.1293821680522056], 0.5, 0.5, 0.04, 0.05, 300)

2025-07-07 17:22:09,713 - gym_custom_envs_real_ur_drivers_URBasic_realTimeClientEvent - INFO - Program send to Robot:
servoj([0.05829142333773308, -1.6183498846174302, -1.5477873820130257, -1.5462526341887264, 1.8070293681139453, 3.129321420894363], 0.5, 0.5, 0.04, 0.05, 300)

2025-07-07 17:22:09,729 - gym_custom_envs_real_ur_drivers_URBasic_realTimeClientEvent - INFO - Program send to Robot:
servoj([0.05829127147363506, -1.618349732753332, -1.5477866226469763, -1.5462526341887264, 1.8070293681291318, 3.1293208134227846], 0.5, 0.5, 0.04, 0.05, 300)

2025-07-07 17:22:09,738 - gym_custom_envs_real_ur_drivers_URBasic_realTimeClientEvent - INFO - Program send to Robot:
servoj([0.05525398799498064, -1.6168310902546845, -1.5371561281932682, -1.5462526341887264, 1.8070293681292837, 3.120208961468028], 0.5, 0.5, 0.04, 0.05, 300)

2025-07-07 17:22:09,753 - gym_custom_envs_real_ur_drivers_URBasic_realTimeClientEvent - INFO - Program send to Robot:
servoj([0.05522361516019409, -1.6168159038296979, -1.537049823248731, -1.5462526341887264, 1.8070293681292853, 3.120117842948481], 0.5, 0.5, 0.04, 0.05, 300)

2025-07-07 17:22:09,761 - gym_custom_envs_real_ur_drivers_URBasic_realTimeClientEvent - INFO - Program send to Robot:
servoj([0.05522331143184623, -1.616815751965448, -1.5370487601992857, -1.5462526341887264, 1.8070293681292853, 3.120116931763285], 0.5, 0.5, 0.04, 0.05, 300)

2025-07-07 17:22:09,777 - gym_custom_envs_real_ur_drivers_URBasic_realTimeClientEvent - INFO - Program send to Robot:
servoj([0.053704667414555804, -1.6107411865267784, -1.5248996217287365, -1.5462526341887264, 1.8085480091092923, 3.107967794811379], 0.5, 0.5, 0.04, 0.05, 300)

2025-07-07 17:22:09,786 - gym_custom_envs_real_ur_drivers_URBasic_realTimeClientEvent - INFO - Program send to Robot:
servoj([0.0536894809743829, -1.6106804408723918, -1.524778130344031, -1.5462526341887264, 1.8085631955190924, 3.1078463034418595], 0.5, 0.5, 0.04, 0.05, 300)

2025-07-07 17:22:09,794 - gym_custom_envs_real_ur_drivers_URBasic_realTimeClientEvent - INFO - Program send to Robot:
servoj([0.05368932910998117, -1.610679833415848, -1.524776915430184, -1.5462526341887264, 1.8085633473831904, 3.1078450885281645], 0.5, 0.5, 0.04, 0.05, 300)

2025-07-07 17:22:09,809 - gym_custom_envs_real_ur_drivers_URBasic_realTimeClientEvent - INFO - Program send to Robot:
servoj([0.04913340465131676, -1.6030866224412486, -1.5095904934809778, -1.5462526341887264, 1.8085633489018313, 3.0972145895189795], 0.5, 0.5, 0.04, 0.05, 300)

2025-07-07 17:22:09,817 - gym_custom_envs_real_ur_drivers_URBasic_realTimeClientEvent - INFO - Program send to Robot:
servoj([0.04908784540673012, -1.6030106903315025, -1.5094386292614859, -1.5462526341887264, 1.8085633489170176, 3.097108284528888], 0.5, 0.5, 0.04, 0.05, 300)

2025-07-07 17:22:09,825 - gym_custom_envs_real_ur_drivers_URBasic_realTimeClientEvent - INFO - Program send to Robot:
servoj([0.04908738981428425, -1.6030099310104051, -1.509437110619291, -1.5462526341887264, 1.8085633489171695, 3.097107221478987], 0.5, 0.5, 0.04, 0.05, 300)

2025-07-07 17:22:09,841 - gym_custom_envs_real_ur_drivers_URBasic_realTimeClientEvent - INFO - Program send to Robot:
