2025-07-07 17:06:33,671 - gym_custom_envs_real_ur_drivers_URBasic_robotModelEvent - INFO - Init done
2025-07-07 17:06:34,172 - gym_custom_envs_real_ur_drivers_URBasic_realTimeClientEvent - INFO - Connected
2025-07-07 17:06:34,172 - gym_custom_envs_real_ur_drivers_URBasic_realTimeClientEvent - INFO - RT_CLient constructor done
2025-07-07 17:06:34,173 - gym_custom_envs_real_ur_drivers_URBasic_dataLogEvent - INFO - Data logging (not event logging) is disabled
2025-07-07 17:06:34,173 - gym_custom_envs_real_ur_drivers_URBasic_dataLogEvent - INFO - DataLog constructor done
2025-07-07 17:06:34,174 - gym_custom_envs_real_ur_drivers_URBasic_dataLogEvent - INFO - DataLog is stopped
2025-07-07 17:06:34,175 - gym_custom_envs_real_ur_drivers_URBasic_rtdeEvent - INFO - RTDE constructor done
2025-07-07 17:06:34,575 - gym_custom_envs_real_ur_drivers_URBasic_rtdeEvent - INFO - Controller version: 3.3.1-60
2025-07-07 17:06:34,578 - gym_custom_envs_real_ur_drivers_URBasic_rtdeEvent - INFO - RTDE started
2025-07-07 17:06:34,677 - gym_custom_envs_real_ur_drivers_URBasic_dashboardEvent - INFO - Connected
2025-07-07 17:06:34,677 - gym_custom_envs_real_ur_drivers_URBasic_dashboardEvent - INFO - UR Dashboard respond Connected: Universal Robots Dashboard Server
2025-07-07 17:06:34,680 - gym_custom_envs_real_ur_drivers_URBasic_dashboardEvent - INFO - Dashboard server constructor done
2025-07-07 17:06:34,680 - gym_custom_envs_real_ur_drivers_URBasic_robotConnectorEvent - INFO - Init done
2025-07-07 17:06:34,680 - gym_custom_envs_real_ur_drivers_URBasic_urScriptEvent - INFO - Init done!!!
2025-07-07 17:06:34,690 - gym_custom_envs_real_ur_drivers_URBasic_urScriptExtEvent - INFO - Init done
2025-07-07 17:06:36,315 - gym_custom_envs_real_ur_interfaceEvent - INFO - [] init done
2025-07-07 17:06:36,315 - gym_custom_envs_real_ur_drivers_URBasic_realTimeClientEvent - INFO - Program send to Robot:
end_freedrive_mode()

2025-07-07 17:06:36,426 - gym_custom_envs_real_ur_drivers_URBasic_realTimeClientEvent - INFO - Program send to Robot:
servoj([-0.09281875291933232, -1.5569688180136667, -1.6243891229491791, -1.4973345593715228, 1.709004944506632, 2.971975280536974], 0.5, 0.5, 0.005, 0.2, 100)

2025-07-07 17:06:36,444 - gym_custom_envs_real_ur_drivers_URBasic_realTimeClientEvent - INFO - Program send to Robot:
servoj([-0.09280683199037724, -1.5570277159416541, -1.6243882955526368, -1.4972995164164697, 1.709015886941301, 2.971999712717362], 0.5, 0.5, 0.005, 0.2, 100)

2025-07-07 17:06:36,459 - gym_custom_envs_real_ur_drivers_URBasic_realTimeClientEvent - INFO - Program send to Robot:
servoj([-0.09284259477724248, -1.5570040402684133, -1.6243617926499714, -1.4972950974331682, 1.7090267466611266, 2.9719701764747914], 0.5, 0.5, 0.005, 0.2, 100)

2025-07-07 17:06:36,474 - gym_custom_envs_real_ur_drivers_URBasic_realTimeClientEvent - INFO - Program send to Robot:
servoj([-0.09280683199037724, -1.5569914917143597, -1.6238146203320687, -1.4973140061073875, 1.70902313178676, 2.971985223026444], 0.5, 0.5, 0.005, 0.2, 100)

2025-07-07 17:06:36,490 - gym_custom_envs_real_ur_drivers_URBasic_realTimeClientEvent - INFO - Program send to Robot:
servoj([-0.09281875291933232, -1.5569908436731754, -1.623758541534639, -1.4973125337120141, 1.7090340705432192, 2.971989916008095], 0.5, 0.5, 0.005, 0.2, 100)

2025-07-07 17:06:36,506 - gym_custom_envs_real_ur_drivers_URBasic_realTimeClientEvent - INFO - Program send to Robot:
servoj([-0.09279491106142217, -1.5569556280599284, -1.6243886952812294, -1.497344746186924, 1.708954237971503, 2.971958508396226], 0.5, 0.5, 0.005, 0.2, 100)

2025-07-07 17:06:36,522 - gym_custom_envs_real_ur_drivers_URBasic_realTimeClientEvent - INFO - Program send to Robot:
servoj([-0.09267522493471318, -1.5569476844651216, -1.624350130520894, -1.4974032590007467, 1.708838020805723, 2.9720351522284947], 0.5, 0.5, 0.005, 0.2, 100)

2025-07-07 17:06:36,539 - gym_custom_envs_real_ur_drivers_URBasic_realTimeClientEvent - INFO - Program send to Robot:
servoj([-0.09256745973695928, -1.5569825324983997, -1.6243861201072618, -1.4974165695633614, 1.7087688703594794, 2.972094752281911], 0.5, 0.5, 0.005, 0.2, 100)

2025-07-07 17:06:36,555 - gym_custom_envs_real_ur_drivers_URBasic_realTimeClientEvent - INFO - Program send to Robot:
servoj([-0.0923876921283167, -1.5570212943920425, -1.624351876161693, -1.4974605119742108, 1.7085690487629737, 2.9721912262841066], 0.5, 0.5, 0.005, 0.2, 100)

2025-07-07 17:06:36,570 - gym_custom_envs_real_ur_drivers_URBasic_realTimeClientEvent - INFO - Program send to Robot:
servoj([-0.09224416414369756, -1.557072786539076, -1.6236998671004141, -1.4974855333393298, 1.7091236900704343, 2.9722439286743723], 0.5, 0.5, 0.005, 0.2, 100)

2025-07-07 17:06:36,586 - gym_custom_envs_real_ur_drivers_URBasic_realTimeClientEvent - INFO - Program send to Robot:
servoj([-0.09193326631654912, -1.5571261517786248, -1.6236198784230893, -1.4975894127515577, 1.7088768340387224, 2.972463365270468], 0.5, 0.5, 0.005, 0.2, 100)

2025-07-07 17:06:36,602 - gym_custom_envs_real_ur_drivers_URBasic_realTimeClientEvent - INFO - Program send to Robot:
servoj([-0.09176541963686162, -1.5571353404465882, -1.624186261778422, -1.4976685436534225, 1.7087179719811916, 2.9725500442512693], 0.5, 0.5, 0.005, 0.2, 100)

2025-07-07 17:06:36,617 - gym_custom_envs_real_ur_drivers_URBasic_realTimeClientEvent - INFO - Program send to Robot:
servoj([-0.09132291475404912, -1.5571812517799852, -1.6240821288068024, -1.497846875625664, 1.708339022407561, 2.972790433286088], 0.5, 0.5, 0.005, 0.2, 100)

2025-07-07 17:06:36,634 - gym_custom_envs_real_ur_drivers_URBasic_realTimeClientEvent - INFO - Program send to Robot:
servoj([-0.09097530046571904, -1.5571789248716166, -1.6240793174292352, -1.4979767284623697, 1.7080394858361583, 2.9730172435465825], 0.5, 0.5, 0.005, 0.2, 100)

2025-07-07 17:06:36,650 - gym_custom_envs_real_ur_drivers_URBasic_realTimeClientEvent - INFO - Program send to Robot:
servoj([-0.09056855836977178, -1.5572305074698127, -1.6240001321883903, -1.498142837920705, 1.7077505082342055, 2.973220833586203], 0.5, 0.5, 0.005, 0.2, 100)

2025-07-07 17:06:36,665 - gym_custom_envs_real_ur_drivers_URBasic_realTimeClientEvent - INFO - Program send to Robot:
servoj([-0.09019710222353154, -1.5572584123363276, -1.6239594993030326, -1.4975812852676658, 1.707444100888587, 2.9734385156481347], 0.5, 0.5, 0.005, 0.2, 100)

2025-07-07 17:06:36,683 - gym_custom_envs_real_ur_drivers_URBasic_realTimeClientEvent - INFO - Program send to Robot:
servoj([-0.08974219957460576, -1.5573053736215017, -1.6238840012816993, -1.4977738514798233, 1.7071190172805772, 2.9736885430239015], 0.5, 0.5, 0.005, 0.2, 100)

2025-07-07 17:06:36,698 - gym_custom_envs_real_ur_drivers_URBasic_realTimeClientEvent - INFO - Program send to Robot:
servoj([-0.08935929933656865, -1.5573913176902459, -1.6232087718155495, -1.498475216810388, 1.7068519070789507, 2.9739227278029077], 0.5, 0.5, 0.005, 0.2, 100)

2025-07-07 17:06:36,714 - gym_custom_envs_real_ur_drivers_URBasic_realTimeClientEvent - INFO - Program send to Robot:
servoj([-0.08891631761659795, -1.557445022660228, -1.6230899701461319, -1.498623322043546, 1.706530288518037, 2.9741345616532024], 0.5, 0.5, 0.005, 0.2, 100)

2025-07-07 17:06:36,730 - gym_custom_envs_real_ur_drivers_URBasic_realTimeClientEvent - INFO - Program send to Robot:
servoj([-0.08847285905946904, -1.5574631101008405, -1.6236512075671465, -1.4981204254494127, 1.7061660373157732, 2.9744034298364483], 0.5, 0.5, 0.005, 0.2, 100)

2025-07-07 17:06:36,746 - gym_custom_envs_real_ur_drivers_URBasic_realTimeClientEvent - INFO - Program send to Robot:
servoj([-0.08801843324770146, -1.5575173562294349, -1.6235536017446444, -1.4982483792336982, 1.7058126470641783, 2.974646209391905], 0.5, 0.5, 0.005, 0.2, 100)

2025-07-07 17:06:36,762 - gym_custom_envs_real_ur_drivers_URBasic_realTimeClientEvent - INFO - Program send to Robot:
servoj([-0.08756353059877568, -1.5575790046025433, -1.6234711085735198, -1.4983895551918902, 1.705466263608934, 2.9748679879169115], 0.5, 0.5, 0.005, 0.2, 100)

2025-07-07 17:06:36,779 - gym_custom_envs_real_ur_drivers_URBasic_realTimeClientEvent - INFO - Program send to Robot:
servoj([-0.0871086279498499, -1.557661742763499, -1.6233815383333166, -1.4985234646738297, 1.7051549429894097, 2.97515341747663], 0.5, 0.5, 0.005, 0.2, 100)

2025-07-07 17:06:36,795 - gym_custom_envs_real_ur_drivers_URBasic_realTimeClientEvent - INFO - Program send to Robot:
servoj([-0.08670140901674443, -1.557706303885328, -1.6226838402670694, -1.4986447352404582, 1.7048023182573615, 2.9753926263204438], 0.5, 0.5, 0.005, 0.2, 100)

2025-07-07 17:06:36,810 - gym_custom_envs_real_ur_drivers_URBasic_realTimeClientEvent - INFO - Program send to Robot:
servoj([-0.08625842729677373, -1.557760274972765, -1.6225519593094886, -1.4987914500467654, 1.7044667013652377, 2.975625963665818], 0.5, 0.5, 0.005, 0.2, 100)

2025-07-07 17:06:36,829 - gym_custom_envs_real_ur_drivers_URBasic_realTimeClientEvent - INFO - Program send to Robot:
servoj([-0.015339807878856249, -1.5677283652191252, -1.6091458465073771, -1.5201749607946704, 1.6520971551547563, 3.014272248195285], 0.5, 0.5, 0.005, 0.2, 100)

2025-07-07 17:06:36,834 - gym_custom_envs_real_ur_drivers_URBasic_realTimeClientEvent - INFO - Program send to Robot:
servoj([-0.015339807878856249, -1.5677283652191252, -1.6091458464921906, -1.5201749607946704, 1.6520973070188543, 3.014272248195285], 0.5, 0.5, 0.005, 0.2, 100)

2025-07-07 17:06:36,852 - gym_custom_envs_real_ur_drivers_URBasic_realTimeClientEvent - INFO - Program send to Robot:
servoj([-0.015339807878856249, -1.5677283652191252, -1.6091458464920387, -1.5201749607946704, 1.6520973085374953, 3.014272248195285], 0.5, 0.5, 0.005, 0.2, 100)

2025-07-07 17:06:36,858 - gym_custom_envs_real_ur_drivers_URBasic_realTimeClientEvent - INFO - Program send to Robot:
servoj([-0.015339807878856249, -1.5677283652191252, -1.6091458464920372, -1.5201749607946704, 1.6520973085526818, 3.014272248195285], 0.5, 0.5, 0.005, 0.2, 100)

2025-07-07 17:06:36,868 - gym_custom_envs_real_ur_drivers_URBasic_realTimeClientEvent - INFO - Program send to Robot:
servoj([-0.015339807878856249, -1.5677283652191252, -1.6091458464920372, -1.5201749607946704, 1.6520973085528337, 3.014272248195285], 0.5, 0.5, 0.005, 0.2, 100)

2025-07-07 17:06:36,882 - gym_custom_envs_real_ur_drivers_URBasic_realTimeClientEvent - INFO - Program send to Robot:
servoj([-0.015339807878856249, -1.5677283652191252, -1.6106644874720442, -1.5201749607946704, 1.652097308552835, 3.014272248195285], 0.5, 0.5, 0.005, 0.2, 100)

2025-07-07 17:06:36,893 - gym_custom_envs_real_ur_drivers_URBasic_realTimeClientEvent - INFO - Program send to Robot:
servoj([-0.015339807878856249, -1.5677283652191252, -1.6106796738818443, -1.5201749607946704, 1.6520973085528352, 3.014272248195285], 0.5, 0.5, 0.005, 0.2, 100)

2025-07-07 17:06:36,900 - gym_custom_envs_real_ur_drivers_URBasic_realTimeClientEvent - INFO - Program send to Robot:
servoj([-0.015339807878856249, -1.5677283652191252, -1.6106798257459423, -1.5201749607946704, 1.6520973085528352, 3.014272248195285], 0.5, 0.5, 0.005, 0.2, 100)

2025-07-07 17:06:36,906 - gym_custom_envs_real_ur_drivers_URBasic_realTimeClientEvent - INFO - Program send to Robot:
servoj([-0.015339807878856249, -1.5677283652191252, -1.6106798272645833, -1.5201749607946704, 1.6520973085528352, 3.014272248195285], 0.5, 0.5, 0.005, 0.2, 100)

2025-07-07 17:06:36,926 - gym_custom_envs_real_ur_drivers_URBasic_realTimeClientEvent - INFO - Program send to Robot:
servoj([-0.015339807878856249, -1.5677283652191252, -1.6091611862997628, -1.5201749607946704, 1.6520973085528352, 3.014272248195285], 0.5, 0.5, 0.005, 0.2, 100)

2025-07-07 17:06:36,931 - gym_custom_envs_real_ur_drivers_URBasic_realTimeClientEvent - INFO - Program send to Robot:
servoj([-0.015339807878856249, -1.5677283652191252, -1.6091459998901145, -1.5201749607946704, 1.6520973085528352, 3.014272248195285], 0.5, 0.5, 0.005, 0.2, 100)

2025-07-07 17:06:36,950 - gym_custom_envs_real_ur_drivers_URBasic_realTimeClientEvent - INFO - Program send to Robot:
servoj([-0.015339807878856249, -1.5677283652191252, -1.6091458480260181, -1.5201749607946704, 1.6520973085528352, 3.014272248195285], 0.5, 0.5, 0.005, 0.2, 100)

2025-07-07 17:06:36,954 - gym_custom_envs_real_ur_drivers_URBasic_realTimeClientEvent - INFO - Program send to Robot:
servoj([-0.015339807878856249, -1.5677283652191252, -1.6091458465073771, -1.5201749607946704, 1.6520973085528352, 3.014272248195285], 0.5, 0.5, 0.005, 0.2, 100)

2025-07-07 17:06:36,970 - gym_custom_envs_real_ur_drivers_URBasic_realTimeClientEvent - INFO - Program send to Robot:
servoj([-0.015339807878856249, -1.5677283652191252, -1.6091458464921906, -1.5201749607946704, 1.6520973085528352, 3.014272248195285], 0.5, 0.5, 0.005, 0.2, 100)

2025-07-07 17:06:36,978 - gym_custom_envs_real_ur_drivers_URBasic_realTimeClientEvent - INFO - Program send to Robot:
servoj([-0.015339807878856249, -1.5677283652191252, -1.6091458464920387, -1.5201749607946704, 1.6520973085528352, 3.014272248195285], 0.5, 0.5, 0.005, 0.2, 100)

2025-07-07 17:06:36,988 - gym_custom_envs_real_ur_drivers_URBasic_realTimeClientEvent - INFO - Program send to Robot:
servoj([-0.015339807878856249, -1.5677283652191252, -1.6091458464920372, -1.5201749607946704, 1.6520973085528352, 3.014272248195285], 0.5, 0.5, 0.005, 0.2, 100)

2025-07-07 17:06:37,002 - gym_custom_envs_real_ur_drivers_URBasic_realTimeClientEvent - INFO - Program send to Robot:
servoj([-0.015339807878856249, -1.5677283652191252, -1.6091458464920372, -1.5201749607946704, 1.6520973085528352, 3.014272248195285], 0.5, 0.5, 0.005, 0.2, 100)

2025-07-07 17:06:37,012 - gym_custom_envs_real_ur_drivers_URBasic_realTimeClientEvent - INFO - Program send to Robot:
servoj([-0.015339807878856249, -1.5677283652191252, -1.6106644874720442, -1.5201749607946704, 1.6520973085528352, 3.014272248195285], 0.5, 0.5, 0.005, 0.2, 100)

2025-07-07 17:06:37,020 - gym_custom_envs_real_ur_drivers_URBasic_realTimeClientEvent - INFO - Program send to Robot:
servoj([-0.015339807878856249, -1.5677283652191252, -1.6106796738818443, -1.5201749607946704, 1.6520973085528352, 3.014272248195285], 0.5, 0.5, 0.005, 0.2, 100)

2025-07-07 17:06:37,026 - gym_custom_envs_real_ur_drivers_URBasic_realTimeClientEvent - INFO - Program send to Robot:
servoj([-0.015339807878856249, -1.5677283652191252, -1.6106798257459423, -1.5201749607946704, 1.6520973085528352, 3.014272248195285], 0.5, 0.5, 0.005, 0.2, 100)

2025-07-07 17:06:37,045 - gym_custom_envs_real_ur_drivers_URBasic_realTimeClientEvent - INFO - Program send to Robot:
servoj([-0.015339807878856249, -1.5677283652191252, -1.6091611862845763, -1.5201749607946704, 1.6536159495328422, 3.014272248195285], 0.5, 0.5, 0.005, 0.2, 100)

2025-07-07 17:06:37,050 - gym_custom_envs_real_ur_drivers_URBasic_realTimeClientEvent - INFO - Program send to Robot:
servoj([-0.015339807878856249, -1.5677283652191252, -1.6091459998899627, -1.5201749607946704, 1.653631135942642, 3.014272248195285], 0.5, 0.5, 0.005, 0.2, 100)

2025-07-07 17:06:37,060 - gym_custom_envs_real_ur_drivers_URBasic_realTimeClientEvent - INFO - Program send to Robot:
servoj([-0.015339807878856249, -1.5677283652191252, -1.6091458480260166, -1.5201749607946704, 1.65363128780674, 3.014272248195285], 0.5, 0.5, 0.005, 0.2, 100)

2025-07-07 17:06:37,074 - gym_custom_envs_real_ur_drivers_URBasic_realTimeClientEvent - INFO - Program send to Robot:
servoj([-0.015339807878856249, -1.5677283652191252, -1.6091458465073771, -1.5201749607946704, 1.652112648345374, 3.014272248195285], 0.5, 0.5, 0.005, 0.2, 100)

2025-07-07 17:06:37,085 - gym_custom_envs_real_ur_drivers_URBasic_realTimeClientEvent - INFO - Program send to Robot:
servoj([-0.015339807878856249, -1.5677283652191252, -1.6091458464921906, -1.5201749607946704, 1.6520974619507605, 3.014272248195285], 0.5, 0.5, 0.005, 0.2, 100)

2025-07-07 17:06:37,090 - gym_custom_envs_real_ur_drivers_URBasic_realTimeClientEvent - INFO - Program send to Robot:
servoj([-0.015339807878856249, -1.5677283652191252, -1.6091458464920387, -1.5201749607946704, 1.6520973100868144, 3.014272248195285], 0.5, 0.5, 0.005, 0.2, 100)

2025-07-07 17:06:37,098 - gym_custom_envs_real_ur_drivers_URBasic_realTimeClientEvent - INFO - Program send to Robot:
servoj([-0.015339807878856249, -1.5677283652191252, -1.6091458464920372, -1.5201749607946704, 1.652097308568175, 3.014272248195285], 0.5, 0.5, 0.005, 0.2, 100)

2025-07-07 17:06:37,114 - gym_custom_envs_real_ur_drivers_URBasic_realTimeClientEvent - INFO - Program send to Robot:
servoj([-0.015339807878856249, -1.5677283652191252, -1.6091458464920372, -1.5201749607946704, 1.6520973085529884, 3.014272248195285], 0.5, 0.5, 0.005, 0.2, 100)

2025-07-07 17:06:37,121 - gym_custom_envs_real_ur_drivers_URBasic_realTimeClientEvent - INFO - Program send to Robot:
servoj([-0.015339807878856249, -1.5677283652191252, -1.6091458464920372, -1.5201749607946704, 1.6520973085528365, 3.014272248195285], 0.5, 0.5, 0.005, 0.2, 100)

2025-07-07 17:06:37,132 - gym_custom_envs_real_ur_drivers_URBasic_realTimeClientEvent - INFO - Program send to Robot:
servoj([-0.015339807878856249, -1.5677283652191252, -1.6091458464920372, -1.5201749607946704, 1.6520973085528352, 3.014272248195285], 0.5, 0.5, 0.005, 0.2, 100)

2025-07-07 17:06:37,146 - gym_custom_envs_real_ur_drivers_URBasic_realTimeClientEvent - INFO - Program send to Robot:
servoj([-0.015339807878856249, -1.5677283652191252, -1.6091458464920372, -1.5201749607946704, 1.6520973085528352, 3.014272248195285], 0.5, 0.5, 0.005, 0.2, 100)

2025-07-07 17:06:37,156 - gym_custom_envs_real_ur_drivers_URBasic_realTimeClientEvent - INFO - Program send to Robot:
servoj([-0.015339807878856249, -1.5677283652191252, -1.6091458464920372, -1.5201749607946704, 1.6520973085528352, 3.014272248195285], 0.5, 0.5, 0.005, 0.2, 100)

2025-07-07 17:06:37,165 - gym_custom_envs_real_ur_drivers_URBasic_realTimeClientEvent - INFO - Program send to Robot:
servoj([-0.015339807878856249, -1.5677283652191252, -1.6091458464920372, -1.5201749607946704, 1.6520973085528352, 3.014272248195285], 0.5, 0.5, 0.005, 0.2, 100)

2025-07-07 17:06:37,169 - gym_custom_envs_real_ur_drivers_URBasic_realTimeClientEvent - INFO - Program send to Robot:
servoj([-0.015339807878856249, -1.5677283652191252, -1.6106644874720442, -1.5201749607946704, 1.6520973085528352, 3.014272248195285], 0.5, 0.5, 0.005, 0.2, 100)

2025-07-07 17:06:37,186 - gym_custom_envs_real_ur_drivers_URBasic_realTimeClientEvent - INFO - Program send to Robot:
servoj([-0.015339807878856249, -1.5677283652191252, -1.6106796738818443, -1.5201749607946704, 1.6520973085528352, 3.014272248195285], 0.5, 0.5, 0.005, 0.2, 100)

2025-07-07 17:06:37,193 - gym_custom_envs_real_ur_drivers_URBasic_realTimeClientEvent - INFO - Program send to Robot:
servoj([-0.015339807878856249, -1.5677283652191252, -1.6106798257459423, -1.5201749607946704, 1.6520973085528352, 3.014272248195285], 0.5, 0.5, 0.005, 0.2, 100)

2025-07-07 17:06:37,206 - gym_custom_envs_real_ur_drivers_URBasic_realTimeClientEvent - INFO - Program send to Robot:
servoj([-0.015339807878856249, -1.5662097242391184, -1.6091611862845763, -1.5201749607946704, 1.6520973085528352, 3.014272248195285], 0.5, 0.5, 0.005, 0.2, 100)

2025-07-07 17:06:37,218 - gym_custom_envs_real_ur_drivers_URBasic_realTimeClientEvent - INFO - Program send to Robot:
servoj([-0.015339807878856249, -1.5661945378293183, -1.6091459998899627, -1.5201749607946704, 1.6520973085528352, 3.014272248195285], 0.5, 0.5, 0.005, 0.2, 100)

2025-07-07 17:06:37,229 - gym_custom_envs_real_ur_drivers_URBasic_realTimeClientEvent - INFO - Program send to Robot:
servoj([-0.015339807878856249, -1.5661943859652203, -1.6091458480260166, -1.5201749607946704, 1.6520973085528352, 3.014272248195285], 0.5, 0.5, 0.005, 0.2, 100)

2025-07-07 17:06:37,237 - gym_custom_envs_real_ur_drivers_URBasic_realTimeClientEvent - INFO - Program send to Robot:
servoj([-0.015339807878856249, -1.5661943844465793, -1.6091458465073771, -1.5201749607946704, 1.6520973085528352, 3.014272248195285], 0.5, 0.5, 0.005, 0.2, 100)

2025-07-07 17:06:37,242 - gym_custom_envs_real_ur_drivers_URBasic_realTimeClientEvent - INFO - Program send to Robot:
servoj([-0.015339807878856249, -1.566194384431393, -1.6091458464921906, -1.5201749607946704, 1.6520973085528352, 3.014272248195285], 0.5, 0.5, 0.005, 0.2, 100)

2025-07-07 17:06:37,260 - gym_custom_envs_real_ur_drivers_URBasic_realTimeClientEvent - INFO - Program send to Robot:
servoj([-0.015339807878856249, -1.5661943844312411, -1.6091458464920387, -1.5201749607946704, 1.6520973085528352, 3.014272248195285], 0.5, 0.5, 0.005, 0.2, 100)

2025-07-07 17:06:37,265 - gym_custom_envs_real_ur_drivers_URBasic_realTimeClientEvent - INFO - Program send to Robot:
servoj([-0.015339807878856249, -1.5661943844312396, -1.6091458464920372, -1.5201749607946704, 1.6520973085528352, 3.014272248195285], 0.5, 0.5, 0.005, 0.2, 100)

2025-07-07 17:06:37,276 - gym_custom_envs_real_ur_drivers_URBasic_realTimeClientEvent - INFO - Program send to Robot:
servoj([-0.015339807878856249, -1.5661943844312396, -1.6091458464920372, -1.5201749607946704, 1.6520973085528352, 3.014272248195285], 0.5, 0.5, 0.005, 0.2, 100)

2025-07-07 17:06:37,290 - gym_custom_envs_real_ur_drivers_URBasic_realTimeClientEvent - INFO - Program send to Robot:
servoj([-0.015339807878856249, -1.5661943844312396, -1.6091458464920372, -1.5201749607946704, 1.6520973085528352, 3.014272248195285], 0.5, 0.5, 0.005, 0.2, 100)

2025-07-07 17:06:37,301 - gym_custom_envs_real_ur_drivers_URBasic_realTimeClientEvent - INFO - Program send to Robot:
servoj([-0.015339807878856249, -1.5661943844312396, -1.6091458464920372, -1.5201749607946704, 1.6520973085528352, 3.014272248195285], 0.5, 0.5, 0.005, 0.2, 100)

2025-07-07 17:06:37,306 - gym_custom_envs_real_ur_drivers_URBasic_realTimeClientEvent - INFO - Program send to Robot:
servoj([-0.015339807878856249, -1.5661943844312396, -1.6091458464920372, -1.5201749607946704, 1.6520973085528352, 3.014272248195285], 0.5, 0.5, 0.005, 0.2, 100)

2025-07-07 17:06:37,314 - gym_custom_envs_real_ur_drivers_URBasic_realTimeClientEvent - INFO - Program send to Robot:
servoj([-0.015339807878856249, -1.5661943844312396, -1.6091458464920372, -1.5201749607946704, 1.6520973085528352, 3.014272248195285], 0.5, 0.5, 0.005, 0.2, 100)

2025-07-07 17:06:37,330 - gym_custom_envs_real_ur_drivers_URBasic_realTimeClientEvent - INFO - Program send to Robot:
servoj([-0.015339807878856249, -1.5661943844312396, -1.6091458464920372, -1.5201749607946704, 1.6520973085528352, 3.014272248195285], 0.5, 0.5, 0.005, 0.2, 100)

2025-07-07 17:06:37,337 - gym_custom_envs_real_ur_drivers_URBasic_realTimeClientEvent - INFO - Program send to Robot:
servoj([-0.015339807878856249, -1.5661943844312396, -1.6091458464920372, -1.5201749607946704, 1.6520973085528352, 3.014272248195285], 0.5, 0.5, 0.005, 0.2, 100)

2025-07-07 17:06:37,349 - gym_custom_envs_real_ur_drivers_URBasic_realTimeClientEvent - INFO - Program send to Robot:
servoj([-0.015339807878856249, -1.5661943844312396, -1.6091458464920372, -1.5201749607946704, 1.6520973085528352, 3.014272248195285], 0.5, 0.5, 0.005, 0.2, 100)

2025-07-07 17:06:37,362 - gym_custom_envs_real_ur_drivers_URBasic_realTimeClientEvent - INFO - Program send to Robot:
servoj([-0.015339807878856249, -1.5661943844312396, -1.6091458464920372, -1.5201749607946704, 1.6520973085528352, 3.014272248195285], 0.5, 0.5, 0.005, 0.2, 100)

2025-07-07 17:06:37,372 - gym_custom_envs_real_ur_drivers_URBasic_realTimeClientEvent - INFO - Program send to Robot:
servoj([-0.015339807878856249, -1.5661943844312396, -1.6091458464920372, -1.5201749607946704, 1.6520973085528352, 3.014272248195285], 0.5, 0.5, 0.005, 0.2, 100)

2025-07-07 17:06:37,380 - gym_custom_envs_real_ur_drivers_URBasic_realTimeClientEvent - INFO - Program send to Robot:
servoj([-0.015339807878856249, -1.5661943844312396, -1.6091458464920372, -1.5201749607946704, 1.6520973085528352, 3.014272248195285], 0.5, 0.5, 0.005, 0.2, 100)

2025-07-07 17:06:37,385 - gym_custom_envs_real_ur_drivers_URBasic_realTimeClientEvent - INFO - Program send to Robot:
servoj([-0.015339807878856249, -1.5661943844312396, -1.6091458464920372, -1.5201749607946704, 1.6520973085528352, 3.014272248195285], 0.5, 0.5, 0.005, 0.2, 100)

2025-07-07 17:06:37,404 - gym_custom_envs_real_ur_drivers_URBasic_realTimeClientEvent - INFO - Program send to Robot:
servoj([-0.015339807878856249, -1.5661943844312396, -1.6091458464920372, -1.5201749607946704, 1.6520973085528352, 3.014272248195285], 0.5, 0.5, 0.005, 0.2, 100)

2025-07-07 17:06:37,410 - gym_custom_envs_real_ur_drivers_URBasic_realTimeClientEvent - INFO - Program send to Robot:
servoj([-0.015339807878856249, -1.5661943844312396, -1.6091458464920372, -1.5201749607946704, 1.6520973085528352, 3.014272248195285], 0.5, 0.5, 0.005, 0.2, 100)

2025-07-07 17:06:37,420 - gym_custom_envs_real_ur_drivers_URBasic_realTimeClientEvent - INFO - Program send to Robot:
servoj([-0.015339807878856249, -1.5661943844312396, -1.6091458464920372, -1.5201749607946704, 1.6520973085528352, 3.014272248195285], 0.5, 0.5, 0.005, 0.2, 100)

2025-07-07 17:06:37,433 - gym_custom_envs_real_ur_drivers_URBasic_realTimeClientEvent - INFO - Program send to Robot:
servoj([-0.015339807878856249, -1.5661943844312396, -1.6091458464920372, -1.5201749607946704, 1.6520973085528352, 3.014272248195285], 0.5, 0.5, 0.005, 0.2, 100)

2025-07-07 17:06:37,444 - gym_custom_envs_real_ur_drivers_URBasic_realTimeClientEvent - INFO - Program send to Robot:
servoj([-0.015339807878856249, -1.5661943844312396, -1.6091458464920372, -1.5201749607946704, 1.6520973085528352, 3.014272248195285], 0.5, 0.5, 0.005, 0.2, 100)

2025-07-07 17:06:37,453 - gym_custom_envs_real_ur_drivers_URBasic_realTimeClientEvent - INFO - Program send to Robot:
servoj([-0.015339807878856249, -1.5661943844312396, -1.6091458464920372, -1.5201749607946704, 1.6520973085528352, 3.014272248195285], 0.5, 0.5, 0.005, 0.2, 100)

2025-07-07 17:06:37,457 - gym_custom_envs_real_ur_drivers_URBasic_realTimeClientEvent - INFO - Program send to Robot:
servoj([-0.015339807878856249, -1.5661943844312396, -1.6091458464920372, -1.5201749607946704, 1.6520973085528352, 3.014272248195285], 0.5, 0.5, 0.005, 0.2, 100)

2025-07-07 17:06:37,474 - gym_custom_envs_real_ur_drivers_URBasic_realTimeClientEvent - INFO - Program send to Robot:
servoj([-0.015339807878856249, -1.5661943844312396, -1.6091458464920372, -1.5201749607946704, 1.6520973085528352, 3.014272248195285], 0.5, 0.5, 0.005, 0.2, 100)

2025-07-07 17:06:37,481 - gym_custom_envs_real_ur_drivers_URBasic_realTimeClientEvent - INFO - Program send to Robot:
servoj([-0.015339807878856249, -1.5661943844312396, -1.6091458464920372, -1.5201749607946704, 1.6520973085528352, 3.014272248195285], 0.5, 0.5, 0.005, 0.2, 100)

2025-07-07 17:06:37,492 - gym_custom_envs_real_ur_drivers_URBasic_realTimeClientEvent - INFO - Program send to Robot:
servoj([-0.015339807878856249, -1.5661943844312396, -1.6091458464920372, -1.5201749607946704, 1.6520973085528352, 3.014272248195285], 0.5, 0.5, 0.005, 0.2, 100)

2025-07-07 17:06:37,506 - gym_custom_envs_real_ur_drivers_URBasic_realTimeClientEvent - INFO - Program send to Robot:
servoj([-0.015339807878856249, -1.5661943844312396, -1.6091458464920372, -1.5201749607946704, 1.6520973085528352, 3.014272248195285], 0.5, 0.5, 0.005, 0.2, 100)

2025-07-07 17:06:37,516 - gym_custom_envs_real_ur_drivers_URBasic_realTimeClientEvent - INFO - Program send to Robot:
servoj([-0.015339807878856249, -1.5661943844312396, -1.6091458464920372, -1.5201749607946704, 1.6520973085528352, 3.014272248195285], 0.5, 0.5, 0.005, 0.2, 100)

2025-07-07 17:06:37,525 - gym_custom_envs_real_ur_drivers_URBasic_realTimeClientEvent - INFO - Program send to Robot:
servoj([-0.015339807878856249, -1.5661943844312396, -1.6091458464920372, -1.5201749607946704, 1.6520973085528352, 3.014272248195285], 0.5, 0.5, 0.005, 0.2, 100)

2025-07-07 17:06:37,530 - gym_custom_envs_real_ur_drivers_URBasic_realTimeClientEvent - INFO - Program send to Robot:
servoj([-0.015339807878856249, -1.5661943844312396, -1.6091458464920372, -1.5201749607946704, 1.6520973085528352, 3.014272248195285], 0.5, 0.5, 0.005, 0.2, 100)

2025-07-07 17:06:37,546 - gym_custom_envs_real_ur_drivers_URBasic_realTimeClientEvent - INFO - Program send to Robot:
servoj([-0.015339807878856249, -1.5661943844312396, -1.6091458464920372, -1.5201749607946704, 1.6520973085528352, 3.014272248195285], 0.5, 0.5, 0.005, 0.2, 100)

2025-07-07 17:06:37,554 - gym_custom_envs_real_ur_drivers_URBasic_realTimeClientEvent - INFO - Program send to Robot:
servoj([-0.015339807878856249, -1.5661943844312396, -1.6091458464920372, -1.5201749607946704, 1.6520973085528352, 3.014272248195285], 0.5, 0.5, 0.005, 0.2, 100)

2025-07-07 17:06:37,566 - gym_custom_envs_real_ur_drivers_URBasic_realTimeClientEvent - INFO - Program send to Robot:
servoj([-0.015339807878856249, -1.5661943844312396, -1.6091458464920372, -1.5201749607946704, 1.6520973085528352, 3.014272248195285], 0.5, 0.5, 0.005, 0.2, 100)

2025-07-07 17:06:37,578 - gym_custom_envs_real_ur_drivers_URBasic_realTimeClientEvent - INFO - Program send to Robot:
servoj([-0.015339807878856249, -1.5661943844312396, -1.6091458464920372, -1.5201749607946704, 1.6520973085528352, 3.014272248195285], 0.5, 0.5, 0.005, 0.2, 100)

2025-07-07 17:06:37,591 - gym_custom_envs_real_ur_drivers_URBasic_realTimeClientEvent - INFO - Program send to Robot:
servoj([-0.015339807878856249, -1.5661943844312396, -1.6091458464920372, -1.5201749607946704, 1.6520973085528352, 3.014272248195285], 0.5, 0.5, 0.005, 0.2, 100)

2025-07-07 17:06:37,594 - gym_custom_envs_real_ur_drivers_URBasic_realTimeClientEvent - INFO - Program send to Robot:
servoj([-0.015339807878856249, -1.5661943844312396, -1.6091458464920372, -1.5201749607946704, 1.6520973085528352, 3.014272248195285], 0.5, 0.5, 0.005, 0.2, 100)

2025-07-07 17:06:37,615 - gym_custom_envs_real_ur_drivers_URBasic_realTimeClientEvent - INFO - Program send to Robot:
servoj([-0.015339807878856249, -1.5661943844312396, -1.6091458464920372, -1.5201749607946704, 1.6520973085528352, 3.014272248195285], 0.5, 0.5, 0.005, 0.2, 100)

2025-07-07 17:06:37,618 - gym_custom_envs_real_ur_drivers_URBasic_realTimeClientEvent - INFO - Program send to Robot:
servoj([-0.015339807878856249, -1.5661943844312396, -1.6091458464920372, -1.5201749607946704, 1.6520973085528352, 3.014272248195285], 0.5, 0.5, 0.005, 0.2, 100)

2025-07-07 17:06:37,639 - gym_custom_envs_real_ur_drivers_URBasic_realTimeClientEvent - INFO - Program send to Robot:
servoj([-0.015339807878856249, -1.5661943844312396, -1.6091458464920372, -1.5201749607946704, 1.6520973085528352, 3.014272248195285], 0.5, 0.5, 0.005, 0.2, 100)

2025-07-07 17:06:37,642 - gym_custom_envs_real_ur_drivers_URBasic_realTimeClientEvent - INFO - Program send to Robot:
servoj([-0.015339807878856249, -1.5661943844312396, -1.6091458464920372, -1.5201749607946704, 1.6520973085528352, 3.014272248195285], 0.5, 0.5, 0.005, 0.2, 100)

2025-07-07 17:06:37,663 - gym_custom_envs_real_ur_drivers_URBasic_realTimeClientEvent - INFO - Program send to Robot:
servoj([-0.015339807878856249, -1.5661943844312396, -1.6091458464920372, -1.5201749607946704, 1.6520973085528352, 3.014272248195285], 0.5, 0.5, 0.005, 0.2, 100)

2025-07-07 17:06:37,666 - gym_custom_envs_real_ur_drivers_URBasic_realTimeClientEvent - INFO - Program send to Robot:
servoj([-0.015339807878856249, -1.5661943844312396, -1.6091458464920372, -1.5201749607946704, 1.6520973085528352, 3.014272248195285], 0.5, 0.5, 0.005, 0.2, 100)

2025-07-07 17:06:37,681 - gym_custom_envs_real_ur_drivers_URBasic_realTimeClientEvent - INFO - Program send to Robot:
servoj([-0.015339807878856249, -1.5661943844312396, -1.6091458464920372, -1.5201749607946704, 1.6520973085528352, 3.014272248195285], 0.5, 0.5, 0.005, 0.2, 100)

2025-07-07 17:06:37,689 - gym_custom_envs_real_ur_drivers_URBasic_realTimeClientEvent - INFO - Program send to Robot:
servoj([-0.015339807878856249, -1.5661943844312396, -1.6091458464920372, -1.5201749607946704, 1.6520973085528352, 3.014272248195285], 0.5, 0.5, 0.005, 0.2, 100)

2025-07-07 17:06:37,706 - gym_custom_envs_real_ur_drivers_URBasic_realTimeClientEvent - INFO - Program send to Robot:
servoj([-0.015339807878856249, -1.5661943844312396, -1.6091458464920372, -1.5201749607946704, 1.6520973085528352, 3.014272248195285], 0.5, 0.5, 0.005, 0.2, 100)

2025-07-07 17:06:37,714 - gym_custom_envs_real_ur_drivers_URBasic_realTimeClientEvent - INFO - Program send to Robot:
servoj([-0.015339807878856249, -1.5661943844312396, -1.6091458464920372, -1.5201749607946704, 1.6520973085528352, 3.014272248195285], 0.5, 0.5, 0.005, 0.2, 100)

2025-07-07 17:06:37,721 - gym_custom_envs_real_ur_drivers_URBasic_realTimeClientEvent - INFO - Program send to Robot:
servoj([-0.015339807878856249, -1.5661943844312396, -1.6091458464920372, -1.5201749607946704, 1.6520973085528352, 3.014272248195285], 0.5, 0.5, 0.005, 0.2, 100)

2025-07-07 17:06:37,730 - gym_custom_envs_real_ur_drivers_URBasic_realTimeClientEvent - INFO - Program send to Robot:
servoj([-0.015339807878856249, -1.5661943844312396, -1.6091458464920372, -1.5201749607946704, 1.6520973085528352, 3.014272248195285], 0.5, 0.5, 0.005, 0.2, 100)

2025-07-07 17:06:37,746 - gym_custom_envs_real_ur_drivers_URBasic_realTimeClientEvent - INFO - Program send to Robot:
servoj([-0.015339807878856249, -1.5661943844312396, -1.6091458464920372, -1.5201749607946704, 1.6520973085528352, 3.014272248195285], 0.5, 0.5, 0.005, 0.2, 100)

2025-07-07 17:06:37,754 - gym_custom_envs_real_ur_drivers_URBasic_realTimeClientEvent - INFO - Program send to Robot:
servoj([-0.015339807878856249, -1.5661943844312396, -1.6091458464920372, -1.5201749607946704, 1.6520973085528352, 3.014272248195285], 0.5, 0.5, 0.005, 0.2, 100)

2025-07-07 17:06:37,770 - gym_custom_envs_real_ur_drivers_URBasic_realTimeClientEvent - INFO - Program send to Robot:
servoj([-0.015339807878856249, -1.5661943844312396, -1.6091458464920372, -1.5201749607946704, 1.6520973085528352, 3.014272248195285], 0.5, 0.5, 0.005, 0.2, 100)

2025-07-07 17:06:37,777 - gym_custom_envs_real_ur_drivers_URBasic_realTimeClientEvent - INFO - Program send to Robot:
servoj([-0.015339807878856249, -1.5661943844312396, -1.6091458464920372, -1.5201749607946704, 1.6520973085528352, 3.014272248195285], 0.5, 0.5, 0.005, 0.2, 100)

2025-07-07 17:06:37,786 - gym_custom_envs_real_ur_drivers_URBasic_realTimeClientEvent - INFO - Program send to Robot:
servoj([-0.015339807878856249, -1.5661943844312396, -1.6091458464920372, -1.5201749607946704, 1.6520973085528352, 3.014272248195285], 0.5, 0.5, 0.005, 0.2, 100)

2025-07-07 17:06:37,795 - gym_custom_envs_real_ur_drivers_URBasic_realTimeClientEvent - INFO - Program send to Robot:
servoj([-0.015339807878856249, -1.5661943844312396, -1.6091458464920372, -1.5201749607946704, 1.6520973085528352, 3.014272248195285], 0.5, 0.5, 0.005, 0.2, 100)

2025-07-07 17:06:37,811 - gym_custom_envs_real_ur_drivers_URBasic_realTimeClientEvent - INFO - Program send to Robot:
servoj([-0.015339807878856249, -1.5661943844312396, -1.6091458464920372, -1.5201749607946704, 1.6520973085528352, 3.014272248195285], 0.5, 0.5, 0.005, 0.2, 100)

2025-07-07 17:06:37,820 - gym_custom_envs_real_ur_drivers_URBasic_realTimeClientEvent - INFO - Program send to Robot:
servoj([-0.015339807878856249, -1.5661943844312396, -1.6091458464920372, -1.5201749607946704, 1.6520973085528352, 3.014272248195285], 0.5, 0.5, 0.005, 0.2, 100)

2025-07-07 17:06:37,826 - gym_custom_envs_real_ur_drivers_URBasic_realTimeClientEvent - INFO - Program send to Robot:
servoj([-0.015339807878856249, -1.5661943844312396, -1.6091458464920372, -1.5201749607946704, 1.6520973085528352, 3.014272248195285], 0.5, 0.5, 0.005, 0.2, 100)

2025-07-07 17:06:37,837 - gym_custom_envs_real_ur_drivers_URBasic_realTimeClientEvent - INFO - Program send to Robot:
servoj([-0.015339807878856249, -1.5661943844312396, -1.6091458464920372, -1.5201749607946704, 1.6520973085528352, 3.014272248195285], 0.5, 0.5, 0.005, 0.2, 100)

2025-07-07 17:06:37,850 - gym_custom_envs_real_ur_drivers_URBasic_realTimeClientEvent - INFO - Program send to Robot:
servoj([-0.015339807878856249, -1.5661943844312396, -1.6091458464920372, -1.5201749607946704, 1.6520973085528352, 3.014272248195285], 0.5, 0.5, 0.005, 0.2, 100)

2025-07-07 17:06:37,861 - gym_custom_envs_real_ur_drivers_URBasic_realTimeClientEvent - INFO - Program send to Robot:
servoj([-0.015339807878856249, -1.5661943844312396, -1.6091458464920372, -1.5201749607946704, 1.6520973085528352, 3.014272248195285], 0.5, 0.5, 0.005, 0.2, 100)

2025-07-07 17:06:37,866 - gym_custom_envs_real_ur_drivers_URBasic_realTimeClientEvent - INFO - Program send to Robot:
servoj([-0.015339807878856249, -1.5661943844312396, -1.6091458464920372, -1.5201749607946704, 1.6520973085528352, 3.014272248195285], 0.5, 0.5, 0.005, 0.2, 100)

2025-07-07 17:06:37,884 - gym_custom_envs_real_ur_drivers_URBasic_realTimeClientEvent - INFO - Program send to Robot:
servoj([-0.015339807878856249, -1.5661943844312396, -1.6091458464920372, -1.5201749607946704, 1.6520973085528352, 3.014272248195285], 0.5, 0.5, 0.005, 0.2, 100)

2025-07-07 17:06:37,892 - gym_custom_envs_real_ur_drivers_URBasic_realTimeClientEvent - INFO - Program send to Robot:
servoj([-0.015339807878856249, -1.5661943844312396, -1.6091458464920372, -1.5201749607946704, 1.6520973085528352, 3.014272248195285], 0.5, 0.5, 0.005, 0.2, 100)

2025-07-07 17:06:37,897 - gym_custom_envs_real_ur_drivers_URBasic_realTimeClientEvent - INFO - Program send to Robot:
servoj([-0.015339807878856249, -1.5661943844312396, -1.6091458464920372, -1.5201749607946704, 1.6520973085528352, 3.014272248195285], 0.5, 0.5, 0.005, 0.2, 100)

2025-07-07 17:06:37,916 - gym_custom_envs_real_ur_drivers_URBasic_realTimeClientEvent - INFO - Program send to Robot:
servoj([-0.015339807878856249, -1.5646757434512328, -1.6091458464920372, -1.5201749607946704, 1.6520973085528352, 3.014272248195285], 0.5, 0.5, 0.005, 0.2, 100)

2025-07-07 17:06:37,922 - gym_custom_envs_real_ur_drivers_URBasic_realTimeClientEvent - INFO - Program send to Robot:
servoj([-0.015339807878856249, -1.5646605570414327, -1.6091458464920372, -1.5201749607946704, 1.6520973085528352, 3.014272248195285], 0.5, 0.5, 0.005, 0.2, 100)

2025-07-07 17:06:37,933 - gym_custom_envs_real_ur_drivers_URBasic_realTimeClientEvent - INFO - Program send to Robot:
servoj([-0.015339807878856249, -1.5646604051773347, -1.6091458464920372, -1.5201749607946704, 1.6520973085528352, 3.014272248195285], 0.5, 0.5, 0.005, 0.2, 100)

2025-07-07 17:06:37,945 - gym_custom_envs_real_ur_drivers_URBasic_realTimeClientEvent - INFO - Program send to Robot:
servoj([-0.015339807878856249, -1.5646604036586937, -1.6091458464920372, -1.5201749607946704, 1.6520973085528352, 3.014272248195285], 0.5, 0.5, 0.005, 0.2, 100)

2025-07-07 17:06:37,958 - gym_custom_envs_real_ur_drivers_URBasic_realTimeClientEvent - INFO - Program send to Robot:
servoj([-0.015339807878856249, -1.5646604036435074, -1.6091458464920372, -1.5201749607946704, 1.6520973085528352, 3.014272248195285], 0.5, 0.5, 0.005, 0.2, 100)

2025-07-07 17:06:37,962 - gym_custom_envs_real_ur_drivers_URBasic_realTimeClientEvent - INFO - Program send to Robot:
servoj([-0.015339807878856249, -1.5646604036433556, -1.6091458464920372, -1.5201749607946704, 1.6520973085528352, 3.014272248195285], 0.5, 0.5, 0.005, 0.2, 100)

2025-07-07 17:06:37,981 - gym_custom_envs_real_ur_drivers_URBasic_realTimeClientEvent - INFO - Program send to Robot:
servoj([-0.015339807878856249, -1.564660403643354, -1.6091458464920372, -1.5201749607946704, 1.6520973085528352, 3.014272248195285], 0.5, 0.5, 0.005, 0.2, 100)

2025-07-07 17:06:37,989 - gym_custom_envs_real_ur_drivers_URBasic_realTimeClientEvent - INFO - Program send to Robot:
servoj([-0.015339807878856249, -1.564660403643354, -1.6091458464920372, -1.5201749607946704, 1.6520973085528352, 3.014272248195285], 0.5, 0.5, 0.005, 0.2, 100)

2025-07-07 17:06:37,995 - gym_custom_envs_real_ur_drivers_URBasic_realTimeClientEvent - INFO - Program send to Robot:
servoj([-0.015339807878856249, -1.564660403643354, -1.6091458464920372, -1.5201749607946704, 1.6520973085528352, 3.014272248195285], 0.5, 0.5, 0.005, 0.2, 100)

2025-07-07 17:06:38,013 - gym_custom_envs_real_ur_drivers_URBasic_realTimeClientEvent - INFO - Program send to Robot:
servoj([-0.015339807878856249, -1.564660403643354, -1.6091458464920372, -1.5201749607946704, 1.6520973085528352, 3.014272248195285], 0.5, 0.5, 0.005, 0.2, 100)

2025-07-07 17:06:38,018 - gym_custom_envs_real_ur_drivers_URBasic_realTimeClientEvent - INFO - Program send to Robot:
servoj([-0.015339807878856249, -1.564660403643354, -1.6091458464920372, -1.5201749607946704, 1.6520973085528352, 3.014272248195285], 0.5, 0.5, 0.005, 0.2, 100)

2025-07-07 17:06:38,028 - gym_custom_envs_real_ur_drivers_URBasic_realTimeClientEvent - INFO - Program send to Robot:
servoj([-0.015339807878856249, -1.564660403643354, -1.6091458464920372, -1.5201749607946704, 1.6520973085528352, 3.014272248195285], 0.5, 0.5, 0.005, 0.2, 100)

2025-07-07 17:06:38,041 - gym_custom_envs_real_ur_drivers_URBasic_realTimeClientEvent - INFO - Program send to Robot:
servoj([-0.015339807878856249, -1.564660403643354, -1.6091458464920372, -1.5201749607946704, 1.6520973085528352, 3.014272248195285], 0.5, 0.5, 0.005, 0.2, 100)

2025-07-07 17:06:38,052 - gym_custom_envs_real_ur_drivers_URBasic_realTimeClientEvent - INFO - Program send to Robot:
servoj([-0.015339807878856249, -1.564660403643354, -1.6091458464920372, -1.5201749607946704, 1.6520973085528352, 3.014272248195285], 0.5, 0.5, 0.005, 0.2, 100)

2025-07-07 17:06:38,061 - gym_custom_envs_real_ur_drivers_URBasic_realTimeClientEvent - INFO - Program send to Robot:
servoj([-0.015339807878856249, -1.564660403643354, -1.6091458464920372, -1.5201749607946704, 1.6520973085528352, 3.014272248195285], 0.5, 0.5, 0.005, 0.2, 100)

2025-07-07 17:06:38,066 - gym_custom_envs_real_ur_drivers_URBasic_realTimeClientEvent - INFO - Program send to Robot:
servoj([-0.015339807878856249, -1.564660403643354, -1.6091458464920372, -1.5201749607946704, 1.6520973085528352, 3.014272248195285], 0.5, 0.5, 0.005, 0.2, 100)

2025-07-07 17:06:38,082 - gym_custom_envs_real_ur_drivers_URBasic_realTimeClientEvent - INFO - Program send to Robot:
servoj([-0.015339807878856249, -1.564660403643354, -1.6091458464920372, -1.5201749607946704, 1.6520973085528352, 3.014272248195285], 0.5, 0.5, 0.005, 0.2, 100)

2025-07-07 17:06:38,090 - gym_custom_envs_real_ur_drivers_URBasic_realTimeClientEvent - INFO - Program send to Robot:
servoj([-0.015339807878856249, -1.564660403643354, -1.6091458464920372, -1.5201749607946704, 1.6520973085528352, 3.014272248195285], 0.5, 0.5, 0.005, 0.2, 100)

2025-07-07 17:06:38,103 - gym_custom_envs_real_ur_drivers_URBasic_realTimeClientEvent - INFO - Program send to Robot:
servoj([-0.015339807878856249, -1.564660403643354, -1.6091458464920372, -1.5201749607946704, 1.6520973085528352, 3.014272248195285], 0.5, 0.5, 0.005, 0.2, 100)

2025-07-07 17:06:38,114 - gym_custom_envs_real_ur_drivers_URBasic_realTimeClientEvent - INFO - Program send to Robot:
servoj([-0.015339807878856249, -1.564660403643354, -1.6091458464920372, -1.5201749607946704, 1.6520973085528352, 3.014272248195285], 0.5, 0.5, 0.005, 0.2, 100)

2025-07-07 17:06:38,125 - gym_custom_envs_real_ur_drivers_URBasic_realTimeClientEvent - INFO - Program send to Robot:
servoj([-0.015339807878856249, -1.564660403643354, -1.6091458464920372, -1.5201749607946704, 1.6520973085528352, 3.014272248195285], 0.5, 0.5, 0.005, 0.2, 100)

2025-07-07 17:06:38,130 - gym_custom_envs_real_ur_drivers_URBasic_realTimeClientEvent - INFO - Program send to Robot:
servoj([-0.015339807878856249, -1.564660403643354, -1.6091458464920372, -1.5201749607946704, 1.6520973085528352, 3.014272248195285], 0.5, 0.5, 0.005, 0.2, 100)

2025-07-07 17:06:38,138 - gym_custom_envs_real_ur_drivers_URBasic_realTimeClientEvent - INFO - Program send to Robot:
servoj([-0.015339807878856249, -1.564660403643354, -1.6091458464920372, -1.5201749607946704, 1.6520973085528352, 3.014272248195285], 0.5, 0.5, 0.005, 0.2, 100)

2025-07-07 17:06:38,157 - gym_custom_envs_real_ur_drivers_URBasic_realTimeClientEvent - INFO - Program send to Robot:
servoj([-0.015339807878856249, -1.564660403643354, -1.6091458464920372, -1.5201749607946704, 1.6520973085528352, 3.014272248195285], 0.5, 0.5, 0.005, 0.2, 100)

2025-07-07 17:06:38,162 - gym_custom_envs_real_ur_drivers_URBasic_realTimeClientEvent - INFO - Program send to Robot:
servoj([-0.015339807878856249, -1.564660403643354, -1.6091458464920372, -1.5201749607946704, 1.6520973085528352, 3.014272248195285], 0.5, 0.5, 0.005, 0.2, 100)

2025-07-07 17:06:38,172 - gym_custom_envs_real_ur_drivers_URBasic_realTimeClientEvent - INFO - Program send to Robot:
servoj([-0.015339807878856249, -1.564660403643354, -1.6091458464920372, -1.5201749607946704, 1.6520973085528352, 3.014272248195285], 0.5, 0.5, 0.005, 0.2, 100)

2025-07-07 17:06:38,186 - gym_custom_envs_real_ur_drivers_URBasic_realTimeClientEvent - INFO - Program send to Robot:
servoj([-0.015339807878856249, -1.564660403643354, -1.6091458464920372, -1.5201749607946704, 1.6520973085528352, 3.014272248195285], 0.5, 0.5, 0.005, 0.2, 100)

2025-07-07 17:06:38,196 - gym_custom_envs_real_ur_drivers_URBasic_realTimeClientEvent - INFO - Program send to Robot:
servoj([-0.015339807878856249, -1.564660403643354, -1.6091458464920372, -1.5201749607946704, 1.6520973085528352, 3.014272248195285], 0.5, 0.5, 0.005, 0.2, 100)

2025-07-07 17:06:38,205 - gym_custom_envs_real_ur_drivers_URBasic_realTimeClientEvent - INFO - Program send to Robot:
servoj([-0.015339807878856249, -1.564660403643354, -1.6091458464920372, -1.5201749607946704, 1.6520973085528352, 3.014272248195285], 0.5, 0.5, 0.005, 0.2, 100)

2025-07-07 17:06:38,212 - gym_custom_envs_real_ur_drivers_URBasic_realTimeClientEvent - INFO - Program send to Robot:
servoj([-0.015339807878856249, -1.564660403643354, -1.6091458464920372, -1.5201749607946704, 1.6520973085528352, 3.014272248195285], 0.5, 0.5, 0.005, 0.2, 100)

2025-07-07 17:06:38,227 - gym_custom_envs_real_ur_drivers_URBasic_realTimeClientEvent - INFO - Program send to Robot:
servoj([-0.015339807878856249, -1.564660403643354, -1.607627205512031, -1.5201749607946704, 1.6520973085528352, 3.014272248195285], 0.5, 0.5, 0.005, 0.2, 100)

2025-07-07 17:06:38,234 - gym_custom_envs_real_ur_drivers_URBasic_realTimeClientEvent - INFO - Program send to Robot:
servoj([-0.015339807878856249, -1.564660403643354, -1.6076120191022312, -1.5201749607946704, 1.6520973085528352, 3.014272248195285], 0.5, 0.5, 0.005, 0.2, 100)

2025-07-07 17:06:38,245 - gym_custom_envs_real_ur_drivers_URBasic_realTimeClientEvent - INFO - Program send to Robot:
servoj([-0.015339807878856249, -1.564660403643354, -1.607611867238133, -1.5201749607946704, 1.6520973085528352, 3.014272248195285], 0.5, 0.5, 0.005, 0.2, 100)

2025-07-07 17:06:38,258 - gym_custom_envs_real_ur_drivers_URBasic_realTimeClientEvent - INFO - Program send to Robot:
servoj([-0.015339807878856249, -1.5631417626633473, -1.607611865719492, -1.5201749607946704, 1.6520973085528352, 3.014272248195285], 0.5, 0.5, 0.005, 0.2, 100)

2025-07-07 17:06:38,268 - gym_custom_envs_real_ur_drivers_URBasic_realTimeClientEvent - INFO - Program send to Robot:
servoj([-0.015339807878856249, -1.5631265762535471, -1.6076118657043057, -1.5201749607946704, 1.6520973085528352, 3.014272248195285], 0.5, 0.5, 0.005, 0.2, 100)

2025-07-07 17:06:38,276 - gym_custom_envs_real_ur_drivers_URBasic_realTimeClientEvent - INFO - Program send to Robot:
servoj([-0.015339807878856249, -1.5631264243894492, -1.6076118657041538, -1.5201749607946704, 1.6520973085528352, 3.014272248195285], 0.5, 0.5, 0.005, 0.2, 100)

2025-07-07 17:06:38,282 - gym_custom_envs_real_ur_drivers_URBasic_realTimeClientEvent - INFO - Program send to Robot:
servoj([-0.015339807878856249, -1.5631264228708082, -1.6076118657041523, -1.5201749607946704, 1.6520973085528352, 3.014272248195285], 0.5, 0.5, 0.005, 0.2, 100)

2025-07-07 17:06:38,300 - gym_custom_envs_real_ur_drivers_URBasic_realTimeClientEvent - INFO - Program send to Robot:
servoj([-0.015339807878856249, -1.5631264228556219, -1.6060932247241453, -1.5201749607946704, 1.6520973085528352, 3.014272248195285], 0.5, 0.5, 0.005, 0.2, 100)

2025-07-07 17:06:38,306 - gym_custom_envs_real_ur_drivers_URBasic_realTimeClientEvent - INFO - Program send to Robot:
servoj([-0.015339807878856249, -1.56312642285547, -1.6060780383143451, -1.5201749607946704, 1.6520973085528352, 3.014272248195285], 0.5, 0.5, 0.005, 0.2, 100)

2025-07-07 17:06:38,316 - gym_custom_envs_real_ur_drivers_URBasic_realTimeClientEvent - INFO - Program send to Robot:
servoj([-0.015339807878856249, -1.5631264228554684, -1.6060778864502472, -1.5201749607946704, 1.6520973085528352, 3.014272248195285], 0.5, 0.5, 0.005, 0.2, 100)

2025-07-07 17:06:38,330 - gym_custom_envs_real_ur_drivers_URBasic_realTimeClientEvent - INFO - Program send to Robot:
servoj([-0.01685844885886319, -1.5616077818754615, -1.6060778849316062, -1.5201749607946704, 1.6520973085528352, 3.014272248195285], 0.5, 0.5, 0.005, 0.2, 100)

2025-07-07 17:06:38,341 - gym_custom_envs_real_ur_drivers_URBasic_realTimeClientEvent - INFO - Program send to Robot:
servoj([-0.01687363526866326, -1.5615925954656613, -1.60607788491642, -1.5201749607946704, 1.6520973085528352, 3.014272248195285], 0.5, 0.5, 0.005, 0.2, 100)

2025-07-07 17:06:38,346 - gym_custom_envs_real_ur_drivers_URBasic_realTimeClientEvent - INFO - Program send to Robot:
servoj([-0.01687378713276126, -1.5615924436015634, -1.606077884916268, -1.5201749607946704, 1.6520973085528352, 3.014272248195285], 0.5, 0.5, 0.005, 0.2, 100)

2025-07-07 17:06:38,365 - gym_custom_envs_real_ur_drivers_URBasic_realTimeClientEvent - INFO - Program send to Robot:
servoj([-0.016873788651402242, -1.5615924420829224, -1.6045592439362595, -1.5201749607946704, 1.6520973085528352, 3.014272248195285], 0.5, 0.5, 0.005, 0.2, 100)

2025-07-07 17:06:38,373 - gym_custom_envs_real_ur_drivers_URBasic_realTimeClientEvent - INFO - Program send to Robot:
servoj([-0.016873788666588653, -1.5615924420677358, -1.6045440575264593, -1.5201749607946704, 1.6520973085528352, 3.014272248195285], 0.5, 0.5, 0.005, 0.2, 100)

2025-07-07 17:06:38,378 - gym_custom_envs_real_ur_drivers_URBasic_realTimeClientEvent - INFO - Program send to Robot:
servoj([-0.016873788666740514, -1.561592442067584, -1.6045439056623614, -1.5201749607946704, 1.6520973085528352, 3.014272248195285], 0.5, 0.5, 0.005, 0.2, 100)

2025-07-07 17:06:38,395 - gym_custom_envs_real_ur_drivers_URBasic_realTimeClientEvent - INFO - Program send to Robot:
servoj([-0.016873788666742034, -1.5615924420675826, -1.6030252631637134, -1.5201749607946704, 1.6520973085528352, 3.014272248195285], 0.5, 0.5, 0.005, 0.2, 100)

2025-07-07 17:06:38,402 - gym_custom_envs_real_ur_drivers_URBasic_realTimeClientEvent - INFO - Program send to Robot:
servoj([-0.01687378866674205, -1.5615924420675826, -1.603010076738727, -1.5201749607946704, 1.6520973085528352, 3.014272248195285], 0.5, 0.5, 0.005, 0.2, 100)

2025-07-07 17:06:38,411 - gym_custom_envs_real_ur_drivers_URBasic_realTimeClientEvent - INFO - Program send to Robot:
servoj([-0.01687378866674205, -1.5615924420675826, -1.6030099248744771, -1.5201749607946704, 1.6520973085528352, 3.014272248195285], 0.5, 0.5, 0.005, 0.2, 100)

2025-07-07 17:06:38,426 - gym_custom_envs_real_ur_drivers_URBasic_realTimeClientEvent - INFO - Program send to Robot:
servoj([-0.01687378866674205, -1.5615924420675826, -1.6014912823758276, -1.5201749607946704, 1.6520973085528352, 3.014272248195285], 0.5, 0.5, 0.005, 0.2, 100)

2025-07-07 17:06:38,435 - gym_custom_envs_real_ur_drivers_URBasic_realTimeClientEvent - INFO - Program send to Robot:
servoj([-0.01687378866674205, -1.5615924420675826, -1.6014760959508412, -1.5201749607946704, 1.6520973085528352, 3.014272248195285], 0.5, 0.5, 0.005, 0.2, 100)

2025-07-07 17:06:38,444 - gym_custom_envs_real_ur_drivers_URBasic_realTimeClientEvent - INFO - Program send to Robot:
servoj([-0.01687378866674205, -1.5615924420675826, -1.6014759440865913, -1.5201749607946704, 1.6520973085528352, 3.014272248195285], 0.5, 0.5, 0.005, 0.2, 100)

2025-07-07 17:06:38,450 - gym_custom_envs_real_ur_drivers_URBasic_realTimeClientEvent - INFO - Program send to Robot:
servoj([-0.01687378866674205, -1.560073801087576, -1.598438660607936, -1.5201749607946704, 1.6505786675728293, 3.014272248195285], 0.5, 0.5, 0.005, 0.2, 100)

2025-07-07 17:06:38,469 - gym_custom_envs_real_ur_drivers_URBasic_realTimeClientEvent - INFO - Program send to Robot:
servoj([-0.01687378866674205, -1.560058614677776, -1.5984082877731494, -1.5201749607946704, 1.6505634811630292, 3.014272248195285], 0.5, 0.5, 0.005, 0.2, 100)

2025-07-07 17:06:38,474 - gym_custom_envs_real_ur_drivers_URBasic_realTimeClientEvent - INFO - Program send to Robot:
servoj([-0.01687378866674205, -1.560058462813678, -1.5984079840448016, -1.5201749607946704, 1.6505633292989312, 3.014272248195285], 0.5, 0.5, 0.005, 0.2, 100)

2025-07-07 17:06:38,485 - gym_custom_envs_real_ur_drivers_URBasic_realTimeClientEvent - INFO - Program send to Robot:
servoj([-0.018392429646748996, -1.560058461295037, -1.596889340027511, -1.5201749607946704, 1.6490446868002833, 3.014272248195285], 0.5, 0.5, 0.005, 0.2, 100)

2025-07-07 17:06:38,497 - gym_custom_envs_real_ur_drivers_URBasic_realTimeClientEvent - INFO - Program send to Robot:
servoj([-0.018407616056549066, -1.5600584612798505, -1.596874153587338, -1.5201749607946704, 1.6490295003752968, 3.014272248195285], 0.5, 0.5, 0.005, 0.2, 100)

2025-07-07 17:06:38,509 - gym_custom_envs_real_ur_drivers_URBasic_realTimeClientEvent - INFO - Program send to Robot:
servoj([-0.018407767920647064, -1.5600584612796986, -1.5968740017229364, -1.5201749607946704, 1.6490293485110468, 3.014272248195285], 0.5, 0.5, 0.005, 0.2, 100)

2025-07-07 17:06:38,514 - gym_custom_envs_real_ur_drivers_URBasic_realTimeClientEvent - INFO - Program send to Robot:
servoj([-0.018407769439288044, -1.560058461279697, -1.5923180772642715, -1.5201749607946704, 1.6490293469924044, 3.014272248195285], 0.5, 0.5, 0.005, 0.2, 100)

2025-07-07 17:06:38,533 - gym_custom_envs_real_ur_drivers_URBasic_realTimeClientEvent - INFO - Program send to Robot:
servoj([-0.018407769454474456, -1.560058461279697, -1.5922725180196848, -1.5201749607946704, 1.649029346977218, 3.014272248195285], 0.5, 0.5, 0.005, 0.2, 100)

2025-07-07 17:06:38,541 - gym_custom_envs_real_ur_drivers_URBasic_realTimeClientEvent - INFO - Program send to Robot:
servoj([-0.01840776945462632, -1.560058461279697, -1.5922720624272388, -1.5201749607946704, 1.649029346977066, 3.014272248195285], 0.5, 0.5, 0.005, 0.2, 100)

2025-07-07 17:06:38,545 - gym_custom_envs_real_ur_drivers_URBasic_realTimeClientEvent - INFO - Program send to Robot:
servoj([-0.021445051414641286, -1.560058461279697, -1.5907534168913087, -1.5201749607946704, 1.6490293469770645, 3.014272248195285], 0.5, 0.5, 0.005, 0.2, 100)

2025-07-07 17:06:38,564 - gym_custom_envs_real_ur_drivers_URBasic_realTimeClientEvent - INFO - Program send to Robot:
servoj([-0.02147542423424144, -1.560058461279697, -1.5907382304359492, -1.5201749607946704, 1.6490293469770645, 3.014272248195285], 0.5, 0.5, 0.005, 0.2, 100)

2025-07-07 17:06:38,570 - gym_custom_envs_real_ur_drivers_URBasic_realTimeClientEvent - INFO - Program send to Robot:
servoj([-0.02147572796243744, -1.560058461279697, -1.5907380785713956, -1.5201749607946704, 1.6490293469770645, 3.014272248195285], 0.5, 0.5, 0.005, 0.2, 100)

2025-07-07 17:06:38,582 - gym_custom_envs_real_ur_drivers_URBasic_realTimeClientEvent - INFO - Program send to Robot:
servoj([-0.022994371979726345, -1.560058461279697, -1.5877007950927362, -1.5186563198146636, 1.6490293469770645, 3.014272248195285], 0.5, 0.5, 0.005, 0.2, 100)

2025-07-07 17:06:38,594 - gym_custom_envs_real_ur_drivers_URBasic_realTimeClientEvent - INFO - Program send to Robot:
servoj([-0.023009558419899233, -1.560058461279697, -1.5876704222579496, -1.5186411334048637, 1.6490293469770645, 3.014272248195285], 0.5, 0.5, 0.005, 0.2, 100)

2025-07-07 17:06:38,606 - gym_custom_envs_real_ur_drivers_URBasic_realTimeClientEvent - INFO - Program send to Robot:
servoj([-0.02300971028430096, -1.560058461279697, -1.5876701185296018, -1.5186409815407658, 1.6490293469770645, 3.014272248195285], 0.5, 0.5, 0.005, 0.2, 100)

2025-07-07 17:06:38,609 - gym_custom_envs_real_ur_drivers_URBasic_realTimeClientEvent - INFO - Program send to Robot:
servoj([-0.02604699376295843, -1.560058461279697, -1.5831141925522982, -1.5186409800221248, 1.6490293469770645, 3.014272248195285], 0.5, 0.5, 0.005, 0.2, 100)

2025-07-07 17:06:38,629 - gym_custom_envs_real_ur_drivers_URBasic_realTimeClientEvent - INFO - Program send to Robot:
servoj([-0.026077366597745004, -1.560058461279697, -1.5830686332925252, -1.5186409800069383, 1.6490293469770645, 3.014272248195285], 0.5, 0.5, 0.005, 0.2, 100)

2025-07-07 17:06:38,634 - gym_custom_envs_real_ur_drivers_URBasic_realTimeClientEvent - INFO - Program send to Robot:
servoj([-0.02607767032609287, -1.560058461279697, -1.5830681776999274, -1.5186409800067864, 1.6490293469770645, 3.014272248195285], 0.5, 0.5, 0.005, 0.2, 100)

2025-07-07 17:06:38,642 - gym_custom_envs_real_ur_drivers_URBasic_realTimeClientEvent - INFO - Program send to Robot:
servoj([-0.03063359630339674, -1.560058461279697, -1.5815495321639945, -1.5186409800067848, 1.6490293469770645, 3.014272248195285], 0.5, 0.5, 0.005, 0.2, 100)

2025-07-07 17:06:38,660 - gym_custom_envs_real_ur_drivers_URBasic_realTimeClientEvent - INFO - Program send to Robot:
servoj([-0.030679155563169778, -1.560058461279697, -1.5815343457086353, -1.5186409800067848, 1.6490293469770645, 3.014272248195285], 0.5, 0.5, 0.005, 0.2, 100)

2025-07-07 17:06:38,666 - gym_custom_envs_real_ur_drivers_URBasic_realTimeClientEvent - INFO - Program send to Robot:
servoj([-0.03067961115576751, -1.560058461279697, -1.5815341938440817, -1.5186409800067848, 1.6490293469770645, 3.014272248195285], 0.5, 0.5, 0.005, 0.2, 100)

2025-07-07 17:06:38,676 - gym_custom_envs_real_ur_drivers_URBasic_realTimeClientEvent - INFO - Program send to Robot:
servoj([-0.038272820611727335, -1.5615771022597036, -1.5784969103654223, -1.5186409800067848, 1.6505479879570715, 3.014272248195285], 0.5, 0.5, 0.005, 0.2, 100)

2025-07-07 17:06:38,689 - gym_custom_envs_real_ur_drivers_URBasic_realTimeClientEvent - INFO - Program send to Robot:
servoj([-0.03834875270628693, -1.5615922886695037, -1.5784665375306357, -1.5186409800067848, 1.6505631743668716, 3.014272248195285], 0.5, 0.5, 0.005, 0.2, 100)

2025-07-07 17:06:38,701 - gym_custom_envs_real_ur_drivers_URBasic_realTimeClientEvent - INFO - Program send to Robot:
servoj([-0.038349512027232524, -1.5615924405336017, -1.578466233802288, -1.5186409800067848, 1.6505633262309696, 3.014272248195285], 0.5, 0.5, 0.005, 0.2, 100)

2025-07-07 17:06:38,706 - gym_custom_envs_real_ur_drivers_URBasic_realTimeClientEvent - INFO - Program send to Robot:
servoj([-0.04442408354046888, -1.5615924420522427, -1.5769475897849974, -1.5186409800067848, 1.6490446867696036, 3.014272248195285], 0.5, 0.5, 0.005, 0.2, 100)

2025-07-07 17:06:38,714 - gym_custom_envs_real_ur_drivers_URBasic_realTimeClientEvent - INFO - Program send to Robot:
servoj([-0.044484829255601245, -1.5615924420674292, -1.5769324033448244, -1.5186409800067848, 1.64902950037499, 3.014272248195285], 0.5, 0.5, 0.005, 0.2, 100)

2025-07-07 17:06:38,730 - gym_custom_envs_real_ur_drivers_URBasic_realTimeClientEvent - INFO - Program send to Robot:
servoj([-0.04448543671275257, -1.561592442067581, -1.5769322514804227, -1.5186409800067848, 1.6490293485110439, 3.014272248195285], 0.5, 0.5, 0.005, 0.2, 100)

2025-07-07 17:06:38,737 - gym_custom_envs_real_ur_drivers_URBasic_realTimeClientEvent - INFO - Program send to Robot:
servoj([-0.05056000670735142, -1.5615924420675824, -1.5754136089817719, -1.5186409800067848, 1.6490293469924044, 3.014272248195285], 0.5, 0.5, 0.005, 0.2, 100)

2025-07-07 17:06:38,750 - gym_custom_envs_real_ur_drivers_URBasic_realTimeClientEvent - INFO - Program send to Robot:
servoj([-0.05062075240729741, -1.5615924420675826, -1.5753984225567852, -1.5186409800067848, 1.649029346977218, 3.014272248195285], 0.5, 0.5, 0.005, 0.2, 100)

2025-07-07 17:06:38,762 - gym_custom_envs_real_ur_drivers_URBasic_realTimeClientEvent - INFO - Program send to Robot:
servoj([-0.05062135986429687, -1.5615924420675826, -1.5753982706925354, -1.5186409800067848, 1.649029346977066, 3.014272248195285], 0.5, 0.5, 0.005, 0.2, 100)

2025-07-07 17:06:38,773 - gym_custom_envs_real_ur_drivers_URBasic_realTimeClientEvent - INFO - Program send to Robot:
servoj([-0.0566959298588942, -1.5615924420675826, -1.5753982691738928, -1.5186409800067848, 1.6490293469770645, 3.014272248195285], 0.5, 0.5, 0.005, 0.2, 100)

2025-07-07 17:06:38,778 - gym_custom_envs_real_ur_drivers_URBasic_realTimeClientEvent - INFO - Program send to Robot:
servoj([-0.056756675558840175, -1.5615924420675826, -1.5753982691587065, -1.5186409800067848, 1.6490293469770645, 3.014272248195285], 0.5, 0.5, 0.005, 0.2, 100)

2025-07-07 17:06:38,786 - gym_custom_envs_real_ur_drivers_URBasic_realTimeClientEvent - INFO - Program send to Robot:
servoj([-0.056757283015839634, -1.5615924420675826, -1.5753982691585546, -1.5186409800067848, 1.6490293469770645, 3.014272248195285], 0.5, 0.5, 0.005, 0.2, 100)

2025-07-07 17:06:38,802 - gym_custom_envs_real_ur_drivers_URBasic_realTimeClientEvent - INFO - Program send to Robot:
servoj([-0.06435049399044347, -1.5615924420675826, -1.575398269158553, -1.5171223390267778, 1.6490293469770645, 3.012753607215278], 0.5, 0.5, 0.005, 0.2, 100)

2025-07-07 17:06:38,809 - gym_custom_envs_real_ur_drivers_URBasic_realTimeClientEvent - INFO - Program send to Robot:
servoj([-0.0644264261001895, -1.5615924420675826, -1.575398269158553, -1.517107152616978, 1.6490293469770645, 3.0127384208054777], 0.5, 0.5, 0.005, 0.2, 100)

2025-07-07 17:06:38,821 - gym_custom_envs_real_ur_drivers_URBasic_realTimeClientEvent - INFO - Program send to Robot:
servoj([-0.06442718542128696, -1.5615924420675826, -1.575398269158553, -1.5171070007528797, 1.6490293469770645, 3.01273826894138], 0.5, 0.5, 0.005, 0.2, 100)

2025-07-07 17:06:38,834 - gym_custom_envs_real_ur_drivers_URBasic_realTimeClientEvent - INFO - Program send to Robot:
servoj([-0.07353903889453874, -1.5615924420675826, -1.575398269158553, -1.5186256402142457, 1.6490293469770645, 3.0127382674227388], 0.5, 0.5, 0.005, 0.2, 100)

2025-07-07 17:06:38,846 - gym_custom_envs_real_ur_drivers_URBasic_realTimeClientEvent - INFO - Program send to Robot:
servoj([-0.07363015742927126, -1.5615924420675826, -1.575398269158553, -1.5186408266088596, 1.6490293469770645, 3.0127382674075522], 0.5, 0.5, 0.005, 0.2, 100)

2025-07-07 17:06:38,850 - gym_custom_envs_real_ur_drivers_URBasic_realTimeClientEvent - INFO - Program send to Robot:
servoj([-0.07363106861461859, -1.5615924420675826, -1.575398269158553, -1.5186409784728057, 1.6490293469770645, 3.0127382674074004], 0.5, 0.5, 0.005, 0.2, 100)

2025-07-07 17:06:38,869 - gym_custom_envs_real_ur_drivers_URBasic_realTimeClientEvent - INFO - Program send to Robot:
servoj([-0.08122428262650588, -1.5615924420675826, -1.575398269158553, -1.5171223390114381, 1.6490293469770645, 3.012738267407399], 0.5, 0.5, 0.005, 0.2, 100)

2025-07-07 17:06:38,874 - gym_custom_envs_real_ur_drivers_URBasic_realTimeClientEvent - INFO - Program send to Robot:
servoj([-0.08130021476662476, -1.5615924420675826, -1.575398269158553, -1.5171071526168245, 1.6490293469770645, 3.012738267407399], 0.5, 0.5, 0.005, 0.2, 100)

2025-07-07 17:06:38,882 - gym_custom_envs_real_ur_drivers_URBasic_realTimeClientEvent - INFO - Program send to Robot:
servoj([-0.08130097408802595, -1.5615924420675826, -1.575398269158553, -1.5171070007528784, 1.6490293469770645, 3.012738267407399], 0.5, 0.5, 0.005, 0.2, 100)

2025-07-07 17:06:38,900 - gym_custom_envs_real_ur_drivers_URBasic_realTimeClientEvent - INFO - Program send to Robot:
servoj([-0.0888941865812738, -1.5615924420675826, -1.575398269158553, -1.5186256402142457, 1.6490293469770645, 3.012738267407399], 0.5, 0.5, 0.005, 0.2, 100)

2025-07-07 17:06:38,906 - gym_custom_envs_real_ur_drivers_URBasic_realTimeClientEvent - INFO - Program send to Robot:
servoj([-0.08897011870620629, -1.5615924420675826, -1.575398269158553, -1.5186408266088596, 1.6490293469770645, 3.012738267407399], 0.5, 0.5, 0.005, 0.2, 100)

2025-07-07 17:06:38,916 - gym_custom_envs_real_ur_drivers_URBasic_realTimeClientEvent - INFO - Program send to Robot:
servoj([-0.08897087802745561, -1.5615924420675826, -1.575398269158553, -1.5186409784728057, 1.6490293469770645, 3.012738267407399], 0.5, 0.5, 0.005, 0.2, 100)

2025-07-07 17:06:38,930 - gym_custom_envs_real_ur_drivers_URBasic_realTimeClientEvent - INFO - Program send to Robot:
servoj([-0.095045449540695, -1.560073801087576, -1.575398269158553, -1.518640979991445, 1.6490293469770645, 3.012738267407399], 0.5, 0.5, 0.005, 0.2, 100)

2025-07-07 17:06:38,940 - gym_custom_envs_real_ur_drivers_URBasic_realTimeClientEvent - INFO - Program send to Robot:
servoj([-0.0951061952558274, -1.560058614677776, -1.575398269158553, -1.5186409800066314, 1.6490293469770645, 3.012738267407399], 0.5, 0.5, 0.005, 0.2, 100)

2025-07-07 17:06:38,949 - gym_custom_envs_real_ur_drivers_URBasic_realTimeClientEvent - INFO - Program send to Robot:
servoj([-0.09510680271297872, -1.560058462813678, -1.575398269158553, -1.5186409800067833, 1.6490293469770645, 3.012738267407399], 0.5, 0.5, 0.005, 0.2, 100)

2025-07-07 17:06:38,954 - gym_custom_envs_real_ur_drivers_URBasic_realTimeClientEvent - INFO - Program send to Robot:
servoj([-0.09510680878755023, -1.560058461295037, -1.575398269158553, -1.5186409800067848, 1.6490293469770645, 3.012738267407399], 0.5, 0.5, 0.005, 0.2, 100)

2025-07-07 17:06:38,970 - gym_custom_envs_real_ur_drivers_URBasic_realTimeClientEvent - INFO - Program send to Robot:
servoj([-0.10118137276832329, -1.5600584612798505, -1.575398269158553, -1.5186409800067848, 1.6490293469770645, 3.0112196264273927], 0.5, 0.5, 0.005, 0.2, 100)

2025-07-07 17:06:38,978 - gym_custom_envs_real_ur_drivers_URBasic_realTimeClientEvent - INFO - Program send to Robot:
servoj([-0.10124211840813102, -1.5600584612796986, -1.575398269158553, -1.5186409800067848, 1.6490293469770645, 3.011204440017593], 0.5, 0.5, 0.005, 0.2, 100)

2025-07-07 17:06:38,988 - gym_custom_envs_real_ur_drivers_URBasic_realTimeClientEvent - INFO - Program send to Robot:
servoj([-0.10124272586452909, -1.560058461279697, -1.575398269158553, -1.5186409800067848, 1.6490293469770645, 3.0112042881534946], 0.5, 0.5, 0.005, 0.2, 100)

2025-07-07 17:06:39,002 - gym_custom_envs_real_ur_drivers_URBasic_realTimeClientEvent - INFO - Program send to Robot:
servoj([-0.10883593683912691, -1.5585398202996903, -1.573879628178547, -1.5171223390267778, 1.6490293469770645, 3.0081670046748403], 0.5, 0.5, 0.005, 0.2, 100)

2025-07-07 17:06:39,011 - gym_custom_envs_real_ur_drivers_URBasic_realTimeClientEvent - INFO - Program send to Robot:
servoj([-0.10891186894887289, -1.5585246338898904, -1.5738644417687468, -1.517107152616978, 1.6490293469770645, 3.0081366318400535], 0.5, 0.5, 0.005, 0.2, 100)

2025-07-07 17:06:39,019 - gym_custom_envs_real_ur_drivers_URBasic_realTimeClientEvent - INFO - Program send to Robot:
servoj([-0.10891262826997035, -1.5585244820257924, -1.5738642899046489, -1.5171070007528797, 1.6490293469770645, 3.0081363281117057], 0.5, 0.5, 0.005, 0.2, 100)

2025-07-07 17:06:39,026 - gym_custom_envs_real_ur_drivers_URBasic_realTimeClientEvent - INFO - Program send to Robot:
servoj([-0.11650584076321517, -1.5585244805071514, -1.5708270064259942, -1.5171069992342388, 1.6490293469770645, 2.9975058382143747], 0.5, 0.5, 0.005, 0.2, 100)

2025-07-07 17:06:39,043 - gym_custom_envs_real_ur_drivers_URBasic_realTimeClientEvent - INFO - Program send to Robot:
servoj([-0.11658177288814761, -1.558524480491965, -1.5707966335912076, -1.5171069992190525, 1.6490293469770645, 2.9973995333154013], 0.5, 0.5, 0.005, 0.2, 100)

2025-07-07 17:06:39,050 - gym_custom_envs_real_ur_drivers_URBasic_realTimeClientEvent - INFO - Program send to Robot:
servoj([-0.11658253220939695, -1.558524480491813, -1.5707963298628598, -1.5171069992189006, 1.6490293469770645, 2.9973984702664116], 0.5, 0.5, 0.005, 0.2, 100)

2025-07-07 17:06:39,059 - gym_custom_envs_real_ur_drivers_URBasic_realTimeClientEvent - INFO - Program send to Robot:
servoj([-0.12417574470264373, -1.5570058395118047, -1.5692776858455693, -1.517106999218899, 1.6505479879570715, 2.986767972775874], 0.5, 0.5, 0.005, 0.2, 100)

2025-07-07 17:06:39,068 - gym_custom_envs_real_ur_drivers_URBasic_realTimeClientEvent - INFO - Program send to Robot:
servoj([-0.1242516768275762, -1.5569906531020048, -1.5692624994053963, -1.517106999218899, 1.6505631743668716, 2.9866616678009685], 0.5, 0.5, 0.005, 0.2, 100)

2025-07-07 17:06:39,084 - gym_custom_envs_real_ur_drivers_URBasic_realTimeClientEvent - INFO - Program send to Robot:
servoj([-0.12425243614882552, -1.5569905012379066, -1.5692623475409946, -1.517106999218899, 1.6505633262309696, 2.9866606047512194], 0.5, 0.5, 0.005, 0.2, 100)

2025-07-07 17:06:39,093 - gym_custom_envs_real_ur_drivers_URBasic_realTimeClientEvent - INFO - Program send to Robot:
servoj([-0.1303270076620649, -1.5554718587392586, -1.5677437050423437, -1.517106999218899, 1.6505633277496106, 2.9775487482406815], 0.5, 0.5, 0.005, 0.2, 100)

2025-07-07 17:06:39,098 - gym_custom_envs_real_ur_drivers_URBasic_realTimeClientEvent - INFO - Program send to Robot:
servoj([-0.1303877533771973, -1.5554566723142722, -1.567728518617357, -1.517106999218899, 1.650563327764797, 2.977457629675576], 0.5, 0.5, 0.005, 0.2, 100)

2025-07-07 17:06:39,113 - gym_custom_envs_real_ur_drivers_URBasic_realTimeClientEvent - INFO - Program send to Robot:
servoj([-0.13038836083434863, -1.5554565204500224, -1.5677283667531072, -1.517106999218899, 1.650563327764949, 2.977456718489925], 0.5, 0.5, 0.005, 0.2, 100)

2025-07-07 17:06:39,122 - gym_custom_envs_real_ur_drivers_URBasic_realTimeClientEvent - INFO - Program send to Robot:
servoj([-0.13646293082894748, -1.553937877951373, -1.5662097242544588, -1.517106999218899, 1.6505633277649503, 2.969863504478034], 0.5, 0.5, 0.005, 0.2, 100)

2025-07-07 17:06:39,132 - gym_custom_envs_real_ur_drivers_URBasic_realTimeClientEvent - INFO - Program send to Robot:
servoj([-0.13652367652889347, -1.5539226915263866, -1.5661945378294722, -1.517106999218899, 1.6505633277649503, 2.9697875723379155], 0.5, 0.5, 0.005, 0.2, 100)

2025-07-07 17:06:39,145 - gym_custom_envs_real_ur_drivers_URBasic_realTimeClientEvent - INFO - Program send to Robot:
servoj([-0.13652428398589292, -1.5539225396621368, -1.5661943859652223, -1.517106999218899, 1.6505633277649503, 2.969786813016514], 0.5, 0.5, 0.005, 0.2, 100)

2025-07-07 17:06:39,157 - gym_custom_envs_real_ur_drivers_URBasic_realTimeClientEvent - INFO - Program send to Robot:
servoj([-0.14411749496049675, -1.5524038971634875, -1.5631571024865658, -1.517106999218899, 1.6520819687449562, 2.9621936005232663], 0.5, 0.5, 0.005, 0.2, 100)

2025-07-07 17:06:39,166 - gym_custom_envs_real_ur_drivers_URBasic_realTimeClientEvent - INFO - Program send to Robot:
servoj([-0.1441934270702428, -1.552388710738501, -1.5631267296517792, -1.517106999218899, 1.6520971551547563, 2.9621176683983337], 0.5, 0.5, 0.005, 0.2, 100)

2025-07-07 17:06:39,182 - gym_custom_envs_real_ur_drivers_URBasic_realTimeClientEvent - INFO - Program send to Robot:
servoj([-0.14419418639134027, -1.5523885588742512, -1.5631264259234314, -1.517106999218899, 1.6520973070188543, 2.9621169090770847], 0.5, 0.5, 0.005, 0.2, 100)

2025-07-07 17:06:39,186 - gym_custom_envs_real_ur_drivers_URBasic_realTimeClientEvent - INFO - Program send to Robot:
servoj([-0.1517873988845851, -1.550869916375602, -1.561607781906141, -1.518625640198906, 1.6520973085374953, 2.9590796195238585], 0.5, 0.5, 0.005, 0.2, 100)

2025-07-07 17:06:39,206 - gym_custom_envs_real_ur_drivers_URBasic_realTimeClientEvent - INFO - Program send to Robot:
servoj([-0.15186333100951752, -1.5508547299506155, -1.5615925954659682, -1.5186408266087061, 1.6520973085526818, 2.959049246628326], 0.5, 0.5, 0.005, 0.2, 100)

2025-07-07 17:06:39,210 - gym_custom_envs_real_ur_drivers_URBasic_realTimeClientEvent - INFO - Program send to Robot:
servoj([-0.15186409033076684, -1.5508545780863656, -1.5615924436015665, -1.518640978472804, 1.6520973085528337, 2.9590489428993707], 0.5, 0.5, 0.005, 0.2, 100)

2025-07-07 17:06:39,231 - gym_custom_envs_real_ur_drivers_URBasic_realTimeClientEvent - INFO - Program send to Robot:
servoj([-0.16097594380402014, -1.5478172946077096, -1.5615924420829224, -1.518640979991445, 1.652097308552835, 2.954493016922061], 0.5, 0.5, 0.005, 0.2, 100)

2025-07-07 17:06:39,234 - gym_custom_envs_real_ur_drivers_URBasic_realTimeClientEvent - INFO - Program send to Robot:
servoj([-0.16106706233875268, -1.547786921772923, -1.5615924420677358, -1.5186409800066314, 1.6520973085528352, 2.954447457662288], 0.5, 0.5, 0.005, 0.2, 100)

2025-07-07 17:06:39,253 - gym_custom_envs_real_ur_drivers_URBasic_realTimeClientEvent - INFO - Program send to Robot:
servoj([-0.17017981940414076, -1.5447493360845614, -1.561592442067584, -1.5186409800067833, 1.6520973085528352, 2.948372438149663], 0.5, 0.5, 0.005, 0.2, 100)

2025-07-07 17:06:39,257 - gym_custom_envs_real_ur_drivers_URBasic_realTimeClientEvent - INFO - Program send to Robot:
servoj([-0.17027094697479464, -1.5447189602276779, -1.5615924420675826, -1.5186409800067848, 1.6520973085528352, 2.948311687954537], 0.5, 0.5, 0.005, 0.2, 100)

2025-07-07 17:06:39,277 - gym_custom_envs_real_ur_drivers_URBasic_realTimeClientEvent - INFO - Program send to Robot:
servoj([-0.1702718582505012, -1.5447186564691089, -1.5615924420675826, -1.5186409800067848, 1.6520973085528352, 2.948311080452586], 0.5, 0.5, 0.005, 0.2, 100)

2025-07-07 17:06:39,281 - gym_custom_envs_real_ur_drivers_URBasic_realTimeClientEvent - INFO - Program send to Robot:
servoj([-0.1793837132432986, -1.5432000124515164, -1.5615924420675826, -1.5186409800067848, 1.6536159495328422, 2.943755151437546], 0.5, 0.5, 0.005, 0.2, 100)

2025-07-07 17:06:39,301 - gym_custom_envs_real_ur_drivers_URBasic_realTimeClientEvent - INFO - Program send to Robot:
servoj([-0.1794748317932266, -1.5431848260113405, -1.5615924420675826, -1.5186409800067848, 1.653631135942642, 2.9437095921473957], 0.5, 0.5, 0.005, 0.2, 100)

2025-07-07 17:06:39,306 - gym_custom_envs_real_ur_drivers_URBasic_realTimeClientEvent - INFO - Program send to Robot:
servoj([-0.17947574297872587, -1.5431846741469388, -1.5615924420675826, -1.5186409800067848, 1.65363128780674, 2.943709136554494], 0.5, 0.5, 0.005, 0.2, 100)

2025-07-07 17:06:39,314 - gym_custom_envs_real_ur_drivers_URBasic_realTimeClientEvent - INFO - Program send to Robot:
servoj([-0.1855503160106082, -1.541666031648288, -1.5615924420675826, -1.5186409800067848, 1.653631289325381, 2.933078645138518], 0.5, 0.5, 0.005, 0.2, 100)

2025-07-07 17:06:39,329 - gym_custom_envs_real_ur_drivers_URBasic_realTimeClientEvent - INFO - Program send to Robot:
servoj([-0.185611061740927, -1.5416508452233015, -1.5615924420675826, -1.5186409800067848, 1.6536312893405676, 2.932972340224358], 0.5, 0.5, 0.005, 0.2, 100)

2025-07-07 17:06:39,337 - gym_custom_envs_real_ur_drivers_URBasic_realTimeClientEvent - INFO - Program send to Robot:
servoj([-0.18561166919823022, -1.5416506933590517, -1.5615924420675826, -1.5186409800067848, 1.6536312893407195, 2.9329712771752163], 0.5, 0.5, 0.005, 0.2, 100)

2025-07-07 17:06:39,345 - gym_custom_envs_real_ur_drivers_URBasic_realTimeClientEvent - INFO - Program send to Robot:
servoj([-0.19472352115284403, -1.5370947689003889, -1.5615924420675826, -1.5186409800067848, 1.653631289340721, 2.9238594206646837], 0.5, 0.5, 0.005, 0.2, 100)

2025-07-07 17:06:39,354 - gym_custom_envs_real_ur_drivers_URBasic_realTimeClientEvent - INFO - Program send to Robot:
servoj([-0.19481463967239018, -1.5370492096558022, -1.5615924420675826, -1.5186409800067848, 1.653631289340721, 2.9237683020995786], 0.5, 0.5, 0.005, 0.2, 100)

2025-07-07 17:06:39,370 - gym_custom_envs_real_ur_drivers_URBasic_realTimeClientEvent - INFO - Program send to Robot:
servoj([-0.19481555085758565, -1.5370487540633564, -1.5615924420675826, -1.5186409800067848, 1.653631289340721, 2.9237673909139277], 0.5, 0.5, 0.005, 0.2, 100)

2025-07-07 17:06:39,378 - gym_custom_envs_real_ur_drivers_URBasic_realTimeClientEvent - INFO - Program send to Robot:
servoj([-0.20392740584947835, -1.5340114675474181, -1.5615924420675826, -1.5186409800067848, 1.655149930320728, 2.9146555359220305], 0.5, 0.5, 0.005, 0.2, 100)

2025-07-07 17:06:39,400 - gym_custom_envs_real_ur_drivers_URBasic_realTimeClientEvent - INFO - Program send to Robot:
servoj([-0.20401852439939727, -1.5339810946822587, -1.5615924420675826, -1.5186409800067848, 1.655165116730528, 2.9145644173721115], 0.5, 0.5, 0.005, 0.2, 100)

2025-07-07 17:06:39,410 - gym_custom_envs_real_ur_drivers_URBasic_realTimeClientEvent - INFO - Program send to Robot:
servoj([-0.21313128146493726, -1.5309435089935939, -1.5600738010875759, -1.5186409800067848, 1.655165268594626, 2.9069703012865786], 0.5, 0.5, 0.005, 0.2, 100)

2025-07-07 17:06:39,417 - gym_custom_envs_real_ur_drivers_URBasic_realTimeClientEvent - INFO - Program send to Robot:
servoj([-0.21322240903559267, -1.5309131331367072, -1.5600586146777757, -1.5186409800067848, 1.655165270113267, 2.9068943601257233], 0.5, 0.5, 0.005, 0.2, 100)

2025-07-07 17:06:39,426 - gym_custom_envs_real_ur_drivers_URBasic_realTimeClientEvent - INFO - Program send to Robot:
servoj([-0.21322332031129923, -1.5309128293781384, -1.5600584628136778, -1.5186409800067848, 1.6551652701284534, 2.9068936007141146], 0.5, 0.5, 0.005, 0.2, 100)

2025-07-07 17:06:39,443 - gym_custom_envs_real_ur_drivers_URBasic_realTimeClientEvent - INFO - Program send to Robot:
servoj([-0.22233517530409663, -1.527875544380539, -1.5600584612950368, -1.5186409800067848, 1.6551652701286053, 2.900819029199971], 0.5, 0.5, 0.005, 0.2, 100)

2025-07-07 17:06:39,450 - gym_custom_envs_real_ur_drivers_URBasic_realTimeClientEvent - INFO - Program send to Robot:
servoj([-0.22242629385402463, -1.527845171530563, -1.5600584612798503, -1.5186409800067848, 1.6551652701286068, 2.9007582834848296], 0.5, 0.5, 0.005, 0.2, 100)

2025-07-07 17:06:39,467 - gym_custom_envs_real_ur_drivers_URBasic_realTimeClientEvent - INFO - Program send to Robot:
servoj([-0.2224272050395239, -1.5278448678020633, -1.5600584612796984, -1.5186409800067848, 1.6551652701286068, 2.9007576760276783], 0.5, 0.5, 0.005, 0.2, 100)

2025-07-07 17:06:39,483 - gym_custom_envs_real_ur_drivers_URBasic_realTimeClientEvent - INFO - Program send to Robot:
servoj([-0.23153906003141966, -1.523288941824758, -1.5600584612796968, -1.5186409800067848, 1.6566839111086138, 2.893164465053073], 0.5, 0.5, 0.005, 0.2, 100)

2025-07-07 17:06:39,490 - gym_custom_envs_real_ur_drivers_URBasic_realTimeClientEvent - INFO - Program send to Robot:
servoj([-0.2316301785813386, -1.523243382564985, -1.5600584612796968, -1.5186409800067848, 1.656699097518414, 2.893088532943327], 0.5, 0.5, 0.005, 0.2, 100)

2025-07-07 17:06:39,506 - gym_custom_envs_real_ur_drivers_URBasic_realTimeClientEvent - INFO - Program send to Robot:
servoj([-0.24226157662688555, -1.5202056450123735, -1.5615771022597036, -1.5186409800067848, 1.656699249382512, 2.8839759277421884], 0.5, 0.5, 0.005, 0.2, 100)

2025-07-07 17:06:39,514 - gym_custom_envs_real_ur_drivers_URBasic_realTimeClientEvent - INFO - Program send to Robot:
servoj([-0.24236789060734104, -1.5201752676368476, -1.5615922886695037, -1.5186409800067848, 1.6566992509011529, 2.883884801690177], 0.5, 0.5, 0.005, 0.2, 100)

2025-07-07 17:06:39,522 - gym_custom_envs_real_ur_drivers_URBasic_realTimeClientEvent - INFO - Program send to Robot:
servoj([-0.2423689537471456, -1.5201749638630924, -1.5615924405336017, -1.5186409800067848, 1.6566992509163392, 2.883883890429657], 0.5, 0.5, 0.005, 0.2, 100)

2025-07-07 17:06:39,532 - gym_custom_envs_real_ur_drivers_URBasic_realTimeClientEvent - INFO - Program send to Robot:
servoj([-0.24236896437854363, -1.5201749608253547, -1.5615924420522427, -1.5186409800067848, 1.656699250916491, 2.8838838813170518], 0.5, 0.5, 0.005, 0.2, 100)

2025-07-07 17:06:39,546 - gym_custom_envs_real_ur_drivers_URBasic_realTimeClientEvent - INFO - Program send to Robot:
servoj([-0.25148081036489794, -1.5171376788349635, -1.5600738010874224, -1.5186409800067848, 1.6566992509164926, 2.8762906763258917], 0.5, 0.5, 0.005, 0.2, 100)

2025-07-07 17:06:39,555 - gym_custom_envs_real_ur_drivers_URBasic_realTimeClientEvent - INFO - Program send to Robot:
servoj([-0.2515719288247615, -1.5171073060150597, -1.5600586146777742, -1.5186409800067848, 1.6566992509164926, 2.8762147442759805], 0.5, 0.5, 0.005, 0.2, 100)

2025-07-07 17:06:39,562 - gym_custom_envs_real_ur_drivers_URBasic_realTimeClientEvent - INFO - Program send to Robot:
servoj([-0.25157284000936014, -1.5171070022868607, -1.5600584628136778, -1.5186409800067848, 1.6566992509164926, 2.876213984955481], 0.5, 0.5, 0.005, 0.2, 100)

2025-07-07 17:06:39,571 - gym_custom_envs_real_ur_drivers_URBasic_realTimeClientEvent - INFO - Program send to Robot:
servoj([-0.25916605402124043, -1.5125510763095584, -1.5615771022750435, -1.5186409800067848, 1.6582178918964996, 2.8701394134422493], 0.5, 0.5, 0.005, 0.2, 100)

2025-07-07 17:06:39,586 - gym_custom_envs_real_ur_drivers_URBasic_realTimeClientEvent - INFO - Program send to Robot:
servoj([-0.25924198616135924, -1.5125055170497854, -1.5615922886696572, -1.5186409800067848, 1.6582330783062997, 2.8700786677271166], 0.5, 0.5, 0.005, 0.2, 100)

2025-07-07 17:06:39,596 - gym_custom_envs_real_ur_drivers_URBasic_realTimeClientEvent - INFO - Program send to Robot:
servoj([-0.2592427454827604, -1.5125050614571875, -1.5615924405336032, -1.5186409800067848, 1.6582332301703977, 2.8700780602699654], 0.5, 0.5, 0.005, 0.2, 100)

2025-07-07 17:06:39,603 - gym_custom_envs_real_ur_drivers_URBasic_realTimeClientEvent - INFO - Program send to Robot:
servoj([-0.26835459895601477, -1.5094677749412482, -1.560073801072236, -1.5186409800067848, 1.6582332316890387, 2.8655221312553736], 0.5, 0.5, 0.005, 0.2, 100)

2025-07-07 17:06:39,610 - gym_custom_envs_real_ur_drivers_URBasic_realTimeClientEvent - INFO - Program send to Robot:
servoj([-0.2684457174907473, -1.5094374020760888, -1.5600586146776223, -1.5186409800067848, 1.658233231704225, 2.8654765719652278], 0.5, 0.5, 0.005, 0.2, 100)

2025-07-07 17:06:39,628 - gym_custom_envs_real_ur_drivers_URBasic_realTimeClientEvent - INFO - Program send to Robot:
servoj([-0.2684466286760946, -1.5094370983474372, -1.5600584628136762, -1.5186409800067848, 1.6582332317043769, 2.865476116372326], 0.5, 0.5, 0.005, 0.2, 100)

2025-07-07 17:06:39,634 - gym_custom_envs_real_ur_drivers_URBasic_realTimeClientEvent - INFO - Program send to Robot:
servoj([-0.27907712464799583, -1.5079184543301438, -1.5600584612950368, -1.5186409800067848, 1.6582332317043784, 2.8609201888763764], 0.5, 0.5, 0.005, 0.2, 100)

2025-07-07 17:06:39,642 - gym_custom_envs_real_ur_drivers_URBasic_realTimeClientEvent - INFO - Program send to Robot:
servoj([-0.27918342960771486, -1.5079032678899709, -1.5600584612798503, -1.5186409800067848, 1.6582332317043784, 2.860874629601417], 0.5, 0.5, 0.005, 0.2, 100)

2025-07-07 17:06:39,658 - gym_custom_envs_real_ur_drivers_URBasic_realTimeClientEvent - INFO - Program send to Robot:
servoj([-0.27918449265731204, -1.5079031160255691, -1.5600584612796984, -1.5186409800067848, 1.6582332317043784, 2.8608741740086674], 0.5, 0.5, 0.005, 0.2, 100)

2025-07-07 17:06:39,666 - gym_custom_envs_real_ur_drivers_URBasic_realTimeClientEvent - INFO - Program send to Robot:
servoj([-0.2867777081878419, -1.5048658325469115, -1.5600584612796968, -1.5186409800067848, 1.6582332317043784, 2.859355528472734], 0.5, 0.5, 0.005, 0.2, 100)

2025-07-07 17:06:39,675 - gym_custom_envs_real_ur_drivers_URBasic_realTimeClientEvent - INFO - Program send to Robot:
servoj([-0.28685364034314714, -1.504835459712125, -1.5600584612796968, -1.5186409800067848, 1.6582332317043784, 2.8593403420173744], 0.5, 0.5, 0.005, 0.2, 100)

2025-07-07 17:06:39,682 - gym_custom_envs_real_ur_drivers_URBasic_realTimeClientEvent - INFO - Program send to Robot:
servoj([-0.2868543996647002, -1.504835155983777, -1.5600584612796968, -1.5186409800067848, 1.6582332317043784, 2.8593401901528206], 0.5, 0.5, 0.005, 0.2, 100)

2025-07-07 17:06:39,701 - gym_custom_envs_real_ur_drivers_URBasic_realTimeClientEvent - INFO - Program send to Robot:
servoj([-0.29292897117794303, -1.5033165119664869, -1.5600584612796968, -1.5186409800067848, 1.6582332317043784, 2.856302906674162], 0.5, 0.5, 0.005, 0.2, 100)

2025-07-07 17:06:39,707 - gym_custom_envs_real_ur_drivers_URBasic_realTimeClientEvent - INFO - Program send to Robot:
servoj([-0.29298971689307546, -1.503301325526314, -1.5600584612796968, -1.5186409800067848, 1.6582332317043784, 2.856272533839375], 0.5, 0.5, 0.005, 0.2, 100)

2025-07-07 17:06:39,716 - gym_custom_envs_real_ur_drivers_URBasic_realTimeClientEvent - INFO - Program send to Robot:
servoj([-0.2929903243502268, -1.5033011736619122, -1.5600584612796968, -1.5186409800067848, 1.6582332317043784, 2.8562722301110273], 0.5, 0.5, 0.005, 0.2, 100)

2025-07-07 17:06:39,730 - gym_custom_envs_real_ur_drivers_URBasic_realTimeClientEvent - INFO - Program send to Robot:
servoj([-0.29906489434482525, -1.5017825311632613, -1.5600584612796968, -1.5186409800067848, 1.6582332317043784, 2.851716304133723], 0.5, 0.5, 0.005, 0.2, 100)

2025-07-07 17:06:39,739 - gym_custom_envs_real_ur_drivers_URBasic_realTimeClientEvent - INFO - Program send to Robot:
servoj([-0.2991256400447712, -1.501767344738275, -1.5600584612796968, -1.5186409800067848, 1.6582332317043784, 2.8516707448739496], 0.5, 0.5, 0.005, 0.2, 100)

2025-07-07 17:06:39,747 - gym_custom_envs_real_ur_drivers_URBasic_realTimeClientEvent - INFO - Program send to Robot:
servoj([-0.2991262475017707, -1.501767192874025, -1.5600584612796968, -1.5186409800067848, 1.6582332317043784, 2.8516702892813517], 0.5, 0.5, 0.005, 0.2, 100)

2025-07-07 17:06:39,762 - gym_custom_envs_real_ur_drivers_URBasic_realTimeClientEvent - INFO - Program send to Robot:
servoj([-0.30368217651636104, -1.5002485503753757, -1.5600584612796968, -1.5186409800067848, 1.6582332317043784, 2.8455957208053992], 0.5, 0.5, 0.005, 0.2, 100)

2025-07-07 17:06:39,770 - gym_custom_envs_real_ur_drivers_URBasic_realTimeClientEvent - INFO - Program send to Robot:
servoj([-0.30372773580650697, -1.5002333639503893, -1.5600584612796968, -1.5186409800067848, 1.6582332317043784, 2.8455349751206396], 0.5, 0.5, 0.005, 0.2, 100)

2025-07-07 17:06:39,777 - gym_custom_envs_real_ur_drivers_URBasic_realTimeClientEvent - INFO - Program send to Robot:
servoj([-0.30372819139940843, -1.5002332120861395, -1.5600584612796968, -1.5186409800067848, 1.6582332317043784, 2.845534367663792], 0.5, 0.5, 0.005, 0.2, 100)

2025-07-07 17:06:39,786 - gym_custom_envs_real_ur_drivers_URBasic_realTimeClientEvent - INFO - Program send to Robot:
servoj([-0.30372819595533745, -1.500233210567497, -1.5600584612796968, -1.5186409800067848, 1.6582332317043784, 2.8455343615892237], 0.5, 0.5, 0.005, 0.2, 100)

2025-07-07 17:06:39,802 - gym_custom_envs_real_ur_drivers_URBasic_realTimeClientEvent - INFO - Program send to Robot:
servoj([-0.3082841189409171, -1.5002332105523104, -1.5600584612796968, -1.5186409800067848, 1.6582332317043784, 2.8409784385884578], 0.5, 0.5, 0.005, 0.2, 100)

2025-07-07 17:06:39,810 - gym_custom_envs_real_ur_drivers_URBasic_realTimeClientEvent - INFO - Program send to Robot:
servoj([-0.3083296781707729, -1.5002332105521585, -1.5600584612796968, -1.5186409800067848, 1.6582332317043784, 2.84093287935845], 0.5, 0.5, 0.005, 0.2, 100)

2025-07-07 17:06:39,819 - gym_custom_envs_real_ur_drivers_URBasic_realTimeClientEvent - INFO - Program send to Robot:
servoj([-0.30833013376307145, -1.5002332105521572, -1.5600584612796968, -1.5186409800067848, 1.6582332317043784, 2.84093242376615], 0.5, 0.5, 0.005, 0.2, 100)

2025-07-07 17:06:39,826 - gym_custom_envs_real_ur_drivers_URBasic_realTimeClientEvent - INFO - Program send to Robot:
servoj([-0.31288606125901486, -1.500233210552157, -1.5600584612796968, -1.5186409800067848, 1.6582332317043784, 2.8378951372502135], 0.5, 0.5, 0.005, 0.2, 100)

2025-07-07 17:06:39,844 - gym_custom_envs_real_ur_drivers_URBasic_realTimeClientEvent - INFO - Program send to Robot:
servoj([-0.3129316205339743, -1.500233210552157, -1.5600584612796968, -1.5186409800067848, 1.6582332317043784, 2.837864764385054], 0.5, 0.5, 0.005, 0.2, 100)

2025-07-07 17:06:39,849 - gym_custom_envs_real_ur_drivers_URBasic_realTimeClientEvent - INFO - Program send to Robot:
servoj([-0.31293207612672386, -1.500233210552157, -1.5600584612796968, -1.5186409800067848, 1.6582332317043784, 2.8378644606564025], 0.5, 0.5, 0.005, 0.2, 100)

2025-07-07 17:06:39,861 - gym_custom_envs_real_ur_drivers_URBasic_realTimeClientEvent - INFO - Program send to Robot:
servoj([-0.31748800362267177, -1.500233210552157, -1.5600584612796968, -1.5186409800067848, 1.6582332317043784, 2.834827175659102], 0.5, 0.5, 0.005, 0.2, 100)

2025-07-07 17:06:39,874 - gym_custom_envs_real_ur_drivers_URBasic_realTimeClientEvent - INFO - Program send to Robot:
servoj([-0.31753356289763124, -1.500233210552157, -1.5600584612796968, -1.5186409800067848, 1.6582332317043784, 2.8347968028091293], 0.5, 0.5, 0.005, 0.2, 100)

2025-07-07 17:06:39,883 - gym_custom_envs_real_ur_drivers_URBasic_realTimeClientEvent - INFO - Program send to Robot:
servoj([-0.3175340184903808, -1.500233210552157, -1.5600584612796968, -1.5186409800067848, 1.6582332317043784, 2.834796499080629], 0.5, 0.5, 0.005, 0.2, 100)

2025-07-07 17:06:39,891 - gym_custom_envs_real_ur_drivers_URBasic_realTimeClientEvent - INFO - Program send to Robot:
servoj([-0.32057130500632175, -1.500233210552157, -1.5600584612796968, -1.5186409800067848, 1.6582332317043784, 2.8332778550633377], 0.5, 0.5, 0.005, 0.2, 100)

2025-07-07 17:06:39,898 - gym_custom_envs_real_ur_drivers_URBasic_realTimeClientEvent - INFO - Program send to Robot:
servoj([-0.3206016778714812, -1.500233210552157, -1.5600584612796968, -1.5186409800067848, 1.6582332317043784, 2.833262668623165], 0.5, 0.5, 0.005, 0.2, 100)

2025-07-07 17:06:39,915 - gym_custom_envs_real_ur_drivers_URBasic_realTimeClientEvent - INFO - Program send to Robot:
servoj([-0.32060198160013276, -1.500233210552157, -1.5600584612796968, -1.5186409800067848, 1.6582332317043784, 2.833262516758763], 0.5, 0.5, 0.005, 0.2, 100)

2025-07-07 17:06:39,921 - gym_custom_envs_real_ur_drivers_URBasic_realTimeClientEvent - INFO - Program send to Robot:
servoj([-0.32212062561742627, -1.500233210552157, -1.5600584612796968, -1.5186409800067848, 1.6582332317043784, 2.833262515240119], 0.5, 0.5, 0.005, 0.2, 100)

2025-07-07 17:06:39,931 - gym_custom_envs_real_ur_drivers_URBasic_realTimeClientEvent - INFO - Program send to Robot:
servoj([-0.3221358120575992, -1.500233210552157, -1.5600584612796968, -1.5186409800067848, 1.6582332317043784, 2.8332625152249324], 0.5, 0.5, 0.005, 0.2, 100)

2025-07-07 17:06:39,946 - gym_custom_envs_real_ur_drivers_URBasic_realTimeClientEvent - INFO - Program send to Robot:
servoj([-0.32213596392200095, -1.500233210552157, -1.5600584612796968, -1.5186409800067848, 1.6582332317043784, 2.8332625152247806], 0.5, 0.5, 0.005, 0.2, 100)

2025-07-07 17:06:39,956 - gym_custom_envs_real_ur_drivers_URBasic_realTimeClientEvent - INFO - Program send to Robot:
servoj([-0.32213596544064493, -1.500233210552157, -1.5600584612796968, -1.5186409800067848, 1.6582332317043784, 2.8332625152247792], 0.5, 0.5, 0.005, 0.2, 100)

2025-07-07 17:06:39,965 - gym_custom_envs_real_ur_drivers_URBasic_realTimeClientEvent - INFO - Program send to Robot:
servoj([-0.3221359654558314, -1.500233210552157, -1.5600584612796968, -1.5186409800067848, 1.6582332317043784, 2.8332625152247792], 0.5, 0.5, 0.005, 0.2, 100)

2025-07-07 17:06:39,970 - gym_custom_envs_real_ur_drivers_URBasic_realTimeClientEvent - INFO - Program send to Robot:
servoj([-0.3221359654559833, -1.500233210552157, -1.5600584612796968, -1.5186409800067848, 1.6582332317043784, 2.8332625152247792], 0.5, 0.5, 0.005, 0.2, 100)

2025-07-07 17:06:39,986 - gym_custom_envs_real_ur_drivers_URBasic_realTimeClientEvent - INFO - Program send to Robot:
servoj([-0.3221359654559848, -1.500233210552157, -1.5600584612796968, -1.5186409800067848, 1.6582332317043784, 2.8332625152247792], 0.5, 0.5, 0.005, 0.2, 100)

2025-07-07 17:06:39,994 - gym_custom_envs_real_ur_drivers_URBasic_realTimeClientEvent - INFO - Program send to Robot:
servoj([-0.3221359654559848, -1.500233210552157, -1.5600584612796968, -1.5186409800067848, 1.6582332317043784, 2.8332625152247792], 0.5, 0.5, 0.005, 0.2, 100)

2025-07-07 17:06:40,005 - gym_custom_envs_real_ur_drivers_URBasic_realTimeClientEvent - INFO - Program send to Robot:
servoj([-0.3221359654559848, -1.500233210552157, -1.5600584612796968, -1.5186409800067848, 1.6582332317043784, 2.8332625152247792], 0.5, 0.5, 0.005, 0.2, 100)

2025-07-07 17:06:40,018 - gym_custom_envs_real_ur_drivers_URBasic_realTimeClientEvent - INFO - Program send to Robot:
servoj([-0.3221359654559848, -1.500233210552157, -1.5600584612796968, -1.5186409800067848, 1.6582332317043784, 2.8332625152247792], 0.5, 0.5, 0.005, 0.2, 100)

2025-07-07 17:06:40,027 - gym_custom_envs_real_ur_drivers_URBasic_realTimeClientEvent - INFO - Program send to Robot:
servoj([-0.3221359654559848, -1.500233210552157, -1.5600584612796968, -1.5186409800067848, 1.6582332317043784, 2.8332625152247792], 0.5, 0.5, 0.005, 0.2, 100)

2025-07-07 17:06:40,035 - gym_custom_envs_real_ur_drivers_URBasic_realTimeClientEvent - INFO - Program send to Robot:
servoj([-0.3221359654559848, -1.500233210552157, -1.5600584612796968, -1.5186409800067848, 1.6582332317043784, 2.8332625152247792], 0.5, 0.5, 0.005, 0.2, 100)

2025-07-07 17:06:40,042 - gym_custom_envs_real_ur_drivers_URBasic_realTimeClientEvent - INFO - Program send to Robot:
servoj([-0.3221359654559848, -1.500233210552157, -1.5600584612796968, -1.5186409800067848, 1.6582332317043784, 2.8332625152247792], 0.5, 0.5, 0.005, 0.2, 100)

2025-07-07 17:06:40,059 - gym_custom_envs_real_ur_drivers_URBasic_realTimeClientEvent - INFO - Program send to Robot:
servoj([-0.3221359654559848, -1.500233210552157, -1.5600584612796968, -1.5186409800067848, 1.6582332317043784, 2.8332625152247792], 0.5, 0.5, 0.005, 0.2, 100)

2025-07-07 17:06:40,065 - gym_custom_envs_real_ur_drivers_URBasic_realTimeClientEvent - INFO - Program send to Robot:
servoj([-0.3221359654559848, -1.500233210552157, -1.5600584612796968, -1.5186409800067848, 1.6582332317043784, 2.8332625152247792], 0.5, 0.5, 0.005, 0.2, 100)

2025-07-07 17:06:40,075 - gym_custom_envs_real_ur_drivers_URBasic_realTimeClientEvent - INFO - Program send to Robot:
servoj([-0.3221359654559848, -1.500233210552157, -1.5600584612796968, -1.5186409800067848, 1.6582332317043784, 2.8332625152247792], 0.5, 0.5, 0.005, 0.2, 100)

2025-07-07 17:06:40,090 - gym_custom_envs_real_ur_drivers_URBasic_realTimeClientEvent - INFO - Program send to Robot:
servoj([-0.3221359654559848, -1.500233210552157, -1.5600584612796968, -1.5186409800067848, 1.6582332317043784, 2.8332625152247792], 0.5, 0.5, 0.005, 0.2, 100)

2025-07-07 17:06:40,101 - gym_custom_envs_real_ur_drivers_URBasic_realTimeClientEvent - INFO - Program send to Robot:
servoj([-0.3221359654559848, -1.500233210552157, -1.5600584612796968, -1.5186409800067848, 1.6582332317043784, 2.8332625152247792], 0.5, 0.5, 0.005, 0.2, 100)

2025-07-07 17:06:40,106 - gym_custom_envs_real_ur_drivers_URBasic_realTimeClientEvent - INFO - Program send to Robot:
servoj([-0.3221359654559848, -1.500233210552157, -1.5600584612796968, -1.5186409800067848, 1.6582332317043784, 2.8332625152247792], 0.5, 0.5, 0.005, 0.2, 100)

2025-07-07 17:06:40,123 - gym_custom_envs_real_ur_drivers_URBasic_realTimeClientEvent - INFO - Program send to Robot:
servoj([-0.3221359654559848, -1.500233210552157, -1.5600584612796968, -1.5186409800067848, 1.6582332317043784, 2.8332625152247792], 0.5, 0.5, 0.005, 0.2, 100)

2025-07-07 17:06:40,131 - gym_custom_envs_real_ur_drivers_URBasic_realTimeClientEvent - INFO - Program send to Robot:
servoj([-0.3221359654559848, -1.500233210552157, -1.5600584612796968, -1.5186409800067848, 1.6582332317043784, 2.8332625152247792], 0.5, 0.5, 0.005, 0.2, 100)

2025-07-07 17:06:40,138 - gym_custom_envs_real_ur_drivers_URBasic_realTimeClientEvent - INFO - Program send to Robot:
servoj([-0.3221359654559848, -1.500233210552157, -1.5600584612796968, -1.5186409800067848, 1.6582332317043784, 2.8332625152247792], 0.5, 0.5, 0.005, 0.2, 100)

2025-07-07 17:06:40,146 - gym_custom_envs_real_ur_drivers_URBasic_realTimeClientEvent - INFO - Program send to Robot:
servoj([-0.3221359654559848, -1.500233210552157, -1.5600584612796968, -1.5186409800067848, 1.6582332317043784, 2.8332625152247792], 0.5, 0.5, 0.005, 0.2, 100)

2025-07-07 17:06:40,162 - gym_custom_envs_real_ur_drivers_URBasic_realTimeClientEvent - INFO - Program send to Robot:
servoj([-0.3221359654559848, -1.500233210552157, -1.5600584612796968, -1.5186409800067848, 1.6582332317043784, 2.8332625152247792], 0.5, 0.5, 0.005, 0.2, 100)

2025-07-07 17:06:40,170 - gym_custom_envs_real_ur_drivers_URBasic_realTimeClientEvent - INFO - Program send to Robot:
servoj([-0.3221359654559848, -1.500233210552157, -1.5600584612796968, -1.5186409800067848, 1.6582332317043784, 2.8332625152247792], 0.5, 0.5, 0.005, 0.2, 100)

2025-07-07 17:06:40,178 - gym_custom_envs_real_ur_drivers_URBasic_realTimeClientEvent - INFO - Program send to Robot:
servoj([-0.3221359654559848, -1.500233210552157, -1.5600584612796968, -1.5186409800067848, 1.6582332317043784, 2.8332625152247792], 0.5, 0.5, 0.005, 0.2, 100)

2025-07-07 17:06:40,194 - gym_custom_envs_real_ur_drivers_URBasic_realTimeClientEvent - INFO - Program send to Robot:
servoj([-0.3221359654559848, -1.500233210552157, -1.5600584612796968, -1.5186409800067848, 1.6582332317043784, 2.8332625152247792], 0.5, 0.5, 0.005, 0.2, 100)

2025-07-07 17:06:40,203 - gym_custom_envs_real_ur_drivers_URBasic_realTimeClientEvent - INFO - Program send to Robot:
servoj([-0.3221359654559848, -1.500233210552157, -1.5600584612796968, -1.5186409800067848, 1.6582332317043784, 2.8332625152247792], 0.5, 0.5, 0.005, 0.2, 100)

2025-07-07 17:06:40,210 - gym_custom_envs_real_ur_drivers_URBasic_realTimeClientEvent - INFO - Program send to Robot:
servoj([-0.3221359654559848, -1.500233210552157, -1.5600584612796968, -1.5186409800067848, 1.6582332317043784, 2.8332625152247792], 0.5, 0.5, 0.005, 0.2, 100)

2025-07-07 17:06:40,220 - gym_custom_envs_real_ur_drivers_URBasic_realTimeClientEvent - INFO - Program send to Robot:
servoj([-0.3221359654559848, -1.500233210552157, -1.5600584612796968, -1.5186409800067848, 1.6582332317043784, 2.8332625152247792], 0.5, 0.5, 0.005, 0.2, 100)

2025-07-07 17:06:40,234 - gym_custom_envs_real_ur_drivers_URBasic_realTimeClientEvent - INFO - Program send to Robot:
servoj([-0.3221359654559848, -1.500233210552157, -1.5600584612796968, -1.5186409800067848, 1.6582332317043784, 2.8332625152247792], 0.5, 0.5, 0.005, 0.2, 100)

2025-07-07 17:06:40,243 - gym_custom_envs_real_ur_drivers_URBasic_realTimeClientEvent - INFO - Program send to Robot:
servoj([-0.3221359654559848, -1.500233210552157, -1.5600584612796968, -1.5186409800067848, 1.6582332317043784, 2.8332625152247792], 0.5, 0.5, 0.005, 0.2, 100)

2025-07-07 17:06:40,251 - gym_custom_envs_real_ur_drivers_URBasic_realTimeClientEvent - INFO - Program send to Robot:
servoj([-0.3221359654559848, -1.500233210552157, -1.5600584612796968, -1.5186409800067848, 1.6582332317043784, 2.8332625152247792], 0.5, 0.5, 0.005, 0.2, 100)

2025-07-07 17:06:40,258 - gym_custom_envs_real_ur_drivers_URBasic_realTimeClientEvent - INFO - Program send to Robot:
