2025-07-07 17:17:52,495 - gym_custom_envs_real_ur_drivers_URBasic_robotModelEvent - INFO - Init done
2025-07-07 17:17:52,996 - gym_custom_envs_real_ur_drivers_URBasic_realTimeClientEvent - INFO - Connected
2025-07-07 17:17:52,996 - gym_custom_envs_real_ur_drivers_URBasic_realTimeClientEvent - INFO - RT_CLient constructor done
2025-07-07 17:17:52,997 - gym_custom_envs_real_ur_drivers_URBasic_dataLogEvent - INFO - Data logging (not event logging) is disabled
2025-07-07 17:17:52,997 - gym_custom_envs_real_ur_drivers_URBasic_dataLogEvent - INFO - DataLog constructor done
2025-07-07 17:17:52,998 - gym_custom_envs_real_ur_drivers_URBasic_dataLogEvent - INFO - DataLog is stopped
2025-07-07 17:17:52,999 - gym_custom_envs_real_ur_drivers_URBasic_rtdeEvent - INFO - RTDE constructor done
2025-07-07 17:17:53,471 - gym_custom_envs_real_ur_drivers_URBasic_rtdeEvent - INFO - Controller version: 3.3.1-60
2025-07-07 17:17:53,475 - gym_custom_envs_real_ur_drivers_URBasic_rtdeEvent - INFO - RTDE started
2025-07-07 17:17:53,501 - gym_custom_envs_real_ur_drivers_URBasic_dashboardEvent - INFO - Connected
2025-07-07 17:17:53,501 - gym_custom_envs_real_ur_drivers_URBasic_dashboardEvent - INFO - UR Dashboard respond Connected: Universal Robots Dashboard Server
2025-07-07 17:17:53,502 - gym_custom_envs_real_ur_drivers_URBasic_dashboardEvent - INFO - Dashboard server constructor done
2025-07-07 17:17:53,502 - gym_custom_envs_real_ur_drivers_URBasic_robotConnectorEvent - INFO - Init done
2025-07-07 17:17:53,502 - gym_custom_envs_real_ur_drivers_URBasic_urScriptEvent - INFO - Init done!!!
2025-07-07 17:17:53,514 - gym_custom_envs_real_ur_drivers_URBasic_urScriptExtEvent - INFO - Init done
2025-07-07 17:17:55,158 - gym_custom_envs_real_ur_interfaceEvent - INFO - [] init done
2025-07-07 17:17:55,158 - gym_custom_envs_real_ur_drivers_URBasic_realTimeClientEvent - INFO - Program send to Robot:
end_freedrive_mode()

2025-07-07 17:17:59,371 - gym_custom_envs_real_ur_drivers_URBasic_realTimeClientEvent - INFO - Program send to Robot:
servoj([0.044307859151669855, -1.6178156767807463, -1.5855255291842014, -1.3504997361541788, 1.8279882971744386, 2.9281785011291506], 0.5, 0.5, 0.01, 0.1, 300)

2025-07-07 17:17:59,387 - gym_custom_envs_real_ur_drivers_URBasic_realTimeClientEvent - INFO - Program send to Robot:
servoj([0.04471328916497662, -1.617828168922305, -1.5855632307625867, -1.3505165502826049, 1.827965843503213, 2.928238344192505], 0.5, 0.5, 0.01, 0.1, 300)

2025-07-07 17:17:59,402 - gym_custom_envs_real_ur_drivers_URBasic_realTimeClientEvent - INFO - Program send to Robot:
servoj([0.04472644061055071, -1.6178354977124407, -1.5855092224585263, -1.3505344622909576, 1.8279907248468457, 2.928214502334595], 0.5, 0.5, 0.01, 0.1, 300)

2025-07-07 17:17:59,418 - gym_custom_envs_real_ur_drivers_URBasic_realTimeClientEvent - INFO - Program send to Robot:
servoj([0.04514140521712329, -1.6178193687329476, -1.5855276779975824, -1.3505257024795365, 1.8279746436925703, 2.928238344192505], 0.5, 0.5, 0.01, 0.1, 300)

2025-07-07 17:17:59,435 - gym_custom_envs_real_ur_drivers_URBasic_realTimeClientEvent - INFO - Program send to Robot:
servoj([0.04512806637394383, -1.6178090983131959, -1.585500422658778, -1.3505344622909576, 1.8279730372493517, 2.928214502334595], 0.5, 0.5, 0.01, 0.1, 300)

2025-07-07 17:17:59,450 - gym_custom_envs_real_ur_drivers_URBasic_realTimeClientEvent - INFO - Program send to Robot:
servoj([0.04510490563100197, -1.6177881010466695, -1.5855378691378101, -1.3505285289533016, 1.8279689753821324, 2.928022575378418], 0.5, 0.5, 0.01, 0.1, 300)

2025-07-07 17:17:59,466 - gym_custom_envs_real_ur_drivers_URBasic_realTimeClientEvent - INFO - Program send to Robot:
servoj([0.04514439004278828, -1.6177359098573303, -1.58553673912237, -1.35053214238514, 1.8279061414987123, 2.927747440338135], 0.5, 0.5, 0.01, 0.1, 300)

2025-07-07 17:17:59,482 - gym_custom_envs_real_ur_drivers_URBasic_realTimeClientEvent - INFO - Program send to Robot:
servoj([0.04593308748424527, -1.617592768773933, -1.5855026855498349, -1.3505557121689007, 1.8277961266630838, 2.92729229927063], 0.5, 0.5, 0.01, 0.1, 300)

2025-07-07 17:17:59,498 - gym_custom_envs_real_ur_drivers_URBasic_realTimeClientEvent - INFO - Program send to Robot:
servoj([0.04597043943200918, -1.6173361501452514, -1.5853776250897136, -1.3505778106453423, 1.8275073725415063, 2.9262864112854006], 0.5, 0.5, 0.01, 0.1, 300)

2025-07-07 17:17:59,514 - gym_custom_envs_real_ur_drivers_URBasic_realTimeClientEvent - INFO - Program send to Robot:
servoj([0.04691267195931512, -1.6169577866532974, -1.5851753001929834, -1.3506441687097637, 1.827058017164271, 2.9245986461639406], 0.5, 0.5, 0.01, 0.1, 300)

2025-07-07 17:17:59,531 - gym_custom_envs_real_ur_drivers_URBasic_realTimeClientEvent - INFO - Program send to Robot:
servoj([0.04705315669194268, -1.6166482421054833, -1.5849299131944443, -1.3507074243065376, 1.8267058163271095, 2.9231736183166506], 0.5, 0.5, 0.01, 0.1, 300)

2025-07-07 17:17:59,546 - gym_custom_envs_real_ur_drivers_URBasic_realTimeClientEvent - INFO - Program send to Robot:
servoj([0.048068864291044774, -1.6161727004823467, -1.584768757073483, -1.3508046823669844, 1.8261666322480499, 2.921198320388794], 0.5, 0.5, 0.01, 0.1, 300)

2025-07-07 17:17:59,561 - gym_custom_envs_real_ur_drivers_URBasic_realTimeClientEvent - INFO - Program send to Robot:
servoj([0.04827813322605315, -1.6157357973698636, -1.584473583778627, -1.350859393889168, 1.82574431647315, 2.919151020050049], 0.5, 0.5, 0.01, 0.1, 300)

2025-07-07 17:17:59,578 - gym_custom_envs_real_ur_drivers_URBasic_realTimeClientEvent - INFO - Program send to Robot:
servoj([0.048949882885524786, -1.615099234067139, -1.5846457960465732, -1.3510533806177871, 1.824987652685668, 2.9164332866668703], 0.5, 0.5, 0.01, 0.1, 300)

2025-07-07 17:17:59,593 - gym_custom_envs_real_ur_drivers_URBasic_realTimeClientEvent - INFO - Program send to Robot:
servoj([0.04931394175166789, -1.6144587383973654, -1.5842299389008796, -1.3511530710599244, 1.824279849483168, 2.9136678695678713], 0.5, 0.5, 0.01, 0.1, 300)

2025-07-07 17:17:59,609 - gym_custom_envs_real_ur_drivers_URBasic_realTimeClientEvent - INFO - Program send to Robot:
servoj([0.04974350391161771, -1.6135682817746628, -1.5836778820225603, -1.3513621730523988, 1.8232474187349392, 2.9098605632781984], 0.5, 0.5, 0.01, 0.1, 300)

2025-07-07 17:17:59,626 - gym_custom_envs_real_ur_drivers_URBasic_realTimeClientEvent - INFO - Program send to Robot:
servoj([0.050135928675175426, -1.6126177125072552, -1.5831225297627693, -1.3515022387242783, 1.8223257340600856, 2.9061607837677004], 0.5, 0.5, 0.01, 0.1, 300)

2025-07-07 17:17:59,641 - gym_custom_envs_real_ur_drivers_URBasic_realTimeClientEvent - INFO - Program send to Robot:
servoj([0.05116300054405778, -1.611517682639778, -1.5825110106099136, -1.351755993771467, 1.8211635184861925, 2.9016353607177736], 0.5, 0.5, 0.01, 0.1, 300)

2025-07-07 17:17:59,658 - gym_custom_envs_real_ur_drivers_URBasic_realTimeClientEvent - INFO - Program send to Robot:
servoj([0.0516740133300269, -1.6104275294017347, -1.5820131552650205, -1.3518882392237275, 1.8201198093274424, 2.8974568367004396], 0.5, 0.5, 0.01, 0.1, 300)

2025-07-07 17:17:59,674 - gym_custom_envs_real_ur_drivers_URBasic_realTimeClientEvent - INFO - Program send to Robot:
servoj([0.052272217016878966, -1.609299588506972, -1.5814474120151254, -1.3521600981813722, 1.8188605869506844, 2.892847490310669], 0.5, 0.5, 0.01, 0.1, 300)

2025-07-07 17:17:59,690 - gym_custom_envs_real_ur_drivers_URBasic_realTimeClientEvent - INFO - Program send to Robot:
servoj([0.052843454583453714, -1.6082510280818283, -1.5808845049956466, -1.3523653128318176, 1.8176820252740664, 2.8883103847503664], 0.5, 0.5, 0.01, 0.1, 300)

2025-07-07 17:17:59,706 - gym_custom_envs_real_ur_drivers_URBasic_realTimeClientEvent - INFO - Program send to Robot:
servoj([0.05345247158183252, -1.6070977499911046, -1.580235343376225, -1.3526719618989402, 1.8164051083989192, 2.883461666107178], 0.5, 0.5, 0.01, 0.1, 300)

2025-07-07 17:17:59,722 - gym_custom_envs_real_ur_drivers_URBasic_realTimeClientEvent - INFO - Program send to Robot:
servoj([0.054070095481793645, -1.60602734864481, -1.5796718929348104, -1.3528694277990894, 1.8152914018750212, 2.878947687149048], 0.5, 0.5, 0.01, 0.1, 300)

2025-07-07 17:17:59,738 - gym_custom_envs_real_ur_drivers_URBasic_realTimeClientEvent - INFO - Program send to Robot:
servoj([0.0552730747922221, -1.6048059849936211, -1.5790075665819392, -1.3531808146232747, 1.81406003916768, 2.8740872859954836], 0.5, 0.5, 0.01, 0.1, 300)

2025-07-07 17:17:59,755 - gym_custom_envs_real_ur_drivers_URBasic_realTimeClientEvent - INFO - Program send to Robot:
servoj([0.05593321727134504, -1.6037001158420756, -1.5783716988647598, -1.3532989063417018, 1.8128521239183084, 2.869478178024292], 0.5, 0.5, 0.01, 0.1, 300)

2025-07-07 17:17:59,771 - gym_custom_envs_real_ur_drivers_URBasic_realTimeClientEvent - INFO - Program send to Robot:
servoj([0.06749515465162839, -1.5846021538858672, -1.567728365219125, -1.3575729972787924, 1.791689560250429, 2.78724309158821], 0.5, 0.5, 0.01, 0.1, 300)

2025-07-07 17:17:59,778 - gym_custom_envs_real_ur_drivers_URBasic_realTimeClientEvent - INFO - Program send to Robot:
servoj([0.0674951546668148, -1.5846021538858672, -1.567728365219125, -1.3575729972787924, 1.791689560250429, 2.78724309158821], 0.5, 0.5, 0.01, 0.1, 300)

2025-07-07 17:17:59,786 - gym_custom_envs_real_ur_drivers_URBasic_realTimeClientEvent - INFO - Program send to Robot:
servoj([0.06749515466696666, -1.5846021538858672, -1.567728365219125, -1.3575729972787924, 1.791689560250429, 2.78724309158821], 0.5, 0.5, 0.01, 0.1, 300)

2025-07-07 17:17:59,794 - gym_custom_envs_real_ur_drivers_URBasic_realTimeClientEvent - INFO - Program send to Robot:
servoj([0.06749515466696818, -1.5846021538858672, -1.567728365219125, -1.3575729972787924, 1.791689560250429, 2.78724309158821], 0.5, 0.5, 0.01, 0.1, 300)

2025-07-07 17:17:59,810 - gym_custom_envs_real_ur_drivers_URBasic_realTimeClientEvent - INFO - Program send to Robot:
servoj([0.0674951546669682, -1.5846021538858672, -1.567728365219125, -1.3575729972787924, 1.791689560250429, 2.78724309158821], 0.5, 0.5, 0.01, 0.1, 300)

2025-07-07 17:17:59,818 - gym_custom_envs_real_ur_drivers_URBasic_realTimeClientEvent - INFO - Program send to Robot:
servoj([0.0674951546669682, -1.5846021538858672, -1.567728365219125, -1.3575729972787924, 1.791689560250429, 2.78724309158821], 0.5, 0.5, 0.01, 0.1, 300)

2025-07-07 17:17:59,826 - gym_custom_envs_real_ur_drivers_URBasic_realTimeClientEvent - INFO - Program send to Robot:
servoj([0.0674951546669682, -1.5846021538858672, -1.567728365219125, -1.3575729972787924, 1.791689560250429, 2.78724309158821], 0.5, 0.5, 0.01, 0.1, 300)

2025-07-07 17:17:59,844 - gym_custom_envs_real_ur_drivers_URBasic_realTimeClientEvent - INFO - Program send to Robot:
servoj([0.0674951546669682, -1.5846021538858672, -1.567728365219125, -1.3575729972787924, 1.791689560250429, 2.78724309158821], 0.5, 0.5, 0.01, 0.1, 300)

2025-07-07 17:17:59,850 - gym_custom_envs_real_ur_drivers_URBasic_realTimeClientEvent - INFO - Program send to Robot:
servoj([0.0674951546669682, -1.5846021538858672, -1.567728365219125, -1.3575729972787924, 1.791689560250429, 2.78724309158821], 0.5, 0.5, 0.01, 0.1, 300)

2025-07-07 17:17:59,858 - gym_custom_envs_real_ur_drivers_URBasic_realTimeClientEvent - INFO - Program send to Robot:
servoj([0.0674951546669682, -1.5830835129058605, -1.567728365219125, -1.3575729972787924, 1.791689560250429, 2.78724309158821], 0.5, 0.5, 0.01, 0.1, 300)

2025-07-07 17:17:59,874 - gym_custom_envs_real_ur_drivers_URBasic_realTimeClientEvent - INFO - Program send to Robot:
servoj([0.0674951546669682, -1.5830683264960603, -1.567728365219125, -1.3575729972787924, 1.791689560250429, 2.78724309158821], 0.5, 0.5, 0.01, 0.1, 300)

2025-07-07 17:17:59,882 - gym_custom_envs_real_ur_drivers_URBasic_realTimeClientEvent - INFO - Program send to Robot:
servoj([0.0674951546669682, -1.5830681746319624, -1.567728365219125, -1.3575729972787924, 1.791689560250429, 2.78724309158821], 0.5, 0.5, 0.01, 0.1, 300)

2025-07-07 17:17:59,890 - gym_custom_envs_real_ur_drivers_URBasic_realTimeClientEvent - INFO - Program send to Robot:
servoj([0.06901379564697516, -1.5830681731133214, -1.567728365219125, -1.3575729972787924, 1.791689560250429, 2.78724309158821], 0.5, 0.5, 0.01, 0.1, 300)

2025-07-07 17:17:59,898 - gym_custom_envs_real_ur_drivers_URBasic_realTimeClientEvent - INFO - Program send to Robot:
servoj([0.06902898205677523, -1.583068173098135, -1.567728365219125, -1.3575729972787924, 1.791689560250429, 2.78724309158821], 0.5, 0.5, 0.01, 0.1, 300)

2025-07-07 17:17:59,914 - gym_custom_envs_real_ur_drivers_URBasic_realTimeClientEvent - INFO - Program send to Robot:
servoj([0.06902913392087322, -1.5830681730979832, -1.567728365219125, -1.3575729972787924, 1.791689560250429, 2.78724309158821], 0.5, 0.5, 0.01, 0.1, 300)

2025-07-07 17:17:59,922 - gym_custom_envs_real_ur_drivers_URBasic_realTimeClientEvent - INFO - Program send to Robot:
servoj([0.0705477764195207, -1.5830681730979816, -1.5662097242391189, -1.3575729972787924, 1.791689560250429, 2.78724309158821], 0.5, 0.5, 0.01, 0.1, 300)

2025-07-07 17:17:59,930 - gym_custom_envs_real_ur_drivers_URBasic_realTimeClientEvent - INFO - Program send to Robot:
servoj([0.07056296284450718, -1.5830681730979816, -1.5661945378293187, -1.3575729972787924, 1.791689560250429, 2.78724309158821], 0.5, 0.5, 0.01, 0.1, 300)

2025-07-07 17:17:59,946 - gym_custom_envs_real_ur_drivers_URBasic_realTimeClientEvent - INFO - Program send to Robot:
servoj([0.07056311470875705, -1.5830681730979816, -1.5661943859652208, -1.3575729972787924, 1.791689560250429, 2.78724309158821], 0.5, 0.5, 0.01, 0.1, 300)

2025-07-07 17:17:59,954 - gym_custom_envs_real_ur_drivers_URBasic_realTimeClientEvent - INFO - Program send to Robot:
servoj([0.07208175720740649, -1.5845868140779884, -1.5677130254265859, -1.3575729972787924, 1.791689560250429, 2.78724309158821], 0.5, 0.5, 0.01, 0.1, 300)

2025-07-07 17:17:59,970 - gym_custom_envs_real_ur_drivers_URBasic_realTimeClientEvent - INFO - Program send to Robot:
servoj([0.07209694363239298, -1.5846020004877883, -1.5677282118211997, -1.3575729972787924, 1.791689560250429, 2.78724309158821], 0.5, 0.5, 0.01, 0.1, 300)

2025-07-07 17:17:59,979 - gym_custom_envs_real_ur_drivers_URBasic_realTimeClientEvent - INFO - Program send to Robot:
servoj([0.07209709549664285, -1.5846021523518865, -1.5677283636851458, -1.3575729972787924, 1.791689560250429, 2.78724309158821], 0.5, 0.5, 0.01, 0.1, 300)

2025-07-07 17:17:59,986 - gym_custom_envs_real_ur_drivers_URBasic_realTimeClientEvent - INFO - Program send to Robot:
servoj([0.0736157379952923, -1.5846021538705273, -1.5677283652037852, -1.3575729972787924, 1.791689560250429, 2.78724309158821], 0.5, 0.5, 0.01, 0.1, 300)

2025-07-07 17:17:59,994 - gym_custom_envs_real_ur_drivers_URBasic_realTimeClientEvent - INFO - Program send to Robot:
servoj([0.07363092442027878, -1.5846021538857138, -1.5677283652189715, -1.3575729972787924, 1.791689560250429, 2.78724309158821], 0.5, 0.5, 0.01, 0.1, 300)

2025-07-07 17:18:00,010 - gym_custom_envs_real_ur_drivers_URBasic_realTimeClientEvent - INFO - Program send to Robot:
servoj([0.07363107628452865, -1.5846021538858657, -1.5677283652191234, -1.3575729972787924, 1.791689560250429, 2.78724309158821], 0.5, 0.5, 0.01, 0.1, 300)

2025-07-07 17:18:00,018 - gym_custom_envs_real_ur_drivers_URBasic_realTimeClientEvent - INFO - Program send to Robot:
servoj([0.07363107780317116, -1.5846021538858672, -1.567728365219125, -1.3575729972787924, 1.791689560250429, 2.78724309158821], 0.5, 0.5, 0.01, 0.1, 300)

2025-07-07 17:18:00,025 - gym_custom_envs_real_ur_drivers_URBasic_realTimeClientEvent - INFO - Program send to Robot:
servoj([0.07363107781835758, -1.5846021538858672, -1.567728365219125, -1.3575729972787924, 1.791689560250429, 2.78724309158821], 0.5, 0.5, 0.01, 0.1, 300)

2025-07-07 17:18:00,042 - gym_custom_envs_real_ur_drivers_URBasic_realTimeClientEvent - INFO - Program send to Robot:
servoj([0.07363107781850944, -1.5846021538858672, -1.567728365219125, -1.3575729972787924, 1.791689560250429, 2.78724309158821], 0.5, 0.5, 0.01, 0.1, 300)

2025-07-07 17:18:00,050 - gym_custom_envs_real_ur_drivers_URBasic_realTimeClientEvent - INFO - Program send to Robot:
servoj([0.07514971879851745, -1.5846021538858672, -1.569247006199132, -1.3575729972787924, 1.791689560250429, 2.78724309158821], 0.5, 0.5, 0.01, 0.1, 300)

2025-07-07 17:18:00,058 - gym_custom_envs_real_ur_drivers_URBasic_realTimeClientEvent - INFO - Program send to Robot:
servoj([0.07516490520831753, -1.5846021538858672, -1.569262192608932, -1.3575729972787924, 1.791689560250429, 2.78724309158821], 0.5, 0.5, 0.01, 0.1, 300)

2025-07-07 17:18:00,073 - gym_custom_envs_real_ur_drivers_URBasic_realTimeClientEvent - INFO - Program send to Robot:
servoj([0.07516505707241554, -1.5846021538858672, -1.56926234447303, -1.3575729972787924, 1.791689560250429, 2.78724309158821], 0.5, 0.5, 0.01, 0.1, 300)

2025-07-07 17:18:00,082 - gym_custom_envs_real_ur_drivers_URBasic_realTimeClientEvent - INFO - Program send to Robot:
servoj([0.07516505859105652, -1.5846021538858672, -1.570780986971678, -1.3575729972787924, 1.791689560250429, 2.78724309158821], 0.5, 0.5, 0.01, 0.1, 300)

2025-07-07 17:18:00,090 - gym_custom_envs_real_ur_drivers_URBasic_realTimeClientEvent - INFO - Program send to Robot:
servoj([0.07516505860624292, -1.5846021538858672, -1.5707961733966644, -1.3575729972787924, 1.791689560250429, 2.78724309158821], 0.5, 0.5, 0.01, 0.1, 300)

2025-07-07 17:18:00,106 - gym_custom_envs_real_ur_drivers_URBasic_realTimeClientEvent - INFO - Program send to Robot:
servoj([0.07516505860639479, -1.5846021538858672, -1.5707963252609143, -1.3575729972787924, 1.791689560250429, 2.78724309158821], 0.5, 0.5, 0.01, 0.1, 300)

2025-07-07 17:18:00,114 - gym_custom_envs_real_ur_drivers_URBasic_realTimeClientEvent - INFO - Program send to Robot:
servoj([0.07364641762638982, -1.5830835129058605, -1.5707963267795568, -1.3575729972787924, 1.791689560250429, 2.78724309158821], 0.5, 0.5, 0.01, 0.1, 300)

2025-07-07 17:18:00,122 - gym_custom_envs_real_ur_drivers_URBasic_realTimeClientEvent - INFO - Program send to Robot:
servoj([0.07363123121658977, -1.5830683264960603, -1.5707963267947433, -1.3575729972787924, 1.791689560250429, 2.78724309158821], 0.5, 0.5, 0.01, 0.1, 300)

2025-07-07 17:18:00,138 - gym_custom_envs_real_ur_drivers_URBasic_realTimeClientEvent - INFO - Program send to Robot:
servoj([0.07363107935249176, -1.5830681746319624, -1.5707963267948952, -1.3575729972787924, 1.791689560250429, 2.78724309158821], 0.5, 0.5, 0.01, 0.1, 300)

2025-07-07 17:18:00,146 - gym_custom_envs_real_ur_drivers_URBasic_realTimeClientEvent - INFO - Program send to Robot:
servoj([0.07363107783385078, -1.5845868140933281, -1.5707963267948966, -1.3575729972787924, 1.791689560250429, 2.78724309158821], 0.5, 0.5, 0.01, 0.1, 300)

2025-07-07 17:18:00,154 - gym_custom_envs_real_ur_drivers_URBasic_realTimeClientEvent - INFO - Program send to Robot:
servoj([0.07363107781866438, -1.5846020004879418, -1.5707963267948966, -1.3575729972787924, 1.791689560250429, 2.78724309158821], 0.5, 0.5, 0.01, 0.1, 300)

2025-07-07 17:18:00,171 - gym_custom_envs_real_ur_drivers_URBasic_realTimeClientEvent - INFO - Program send to Robot:
servoj([0.07363107781851251, -1.5846021523518878, -1.5707963267948966, -1.3575729972787924, 1.791689560250429, 2.78724309158821], 0.5, 0.5, 0.01, 0.1, 300)

2025-07-07 17:18:00,178 - gym_custom_envs_real_ur_drivers_URBasic_realTimeClientEvent - INFO - Program send to Robot:
servoj([0.07514971879851749, -1.5846021538705275, -1.5707963267948966, -1.3575729972787924, 1.791689560250429, 2.785724450608203], 0.5, 0.5, 0.01, 0.1, 300)

2025-07-07 17:18:00,186 - gym_custom_envs_real_ur_drivers_URBasic_realTimeClientEvent - INFO - Program send to Robot:
servoj([0.07516490520831753, -1.5846021538857138, -1.5707963267948966, -1.3575729972787924, 1.791689560250429, 2.785709264198403], 0.5, 0.5, 0.01, 0.1, 300)

2025-07-07 17:18:00,202 - gym_custom_envs_real_ur_drivers_URBasic_realTimeClientEvent - INFO - Program send to Robot:
servoj([0.07516505707241554, -1.5846021538858657, -1.5707963267948966, -1.3575729972787924, 1.791689560250429, 2.7857091123343047], 0.5, 0.5, 0.01, 0.1, 300)

2025-07-07 17:18:00,210 - gym_custom_envs_real_ur_drivers_URBasic_realTimeClientEvent - INFO - Program send to Robot:
servoj([0.07516505859105652, -1.5846021538858672, -1.5707963267948966, -1.3575729972787924, 1.791689560250429, 2.785709110815664], 0.5, 0.5, 0.01, 0.1, 300)

2025-07-07 17:18:00,218 - gym_custom_envs_real_ur_drivers_URBasic_realTimeClientEvent - INFO - Program send to Robot:
servoj([0.07516505860624292, -1.5846021538858672, -1.5707963267948966, -1.3575729972787924, 1.791689560250429, 2.7857091108004775], 0.5, 0.5, 0.01, 0.1, 300)

2025-07-07 17:18:00,226 - gym_custom_envs_real_ur_drivers_URBasic_realTimeClientEvent - INFO - Program send to Robot:
servoj([0.07516505860639479, -1.5846021538858672, -1.5707963267948966, -1.3575729972787924, 1.791689560250429, 2.7857091108003256], 0.5, 0.5, 0.01, 0.1, 300)

2025-07-07 17:18:00,242 - gym_custom_envs_real_ur_drivers_URBasic_realTimeClientEvent - INFO - Program send to Robot:
servoj([0.07516505860639631, -1.5846021538858672, -1.5707963267948966, -1.3575729972787924, 1.790170919270422, 2.7857091108003242], 0.5, 0.5, 0.01, 0.1, 300)

2025-07-07 17:18:00,249 - gym_custom_envs_real_ur_drivers_URBasic_realTimeClientEvent - INFO - Program send to Robot:
servoj([0.07516505860639633, -1.5846021538858672, -1.5707963267948966, -1.3575729972787924, 1.7901557328606221, 2.7857091108003242], 0.5, 0.5, 0.01, 0.1, 300)

2025-07-07 17:18:00,258 - gym_custom_envs_real_ur_drivers_URBasic_realTimeClientEvent - INFO - Program send to Robot:
servoj([0.07516505860639633, -1.5846021538858672, -1.5707963267948966, -1.3575729972787924, 1.7901555809965242, 2.7857091108003242], 0.5, 0.5, 0.01, 0.1, 300)

2025-07-07 17:18:00,274 - gym_custom_envs_real_ur_drivers_URBasic_realTimeClientEvent - INFO - Program send to Robot:
servoj([0.07668369958640328, -1.5846021538858672, -1.5707963267948966, -1.3575729972787924, 1.7901555794778832, 2.7841904698203175], 0.5, 0.5, 0.01, 0.1, 300)

2025-07-07 17:18:00,283 - gym_custom_envs_real_ur_drivers_URBasic_realTimeClientEvent - INFO - Program send to Robot:
servoj([0.07669888599620335, -1.5846021538858672, -1.5707963267948966, -1.3575729972787924, 1.7901555794626967, 2.784175283410517], 0.5, 0.5, 0.01, 0.1, 300)

2025-07-07 17:18:00,290 - gym_custom_envs_real_ur_drivers_URBasic_realTimeClientEvent - INFO - Program send to Robot:
servoj([0.07669903786030134, -1.5846021538858672, -1.5707963267948966, -1.3575729972787924, 1.7901555794625448, 2.7841751315464194], 0.5, 0.5, 0.01, 0.1, 300)

2025-07-07 17:18:00,298 - gym_custom_envs_real_ur_drivers_URBasic_realTimeClientEvent - INFO - Program send to Robot:
servoj([0.07669903937894233, -1.5846021538858672, -1.5707963267948966, -1.3575729972787924, 1.7901555794625432, 2.784175130027778], 0.5, 0.5, 0.01, 0.1, 300)

2025-07-07 17:18:00,313 - gym_custom_envs_real_ur_drivers_URBasic_realTimeClientEvent - INFO - Program send to Robot:
servoj([0.07669903939412874, -1.5846021538858672, -1.5707963267948966, -1.3575729972787924, 1.7901555794625432, 2.7826564890325853], 0.5, 0.5, 0.01, 0.1, 300)

2025-07-07 17:18:00,322 - gym_custom_envs_real_ur_drivers_URBasic_realTimeClientEvent - INFO - Program send to Robot:
servoj([0.0766990393942806, -1.5846021538858672, -1.5707963267948966, -1.3575729972787924, 1.7901555794625432, 2.782641302622633], 0.5, 0.5, 0.01, 0.1, 300)

2025-07-07 17:18:00,330 - gym_custom_envs_real_ur_drivers_URBasic_realTimeClientEvent - INFO - Program send to Robot:
servoj([0.07669903939428212, -1.5846021538858672, -1.5707963267948966, -1.3575729972787924, 1.7901555794625432, 2.7826411507585336], 0.5, 0.5, 0.01, 0.1, 300)

2025-07-07 17:18:00,345 - gym_custom_envs_real_ur_drivers_URBasic_realTimeClientEvent - INFO - Program send to Robot:
servoj([0.07669903939428213, -1.5846021538858672, -1.5707963267948966, -1.3560543562987857, 1.7886369384825362, 2.782641149239893], 0.5, 0.5, 0.01, 0.1, 300)

2025-07-07 17:18:00,354 - gym_custom_envs_real_ur_drivers_URBasic_realTimeClientEvent - INFO - Program send to Robot:
servoj([0.07669903939428213, -1.5846021538858672, -1.5707963267948966, -1.3560391698889858, 1.7886217520727363, 2.7826411492247063], 0.5, 0.5, 0.01, 0.1, 300)

2025-07-07 17:18:00,362 - gym_custom_envs_real_ur_drivers_URBasic_realTimeClientEvent - INFO - Program send to Robot:
servoj([0.07669903939428213, -1.5846021538858672, -1.5707963267948966, -1.3560390180248876, 1.7886216002086381, 2.7826411492245544], 0.5, 0.5, 0.01, 0.1, 300)

2025-07-07 17:18:00,370 - gym_custom_envs_real_ur_drivers_URBasic_realTimeClientEvent - INFO - Program send to Robot:
servoj([0.07669903939428213, -1.5846021538858672, -1.5707963267948966, -1.3560390165062466, 1.7886215986899971, 2.77960386726454], 0.5, 0.5, 0.01, 0.1, 300)

2025-07-07 17:18:00,386 - gym_custom_envs_real_ur_drivers_URBasic_realTimeClientEvent - INFO - Program send to Robot:
servoj([0.07669903939428213, -1.5846021538858672, -1.5707963267948966, -1.3560390164910603, 1.7886215986748109, 2.7795734944449397], 0.5, 0.5, 0.01, 0.1, 300)

2025-07-07 17:18:00,393 - gym_custom_envs_real_ur_drivers_URBasic_realTimeClientEvent - INFO - Program send to Robot:
servoj([0.07669903939428213, -1.5846021538858672, -1.5707963267948966, -1.3560390164909084, 1.788621598674659, 2.779573190716744], 0.5, 0.5, 0.01, 0.1, 300)

2025-07-07 17:18:00,402 - gym_custom_envs_real_ur_drivers_URBasic_realTimeClientEvent - INFO - Program send to Robot:
servoj([0.07518039841427518, -1.5846021538858672, -1.5707963267948966, -1.3560390164909069, 1.7886215986746574, 2.7719799827794276], 0.5, 0.5, 0.01, 0.1, 300)

2025-07-07 17:18:00,410 - gym_custom_envs_real_ur_drivers_URBasic_realTimeClientEvent - INFO - Program send to Robot:
servoj([0.07516521200447511, -1.5846021538858672, -1.5707963267948966, -1.3560390164909069, 1.7886215986746574, 2.7719040507000545], 0.5, 0.5, 0.01, 0.1, 300)

2025-07-07 17:18:00,426 - gym_custom_envs_real_ur_drivers_URBasic_realTimeClientEvent - INFO - Program send to Robot:
servoj([0.07516506014037712, -1.5846021538858672, -1.5707963267948966, -1.3560390164909069, 1.7886215986746574, 2.7719032913792607], 0.5, 0.5, 0.01, 0.1, 300)

2025-07-07 17:18:00,434 - gym_custom_envs_real_ur_drivers_URBasic_realTimeClientEvent - INFO - Program send to Robot:
servoj([0.07516505862173613, -1.5846021538858672, -1.5707963267948966, -1.3530017345308931, 1.7886215986746574, 2.761272796926005], 0.5, 0.5, 0.01, 0.1, 300)

2025-07-07 17:18:00,450 - gym_custom_envs_real_ur_drivers_URBasic_realTimeClientEvent - INFO - Program send to Robot:
servoj([0.07516505860654972, -1.5846021538858672, -1.5707963267948966, -1.352971361711293, 1.7886215986746574, 2.7611664919814722], 0.5, 0.5, 0.01, 0.1, 300)

2025-07-07 17:18:00,458 - gym_custom_envs_real_ur_drivers_URBasic_realTimeClientEvent - INFO - Program send to Robot:
servoj([0.07516505860639786, -1.5846021538858672, -1.5707963267948966, -1.352971057983097, 1.7886215986746574, 2.761165428932027], 0.5, 0.5, 0.01, 0.1, 300)

2025-07-07 17:18:00,473 - gym_custom_envs_real_ur_drivers_URBasic_realTimeClientEvent - INFO - Program send to Robot:
servoj([0.07516505860639634, -1.5846021538858672, -1.5692776858148896, -1.3453778500457811, 1.7901402396546644, 2.752053572421492], 0.5, 0.5, 0.01, 0.1, 300)

2025-07-07 17:18:00,483 - gym_custom_envs_real_ur_drivers_URBasic_realTimeClientEvent - INFO - Program send to Robot:
servoj([0.07516505860639633, -1.5846021538858672, -1.5692624994050897, -1.345301917966408, 1.7901554260644645, 2.7519624538563865], 0.5, 0.5, 0.01, 0.1, 300)

2025-07-07 17:18:00,499 - gym_custom_envs_real_ur_drivers_URBasic_realTimeClientEvent - INFO - Program send to Robot:
servoj([0.07516505860639633, -1.5861207948658742, -1.5692623475409917, -1.331633389825553, 1.7901555779285625, 2.7474056197307157], 0.5, 0.5, 0.01, 0.1, 300)

2025-07-07 17:18:00,515 - gym_custom_envs_real_ur_drivers_URBasic_realTimeClientEvent - INFO - Program send to Robot:
servoj([0.07516505860639633, -1.5861359812756743, -1.5692623460223507, -1.3314967045441446, 1.7901555794472035, 2.747360051389459], 0.5, 0.5, 0.01, 0.1, 300)

2025-07-07 17:18:00,523 - gym_custom_envs_real_ur_drivers_URBasic_realTimeClientEvent - INFO - Program send to Robot:
servoj([0.07516505860639633, -1.5861361331397723, -1.5692623460071642, -1.3314953376913305, 1.7901555794623898, 2.7473595957060466], 0.5, 0.5, 0.01, 0.1, 300)

2025-07-07 17:18:00,539 - gym_custom_envs_real_ur_drivers_URBasic_realTimeClientEvent - INFO - Program send to Robot:
servoj([0.07516505860639633, -1.58765477563842, -1.5692623460070123, -1.3178275552027414, 1.7916742204425486, 2.7458409501692054], 0.5, 0.5, 0.01, 0.1, 300)

2025-07-07 17:18:00,547 - gym_custom_envs_real_ur_drivers_URBasic_realTimeClientEvent - INFO - Program send to Robot:
servoj([0.07516505860639633, -1.5876699620634065, -1.5692623460070108, -1.3176908773778555, 1.7916894068523503, 2.7458257637138366], 0.5, 0.5, 0.01, 0.1, 300)

2025-07-07 17:18:00,554 - gym_custom_envs_real_ur_drivers_URBasic_realTimeClientEvent - INFO - Program send to Robot:
servoj([0.07516505860639633, -1.5876701139276563, -1.5692623460070108, -1.3176895105996067, 1.7916895587164483, 2.745825611849283], 0.5, 0.5, 0.01, 0.1, 300)

2025-07-07 17:18:00,570 - gym_custom_envs_real_ur_drivers_URBasic_realTimeClientEvent - INFO - Program send to Robot:
servoj([0.07516505860639633, -1.5891887564263056, -1.5692623460070108, -1.30554036909177, 1.793208201215096, 2.7458256103306375], 0.5, 0.5, 0.01, 0.1, 300)

2025-07-07 17:18:00,578 - gym_custom_envs_real_ur_drivers_URBasic_realTimeClientEvent - INFO - Program send to Robot:
servoj([0.07516505860639633, -1.589203942851292, -1.5692623460070108, -1.3054188776766915, 1.7932233876400825, 2.745825610315451], 0.5, 0.5, 0.01, 0.1, 300)

2025-07-07 17:18:00,594 - gym_custom_envs_real_ur_drivers_URBasic_realTimeClientEvent - INFO - Program send to Robot:
servoj([0.07364641762638983, -1.590722735695549, -1.5692623460070108, -1.2978244578625069, 1.7932235395043323, 2.745825610315299], 0.5, 0.5, 0.01, 0.1, 300)

2025-07-07 17:18:00,602 - gym_custom_envs_real_ur_drivers_URBasic_realTimeClientEvent - INFO - Program send to Robot:
servoj([0.07363123121658977, -1.5907379236239916, -1.5692623460070108, -1.297748513664365, 1.7932235410229749, 2.745825610315298], 0.5, 0.5, 0.01, 0.1, 300)

2025-07-07 17:18:00,618 - gym_custom_envs_real_ur_drivers_URBasic_realTimeClientEvent - INFO - Program send to Robot:
servoj([0.07363107935249176, -1.5907380755032758, -1.5692623460070108, -1.2977477542223836, 1.7932235410381614, 2.745825610315298], 0.5, 0.5, 0.01, 0.1, 300)

2025-07-07 17:18:00,626 - gym_custom_envs_real_ur_drivers_URBasic_realTimeClientEvent - INFO - Program send to Robot:
servoj([0.07363107783385078, -1.5922567180020752, -1.5692623460070108, -1.2947104646679501, 1.7947421820183194, 2.745825610315298], 0.5, 0.5, 0.01, 0.1, 300)

2025-07-07 17:18:00,642 - gym_custom_envs_real_ur_drivers_URBasic_realTimeClientEvent - INFO - Program send to Robot:
servoj([0.07363107781866438, -1.5922719044270632, -1.5692623460070108, -1.294680091772406, 1.7947573684281208, 2.745825610315298], 0.5, 0.5, 0.01, 0.1, 300)

2025-07-07 17:18:00,650 - gym_custom_envs_real_ur_drivers_URBasic_realTimeClientEvent - INFO - Program send to Robot:
servoj([0.07363107781851251, -1.592272056291313, -1.5692623460070108, -1.2946797880434504, 1.7947575202922188, 2.745825610315298], 0.5, 0.5, 0.01, 0.1, 300)

2025-07-07 17:18:00,666 - gym_custom_envs_real_ur_drivers_URBasic_realTimeClientEvent - INFO - Program send to Robot:
servoj([0.07211243683850405, -1.5953093397699691, -1.5692623460070108, -1.2931611440261541, 1.7947575218108598, 2.745825610315298], 0.5, 0.5, 0.01, 0.1, 300)

2025-07-07 17:18:00,674 - gym_custom_envs_real_ur_drivers_URBasic_realTimeClientEvent - INFO - Program send to Robot:
servoj([0.07209725042870395, -1.5953397126047557, -1.5692623460070108, -1.2931459575859812, 1.7947575218260463, 2.745825610315298], 0.5, 0.5, 0.01, 0.1, 300)

2025-07-07 17:18:00,683 - gym_custom_envs_real_ur_drivers_URBasic_realTimeClientEvent - INFO - Program send to Robot:
servoj([0.07209709856460596, -1.5953400163331035, -1.5692623460070108, -1.2931458057215794, 1.7947575218261982, 2.745825610315298], 0.5, 0.5, 0.01, 0.1, 300)

2025-07-07 17:18:00,698 - gym_custom_envs_real_ur_drivers_URBasic_realTimeClientEvent - INFO - Program send to Robot:
servoj([0.07209709704596498, -1.601414583290414, -1.5677437050270038, -1.2931458042029353, 1.7947575218261997, 2.744306969335291], 0.5, 0.5, 0.01, 0.1, 300)

2025-07-07 17:18:00,705 - gym_custom_envs_real_ur_drivers_URBasic_realTimeClientEvent - INFO - Program send to Robot:
servoj([0.07209709703077856, -1.6014753289599872, -1.5677285186172039, -1.293145804187749, 1.7947575218261997, 2.7442917829254907], 0.5, 0.5, 0.01, 0.1, 300)

2025-07-07 17:18:00,713 - gym_custom_envs_real_ur_drivers_URBasic_realTimeClientEvent - INFO - Program send to Robot:
servoj([0.0720970970306267, -1.6014759364166828, -1.5677283667531057, -1.2931458041875972, 1.7947575218261997, 2.744291631061393], 0.5, 0.5, 0.01, 0.1, 300)

2025-07-07 17:18:00,730 - gym_custom_envs_real_ur_drivers_URBasic_realTimeClientEvent - INFO - Program send to Robot:
servoj([0.07209709703062518, -1.6075505064112774, -1.5677283652344647, -1.2916271632075886, 1.7947575218261997, 2.7442916295427517], 0.5, 0.5, 0.01, 0.1, 300)

2025-07-07 17:18:00,737 - gym_custom_envs_real_ur_drivers_URBasic_realTimeClientEvent - INFO - Program send to Robot:
servoj([0.07209709703062517, -1.6076112521112234, -1.5677283652192784, -1.2916119767977885, 1.7947575218261997, 2.7442916295275657], 0.5, 0.5, 0.01, 0.1, 300)

2025-07-07 17:18:00,746 - gym_custom_envs_real_ur_drivers_URBasic_realTimeClientEvent - INFO - Program send to Robot:
servoj([0.07209709703062517, -1.6076118595682227, -1.5677283652191265, -1.2916118249336905, 1.7947575218261997, 2.744291629527414], 0.5, 0.5, 0.01, 0.1, 300)

2025-07-07 17:18:00,762 - gym_custom_envs_real_ur_drivers_URBasic_realTimeClientEvent - INFO - Program send to Robot:
servoj([0.07209709703062517, -1.6136864295628197, -1.567728365219125, -1.2916118234150495, 1.7932388808461937, 2.7412543475673985], 0.5, 0.5, 0.01, 0.1, 300)

2025-07-07 17:18:00,770 - gym_custom_envs_real_ur_drivers_URBasic_realTimeClientEvent - INFO - Program send to Robot:
servoj([0.07209709703062517, -1.6137471752627657, -1.567728365219125, -1.291611823399863, 1.7932236944363935, 2.741223974747798], 0.5, 0.5, 0.01, 0.1, 300)

2025-07-07 17:18:00,787 - gym_custom_envs_real_ur_drivers_URBasic_realTimeClientEvent - INFO - Program send to Robot:
servoj([0.07209709703062517, -1.6167850646797788, -1.567728365219125, -1.2916118233997114, 1.7932235425722955, 2.735149107099575], 0.5, 0.5, 0.01, 0.1, 300)

2025-07-07 17:18:00,794 - gym_custom_envs_real_ur_drivers_URBasic_realTimeClientEvent - INFO - Program send to Robot:
servoj([0.07209709703062517, -1.6168154435739488, -1.567728365219125, -1.2916118233997098, 1.7932235410536546, 2.7350883584230927], 0.5, 0.5, 0.01, 0.1, 300)

2025-07-07 17:18:00,802 - gym_custom_envs_real_ur_drivers_URBasic_realTimeClientEvent - INFO - Program send to Robot:
servoj([0.07209709703062517, -1.6168157473628906, -1.567728365219125, -1.2916118233997098, 1.793223541038468, 2.735087750936328], 0.5, 0.5, 0.01, 0.1, 300)

2025-07-07 17:18:00,817 - gym_custom_envs_real_ur_drivers_URBasic_realTimeClientEvent - INFO - Program send to Robot:
servoj([0.07209709703062517, -1.6198530323607938, -1.567728365219125, -1.290093182419703, 1.7932235410383164, 2.7259758989814196], 0.5, 0.5, 0.01, 0.1, 300)

2025-07-07 17:18:00,825 - gym_custom_envs_real_ur_drivers_URBasic_realTimeClientEvent - INFO - Program send to Robot:
servoj([0.07209709703062517, -1.6198834052107727, -1.567728365219125, -1.290077996009903, 1.7932235410383148, 2.7258847804618704], 0.5, 0.5, 0.01, 0.1, 300)

2025-07-07 17:18:00,834 - gym_custom_envs_real_ur_drivers_URBasic_realTimeClientEvent - INFO - Program send to Robot:
servoj([0.07209709703062517, -1.6198837089392726, -1.567728365219125, -1.290077844145805, 1.7932235410383148, 2.725883869276675], 0.5, 0.5, 0.01, 0.1, 300)

2025-07-07 17:18:00,842 - gym_custom_envs_real_ur_drivers_URBasic_realTimeClientEvent - INFO - Program send to Robot:
servoj([0.07209709703062517, -1.6198837119765577, -1.567728365219125, -1.290077842627164, 1.7932235410383148, 2.725883860164823], 0.5, 0.5, 0.01, 0.1, 300)

2025-07-07 17:18:00,858 - gym_custom_envs_real_ur_drivers_URBasic_realTimeClientEvent - INFO - Program send to Robot:
servoj([0.07057845605061823, -1.6259582759269575, -1.567728365219125, -1.2900778426119774, 1.7932235410383148, 2.7167720141936638], 0.5, 0.5, 0.01, 0.1, 300)

2025-07-07 17:18:00,866 - gym_custom_envs_real_ur_drivers_URBasic_realTimeClientEvent - INFO - Program send to Robot:
servoj([0.07056326964081816, -1.6260190215664614, -1.567728365219125, -1.2900778426118256, 1.7932235410383148, 2.716680895733952], 0.5, 0.5, 0.01, 0.1, 300)

2025-07-07 17:18:00,881 - gym_custom_envs_real_ur_drivers_URBasic_realTimeClientEvent - INFO - Program send to Robot:
servoj([0.0675258358167067, -1.630575551962877, -1.567728365219125, -1.2885592016318177, 1.7932235410383148, 2.709086779649321], 0.5, 0.5, 0.01, 0.1, 300)

2025-07-07 17:18:00,890 - gym_custom_envs_real_ur_drivers_URBasic_realTimeClientEvent - INFO - Program send to Robot:
servoj([0.06749546147846558, -1.6306211172668412, -1.567728365219125, -1.2885440152220176, 1.7932235410383148, 2.709010838488475], 0.5, 0.5, 0.01, 0.1, 300)

2025-07-07 17:18:00,905 - gym_custom_envs_real_ur_drivers_URBasic_realTimeClientEvent - INFO - Program send to Robot:
servoj([0.06749515773508317, -1.6306215729198807, -1.567728365219125, -1.2885438633579196, 1.7932235410383148, 2.7090100790768665], 0.5, 0.5, 0.01, 0.1, 300)

2025-07-07 17:18:00,914 - gym_custom_envs_real_ur_drivers_URBasic_realTimeClientEvent - INFO - Program send to Robot:
servoj([0.0644578727376359, -1.6336588594364245, -1.567728365219125, -1.2885438618392786, 1.7932235410383148, 2.7044541485427307], 0.5, 0.5, 0.01, 0.1, 300)

2025-07-07 17:18:00,931 - gym_custom_envs_real_ur_drivers_URBasic_realTimeClientEvent - INFO - Program send to Robot:
servoj([0.06442749988766143, -1.63368923230159, -1.567728365219125, -1.288543861824092, 1.7932235410383148, 2.704408589237389], 0.5, 0.5, 0.01, 0.1, 300)

2025-07-07 17:18:00,939 - gym_custom_envs_real_ur_drivers_URBasic_realTimeClientEvent - INFO - Program send to Robot:
servoj([0.06442719615916169, -1.6336895360302415, -1.567728365219125, -1.2885438618239402, 1.7932235410383148, 2.7044081336443355], 0.5, 0.5, 0.01, 0.1, 300)

2025-07-07 17:18:00,946 - gym_custom_envs_real_ur_drivers_URBasic_realTimeClientEvent - INFO - Program send to Robot:
servoj([0.06290855214186974, -1.6382454620075486, -1.567728365219125, -1.2885438618239387, 1.7932235410383148, 2.704408129088405], 0.5, 0.5, 0.01, 0.1, 300)

2025-07-07 17:18:00,962 - gym_custom_envs_real_ur_drivers_URBasic_realTimeClientEvent - INFO - Program send to Robot:
servoj([0.06289336570169683, -1.6382910212673216, -1.567728365219125, -1.2885438618239387, 1.7932235410383148, 2.7044081290428457], 0.5, 0.5, 0.01, 0.1, 300)

2025-07-07 17:18:00,970 - gym_custom_envs_real_ur_drivers_URBasic_realTimeClientEvent - INFO - Program send to Robot:
servoj([0.0628932138372951, -1.6382914768599193, -1.567728365219125, -1.2885438618239387, 1.7932235410383148, 2.7044081290423905], 0.5, 0.5, 0.01, 0.1, 300)

2025-07-07 17:18:00,977 - gym_custom_envs_real_ur_drivers_URBasic_realTimeClientEvent - INFO - Program send to Robot:
servoj([0.05985593035863763, -1.639810122395852, -1.567728365219125, -1.2870252208439317, 1.7932235410383148, 2.7044081290423856], 0.5, 0.5, 0.01, 0.1, 300)

2025-07-07 17:18:00,994 - gym_custom_envs_real_ur_drivers_URBasic_realTimeClientEvent - INFO - Program send to Robot:
servoj([0.059825557523851054, -1.6398253088512114, -1.567728365219125, -1.2870100344341318, 1.7932235410383148, 2.7044081290423856], 0.5, 0.5, 0.01, 0.1, 300)

2025-07-07 17:18:01,002 - gym_custom_envs_real_ur_drivers_URBasic_realTimeClientEvent - INFO - Program send to Robot:
servoj([0.059825253795503186, -1.639825460715765, -1.567728365219125, -1.2870098825700338, 1.7932235410383148, 2.7044081290423856], 0.5, 0.5, 0.01, 0.1, 300)

2025-07-07 17:18:01,010 - gym_custom_envs_real_ur_drivers_URBasic_realTimeClientEvent - INFO - Program send to Robot:
servoj([0.05526932781819932, -1.6443813851744309, -1.567728365219125, -1.279416676151359, 1.794742182018321, 2.7028894880623784], 0.5, 0.5, 0.01, 0.1, 300)

2025-07-07 17:18:01,025 - gym_custom_envs_real_ur_drivers_URBasic_realTimeClientEvent - INFO - Program send to Robot:
servoj([0.05522376855842628, -1.6444269444190176, -1.567728365219125, -1.2793407440871722, 1.7947573684281208, 2.7028743016525785], 0.5, 0.5, 0.01, 0.1, 300)

2025-07-07 17:18:01,034 - gym_custom_envs_real_ur_drivers_URBasic_realTimeClientEvent - INFO - Program send to Robot:
servoj([0.055223312965828546, -1.6444274000114634, -1.567728365219125, -1.2793399847665303, 1.7947575202922188, 2.7028741497884803], 0.5, 0.5, 0.01, 0.1, 300)

2025-07-07 17:18:01,042 - gym_custom_envs_real_ur_drivers_URBasic_realTimeClientEvent - INFO - Program send to Robot:
servoj([0.05066738546988218, -1.6459460455473947, -1.567728365219125, -1.262634926393249, 1.7947575218108598, 2.7028741482698395], 0.5, 0.5, 0.01, 0.1, 300)

2025-07-07 17:18:01,057 - gym_custom_envs_real_ur_drivers_URBasic_realTimeClientEvent - INFO - Program send to Robot:
servoj([0.05062182619492272, -1.645961232002754, -1.567728365219125, -1.2624678758095162, 1.7947575218260463, 2.702874148254653], 0.5, 0.5, 0.01, 0.1, 300)

2025-07-07 17:18:01,066 - gym_custom_envs_real_ur_drivers_URBasic_realTimeClientEvent - INFO - Program send to Robot:
servoj([0.05062137060217312, -1.6459613838673075, -1.567728365219125, -1.262466205303679, 1.7947575218261982, 2.702874148254501], 0.5, 0.5, 0.01, 0.1, 300)

2025-07-07 17:18:01,074 - gym_custom_envs_real_ur_drivers_URBasic_realTimeClientEvent - INFO - Program send to Robot:
servoj([0.04606544310622523, -1.6489986673459667, -1.569247006199132, -1.2412052148785255, 1.7977948037862137, 2.701355507274493], 0.5, 0.5, 0.01, 0.1, 300)

2025-07-07 17:18:01,090 - gym_custom_envs_real_ur_drivers_URBasic_realTimeClientEvent - INFO - Program send to Robot:
servoj([0.04601988383126575, -1.6490290401807532, -1.569262192608932, -1.2409926049742739, 1.7978251766058138, 2.7013403208646927], 0.5, 0.5, 0.01, 0.1, 300)

2025-07-07 17:18:01,097 - gym_custom_envs_real_ur_drivers_URBasic_realTimeClientEvent - INFO - Program send to Robot:
servoj([0.04601942823851615, -1.6490293439091013, -1.56926234447303, -1.2409904788752315, 1.7978254803340097, 2.701340169000595], 0.5, 0.5, 0.01, 0.1, 300)

2025-07-07 17:18:01,106 - gym_custom_envs_real_ur_drivers_URBasic_realTimeClientEvent - INFO - Program send to Robot:
servoj([0.041463500742568264, -1.6520666289063979, -1.569262345991671, -1.2197294838941461, 1.8069373292513324, 2.69830288552194], 0.5, 0.5, 0.01, 0.1, 300)

2025-07-07 17:18:01,114 - gym_custom_envs_real_ur_drivers_URBasic_realTimeClientEvent - INFO - Program send to Robot:
servoj([0.041417941467608785, -1.652097001756371, -1.5692623460068573, -1.2195168739443354, 1.8070284477405056, 2.698272512687154], 0.5, 0.5, 0.01, 0.1, 300)

2025-07-07 17:18:01,130 - gym_custom_envs_real_ur_drivers_URBasic_realTimeClientEvent - INFO - Program send to Robot:
servoj([0.04141748587485919, -1.6520973054848707, -1.5692623460070092, -1.2195147478448372, 1.8070293589253974, 2.698272208958806], 0.5, 0.5, 0.01, 0.1, 300)

2025-07-07 17:18:01,138 - gym_custom_envs_real_ur_drivers_URBasic_realTimeClientEvent - INFO - Program send to Robot:
servoj([0.03534291739890479, -1.6536159495021627, -1.5707809869870177, -1.2012910348237607, 1.825253059797328, 2.6891603600414817], 0.5, 0.5, 0.01, 0.1, 300)

2025-07-07 17:18:01,145 - gym_custom_envs_real_ur_drivers_URBasic_realTimeClientEvent - INFO - Program send to Robot:
servoj([0.03528217171414525, -1.6536311359423357, -1.5707961733968179, -1.20110879769355, 1.8254352968060472, 2.6890692415523088], 0.5, 0.5, 0.01, 0.1, 300)

2025-07-07 17:18:01,153 - gym_custom_envs_real_ur_drivers_URBasic_realTimeClientEvent - INFO - Program send to Robot:
servoj([0.03528156425729766, -1.6536312878067374, -1.5707963252609158, -1.2011069753222479, 1.8254371191761345, 2.6890683303674168], 0.5, 0.5, 0.01, 0.1, 300)

2025-07-07 17:18:01,170 - gym_custom_envs_real_ur_drivers_URBasic_realTimeClientEvent - INFO - Program send to Robot:
servoj([0.0276883532826949, -1.6566685712853948, -1.5723149677595636, -1.1813646243584468, 1.8482167520999369, 2.6799564753755276], 0.5, 0.5, 0.01, 0.1, 300)

2025-07-07 17:18:01,178 - gym_custom_envs_real_ur_drivers_URBasic_realTimeClientEvent - INFO - Program send to Robot:
servoj([0.027612421172948872, -1.6566989441201814, -1.57233015418455, -1.1811672008488088, 1.848444548429175, 2.6798653568256086], 0.5, 0.5, 0.01, 0.1, 300)

2025-07-07 17:18:01,186 - gym_custom_envs_real_ur_drivers_URBasic_realTimeClientEvent - INFO - Program send to Robot:
servoj([0.02761166185185141, -1.6566992478485294, -1.5723303060487999, -1.1811652266137125, 1.8484468263924674, 2.6798644456401095], 0.5, 0.5, 0.01, 0.1, 300)

2025-07-07 17:18:01,202 - gym_custom_envs_real_ur_drivers_URBasic_realTimeClientEvent - INFO - Program send to Robot:
servoj([0.0154625264185862, -1.6627738148058397, -1.5723303075674424, -1.1674974380513004, 1.8712264638722018, 2.67227123162822], 0.5, 0.5, 0.01, 0.1, 300)

2025-07-07 17:18:01,211 - gym_custom_envs_real_ur_drivers_URBasic_realTimeClientEvent - INFO - Program send to Robot:
servoj([0.015341035064253548, -1.662834560475413, -1.572330307582629, -1.1673607601656761, 1.8714542602469992, 2.6721952994881013], 0.5, 0.5, 0.01, 0.1, 300)

2025-07-07 17:18:01,218 - gym_custom_envs_real_ur_drivers_URBasic_realTimeClientEvent - INFO - Program send to Robot:
servoj([0.015339820150710221, -1.6628351679321087, -1.5723303075827808, -1.16735939338682, 1.871456538210747, 2.6721945401667], 0.5, 0.5, 0.01, 0.1, 300)

2025-07-07 17:18:01,235 - gym_custom_envs_real_ur_drivers_URBasic_realTimeClientEvent - INFO - Program send to Robot:
servoj([0.004709321141527496, -1.667391096946696, -1.5723303075827824, -1.155210251878977, 1.8881616117704592, 2.6661199686534585], 0.5, 0.5, 0.01, 0.1, 300)

2025-07-07 17:18:01,243 - gym_custom_envs_real_ur_drivers_URBasic_realTimeClientEvent - INFO - Program send to Robot:
servoj([0.004603016151435668, -1.667436656236842, -1.5723303075827824, -1.1550887604638986, 1.8883286625060562, 2.666059222938326], 0.5, 0.5, 0.01, 0.1, 300)

2025-07-07 17:18:01,250 - gym_custom_envs_real_ur_drivers_URBasic_realTimeClientEvent - INFO - Program send to Robot:
servoj([0.00460195310153475, -1.6674371118297435, -1.5723303075827824, -1.155087545549748, 1.8883303330134122, 2.666058615481175], 0.5, 0.5, 0.01, 0.1, 300)

2025-07-07 17:18:01,258 - gym_custom_envs_real_ur_drivers_URBasic_realTimeClientEvent - INFO - Program send to Robot:
servoj([0.004601942471035741, -1.6674371163856725, -1.5723303075827824, -1.1550875334006065, 1.8883303497184858, 2.6660586094066034], 0.5, 0.5, 0.01, 0.1, 300)

2025-07-07 17:18:01,274 - gym_custom_envs_real_ur_drivers_URBasic_realTimeClientEvent - INFO - Program send to Robot:
servoj([-0.0029912625353030915, -1.6704743983912456, -1.5723303075827824, -1.149012969359088, 1.8959235547855704, 2.6630213273858443], 0.5, 0.5, 0.01, 0.1, 300)

2025-07-07 17:18:01,282 - gym_custom_envs_real_ur_drivers_URBasic_realTimeClientEvent - INFO - Program send to Robot:
servoj([-0.00306719458536648, -1.6705047712113013, -1.5723303075827824, -1.148952223718673, 1.895999486836241, 2.662990954565637], 0.5, 0.5, 0.01, 0.1, 300)

2025-07-07 17:18:01,297 - gym_custom_envs_real_ur_drivers_URBasic_realTimeClientEvent - INFO - Program send to Robot:
servoj([-0.006105235865881003, -1.6735423568995151, -1.5723303075827824, -1.1474329752822618, 1.896000246156748, 2.661472009857428], 0.5, 0.5, 0.01, 0.1, 300)

2025-07-07 17:18:01,306 - gym_custom_envs_real_ur_drivers_URBasic_realTimeClientEvent - INFO - Program send to Robot:
servoj([-0.006135616278686148, -1.6735727327563972, -1.5723303075827824, -1.1474177827978977, 1.896000253749953, 2.661456820410346], 0.5, 0.5, 0.01, 0.1, 300)

2025-07-07 17:18:01,314 - gym_custom_envs_real_ur_drivers_URBasic_realTimeClientEvent - INFO - Program send to Robot:
servoj([-0.0061359200828141995, -1.673573036514966, -1.5723303075827824, -1.1474176308730542, 1.896000253825885, 2.6614566685158754], 0.5, 0.5, 0.01, 0.1, 300)

2025-07-07 17:18:01,322 - gym_custom_envs_real_ur_drivers_URBasic_realTimeClientEvent - INFO - Program send to Robot:
servoj([-0.00613592312085548, -1.6735730395525517, -1.5723303075827824, -1.1474176293538056, 1.8960002538266443, 2.6614566669969304], 0.5, 0.5, 0.01, 0.1, 300)

2025-07-07 17:18:01,338 - gym_custom_envs_real_ur_drivers_URBasic_realTimeClientEvent - INFO - Program send to Robot:
servoj([-0.0061359231512358925, -1.678128962522948, -1.5738489485627893, -1.1474176293386131, 1.8960002538266518, 2.661456666981741], 0.5, 0.5, 0.01, 0.1, 300)

2025-07-07 17:18:01,346 - gym_custom_envs_real_ur_drivers_URBasic_realTimeClientEvent - INFO - Program send to Robot:
servoj([-0.006135923151539697, -1.678174521752652, -1.5738641349725893, -1.1474176293384613, 1.896000253826652, 2.6614566669815893], 0.5, 0.5, 0.01, 0.1, 300)

2025-07-07 17:18:01,354 - gym_custom_envs_real_ur_drivers_URBasic_realTimeClientEvent - INFO - Program send to Robot:
servoj([-0.006135923151542735, -1.678174977344949, -1.5738642868366872, -1.1474176293384597, 1.896000253826652, 2.6614566669815876], 0.5, 0.5, 0.01, 0.1, 300)

2025-07-07 17:18:01,363 - gym_custom_envs_real_ur_drivers_URBasic_realTimeClientEvent - INFO - Program send to Robot:
servoj([-0.00765456413154927, -1.684249545820899, -1.5738642883553282, -1.1474176293384597, 1.894481612846646, 2.6614566669815876], 0.5, 0.5, 0.01, 0.1, 300)

2025-07-07 17:18:01,378 - gym_custom_envs_real_ur_drivers_URBasic_realTimeClientEvent - INFO - Program send to Robot:
servoj([-0.0076697505413493355, -1.6843102915056585, -1.5738642883705147, -1.1474176293384597, 1.8944664264368458, 2.6614566669815876], 0.5, 0.5, 0.01, 0.1, 300)

2025-07-07 17:18:01,386 - gym_custom_envs_real_ur_drivers_URBasic_realTimeClientEvent - INFO - Program send to Robot:
servoj([-0.0076699024054473364, -1.6843108989625062, -1.5738642883706666, -1.1474176293384597, 1.8944662745727479, 2.6614566669815876], 0.5, 0.5, 0.01, 0.1, 300)

2025-07-07 17:18:01,394 - gym_custom_envs_real_ur_drivers_URBasic_realTimeClientEvent - INFO - Program send to Robot:
servoj([-0.007669903924088316, -1.6873481869970883, -1.5769015703306812, -1.1474176293384597, 1.8944662730541069, 2.659938026001581], 0.5, 0.5, 0.01, 0.1, 300)

2025-07-07 17:18:01,410 - gym_custom_envs_real_ur_drivers_URBasic_realTimeClientEvent - INFO - Program send to Robot:
servoj([-0.007669903939274726, -1.6873785598774342, -1.5769319431502813, -1.1474176293384597, 1.8944662730389206, 2.659922839591781], 0.5, 0.5, 0.01, 0.1, 300)

2025-07-07 17:18:01,418 - gym_custom_envs_real_ur_drivers_URBasic_realTimeClientEvent - INFO - Program send to Robot:
servoj([-0.00766990393942659, -1.6873788636062377, -1.5769322468784772, -1.1474176293384597, 1.8944662730387687, 2.6599226877276827], 0.5, 0.5, 0.01, 0.1, 300)

2025-07-07 17:18:01,426 - gym_custom_envs_real_ur_drivers_URBasic_realTimeClientEvent - INFO - Program send to Robot:
servoj([-0.009188544919435052, -1.6888975076235324, -1.5799695318757732, -1.1474176293384597, 1.8929476320587602, 2.659922686209042], 0.5, 0.5, 0.01, 0.1, 300)

2025-07-07 17:18:01,442 - gym_custom_envs_real_ur_drivers_URBasic_realTimeClientEvent - INFO - Program send to Robot:
servoj([-0.009203731329235137, -1.6889126940637054, -1.5799999047257463, -1.1474176293384597, 1.89293244564896, 2.6599226861938554], 0.5, 0.5, 0.01, 0.1, 300)

2025-07-07 17:18:01,450 - gym_custom_envs_real_ur_drivers_URBasic_realTimeClientEvent - INFO - Program send to Robot:
servoj([-0.009203883193333139, -1.688912845928107, -1.580000208454246, -1.1474176293384597, 1.892932293784862, 2.6599226861937035], 0.5, 0.5, 0.01, 0.1, 300)

2025-07-07 17:18:01,458 - gym_custom_envs_real_ur_drivers_URBasic_realTimeClientEvent - INFO - Program send to Robot:
servoj([-0.00920388471197412, -1.690431488426758, -1.5830374934515448, -1.1458989883584527, 1.892932292266221, 2.6553667632536815], 0.5, 0.5, 0.01, 0.1, 300)

2025-07-07 17:18:01,465 - gym_custom_envs_real_ur_drivers_URBasic_rtdeEvent - INFO - Total packages: 1000
2025-07-07 17:18:01,466 - gym_custom_envs_real_ur_drivers_URBasic_realTimeClientEvent - INFO - Program send to Robot:
servoj([-0.009203884727160529, -1.6904466748517444, -1.5830678663015176, -1.1458838019486528, 1.8929322922510345, 2.655321204024281], 0.5, 0.5, 0.01, 0.1, 300)

2025-07-07 17:18:01,482 - gym_custom_envs_real_ur_drivers_URBasic_realTimeClientEvent - INFO - Program send to Robot:
servoj([-0.009203884727312393, -1.6904468267159942, -1.5830681700300173, -1.1458836500845546, 1.8929322922508827, 2.655320748431987], 0.5, 0.5, 0.01, 0.1, 300)

2025-07-07 17:18:01,489 - gym_custom_envs_real_ur_drivers_URBasic_realTimeClientEvent - INFO - Program send to Robot:
servoj([-0.009203884727313911, -1.6934841101946503, -1.5876240960073225, -1.1458836485659136, 1.8929322922508813, 2.64317161603601], 0.5, 0.5, 0.01, 0.1, 300)

2025-07-07 17:18:01,498 - gym_custom_envs_real_ur_drivers_URBasic_realTimeClientEvent - INFO - Program send to Robot:
servoj([-0.009203884727313927, -1.6935144830294369, -1.5876696552670955, -1.1458836485507273, 1.8929322922508813, 2.64305012471205], 0.5, 0.5, 0.01, 0.1, 300)

2025-07-07 17:18:01,514 - gym_custom_envs_real_ur_drivers_URBasic_realTimeClientEvent - INFO - Program send to Robot:
servoj([-0.009203884727313927, -1.6935147867577847, -1.5876701108596931, -1.1458836485505755, 1.8929322922508813, 2.643048909798811], 0.5, 0.5, 0.01, 0.1, 300)

2025-07-07 17:18:01,522 - gym_custom_envs_real_ur_drivers_URBasic_realTimeClientEvent - INFO - Program send to Robot:
servoj([-0.009203884727313927, -1.695033430775075, -1.5907073973756332, -1.1428463665905604, 1.8944509332308883, 2.624825205889597], 0.5, 0.5, 0.01, 0.1, 300)

2025-07-07 17:18:01,530 - gym_custom_envs_real_ur_drivers_URBasic_realTimeClientEvent - INFO - Program send to Robot:
servoj([-0.009203884727313927, -1.695048617215248, -1.5907377702407925, -1.1428159937709603, 1.8944661196406882, 2.6246429688505044], 0.5, 0.5, 0.01, 0.1, 300)

2025-07-07 17:18:01,538 - gym_custom_envs_real_ur_drivers_URBasic_realTimeClientEvent - INFO - Program send to Robot:
servoj([-0.009203884727313927, -1.6950487690796496, -1.590738073969444, -1.1428156900427642, 1.8944662715047862, 2.624641146480114], 0.5, 0.5, 0.01, 0.1, 300)

2025-07-07 17:18:01,554 - gym_custom_envs_real_ur_drivers_URBasic_realTimeClientEvent - INFO - Program send to Robot:
servoj([-0.009203884727313927, -1.6965674115783003, -1.5983312819067645, -1.1337038411254419, 1.8944662730234272, 2.610973359436349], 0.5, 0.5, 0.01, 0.1, 300)

2025-07-07 17:18:01,562 - gym_custom_envs_real_ur_drivers_URBasic_realTimeClientEvent - INFO - Program send to Robot:
servoj([-0.009203884727313927, -1.696582598003287, -1.5984072139861376, -1.1336127226362684, 1.8944662730386137, 2.610836681565911], 0.5, 0.5, 0.01, 0.1, 300)

2025-07-07 17:18:01,570 - gym_custom_envs_real_ur_drivers_URBasic_realTimeClientEvent - INFO - Program send to Robot:
servoj([-0.009203884727313927, -1.6965827498675368, -1.5984079733069314, -1.133611811451377, 1.8944662730387656, 2.6108353147872068], 0.5, 0.5, 0.01, 0.1, 300)

2025-07-07 17:18:01,586 - gym_custom_envs_real_ur_drivers_URBasic_realTimeClientEvent - INFO - Program send to Robot:
servoj([-0.009203884727313927, -1.6965827513861793, -1.604482544820166, -1.1199440335194666, 1.8959849140187732, 2.600204814259372], 0.5, 0.5, 0.01, 0.1, 300)

2025-07-07 17:18:01,593 - gym_custom_envs_real_ur_drivers_URBasic_realTimeClientEvent - INFO - Program send to Robot:
servoj([-0.009203884727313927, -1.6965827514013656, -1.6045432905352985, -1.1198073557401476, 1.8960001004285731, 2.6000985092540936], 0.5, 0.5, 0.01, 0.1, 300)

2025-07-07 17:18:01,602 - gym_custom_envs_real_ur_drivers_URBasic_realTimeClientEvent - INFO - Program send to Robot:
servoj([-0.009203884727313927, -1.6965827514015175, -1.6045438979924498, -1.1198059889623544, 1.8960002522926713, 2.600097446204041], 0.5, 0.5, 0.01, 0.1, 300)

2025-07-07 17:18:01,610 - gym_custom_envs_real_ur_drivers_URBasic_realTimeClientEvent - INFO - Program send to Robot:
servoj([-0.009203884727313927, -1.696582751401519, -1.6045439040670213, -1.1198059752945764, 1.896000253811312, 2.6000974355735407], 0.5, 0.5, 0.01, 0.1, 300)

2025-07-07 17:18:01,626 - gym_custom_envs_real_ur_drivers_URBasic_realTimeClientEvent - INFO - Program send to Robot:
servoj([-0.010722525707320432, -1.696582751401519, -1.6121371090278007, -1.103100924377824, 1.8975188948065056, 2.597060153507222], 0.5, 0.5, 0.01, 0.1, 300)

2025-07-07 17:18:01,633 - gym_custom_envs_real_ur_drivers_URBasic_realTimeClientEvent - INFO - Program send to Robot:
servoj([-0.010737712117120496, -1.696582751401519, -1.6122130410774087, -1.1029338738686565, 1.8975340812164576, 2.5970297806865585], 0.5, 0.5, 0.01, 0.1, 300)

2025-07-07 17:18:01,641 - gym_custom_envs_real_ur_drivers_URBasic_realTimeClientEvent - INFO - Program send to Robot:
servoj([-0.010737863981218497, -1.696582751401519, -1.6122138003979047, -1.102932203363565, 1.8975342330805571, 2.597029476958352], 0.5, 0.5, 0.01, 0.1, 300)

2025-07-07 17:18:01,649 - gym_custom_envs_real_ur_drivers_URBasic_realTimeClientEvent - INFO - Program send to Robot:
servoj([-0.015293788439879871, -1.696582751401519, -1.6182883719111367, -1.0847084948984325, 1.899052875579205, 2.59702947392107], 0.5, 0.5, 0.01, 0.1, 300)

2025-07-07 17:18:01,666 - gym_custom_envs_real_ur_drivers_URBasic_realTimeClientEvent - INFO - Program send to Robot:
servoj([-0.015339347684466485, -1.696582751401519, -1.618349117626269, -1.084526257813781, 1.8990680620041915, 2.5970294738906974], 0.5, 0.5, 0.01, 0.1, 300)

2025-07-07 17:18:01,674 - gym_custom_envs_real_ur_drivers_URBasic_realTimeClientEvent - INFO - Program send to Robot:
servoj([-0.01533980327691235, -1.696582751401519, -1.6183497250834202, -1.0845244354429346, 1.8990682138684414, 2.5970294738903936], 0.5, 0.5, 0.01, 0.1, 300)

2025-07-07 17:18:01,682 - gym_custom_envs_real_ur_drivers_URBasic_realTimeClientEvent - INFO - Program send to Robot:
servoj([-0.021414371752864148, -1.696582751401519, -1.6244242950780194, -1.0723752893791718, 1.900586856367091, 2.5970294738903905], 0.5, 0.5, 0.01, 0.1, 300)

2025-07-07 17:18:01,690 - gym_custom_envs_real_ur_drivers_URBasic_realTimeClientEvent - INFO - Program send to Robot:
servoj([-0.021475117437623665, -1.696582751401519, -1.6244850407779656, -1.0722537979185343, 1.9006020427920773, 2.5970294738903905], 0.5, 0.5, 0.01, 0.1, 300)

2025-07-07 17:18:01,706 - gym_custom_envs_real_ur_drivers_URBasic_realTimeClientEvent - INFO - Program send to Robot:
servoj([-0.021475724894471263, -1.696582751401519, -1.624485648234965, -1.0722525830039278, 1.9006021946563272, 2.5970294738903905], 0.5, 0.5, 0.01, 0.1, 300)

2025-07-07 17:18:01,714 - gym_custom_envs_real_ur_drivers_URBasic_realTimeClientEvent - INFO - Program send to Robot:
servoj([-0.02603165390906013, -1.6950641104215123, -1.629041577249555, -1.0585848020347206, 1.9006021961749697, 2.595510832910384], 0.5, 0.5, 0.01, 0.1, 300)

2025-07-07 17:18:01,722 - gym_custom_envs_real_ur_drivers_URBasic_realTimeClientEvent - INFO - Program send to Robot:
servoj([-0.02607721319920602, -1.6950489240117121, -1.6290871365397008, -1.0584481242250285, 1.900602196190156, 2.5954956465005843], 0.5, 0.5, 0.01, 0.1, 300)

2025-07-07 17:18:01,730 - gym_custom_envs_real_ur_drivers_URBasic_realTimeClientEvent - INFO - Program send to Robot:
servoj([-0.02607766879210748, -1.6950487721476142, -1.6290875921326025, -1.0584467574469316, 1.900602196190308, 2.595495494636486], 0.5, 0.5, 0.01, 0.1, 300)

2025-07-07 17:18:01,746 - gym_custom_envs_real_ur_drivers_URBasic_realTimeClientEvent - INFO - Program send to Robot:
servoj([-0.030633596288056886, -1.6950487706289732, -1.6321248786485452, -1.0493348978991102, 1.9006021961903095, 2.595495493117845], 0.5, 0.5, 0.01, 0.1, 300)

2025-07-07 17:18:01,755 - gym_custom_envs_real_ur_drivers_URBasic_realTimeClientEvent - INFO - Program send to Robot:
servoj([-0.03067915556301638, -1.695048770613787, -1.6321552515137046, -1.049243779303632, 1.9006021961903095, 2.595495493102659], 0.5, 0.5, 0.01, 0.1, 300)

2025-07-07 17:18:01,762 - gym_custom_envs_real_ur_drivers_URBasic_realTimeClientEvent - INFO - Program send to Robot:
servoj([-0.030679611155765975, -1.695048770613635, -1.6321555552423561, -1.0492428681176773, 1.9006021961903095, 2.595495493102507], 0.5, 0.5, 0.01, 0.1, 300)

2025-07-07 17:18:01,780 - gym_custom_envs_real_ur_drivers_URBasic_realTimeClientEvent - INFO - Program send to Robot:
servoj([-0.033716897671706915, -1.6950487706136335, -1.6321555582796428, -1.0477242180258108, 1.9006021961903095, 2.5970141340825115], 0.5, 0.5, 0.01, 0.1, 300)

2025-07-07 17:18:01,787 - gym_custom_envs_real_ur_drivers_URBasic_realTimeClientEvent - INFO - Program send to Robot:
servoj([-0.033747270536866325, -1.6950487706136335, -1.6321555583100156, -1.0477090315248923, 1.9006021961903095, 2.597029320492312], 0.5, 0.5, 0.01, 0.1, 300)

2025-07-07 17:18:01,795 - gym_custom_envs_real_ur_drivers_URBasic_realTimeClientEvent - INFO - Program send to Robot:
servoj([-0.03374757426551792, -1.6950487706136335, -1.6321555583103193, -1.047708879659883, 1.9006021961903095, 2.5970294723564096], 0.5, 0.5, 0.01, 0.1, 300)

2025-07-07 17:18:01,810 - gym_custom_envs_real_ur_drivers_URBasic_realTimeClientEvent - INFO - Program send to Robot:
servoj([-0.03678485926281789, -1.6950487706136335, -1.6336741992903292, -1.0492275191212397, 1.9021208371703164, 2.597029473875051], 0.5, 0.5, 0.01, 0.1, 300)

2025-07-07 17:18:01,817 - gym_custom_envs_real_ur_drivers_URBasic_realTimeClientEvent - INFO - Program send to Robot:
servoj([-0.03681523211279089, -1.6950487706136335, -1.6336893857001293, -1.0492427055158533, 1.9021360235801166, 2.597029473890237], 0.5, 0.5, 0.01, 0.1, 300)

2025-07-07 17:18:01,825 - gym_custom_envs_real_ur_drivers_URBasic_realTimeClientEvent - INFO - Program send to Robot:
servoj([-0.036815535841290624, -1.6950487706136335, -1.6336895375642273, -1.0492428573797994, 1.9021361754442145, 2.5970294738903887], 0.5, 0.5, 0.01, 0.1, 300)

2025-07-07 17:18:01,834 - gym_custom_envs_real_ur_drivers_URBasic_realTimeClientEvent - INFO - Program send to Robot:
servoj([-0.03681553887857562, -1.6950487706136335, -1.6336895390828683, -1.0492428588984388, 1.9021361769628555, 2.5970294738903905], 0.5, 0.5, 0.01, 0.1, 300)

2025-07-07 17:18:01,850 - gym_custom_envs_real_ur_drivers_URBasic_realTimeClientEvent - INFO - Program send to Robot:
servoj([-0.04137146184896886, -1.6950487706136335, -1.6336895390980548, -1.0522801408736389, 1.9036548179580488, 2.5970294738903905], 0.5, 0.5, 0.01, 0.1, 300)

2025-07-07 17:18:01,858 - gym_custom_envs_real_ur_drivers_URBasic_realTimeClientEvent - INFO - Program send to Robot:
servoj([-0.04141702107867279, -1.6950487706136335, -1.6336895390982067, -1.0523105136933908, 1.9036700043680006, 2.5970294738903905], 0.5, 0.5, 0.01, 0.1, 300)

2025-07-07 17:18:01,866 - gym_custom_envs_real_ur_drivers_URBasic_realTimeClientEvent - INFO - Program send to Robot:
servoj([-0.04141747667096983, -1.6950487706136335, -1.6336895390982082, -1.0523108174215883, 1.9036701562321001, 2.5970294738903905], 0.5, 0.5, 0.01, 0.1, 300)

2025-07-07 17:18:01,882 - gym_custom_envs_real_ur_drivers_URBasic_realTimeClientEvent - INFO - Program send to Robot:
servoj([-0.044454763186906256, -1.6950487706136335, -1.6336895390982082, -1.0553481024188838, 1.903670157750741, 2.5985481148703973], 0.5, 0.5, 0.01, 0.1, 300)

2025-07-07 17:18:01,891 - gym_custom_envs_real_ur_drivers_URBasic_realTimeClientEvent - INFO - Program send to Robot:
servoj([-0.04448513605206562, -1.6950487706136335, -1.6336895390982082, -1.0553784752688566, 1.9036701577659276, 2.598563301280197], 0.5, 0.5, 0.01, 0.1, 300)

2025-07-07 17:18:01,906 - gym_custom_envs_real_ur_drivers_URBasic_realTimeClientEvent - INFO - Program send to Robot:
servoj([-0.044485439780717215, -1.6950487706136335, -1.6382454620382283, -1.0614533429173838, 1.9036701577660795, 2.5985634531442954], 0.5, 0.5, 0.01, 0.1, 300)

2025-07-07 17:18:01,915 - gym_custom_envs_real_ur_drivers_URBasic_realTimeClientEvent - INFO - Program send to Robot:
servoj([-0.04448544281800373, -1.6950487706136335, -1.6382910212676285, -1.061514091593869, 1.903670157766081, 2.598563454662936], 0.5, 0.5, 0.01, 0.1, 300)

2025-07-07 17:18:01,930 - gym_custom_envs_real_ur_drivers_URBasic_realTimeClientEvent - INFO - Program send to Robot:
servoj([-0.04448544284837659, -1.6950487706136335, -1.6382914768599224, -1.061514699080634, 1.903670157766081, 2.5985634546781227], 0.5, 0.5, 0.01, 0.1, 300)

2025-07-07 17:18:01,946 - gym_custom_envs_real_ur_drivers_URBasic_realTimeClientEvent - INFO - Program send to Robot:
servoj([-0.04448544284868032, -1.6950487706136335, -1.6428474043558652, -1.0691079100555354, 1.9021515167860743, 2.5985634546782745], 0.5, 0.5, 0.01, 0.1, 300)

2025-07-07 17:18:01,954 - gym_custom_envs_real_ur_drivers_URBasic_realTimeClientEvent - INFO - Program send to Robot:
servoj([-0.04448544284868336, -1.6950487706136335, -1.6428929636308247, -1.0691838421652844, 1.9021363303762742, 2.598563454678276], 0.5, 0.5, 0.01, 0.1, 300)

2025-07-07 17:18:01,963 - gym_custom_envs_real_ur_drivers_URBasic_realTimeClientEvent - INFO - Program send to Robot:
servoj([-0.04448544284868339, -1.6950487706136335, -1.6428934192235742, -1.0691846014863817, 1.9021361785121762, 2.598563454678276], 0.5, 0.5, 0.01, 0.1, 300)

2025-07-07 17:18:01,978 - gym_custom_envs_real_ur_drivers_URBasic_realTimeClientEvent - INFO - Program send to Robot:
servoj([-0.046004083828690326, -1.6950487706136335, -1.6474493467195226, -1.0767778139796267, 1.9006175360135282, 2.598563454678276], 0.5, 0.5, 0.01, 0.1, 300)

2025-07-07 17:18:01,987 - gym_custom_envs_real_ur_drivers_URBasic_realTimeClientEvent - INFO - Program send to Robot:
servoj([-0.0460192702384904, -1.6950487706136335, -1.6474949059944821, -1.0768537461045593, 1.9006023495885418, 2.598563454678276], 0.5, 0.5, 0.01, 0.1, 300)

2025-07-07 17:18:01,994 - gym_custom_envs_real_ur_drivers_URBasic_realTimeClientEvent - INFO - Program send to Robot:
servoj([-0.0460194221025884, -1.6950487706136335, -1.6474953615872316, -1.0768545054258085, 1.900602197724292, 2.598563454678276], 0.5, 0.5, 0.01, 0.1, 300)

2025-07-07 17:18:02,010 - gym_custom_envs_real_ur_drivers_URBasic_realTimeClientEvent - INFO - Program send to Robot:
servoj([-0.04753806460123632, -1.6950487706136335, -1.6505326481031732, -1.0859663588990618, 1.8990835552256424, 2.598563454678276], 0.5, 0.5, 0.01, 0.1, 300)

2025-07-07 17:18:02,017 - gym_custom_envs_real_ur_drivers_URBasic_realTimeClientEvent - INFO - Program send to Robot:
servoj([-0.047553251026222806, -1.6950487706136335, -1.6505630209683326, -1.0860574774337943, 1.8990683688006558, 2.598563454678276], 0.5, 0.5, 0.01, 0.1, 300)

2025-07-07 17:18:02,025 - gym_custom_envs_real_ur_drivers_URBasic_realTimeClientEvent - INFO - Program send to Robot:
servoj([-0.04755340289047267, -1.6950487706136335, -1.6505633246969842, -1.0860583886191417, 1.899068216936406, 2.598563454678276], 0.5, 0.5, 0.01, 0.1, 300)

2025-07-07 17:18:02,042 - gym_custom_envs_real_ur_drivers_URBasic_realTimeClientEvent - INFO - Program send to Robot:
servoj([-0.049072045389121674, -1.6965674115936402, -1.6536006096942837, -1.0997261665510563, 1.8975495744377566, 2.598563454678276], 0.5, 0.5, 0.01, 0.1, 300)

2025-07-07 17:18:02,050 - gym_custom_envs_real_ur_drivers_URBasic_realTimeClientEvent - INFO - Program send to Robot:
servoj([-0.049087231814108165, -1.6965825980034404, -1.6536309825442566, -1.0998628443303753, 1.89753438801277, 2.598563454678276], 0.5, 0.5, 0.01, 0.1, 300)

2025-07-07 17:18:02,058 - gym_custom_envs_real_ur_drivers_URBasic_realTimeClientEvent - INFO - Program send to Robot:
servoj([-0.04908738367835803, -1.6965827498675383, -1.6536312862727562, -1.0998642111081685, 1.8975342361485201, 2.598563454678276], 0.5, 0.5, 0.01, 0.1, 300)

2025-07-07 17:18:02,074 - gym_custom_envs_real_ur_drivers_URBasic_realTimeClientEvent - INFO - Program send to Robot:
servoj([-0.050606026177007477, -1.6965827513861793, -1.6536312893100413, -1.1165692755560213, 1.8929783116898575, 2.598563454678276], 0.5, 0.5, 0.01, 0.1, 300)

2025-07-07 17:18:02,082 - gym_custom_envs_real_ur_drivers_URBasic_realTimeClientEvent - INFO - Program send to Robot:
servoj([-0.05062121260199397, -1.6965827514013656, -1.6536312893404141, -1.1167363262004997, 1.892932752445271, 2.598563454678276], 0.5, 0.5, 0.01, 0.1, 300)

2025-07-07 17:18:02,098 - gym_custom_envs_real_ur_drivers_URBasic_realTimeClientEvent - INFO - Program send to Robot:
servoj([-0.05062136446624384, -1.6965827514015175, -1.653631289340718, -1.1364803294470327, 1.8823018099927775, 2.597044813698269], 0.5, 0.5, 0.01, 0.1, 300)

2025-07-07 17:18:02,106 - gym_custom_envs_real_ur_drivers_URBasic_realTimeClientEvent - INFO - Program send to Robot:
servoj([-0.050621365984886334, -1.696582751401519, -1.653631289340721, -1.136677769479498, 1.8821955005682527, 2.597029627288469], 0.5, 0.5, 0.01, 0.1, 300)

2025-07-07 17:18:02,114 - gym_custom_envs_real_ur_drivers_URBasic_realTimeClientEvent - INFO - Program send to Robot:
servoj([-0.050621366000072755, -1.696582751401519, -1.653631289340721, -1.1366797438798226, 1.8821944374740074, 2.597029475424371], 0.5, 0.5, 0.01, 0.1, 300)

2025-07-07 17:18:02,130 - gym_custom_envs_real_ur_drivers_URBasic_realTimeClientEvent - INFO - Program send to Robot:
servoj([-0.05062136600022462, -1.696582751401519, -1.653631289340721, -1.1609780193039343, 1.8670080170429972, 2.5970294739057302], 0.5, 0.5, 0.01, 0.1, 300)

2025-07-07 17:18:02,138 - gym_custom_envs_real_ur_drivers_URBasic_realTimeClientEvent - INFO - Program send to Robot:
servoj([-0.05062136600022614, -1.696582751401519, -1.653631289340721, -1.1612210020581752, 1.866856152838687, 2.5970294738905437], 0.5, 0.5, 0.01, 0.1, 300)

2025-07-07 17:18:02,145 - gym_custom_envs_real_ur_drivers_URBasic_realTimeClientEvent - INFO - Program send to Robot:
servoj([-0.05062136600022615, -1.696582751401519, -1.653631289340721, -1.1612234318857177, 1.8668546341966439, 2.597029473890392], 0.5, 0.5, 0.01, 0.1, 300)

2025-07-07 17:18:02,162 - gym_custom_envs_real_ur_drivers_URBasic_realTimeClientEvent - INFO - Program send to Robot:
servoj([-0.05062136600022615, -1.696582751401519, -1.653631289340721, -1.1855217118641017, 1.848630927250142, 2.5970294738903905], 0.5, 0.5, 0.01, 0.1, 300)

2025-07-07 17:18:02,170 - gym_custom_envs_real_ur_drivers_URBasic_realTimeClientEvent - INFO - Program send to Robot:
servoj([-0.05062136600022615, -1.696582751401519, -1.653631289340721, -1.1857646946638856, 1.848448690180677, 2.5970294738903905], 0.5, 0.5, 0.01, 0.1, 300)

2025-07-07 17:18:02,178 - gym_custom_envs_real_ur_drivers_URBasic_realTimeClientEvent - INFO - Program send to Robot:
servoj([-0.05062136600022615, -1.696582751401519, -1.653631289340721, -1.1857671244918835, 1.8484468678099824, 2.5970294738903905], 0.5, 0.5, 0.01, 0.1, 300)

2025-07-07 17:18:02,186 - gym_custom_envs_real_ur_drivers_URBasic_realTimeClientEvent - INFO - Program send to Robot:
servoj([-0.05062136600022615, -1.696582751401519, -1.653631289340721, -1.1857671487901633, 1.8484468495862754, 2.5970294738903905], 0.5, 0.5, 0.01, 0.1, 300)

2025-07-07 17:18:02,202 - gym_custom_envs_real_ur_drivers_URBasic_realTimeClientEvent - INFO - Program send to Robot:
servoj([-0.05062136600022615, -1.698101392381526, -1.652112648360714, -1.208546763733248, 1.8302231576439567, 2.5970294738903905], 0.5, 0.5, 0.01, 0.1, 300)

2025-07-07 17:18:02,210 - gym_custom_envs_real_ur_drivers_URBasic_realTimeClientEvent - INFO - Program send to Robot:
servoj([-0.05062136600022615, -1.6981165787913262, -1.652097461950914, -1.208774559882679, 1.8300409207245336, 2.5970294738903905], 0.5, 0.5, 0.01, 0.1, 300)

2025-07-07 17:18:02,218 - gym_custom_envs_real_ur_drivers_URBasic_realTimeClientEvent - INFO - Program send to Robot:
servoj([-0.05062136600022615, -1.6981167306554241, -1.652097310086816, -1.2087768378441732, 1.8300390983553394, 2.5970294738903905], 0.5, 0.5, 0.01, 0.1, 300)

2025-07-07 17:18:02,234 - gym_custom_envs_real_ur_drivers_URBasic_realTimeClientEvent - INFO - Program send to Robot:
servoj([-0.05062136600022615, -1.6981167321740651, -1.652097308568175, -1.2270005523838696, 1.8133340293515727, 2.5970294738903905], 0.5, 0.5, 0.01, 0.1, 300)

2025-07-07 17:18:02,241 - gym_custom_envs_real_ur_drivers_URBasic_realTimeClientEvent - INFO - Program send to Robot:
servoj([-0.05062136600022615, -1.6981167321892514, -1.6520973085529884, -1.2271827895292666, 1.813166978661535, 2.5970294738903905], 0.5, 0.5, 0.01, 0.1, 300)

2025-07-07 17:18:02,249 - gym_custom_envs_real_ur_drivers_URBasic_realTimeClientEvent - INFO - Program send to Robot:
servoj([-0.05062136600022615, -1.6981167321894033, -1.6520973085528365, -1.2271846119007206, 1.8131653081546346, 2.5970294738903905], 0.5, 0.5, 0.01, 0.1, 300)

2025-07-07 17:18:02,258 - gym_custom_envs_real_ur_drivers_URBasic_realTimeClientEvent - INFO - Program send to Robot:
servoj([-0.05062136600022615, -1.6981167321894048, -1.6520973085528352, -1.240852398944496, 1.799497522629505, 2.5985481148703973], 0.5, 0.5, 0.01, 0.1, 300)

2025-07-07 17:18:02,275 - gym_custom_envs_real_ur_drivers_URBasic_realTimeClientEvent - INFO - Program send to Robot:
servoj([-0.05062136600022615, -1.6981167321894048, -1.6520973085528352, -1.2409890768149336, 1.7993608447742537, 2.598563301280197], 0.5, 0.5, 0.01, 0.1, 300)

2025-07-07 17:18:02,281 - gym_custom_envs_real_ur_drivers_URBasic_realTimeClientEvent - INFO - Program send to Robot:
servoj([-0.05062136600022615, -1.6981167321894048, -1.6520973085528352, -1.240990443593638, 1.7993594779957012, 2.5985634531442954], 0.5, 0.5, 0.01, 0.1, 300)

2025-07-07 17:18:02,298 - gym_custom_envs_real_ur_drivers_URBasic_realTimeClientEvent - INFO - Program send to Robot:
servoj([-0.05062136600022615, -1.6996353731694116, -1.6520973085528352, -1.2516209441214727, 1.7902476184478748, 2.5970448136829294], 0.5, 0.5, 0.01, 0.1, 300)

2025-07-07 17:18:02,307 - gym_custom_envs_real_ur_drivers_URBasic_realTimeClientEvent - INFO - Program send to Robot:
servoj([-0.05062136600022615, -1.6996505595792117, -1.6520973085528352, -1.251727249126751, 1.7901564998523967, 2.597029627288316], 0.5, 0.5, 0.01, 0.1, 300)

2025-07-07 17:18:02,323 - gym_custom_envs_real_ur_drivers_URBasic_realTimeClientEvent - INFO - Program send to Robot:
servoj([-0.04910272502021921, -1.698132070463303, -1.6520973085528352, -1.2593215170768377, 1.7871183067064278, 2.5985481164043764], 0.5, 0.5, 0.01, 0.1, 300)

2025-07-07 17:18:02,331 - gym_custom_envs_real_ur_drivers_URBasic_realTimeClientEvent - INFO - Program send to Robot:
servoj([-0.04908753861041914, -1.6981168855721438, -1.6520973085528352, -1.2593974597563387, 1.7870879247749683, 2.598563301295537], 0.5, 0.5, 0.01, 0.1, 300)

2025-07-07 17:18:02,338 - gym_custom_envs_real_ur_drivers_URBasic_realTimeClientEvent - INFO - Program send to Robot:
servoj([-0.04908738674632114, -1.6981167337232324, -1.6520973085528352, -1.2593982191831337, 1.7870876209556537, 2.5985634531444486], 0.5, 0.5, 0.01, 0.1, 300)

2025-07-07 17:18:02,347 - gym_custom_envs_real_ur_drivers_URBasic_realTimeClientEvent - INFO - Program send to Robot:
servoj([-0.049087385227680164, -1.6981167322047432, -1.6520973085528352, -1.2593982267774015, 1.7870876179174604, 2.598563454662938], 0.5, 0.5, 0.01, 0.1, 300)

2025-07-07 17:18:02,363 - gym_custom_envs_real_ur_drivers_URBasic_realTimeClientEvent - INFO - Program send to Robot:
servoj([-0.04908738521249375, -1.699635373169565, -1.6536159495328422, -1.2639541497933646, 1.7855689769070724, 2.5985634546781227], 0.5, 0.5, 0.01, 0.1, 300)

2025-07-07 17:18:02,371 - gym_custom_envs_real_ur_drivers_URBasic_realTimeClientEvent - INFO - Program send to Robot:
servoj([-0.049087385212341884, -1.6996505595792133, -1.653631135942642, -1.2639997090235242, 1.7855537904969685, 2.5985634546782745], 0.5, 0.5, 0.01, 0.1, 300)

2025-07-07 17:18:02,378 - gym_custom_envs_real_ur_drivers_URBasic_realTimeClientEvent - INFO - Program send to Robot:
servoj([-0.049087385212340365, -1.6996507114433097, -1.65363128780674, -1.2640001646158259, 1.7855536386328674, 2.598563454678276], 0.5, 0.5, 0.01, 0.1, 300)

2025-07-07 17:18:02,394 - gym_custom_envs_real_ur_drivers_URBasic_realTimeClientEvent - INFO - Program send to Robot:
servoj([-0.04756874423233384, -1.6996507129619507, -1.655149930305388, -1.2655188101517558, 1.7855536371142264, 2.598563454678276], 0.5, 0.5, 0.01, 0.1, 300)

2025-07-07 17:18:02,402 - gym_custom_envs_real_ur_drivers_URBasic_realTimeClientEvent - INFO - Program send to Robot:
servoj([-0.04755355782253378, -1.699650712977137, -1.6551651167303747, -1.265533996607115, 1.7855536370990401, 2.598563454678276], 0.5, 0.5, 0.01, 0.1, 300)

2025-07-07 17:18:02,410 - gym_custom_envs_real_ur_drivers_URBasic_realTimeClientEvent - INFO - Program send to Robot:
servoj([-0.047553405958435775, -1.6996507129772889, -1.6551652685946245, -1.2655341484716687, 1.7855536370988883, 2.598563454678276], 0.5, 0.5, 0.01, 0.1, 300)

2025-07-07 17:18:02,426 - gym_custom_envs_real_ur_drivers_URBasic_realTimeClientEvent - INFO - Program send to Robot:
servoj([-0.0475534044397948, -1.6996507129772904, -1.6582025520732808, -1.2670527909703209, 1.7840349961188797, 2.598563454678276], 0.5, 0.5, 0.01, 0.1, 300)

2025-07-07 17:18:02,434 - gym_custom_envs_real_ur_drivers_URBasic_realTimeClientEvent - INFO - Program send to Robot:
servoj([-0.04755340442460839, -1.6996507129772904, -1.6582329249080674, -1.2670679773953075, 1.7840198097090796, 2.598563454678276], 0.5, 0.5, 0.01, 0.1, 300)

2025-07-07 17:18:02,442 - gym_custom_envs_real_ur_drivers_URBasic_realTimeClientEvent - INFO - Program send to Robot:
servoj([-0.047553404424456526, -1.6996507129772904, -1.6582332286364154, -1.2670681292595574, 1.7840196578449816, 2.598563454678276], 0.5, 0.5, 0.01, 0.1, 300)

2025-07-07 17:18:02,458 - gym_custom_envs_real_ur_drivers_URBasic_realTimeClientEvent - INFO - Program send to Robot:
servoj([-0.047553404424455006, -1.6996507129772904, -1.6627891546137186, -1.2670681307782, 1.7840196563263406, 2.6000820956582826], 0.5, 0.5, 0.01, 0.1, 300)

2025-07-07 17:18:02,467 - gym_custom_envs_real_ur_drivers_URBasic_realTimeClientEvent - INFO - Program send to Robot:
servoj([-0.04755340442445499, -1.6996507129772904, -1.6628347138734918, -1.2670681307933862, 1.7840196563111543, 2.600097282068083], 0.5, 0.5, 0.01, 0.1, 300)

2025-07-07 17:18:02,482 - gym_custom_envs_real_ur_drivers_URBasic_realTimeClientEvent - INFO - Program send to Robot:
servoj([-0.04603476344444805, -1.6996507129772904, -1.6673910924061104, -1.267068130793538, 1.7825010153309955, 2.6000974339321807], 0.5, 0.5, 0.01, 0.1, 300)

2025-07-07 17:18:02,490 - gym_custom_envs_real_ur_drivers_URBasic_realTimeClientEvent - INFO - Program send to Robot:
servoj([-0.04601957703464798, -1.6996507129772904, -1.6674366561914367, -1.2670681307935396, 1.7824858289211938, 2.600097435450822], 0.5, 0.5, 0.01, 0.1, 300)

2025-07-07 17:18:02,507 - gym_custom_envs_real_ur_drivers_URBasic_realTimeClientEvent - INFO - Program send to Robot:
servoj([-0.04601942517054997, -1.6996507129772904, -1.6674371118292899, -1.2670681307935396, 1.7824856770570958, 2.6000974354660085], 0.5, 0.5, 0.01, 0.1, 300)

2025-07-07 17:18:02,514 - gym_custom_envs_real_ur_drivers_URBasic_realTimeClientEvent - INFO - Program send to Robot:
servoj([-0.046019423651908996, -1.6996507129772904, -1.6704743983456813, -1.2670681307935396, 1.780967034558448, 2.6000974354661603], 0.5, 0.5, 0.01, 0.1, 300)

2025-07-07 17:18:02,530 - gym_custom_envs_real_ur_drivers_URBasic_realTimeClientEvent - INFO - Program send to Robot:
servoj([-0.04601942363672259, -1.6996507129772904, -1.6705047712108454, -1.2670681307935396, 1.7809518481334616, 2.6000974354661617], 0.5, 0.5, 0.01, 0.1, 300)

2025-07-07 17:18:02,538 - gym_custom_envs_real_ur_drivers_URBasic_realTimeClientEvent - INFO - Program send to Robot:
servoj([-0.046019423636570723, -1.6996507129772904, -1.670505074939497, -1.2670681307935396, 1.7809516962692118, 2.6000974354661617], 0.5, 0.5, 0.01, 0.1, 300)

2025-07-07 17:18:02,554 - gym_custom_envs_real_ur_drivers_URBasic_realTimeClientEvent - INFO - Program send to Robot:
servoj([-0.046019423636569204, -1.702687994937304, -1.6735423599367971, -1.2670681307935396, 1.7809516947505692, 2.6000974354661617], 0.5, 0.5, 0.01, 0.1, 300)

2025-07-07 17:18:02,562 - gym_custom_envs_real_ur_drivers_URBasic_realTimeClientEvent - INFO - Program send to Robot:
servoj([-0.04601942363656919, -1.7027183677569042, -1.6735727327867702, -1.2670681307935396, 1.7809516947353827, 2.6000974354661617], 0.5, 0.5, 0.01, 0.1, 300)

2025-07-07 17:18:02,578 - gym_custom_envs_real_ur_drivers_URBasic_realTimeClientEvent - INFO - Program send to Robot:
servoj([-0.04601942363656919, -1.7087932354051274, -1.67357303651527, -1.2670681307935396, 1.7809516947352309, 2.6016160764461684], 0.5, 0.5, 0.01, 0.1, 300)

2025-07-07 17:18:02,591 - gym_custom_envs_real_ur_drivers_URBasic_realTimeClientEvent - INFO - Program send to Robot:
servoj([-0.04601942363656919, -1.7088539840816097, -1.673573039552555, -1.2670681307935396, 1.7809516947352293, 2.6016312628559684], 0.5, 0.5, 0.01, 0.1, 300)

2025-07-07 17:18:02,605 - gym_custom_envs_real_ur_drivers_URBasic_realTimeClientEvent - INFO - Program send to Robot:
servoj([-0.04601942363656919, -1.7088545915683744, -1.6735730395829278, -1.2670681307935396, 1.7809516947352293, 2.6016314147200665], 0.5, 0.5, 0.01, 0.1, 300)

2025-07-07 17:18:02,626 - gym_custom_envs_real_ur_drivers_URBasic_realTimeClientEvent - INFO - Program send to Robot:
servoj([-0.04450078265656225, -1.7179664435232826, -1.6720543986032246, -1.2670681307935396, 1.7794330537552223, 2.6016314162387073], 0.5, 0.5, 0.01, 0.1, 300)

2025-07-07 17:18:02,634 - gym_custom_envs_real_ur_drivers_URBasic_realTimeClientEvent - INFO - Program send to Robot:
servoj([-0.04448559624676218, -1.7180575620428318, -1.6720392121934275, -1.2670681307935396, 1.7794178673454224, 2.601631416253894], 0.5, 0.5, 0.01, 0.1, 300)

2025-07-07 17:18:02,646 - gym_custom_envs_real_ur_drivers_URBasic_realTimeClientEvent - INFO - Program send to Robot:
servoj([-0.04448544438266418, -1.727170319108068, -1.6705204193493228, -1.2670681307935396, 1.7763804335213114, 2.603150057234053], 0.5, 0.5, 0.01, 0.1, 300)

2025-07-07 17:18:02,658 - gym_custom_envs_real_ur_drivers_URBasic_realTimeClientEvent - INFO - Program send to Robot:
servoj([-0.0444854428640232, -1.7272614466787204, -1.6705052314208817, -1.2670681307935396, 1.77635005918307, 2.6031652436438546], 0.5, 0.5, 0.01, 0.1, 300)

2025-07-07 17:18:02,666 - gym_custom_envs_real_ur_drivers_URBasic_realTimeClientEvent - INFO - Program send to Robot:
servoj([-0.04448544284883679, -1.7272623579544268, -1.6705050795415974, -1.2670681307935396, 1.7763497554396876, 2.6031653955079523], 0.5, 0.5, 0.01, 0.1, 300)

2025-07-07 17:18:02,677 - gym_custom_envs_real_ur_drivers_URBasic_realTimeClientEvent - INFO - Program send to Robot:
servoj([-0.04448544284868493, -1.7302996490271974, -1.6659491550827845, -1.2670681307935396, 1.7717938294622333, 2.6031653970265936], 0.5, 0.5, 0.01, 0.1, 300)

2025-07-07 17:18:02,690 - gym_custom_envs_real_ur_drivers_URBasic_realTimeClientEvent - INFO - Program send to Robot:
servoj([-0.04448544284868341, -1.7303300219379252, -1.6659035958381962, -1.2670681307935396, 1.7717482702024587, 2.60316539704178], 0.5, 0.5, 0.01, 0.1, 300)

2025-07-07 17:18:02,697 - gym_custom_envs_real_ur_drivers_URBasic_realTimeClientEvent - INFO - Program send to Robot:
servoj([-0.044485442848683394, -1.7303303256670324, -1.6659031402457505, -1.2670681307935396, 1.7717478146098609, 2.603165397041932], 0.5, 0.5, 0.01, 0.1, 300)

2025-07-07 17:18:02,709 - gym_custom_envs_real_ur_drivers_URBasic_realTimeClientEvent - INFO - Program send to Robot:
servoj([-0.04144816088866994, -1.733367610664337, -1.6598285717697983, -1.2670681307935396, 1.765673246133908, 2.6046840380219396], 0.5, 0.5, 0.01, 0.1, 300)

2025-07-07 17:18:02,722 - gym_custom_envs_real_ur_drivers_URBasic_realTimeClientEvent - INFO - Program send to Robot:
servoj([-0.0414177880690698, -1.73339798351431, -1.6597678260850388, -1.2670681307935396, 1.7656125004491483, 2.6046992244317395], 0.5, 0.5, 0.01, 0.1, 300)

2025-07-07 17:18:02,730 - gym_custom_envs_real_ur_drivers_URBasic_realTimeClientEvent - INFO - Program send to Robot:
servoj([-0.0414174843408738, -1.7333982872428098, -1.659767218628191, -1.2670681307935396, 1.7656118929923008, 2.6046993762958377], 0.5, 0.5, 0.01, 0.1, 300)

2025-07-07 17:18:02,746 - gym_custom_envs_real_ur_drivers_URBasic_realTimeClientEvent - INFO - Program send to Robot:
servoj([-0.03838019934357839, -1.7379542132201153, -1.6506553666735828, -1.2685867717735464, 1.7610559639777115, 2.604699377814479], 0.5, 0.5, 0.01, 0.1, 300)

2025-07-07 17:18:02,754 - gym_custom_envs_real_ur_drivers_URBasic_realTimeClientEvent - INFO - Program send to Robot:
servoj([-0.03834982649360544, -1.7379997724798883, -1.6505642481540368, -1.2686019581833465, 1.7610104046875656, 2.604699377829665], 0.5, 0.5, 0.01, 0.1, 300)

2025-07-07 17:18:02,762 - gym_custom_envs_real_ur_drivers_URBasic_realTimeClientEvent - INFO - Program send to Robot:
servoj([-0.03834952276510571, -1.738000228072486, -1.6505633369688413, -1.2686021100474445, 1.7610099490946642, 2.604699377829817], 0.5, 0.5, 0.01, 0.1, 300)

2025-07-07 17:18:02,778 - gym_custom_envs_real_ur_drivers_URBasic_realTimeClientEvent - INFO - Program send to Robot:
servoj([-0.032274955807793375, -1.7455934375284459, -1.6399328409969416, -1.270120752546092, 1.7549353806187082, 2.6031807368498123], 0.5, 0.5, 0.01, 0.1, 300)

2025-07-07 17:18:02,786 - gym_custom_envs_real_ur_drivers_URBasic_realTimeClientEvent - INFO - Program send to Robot:
servoj([-0.032214210138220255, -1.7456693696230055, -1.6398265360372226, -1.2701359389710785, 1.7548746349339486, 2.603165550440012], 0.5, 0.5, 0.01, 0.1, 300)

2025-07-07 17:18:02,793 - gym_custom_envs_real_ur_drivers_URBasic_realTimeClientEvent - INFO - Program send to Robot:
servoj([-0.032213602681524525, -1.7456701289439511, -1.6398254729876254, -1.2701360908353283, 1.754874027477101, 2.6031653985759142], 0.5, 0.5, 0.01, 0.1, 300)

2025-07-07 17:18:02,810 - gym_custom_envs_real_ur_drivers_URBasic_realTimeClientEvent - INFO - Program send to Robot:
servoj([-0.02765767366693717, -1.7532633414371945, -1.6291949754970816, -1.2716547333339778, 1.7503180984625126, 2.603165397057273], 0.5, 0.5, 0.01, 0.1, 300)

2025-07-07 17:18:02,818 - gym_custom_envs_real_ur_drivers_URBasic_realTimeClientEvent - INFO - Program send to Robot:
servoj([-0.027612114376791296, -1.753339273562127, -1.629088670522176, -1.2716699197589643, 1.7502725391723668, 2.603165397042087], 0.5, 0.5, 0.01, 0.1, 300)

2025-07-07 17:18:02,826 - gym_custom_envs_real_ur_drivers_URBasic_realTimeClientEvent - INFO - Program send to Robot:
servoj([-0.02761165878388984, -1.7533400328833764, -1.6290876074724272, -1.271670071623214, 1.7502720835794654, 2.603165397041935], 0.5, 0.5, 0.01, 0.1, 300)

2025-07-07 17:18:02,834 - gym_custom_envs_real_ur_drivers_URBasic_realTimeClientEvent - INFO - Program send to Robot:
servoj([-0.02305573128794087, -1.7594146043966161, -1.6169384690018758, -1.2716700731418566, 1.7502720790235364, 2.6031653970419333], 0.5, 0.5, 0.01, 0.1, 300)

2025-07-07 17:18:02,850 - gym_custom_envs_real_ur_drivers_URBasic_realTimeClientEvent - INFO - Program send to Robot:
servoj([-0.02301017201298138, -1.7594753501117484, -1.6168169776171704, -1.2716700731570432, 1.750272078977977, 2.6031653970419333], 0.5, 0.5, 0.01, 0.1, 300)

2025-07-07 17:18:02,858 - gym_custom_envs_real_ur_drivers_URBasic_realTimeClientEvent - INFO - Program send to Robot:
servoj([-0.023009716420231783, -1.7594759575688999, -1.6168157627033233, -1.271670073157195, 1.7502720789775215, 2.6031653970419333], 0.5, 0.5, 0.01, 0.1, 300)

2025-07-07 17:18:02,866 - gym_custom_envs_real_ur_drivers_URBasic_realTimeClientEvent - INFO - Program send to Robot:
servoj([-0.01845378892428389, -1.768587809523512, -1.60466662271413, -1.2731887141372034, 1.74875343799751, 2.6031653970419333], 0.5, 0.5, 0.01, 0.1, 300)

2025-07-07 17:18:02,875 - gym_custom_envs_real_ur_drivers_URBasic_realTimeClientEvent - INFO - Program send to Robot:
servoj([-0.018408229649324412, -1.768678928043058, -1.604545131314238, -1.2732039005470033, 1.74873825158771, 2.6031653970419333], 0.5, 0.5, 0.01, 0.1, 300)

2025-07-07 17:18:02,890 - gym_custom_envs_real_ur_drivers_URBasic_realTimeClientEvent - INFO - Program send to Robot:
servoj([-0.01840777405657482, -1.7686798392282534, -1.6045439164002393, -1.2732040524111015, 1.748738099723612, 2.6031653970419333], 0.5, 0.5, 0.01, 0.1, 300)

2025-07-07 17:18:02,899 - gym_custom_envs_real_ur_drivers_URBasic_realTimeClientEvent - INFO - Program send to Robot:
servoj([-0.012333205580619986, -1.7762730532401394, -1.5908761354310386, -1.2732040539297422, 1.750256739184978, 2.6031653970419333], 0.5, 0.5, 0.01, 0.1, 300)

2025-07-07 17:18:02,914 - gym_custom_envs_real_ur_drivers_URBasic_realTimeClientEvent - INFO - Program send to Robot:
servoj([-0.012272459895860437, -1.7763489853802583, -1.5907394576213465, -1.2732040539449287, 1.7502719255795915, 2.6031653970419333], 0.5, 0.5, 0.01, 0.1, 300)

2025-07-07 17:18:02,922 - gym_custom_envs_real_ur_drivers_URBasic_realTimeClientEvent - INFO - Program send to Robot:
servoj([-0.012271852439012841, -1.7763497447016594, -1.5907380908432496, -1.2732040539450806, 1.7502720774435376, 2.6031653970419333], 0.5, 0.5, 0.01, 0.1, 300)

2025-07-07 17:18:02,940 - gym_custom_envs_real_ur_drivers_URBasic_realTimeClientEvent - INFO - Program send to Robot:
servoj([-0.007715923424423971, -1.7824243162149005, -1.578588949335414, -1.2732040539450822, 1.750272078962177, 2.601646756061926], 0.5, 0.5, 0.01, 0.1, 300)

2025-07-07 17:18:02,946 - gym_custom_envs_real_ur_drivers_URBasic_realTimeClientEvent - INFO - Program send to Robot:
servoj([-0.007670364134278082, -1.7824850619300328, -1.5784674579203357, -1.2732040539450822, 1.7502720789773636, 2.601631569652126], 0.5, 0.5, 0.01, 0.1, 300)

2025-07-07 17:18:02,966 - gym_custom_envs_real_ur_drivers_URBasic_realTimeClientEvent - INFO - Program send to Robot:
servoj([-0.0015953446213497254, -1.7855229513471977, -1.566317115166131, -1.2732040539450822, 1.7502720789775152, 2.601631417788028], 0.5, 0.5, 0.01, 0.1, 300)

2025-07-07 17:18:02,970 - gym_custom_envs_real_ur_drivers_URBasic_realTimeClientEvent - INFO - Program send to Robot:
servoj([-0.0015345944262204418, -1.7855533302413693, -1.566195611738589, -1.2732040539450822, 1.7502720789775168, 2.601631416269387], 0.5, 0.5, 0.01, 0.1, 300)

2025-07-07 17:18:02,986 - gym_custom_envs_real_ur_drivers_URBasic_realTimeClientEvent - INFO - Program send to Robot:
servoj([-0.0015339869242691488, -1.785553634030311, -1.5661943967043135, -1.2732040539450822, 1.7502720789775168, 2.6016314162542007], 0.5, 0.5, 0.01, 0.1, 300)

2025-07-07 17:18:02,994 - gym_custom_envs_real_ur_drivers_URBasic_realTimeClientEvent - INFO - Program send to Robot:
servoj([-1.53398692426915e-05, -1.7870722780482076, -1.55708253867393, -1.2732040539450822, 1.7502720789775168, 2.601631416254049], 0.5, 0.5, 0.01, 0.1, 300)

2025-07-07 17:18:03,010 - gym_custom_envs_real_ur_drivers_URBasic_realTimeClientEvent - INFO - Program send to Robot:
servoj([-1.5339869242691514e-07, -1.7870874644883865, -1.5569914200936261, -1.2732040539450822, 1.7502720789775168, 2.6016314162540475], 0.5, 0.5, 0.01, 0.1, 300)

2025-07-07 17:18:03,018 - gym_custom_envs_real_ur_drivers_URBasic_realTimeClientEvent - INFO - Program send to Robot:
servoj([-1.5339869242691529e-09, -1.7870876163527882, -1.556990508907823, -1.2732040539450822, 1.7502720789775168, 2.6016314162540475], 0.5, 0.5, 0.01, 0.1, 300)

2025-07-07 17:18:03,026 - gym_custom_envs_real_ur_drivers_URBasic_realTimeClientEvent - INFO - Program send to Robot:
servoj([0.006074563904687469, -1.7870876178714323, -1.5463600129359174, -1.2732040539450822, 1.7487534379975098, 2.6031500572340547], 0.5, 0.5, 0.01, 0.1, 300)

2025-07-07 17:18:03,042 - gym_custom_envs_real_ur_drivers_URBasic_realTimeClientEvent - INFO - Program send to Robot:
servoj([0.0061353095590742125, -1.7870876178866186, -1.5462537079761982, -1.2732040539450822, 1.74873825158771, 2.6031652436438546], 0.5, 0.5, 0.01, 0.1, 300)

2025-07-07 17:18:03,049 - gym_custom_envs_real_ur_drivers_URBasic_realTimeClientEvent - INFO - Program send to Robot:
servoj([0.00613591701561808, -1.7870876178867705, -1.5462526449266012, -1.2732040539450822, 1.748738099723612, 2.6031653955079523], 0.5, 0.5, 0.01, 0.1, 300)

2025-07-07 17:18:03,058 - gym_custom_envs_real_ur_drivers_URBasic_realTimeClientEvent - INFO - Program send to Robot:
servoj([0.012210487010210418, -1.787087617886772, -1.5386594293960714, -1.2732040539450822, 1.748738098204971, 2.6031653970265936], 0.5, 0.5, 0.01, 0.1, 300)

2025-07-07 17:18:03,074 - gym_custom_envs_real_ur_drivers_URBasic_realTimeClientEvent - INFO - Program send to Robot:
servoj([0.012271232710156342, -1.787087617886772, -1.5385834972407662, -1.2732040539450822, 1.7487380981897844, 2.60316539704178], 0.5, 0.5, 0.01, 0.1, 300)

2025-07-07 17:18:03,082 - gym_custom_envs_real_ur_drivers_URBasic_realTimeClientEvent - INFO - Program send to Robot:
servoj([0.0122718401671558, -1.787087617886772, -1.538582737919213, -1.2732040539450822, 1.7487380981896326, 2.603165397041932], 0.5, 0.5, 0.01, 0.1, 300)

2025-07-07 17:18:03,089 - gym_custom_envs_real_ur_drivers_URBasic_realTimeClientEvent - INFO - Program send to Robot:
servoj([0.019865051141759637, -1.787087617886772, -1.5340268073859766, -1.2732040539450822, 1.748738098189631, 2.6031653970419333], 0.5, 0.5, 0.01, 0.1, 300)

2025-07-07 17:18:03,097 - gym_custom_envs_real_ur_drivers_URBasic_realTimeClientEvent - INFO - Program send to Robot:
servoj([0.019940983251505676, -1.787087617886772, -1.533981248080644, -1.2732040539450822, 1.748738098189631, 2.6031653970419333], 0.5, 0.5, 0.01, 0.1, 300)

2025-07-07 17:18:03,114 - gym_custom_envs_real_ur_drivers_URBasic_realTimeClientEvent - INFO - Program send to Robot:
servoj([0.019941742572603137, -1.787087617886772, -1.5339807924875908, -1.2732040539450822, 1.748738098189631, 2.6031653970419333], 0.5, 0.5, 0.01, 0.1, 300)

2025-07-07 17:18:03,122 - gym_custom_envs_real_ur_drivers_URBasic_realTimeClientEvent - INFO - Program send to Robot:
servoj([0.021460391145821055, -1.787087617886772, -1.5294248649916404, -1.2732040539450822, 1.748738098189631, 2.6031653970419333], 0.5, 0.5, 0.01, 0.1, 300)

2025-07-07 17:18:03,130 - gym_custom_envs_real_ur_drivers_URBasic_realTimeClientEvent - INFO - Program send to Robot:
servoj([0.021475577631553236, -1.787087617886772, -1.529379305716681, -1.2732040539450822, 1.748738098189631, 2.6031653970419333], 0.5, 0.5, 0.01, 0.1, 300)

2025-07-07 17:18:03,138 - gym_custom_envs_real_ur_drivers_URBasic_realTimeClientEvent - INFO - Program send to Robot:
servoj([0.021475729496410557, -1.787087617886772, -1.5293788501239314, -1.2732040539450822, 1.748738098189631, 2.6031653970419333], 0.5, 0.5, 0.01, 0.1, 300)

2025-07-07 17:18:03,154 - gym_custom_envs_real_ur_drivers_URBasic_realTimeClientEvent - INFO - Program send to Robot:
servoj([0.02451301297507258, -1.787087617886772, -1.524822922627983, -1.2732040539450822, 1.748738098189631, 2.6031653970419333], 0.5, 0.5, 0.01, 0.1, 300)

2025-07-07 17:18:03,163 - gym_custom_envs_real_ur_drivers_URBasic_realTimeClientEvent - INFO - Program send to Robot:
servoj([0.0245433858098592, -1.787087617886772, -1.5247773633530235, -1.2732040539450822, 1.748738098189631, 2.6031653970419333], 0.5, 0.5, 0.01, 0.1, 300)

2025-07-07 17:18:03,169 - gym_custom_envs_real_ur_drivers_URBasic_realTimeClientEvent - INFO - Program send to Robot:
servoj([0.024543689538207066, -1.787087617886772, -1.5247769077602737, -1.2732040539450822, 1.748738098189631, 2.6031653970419333], 0.5, 0.5, 0.01, 0.1, 300)

2025-07-07 17:18:03,186 - gym_custom_envs_real_ur_drivers_URBasic_realTimeClientEvent - INFO - Program send to Robot:
servoj([0.02909961551551094, -1.787087617886772, -1.5232582622243402, -1.2732040539450822, 1.748738098189631, 2.6031653970419333], 0.5, 0.5, 0.01, 0.1, 300)

2025-07-07 17:18:03,194 - gym_custom_envs_real_ur_drivers_URBasic_realTimeClientEvent - INFO - Program send to Robot:
servoj([0.029145174775283975, -1.787087617886772, -1.523243075768981, -1.2732040539450822, 1.748738098189631, 2.6031653970419333], 0.5, 0.5, 0.01, 0.1, 300)

2025-07-07 17:18:03,202 - gym_custom_envs_real_ur_drivers_URBasic_realTimeClientEvent - INFO - Program send to Robot:
servoj([0.029145630367881706, -1.787087617886772, -1.5232429239044274, -1.2732040539450822, 1.748738098189631, 2.6031653970419333], 0.5, 0.5, 0.01, 0.1, 300)

2025-07-07 17:18:03,218 - gym_custom_envs_real_ur_drivers_URBasic_realTimeClientEvent - INFO - Program send to Robot:
servoj([0.03066427590381463, -1.787087617886772, -1.5232429223857817, -1.2732040539450822, 1.748738098189631, 2.6031653970419333], 0.5, 0.5, 0.01, 0.1, 300)

2025-07-07 17:18:03,226 - gym_custom_envs_real_ur_drivers_URBasic_realTimeClientEvent - INFO - Program send to Robot:
servoj([0.03067946235917396, -1.787087617886772, -1.5232429223705954, -1.2732040539450822, 1.748738098189631, 2.6031653970419333], 0.5, 0.5, 0.01, 0.1, 300)

2025-07-07 17:18:03,233 - gym_custom_envs_real_ur_drivers_URBasic_realTimeClientEvent - INFO - Program send to Robot:
servoj([0.03067961422372755, -1.787087617886772, -1.5232429223704436, -1.2732040539450822, 1.748738098189631, 2.6031653970419333], 0.5, 0.5, 0.01, 0.1, 300)

2025-07-07 17:18:03,241 - gym_custom_envs_real_ur_drivers_URBasic_realTimeClientEvent - INFO - Program send to Robot:
servoj([0.030679615742373087, -1.787087617886772, -1.523242922370442, -1.2732040539450822, 1.748738098189631, 2.6031653970419333], 0.5, 0.5, 0.01, 0.1, 300)

2025-07-07 17:18:03,258 - gym_custom_envs_real_ur_drivers_URBasic_realTimeClientEvent - INFO - Program send to Robot:
servoj([0.03219825673756605, -1.787087617886772, -1.521724281390435, -1.2732040539450822, 1.748738098189631, 2.6031653970419333], 0.5, 0.5, 0.01, 0.1, 300)

2025-07-07 17:18:03,265 - gym_custom_envs_real_ur_drivers_URBasic_realTimeClientEvent - INFO - Program send to Robot:
servoj([0.03221344314751798, -1.787087617886772, -1.521709094980635, -1.2732040539450822, 1.748738098189631, 2.6031653970419333], 0.5, 0.5, 0.01, 0.1, 300)

2025-07-07 17:18:03,275 - gym_custom_envs_real_ur_drivers_URBasic_realTimeClientEvent - INFO - Program send to Robot:
servoj([0.032213595011617496, -1.787087617886772, -1.521708943116537, -1.2732040539450822, 1.748738098189631, 2.6031653970419333], 0.5, 0.5, 0.01, 0.1, 300)

2025-07-07 17:18:03,290 - gym_custom_envs_real_ur_drivers_URBasic_realTimeClientEvent - INFO - Program send to Robot:
servoj([0.03525087849027238, -1.787087617886772, -1.521708941597896, -1.2716854129650754, 1.748738098189631, 2.6031653970419333], 0.5, 0.5, 0.01, 0.1, 300)

2025-07-07 17:18:03,298 - gym_custom_envs_real_ur_drivers_URBasic_realTimeClientEvent - INFO - Program send to Robot:
