2025-07-07 17:20:52,929 - gym_custom_envs_real_ur_drivers_URBasic_robotModelEvent - INFO - Init done
2025-07-07 17:20:53,430 - gym_custom_envs_real_ur_drivers_URBasic_realTimeClientEvent - INFO - Connected
2025-07-07 17:20:53,430 - gym_custom_envs_real_ur_drivers_URBasic_realTimeClientEvent - INFO - RT_CLient constructor done
2025-07-07 17:20:53,432 - gym_custom_envs_real_ur_drivers_URBasic_dataLogEvent - INFO - Data logging (not event logging) is disabled
2025-07-07 17:20:53,432 - gym_custom_envs_real_ur_drivers_URBasic_dataLogEvent - INFO - DataLog constructor done
2025-07-07 17:20:53,432 - gym_custom_envs_real_ur_drivers_URBasic_dataLogEvent - INFO - DataLog is stopped
2025-07-07 17:20:53,433 - gym_custom_envs_real_ur_drivers_URBasic_rtdeEvent - INFO - RTDE constructor done
2025-07-07 17:20:53,929 - gym_custom_envs_real_ur_drivers_URBasic_rtdeEvent - INFO - Controller version: 3.3.1-60
2025-07-07 17:20:53,932 - gym_custom_envs_real_ur_drivers_URBasic_rtdeEvent - INFO - RTDE started
2025-07-07 17:20:53,935 - gym_custom_envs_real_ur_drivers_URBasic_dashboardEvent - INFO - Connected
2025-07-07 17:20:53,939 - gym_custom_envs_real_ur_drivers_URBasic_dashboardEvent - INFO - UR Dashboard respond Connected: Universal Robots Dashboard Server
2025-07-07 17:20:53,939 - gym_custom_envs_real_ur_drivers_URBasic_dashboardEvent - INFO - Dashboard server constructor done
2025-07-07 17:20:53,940 - gym_custom_envs_real_ur_drivers_URBasic_robotConnectorEvent - INFO - Init done
2025-07-07 17:20:53,940 - gym_custom_envs_real_ur_drivers_URBasic_urScriptEvent - INFO - Init done!!!
2025-07-07 17:20:53,956 - gym_custom_envs_real_ur_drivers_URBasic_urScriptExtEvent - INFO - Init done
2025-07-07 17:20:55,557 - gym_custom_envs_real_ur_interfaceEvent - INFO - [] init done
2025-07-07 17:20:55,557 - gym_custom_envs_real_ur_drivers_URBasic_realTimeClientEvent - INFO - Program send to Robot:
end_freedrive_mode()

2025-07-07 17:20:58,757 - gym_custom_envs_real_ur_drivers_URBasic_realTimeClientEvent - INFO - Program send to Robot:
servoj([0.14136189157371656, -1.5745901644141795, -1.6158602703210732, -1.5474534193622034, 1.637304087740425, 2.723626526649344], 0.5, 0.5, 0.04, 0.05, 300)

2025-07-07 17:20:58,772 - gym_custom_envs_real_ur_drivers_URBasic_realTimeClientEvent - INFO - Program send to Robot:
servoj([0.14133742083751447, -1.5746306672824157, -1.6158395787924311, -1.5474891821490686, 1.637272828400339, 2.723633546732828], 0.5, 0.5, 0.04, 0.05, 300)

2025-07-07 17:20:58,788 - gym_custom_envs_real_ur_drivers_URBasic_realTimeClientEvent - INFO - Program send to Robot:
servoj([0.141342835999194, -1.5746283387657936, -1.615828416226349, -1.5474534193622034, 1.637285000564618, 2.7236391671631237], 0.5, 0.5, 0.04, 0.05, 300)

2025-07-07 17:20:58,804 - gym_custom_envs_real_ur_drivers_URBasic_realTimeClientEvent - INFO - Program send to Robot:
servoj([0.1413473830295564, -1.574624733557881, -1.6158512664186957, -1.5474653402911585, 1.6372809422676626, 2.7236330802340194], 0.5, 0.5, 0.04, 0.05, 300)

2025-07-07 17:20:58,820 - gym_custom_envs_real_ur_drivers_URBasic_realTimeClientEvent - INFO - Program send to Robot:
servoj([0.1413364762406987, -1.5746091251848489, -1.6158476298072937, -1.5474534193622034, 1.6372786803077282, 2.723645613825151], 0.5, 0.5, 0.04, 0.05, 300)

2025-07-07 17:20:58,836 - gym_custom_envs_real_ur_drivers_URBasic_realTimeClientEvent - INFO - Program send to Robot:
servoj([0.14135373551814726, -1.574612091789541, -1.6158449455345256, -1.5474653402911585, 1.6372809422676626, 2.7236330802340194], 0.5, 0.5, 0.04, 0.05, 300)

2025-07-07 17:20:58,852 - gym_custom_envs_real_ur_drivers_URBasic_realTimeClientEvent - INFO - Program send to Robot:
servoj([0.14137640694886755, -1.5745915647177315, -1.6158755484420062, -1.5473575750934045, 1.6373240407023273, 2.72364372577059], 0.5, 0.5, 0.04, 0.05, 300)

2025-07-07 17:20:58,868 - gym_custom_envs_real_ur_drivers_URBasic_realTimeClientEvent - INFO - Program send to Robot:
servoj([0.14142370868001336, -1.5745219941085558, -1.6159459779852952, -1.5471296469317835, 1.6374841321312676, 2.723626489673217], 0.5, 0.5, 0.04, 0.05, 300)

2025-07-07 17:20:58,883 - gym_custom_envs_real_ur_drivers_URBasic_realTimeClientEvent - INFO - Program send to Robot:
servoj([0.1414647804542298, -1.5743888126005636, -1.6160610975821719, -1.5469017187701624, 1.6376882810522337, 2.723615699938174], 0.5, 0.5, 0.04, 0.05, 300)

2025-07-07 17:20:58,900 - gym_custom_envs_real_ur_drivers_URBasic_realTimeClientEvent - INFO - Program send to Robot:
servoj([0.14163706310496169, -1.5741703397646032, -1.616268060921038, -1.5464344183551233, 1.6380499253663692, 2.723618973087572], 0.5, 0.5, 0.04, 0.05, 300)

2025-07-07 17:20:58,916 - gym_custom_envs_real_ur_drivers_URBasic_realTimeClientEvent - INFO - Program send to Robot:
servoj([0.14188862756801646, -1.5737415462230127, -1.616674893779039, -1.545534626637594, 1.6387234289479216, 2.7235758199964626], 0.5, 0.5, 0.04, 0.05, 300)

2025-07-07 17:20:58,931 - gym_custom_envs_real_ur_drivers_URBasic_realTimeClientEvent - INFO - Program send to Robot:
servoj([0.14237390551982718, -1.5729902710741253, -1.6173720093679298, -1.5441317717181604, 1.639696355220288, 2.7235349084691087], 0.5, 0.5, 0.04, 0.05, 300)

2025-07-07 17:20:58,948 - gym_custom_envs_real_ur_drivers_URBasic_realTimeClientEvent - INFO - Program send to Robot:
servoj([0.14304285883432905, -1.57190547874669, -1.6183195834868969, -1.5421052137957971, 1.6411961828350328, 2.7234622558878567], 0.5, 0.5, 0.04, 0.05, 300)

2025-07-07 17:20:58,963 - gym_custom_envs_real_ur_drivers_URBasic_realTimeClientEvent - INFO - Program send to Robot:
servoj([0.14390134630328827, -1.570493013736767, -1.619573552850898, -1.5394549528705042, 1.6431533863908823, 2.7233457804712677], 0.5, 0.5, 0.04, 0.05, 300)

2025-07-07 17:20:58,979 - gym_custom_envs_real_ur_drivers_URBasic_realTimeClientEvent - INFO - Program send to Robot:
servoj([0.1449083414982893, -1.5687874972969051, -1.6211133353696998, -1.5362653891192835, 1.6454493868730535, 2.7232403250678114], 0.5, 0.5, 0.04, 0.05, 300)

2025-07-07 17:20:58,996 - gym_custom_envs_real_ur_drivers_URBasic_realTimeClientEvent - INFO - Program send to Robot:
servoj([0.14604797347306314, -1.5668931847743408, -1.6227888449681522, -1.5327038923846643, 1.6479905571276163, 2.7230746171143125], 0.5, 0.5, 0.04, 0.05, 300)

2025-07-07 17:20:59,012 - gym_custom_envs_real_ur_drivers_URBasic_realTimeClientEvent - INFO - Program send to Robot:
servoj([0.14720175274796662, -1.5649357809258175, -1.6245753651237451, -1.5290708700763147, 1.6506215321687365, 2.7229134421144643], 0.5, 0.5, 0.04, 0.05, 300)

2025-07-07 17:20:59,027 - gym_custom_envs_real_ur_drivers_URBasic_realTimeClientEvent - INFO - Program send to Robot:
servoj([0.14844647858192414, -1.5628997294854323, -1.6264583017028602, -1.5252576033221643, 1.6533545624095018, 2.7227483438325466], 0.5, 0.5, 0.04, 0.05, 300)

2025-07-07 17:20:59,043 - gym_custom_envs_real_ur_drivers_URBasic_realTimeClientEvent - INFO - Program send to Robot:
servoj([0.1496606137784808, -1.560864283771805, -1.6283360086767256, -1.5214553038226526, 1.6561317461068532, 2.7225927723768155], 0.5, 0.5, 0.04, 0.05, 300)

2025-07-07 17:20:59,060 - gym_custom_envs_real_ur_drivers_URBasic_realTimeClientEvent - INFO - Program send to Robot:
servoj([0.1509760752009455, -1.558765270781245, -1.6302729457464138, -1.5174622694598596, 1.6590373702529517, 2.722422186807177], 0.5, 0.5, 0.04, 0.05, 300)

2025-07-07 17:20:59,075 - gym_custom_envs_real_ur_drivers_URBasic_realTimeClientEvent - INFO - Program send to Robot:
servoj([0.15229113951253254, -1.5566211915586439, -1.632204365832654, -1.5134692350970667, 1.6619182218122872, 2.7222366020314412], 0.5, 0.5, 0.04, 0.05, 300)

2025-07-07 17:20:59,092 - gym_custom_envs_real_ur_drivers_URBasic_realTimeClientEvent - INFO - Program send to Robot:
servoj([0.15361623656507006, -1.5544441524397226, -1.6341637301693763, -1.5093679586993616, 1.6649007070353659, 2.7220638985281864], 0.5, 0.5, 0.04, 0.05, 300)

2025-07-07 17:20:59,108 - gym_custom_envs_real_ur_drivers_URBasic_realTimeClientEvent - INFO - Program send to Robot:
servoj([0.15500652269833154, -1.5521579921497055, -1.6361941956203714, -1.5050273100482385, 1.6680198485364153, 2.7218852915125713], 0.5, 0.5, 0.04, 0.05, 300)

2025-07-07 17:20:59,123 - gym_custom_envs_real_ur_drivers_URBasic_realTimeClientEvent - INFO - Program send to Robot:
servoj([0.15631264228594258, -1.5500114483275955, -1.6381393382054068, -1.5010104338275354, 1.6709464839359016, 2.721701165877937], 0.5, 0.5, 0.04, 0.05, 300)

2025-07-07 17:20:59,140 - gym_custom_envs_real_ur_drivers_URBasic_realTimeClientEvent - INFO - Program send to Robot:
servoj([0.15764066899198692, -1.5478283870540785, -1.6400938277205466, -1.4969091574298303, 1.6739187843782364, 2.7215407000260208], 0.5, 0.5, 0.04, 0.05, 300)

2025-07-07 17:20:59,157 - gym_custom_envs_real_ur_drivers_URBasic_realTimeClientEvent - INFO - Program send to Robot:
servoj([0.15953400194010658, -1.5447186534008406, -1.6428934238255213, -1.4910293258248433, 1.6781749819468912, 2.7212819177091276], 0.5, 0.5, 0.04, 0.05, 300)

2025-07-07 17:20:59,164 - gym_custom_envs_real_ur_drivers_URBasic_realTimeClientEvent - INFO - Program send to Robot:
servoj([0.15953400194010658, -1.5447186534008406, -1.6428934238255213, -1.4910293258248433, 1.6781749819468912, 2.7212819177091276], 0.5, 0.5, 0.04, 0.05, 300)

2025-07-07 17:20:59,179 - gym_custom_envs_real_ur_drivers_URBasic_realTimeClientEvent - INFO - Program send to Robot:
servoj([0.15953400194010658, -1.5447186534008406, -1.6428934238255213, -1.4910293258248433, 1.6781749819468912, 2.7212819177091276], 0.5, 0.5, 0.04, 0.05, 300)

2025-07-07 17:20:59,188 - gym_custom_envs_real_ur_drivers_URBasic_realTimeClientEvent - INFO - Program send to Robot:
servoj([0.15953400194010658, -1.5447186534008406, -1.6428934238255213, -1.4910293258248433, 1.6781749819468912, 2.7212819177091276], 0.5, 0.5, 0.04, 0.05, 300)

2025-07-07 17:20:59,196 - gym_custom_envs_real_ur_drivers_URBasic_realTimeClientEvent - INFO - Program send to Robot:
servoj([0.15953400194010658, -1.5447186534008406, -1.6428934238255213, -1.4910293258248433, 1.6781749819468912, 2.7212819177091276], 0.5, 0.5, 0.04, 0.05, 300)

2025-07-07 17:20:59,212 - gym_custom_envs_real_ur_drivers_URBasic_realTimeClientEvent - INFO - Program send to Robot:
servoj([0.15953400194010658, -1.5447186534008406, -1.6428934238255213, -1.4910293258248433, 1.6781749819468912, 2.7212819177091276], 0.5, 0.5, 0.04, 0.05, 300)

2025-07-07 17:20:59,219 - gym_custom_envs_real_ur_drivers_URBasic_realTimeClientEvent - INFO - Program send to Robot:
servoj([0.15953400194010658, -1.5447186534008406, -1.6428934238255213, -1.4910293258248433, 1.6781749819468912, 2.7212819177091276], 0.5, 0.5, 0.04, 0.05, 300)

2025-07-07 17:20:59,228 - gym_custom_envs_real_ur_drivers_URBasic_realTimeClientEvent - INFO - Program send to Robot:
servoj([0.15953400194010658, -1.5447186534008406, -1.6428934238255213, -1.4910293258248433, 1.6781749819468912, 2.7212819177091276], 0.5, 0.5, 0.04, 0.05, 300)

2025-07-07 17:20:59,244 - gym_custom_envs_real_ur_drivers_URBasic_realTimeClientEvent - INFO - Program send to Robot:
servoj([0.15953400194010658, -1.5447186534008406, -1.6428934238255213, -1.4910293258248433, 1.6781749819468912, 2.7212819177091276], 0.5, 0.5, 0.04, 0.05, 300)

2025-07-07 17:20:59,252 - gym_custom_envs_real_ur_drivers_URBasic_realTimeClientEvent - INFO - Program send to Robot:
servoj([0.15953400194010658, -1.5447186534008406, -1.6428934238255213, -1.4910293258248433, 1.6781749819468912, 2.7212819177091276], 0.5, 0.5, 0.04, 0.05, 300)

2025-07-07 17:20:59,261 - gym_custom_envs_real_ur_drivers_URBasic_realTimeClientEvent - INFO - Program send to Robot:
servoj([0.15953400194010658, -1.5447186534008406, -1.6428934238255213, -1.4910293258248433, 1.6781749819468912, 2.7212819177091276], 0.5, 0.5, 0.04, 0.05, 300)

2025-07-07 17:20:59,276 - gym_custom_envs_real_ur_drivers_URBasic_realTimeClientEvent - INFO - Program send to Robot:
servoj([0.15953400194010658, -1.5447186534008406, -1.6444120648055283, -1.4910293258248433, 1.6781749819468912, 2.7212819177091276], 0.5, 0.5, 0.04, 0.05, 300)

2025-07-07 17:20:59,284 - gym_custom_envs_real_ur_drivers_URBasic_realTimeClientEvent - INFO - Program send to Robot:
servoj([0.15953400194010658, -1.5447186534008406, -1.6444272512153282, -1.4910293258248433, 1.6781749819468912, 2.7212819177091276], 0.5, 0.5, 0.04, 0.05, 300)

2025-07-07 17:20:59,299 - gym_custom_envs_real_ur_drivers_URBasic_realTimeClientEvent - INFO - Program send to Robot:
servoj([0.15953400194010658, -1.5447186534008406, -1.6444274030794261, -1.4910293258248433, 1.6781749819468912, 2.7212819177091276], 0.5, 0.5, 0.04, 0.05, 300)

2025-07-07 17:20:59,308 - gym_custom_envs_real_ur_drivers_URBasic_realTimeClientEvent - INFO - Program send to Robot:
servoj([0.15953400194010658, -1.5447186534008406, -1.6459460455780741, -1.4910293258248433, 1.6781749819468912, 2.7212819177091276], 0.5, 0.5, 0.04, 0.05, 300)

2025-07-07 17:20:59,323 - gym_custom_envs_real_ur_drivers_URBasic_realTimeClientEvent - INFO - Program send to Robot:
servoj([0.15953400194010658, -1.5447186534008406, -1.6459612320030608, -1.4910293258248433, 1.6781749819468912, 2.7212819177091276], 0.5, 0.5, 0.04, 0.05, 300)

2025-07-07 17:20:59,332 - gym_custom_envs_real_ur_drivers_URBasic_realTimeClientEvent - INFO - Program send to Robot:
servoj([0.15953400194010658, -1.5447186534008406, -1.6459613838673106, -1.4910293258248433, 1.6781749819468912, 2.7212819177091276], 0.5, 0.5, 0.04, 0.05, 300)

2025-07-07 17:20:59,347 - gym_custom_envs_real_ur_drivers_URBasic_realTimeClientEvent - INFO - Program send to Robot:
servoj([0.15953400194010658, -1.5447186534008406, -1.6459613853859532, -1.4910293258248433, 1.6781749819468912, 2.7212819177091276], 0.5, 0.5, 0.04, 0.05, 300)

2025-07-07 17:20:59,356 - gym_custom_envs_real_ur_drivers_URBasic_realTimeClientEvent - INFO - Program send to Robot:
servoj([0.15953400194010658, -1.5447186534008406, -1.6459613854011395, -1.4910293258248433, 1.6781749819468912, 2.7212819177091276], 0.5, 0.5, 0.04, 0.05, 300)

2025-07-07 17:20:59,371 - gym_custom_envs_real_ur_drivers_URBasic_realTimeClientEvent - INFO - Program send to Robot:
servoj([0.15953400194010658, -1.5447186534008406, -1.6459613854012913, -1.4910293258248433, 1.6781749819468912, 2.7212819177091276], 0.5, 0.5, 0.04, 0.05, 300)

2025-07-07 17:20:59,380 - gym_custom_envs_real_ur_drivers_URBasic_realTimeClientEvent - INFO - Program send to Robot:
servoj([0.15953400194010658, -1.5447186534008406, -1.6459613854012929, -1.4910293258248433, 1.6781749819468912, 2.7212819177091276], 0.5, 0.5, 0.04, 0.05, 300)

2025-07-07 17:20:59,395 - gym_custom_envs_real_ur_drivers_URBasic_realTimeClientEvent - INFO - Program send to Robot:
servoj([0.15953400194010658, -1.5447186534008406, -1.6459613854012929, -1.4910293258248433, 1.6781749819468912, 2.7212819177091276], 0.5, 0.5, 0.04, 0.05, 300)

2025-07-07 17:20:59,403 - gym_custom_envs_real_ur_drivers_URBasic_realTimeClientEvent - INFO - Program send to Robot:
servoj([0.15953400194010658, -1.5447186534008406, -1.6459613854012929, -1.4910293258248433, 1.6781749819468912, 2.7212819177091276], 0.5, 0.5, 0.04, 0.05, 300)

2025-07-07 17:20:59,411 - gym_custom_envs_real_ur_drivers_URBasic_realTimeClientEvent - INFO - Program send to Robot:
servoj([0.15953400194010658, -1.5447186534008406, -1.6459613854012929, -1.4910293258248433, 1.6781749819468912, 2.7212819177091276], 0.5, 0.5, 0.04, 0.05, 300)

2025-07-07 17:20:59,428 - gym_custom_envs_real_ur_drivers_URBasic_realTimeClientEvent - INFO - Program send to Robot:
servoj([0.15953400194010658, -1.5447186534008406, -1.6459613854012929, -1.4910293258248433, 1.6781749819468912, 2.7212819177091276], 0.5, 0.5, 0.04, 0.05, 300)

2025-07-07 17:20:59,436 - gym_custom_envs_real_ur_drivers_URBasic_realTimeClientEvent - INFO - Program send to Robot:
servoj([0.15953400194010658, -1.5447186534008406, -1.6459613854012929, -1.4910293258248433, 1.6781749819468912, 2.7212819177091276], 0.5, 0.5, 0.04, 0.05, 300)

2025-07-07 17:20:59,444 - gym_custom_envs_real_ur_drivers_URBasic_realTimeClientEvent - INFO - Program send to Robot:
servoj([0.15953400194010658, -1.5447186534008406, -1.6459613854012929, -1.4910293258248433, 1.6781749819468912, 2.7212819177091276], 0.5, 0.5, 0.04, 0.05, 300)

2025-07-07 17:20:59,452 - gym_custom_envs_real_ur_drivers_URBasic_realTimeClientEvent - INFO - Program send to Robot:
servoj([0.15953400194010658, -1.5447186534008406, -1.6459613854012929, -1.4910293258248433, 1.6781749819468912, 2.7212819177091276], 0.5, 0.5, 0.04, 0.05, 300)

2025-07-07 17:20:59,468 - gym_custom_envs_real_ur_drivers_URBasic_realTimeClientEvent - INFO - Program send to Robot:
servoj([0.15953400194010658, -1.5447186534008406, -1.6459613854012929, -1.4910293258248433, 1.6781749819468912, 2.7212819177091276], 0.5, 0.5, 0.04, 0.05, 300)

2025-07-07 17:20:59,476 - gym_custom_envs_real_ur_drivers_URBasic_realTimeClientEvent - INFO - Program send to Robot:
servoj([0.15953400194010658, -1.5447186534008406, -1.6459613854012929, -1.4910293258248433, 1.6781749819468912, 2.7212819177091276], 0.5, 0.5, 0.04, 0.05, 300)

2025-07-07 17:20:59,491 - gym_custom_envs_real_ur_drivers_URBasic_realTimeClientEvent - INFO - Program send to Robot:
servoj([0.15953400194010658, -1.5447186534008406, -1.6459613854012929, -1.4910293258248433, 1.6781749819468912, 2.7212819177091276], 0.5, 0.5, 0.04, 0.05, 300)

2025-07-07 17:20:59,500 - gym_custom_envs_real_ur_drivers_URBasic_realTimeClientEvent - INFO - Program send to Robot:
servoj([0.15953400194010658, -1.5447186534008406, -1.6459613854012929, -1.4910293258248433, 1.6766563409668842, 2.7212819177091276], 0.5, 0.5, 0.04, 0.05, 300)

2025-07-07 17:20:59,515 - gym_custom_envs_real_ur_drivers_URBasic_realTimeClientEvent - INFO - Program send to Robot:
servoj([0.15953400194010658, -1.5447186534008406, -1.6459613854012929, -1.4910293258248433, 1.676641154557084, 2.7212819177091276], 0.5, 0.5, 0.04, 0.05, 300)

2025-07-07 17:20:59,525 - gym_custom_envs_real_ur_drivers_URBasic_realTimeClientEvent - INFO - Program send to Robot:
servoj([0.15953400194010658, -1.5447186534008406, -1.6459613854012929, -1.4910293258248433, 1.676641002692986, 2.7212819177091276], 0.5, 0.5, 0.04, 0.05, 300)

2025-07-07 17:20:59,540 - gym_custom_envs_real_ur_drivers_URBasic_realTimeClientEvent - INFO - Program send to Robot:
servoj([0.15953400194010658, -1.5447186534008406, -1.6459613854012929, -1.4910293258248433, 1.675122360194339, 2.7212819177091276], 0.5, 0.5, 0.04, 0.05, 300)

2025-07-07 17:20:59,548 - gym_custom_envs_real_ur_drivers_URBasic_realTimeClientEvent - INFO - Program send to Robot:
servoj([0.15953400194010658, -1.5447186534008406, -1.6459613854012929, -1.4910293258248433, 1.6751071737693526, 2.7212819177091276], 0.5, 0.5, 0.04, 0.05, 300)

2025-07-07 17:20:59,564 - gym_custom_envs_real_ur_drivers_URBasic_realTimeClientEvent - INFO - Program send to Robot:
servoj([0.15953400194010658, -1.5447186534008406, -1.6459613854012929, -1.4910293258248433, 1.6735883809250958, 2.7212819177091276], 0.5, 0.5, 0.04, 0.05, 300)

2025-07-07 17:20:59,572 - gym_custom_envs_real_ur_drivers_URBasic_realTimeClientEvent - INFO - Program send to Robot:
servoj([0.15953400194010658, -1.5447186534008406, -1.6459613854012929, -1.4910293258248433, 1.6735731929966533, 2.7212819177091276], 0.5, 0.5, 0.04, 0.05, 300)

2025-07-07 17:20:59,588 - gym_custom_envs_real_ur_drivers_URBasic_realTimeClientEvent - INFO - Program send to Robot:
servoj([0.15953400194010658, -1.5447186534008406, -1.6459613854012929, -1.4910293258248433, 1.6735730411173688, 2.7212819177091276], 0.5, 0.5, 0.04, 0.05, 300)

2025-07-07 17:20:59,597 - gym_custom_envs_real_ur_drivers_URBasic_realTimeClientEvent - INFO - Program send to Robot:
servoj([0.15953400194010658, -1.5447186534008406, -1.6459613854012929, -1.4910293258248433, 1.673573039598576, 2.7212819177091276], 0.5, 0.5, 0.04, 0.05, 300)

2025-07-07 17:20:59,604 - gym_custom_envs_real_ur_drivers_URBasic_realTimeClientEvent - INFO - Program send to Robot:
servoj([0.15953400194010658, -1.5447186534008406, -1.6459613854012929, -1.4910293258248433, 1.673573039583388, 2.7212819177091276], 0.5, 0.5, 0.04, 0.05, 300)

2025-07-07 17:20:59,620 - gym_custom_envs_real_ur_drivers_URBasic_realTimeClientEvent - INFO - Program send to Robot:
servoj([0.15953400194010658, -1.5447186534008406, -1.6459613854012929, -1.4910293258248433, 1.6735730395832362, 2.7212819177091276], 0.5, 0.5, 0.04, 0.05, 300)

2025-07-07 17:20:59,629 - gym_custom_envs_real_ur_drivers_URBasic_realTimeClientEvent - INFO - Program send to Robot:
servoj([0.15953400194010658, -1.5447186534008406, -1.6459613854012929, -1.4910293258248433, 1.6720543986032277, 2.7212819177091276], 0.5, 0.5, 0.04, 0.05, 300)

2025-07-07 17:20:59,636 - gym_custom_envs_real_ur_drivers_URBasic_realTimeClientEvent - INFO - Program send to Robot:
servoj([0.15953400194010658, -1.5447186534008406, -1.6459613854012929, -1.4910293258248433, 1.6720392121934275, 2.7212819177091276], 0.5, 0.5, 0.04, 0.05, 300)

2025-07-07 17:20:59,652 - gym_custom_envs_real_ur_drivers_URBasic_realTimeClientEvent - INFO - Program send to Robot:
servoj([0.15953400194010658, -1.5447186534008406, -1.6459613854012929, -1.4910293258248433, 1.6720390603293296, 2.7212819177091276], 0.5, 0.5, 0.04, 0.05, 300)

2025-07-07 17:20:59,660 - gym_custom_envs_real_ur_drivers_URBasic_realTimeClientEvent - INFO - Program send to Robot:
servoj([0.15801536096010008, -1.5447186534008406, -1.6459613854012929, -1.4910293258248433, 1.6720390588106886, 2.7228005586891344], 0.5, 0.5, 0.04, 0.05, 300)

2025-07-07 17:20:59,669 - gym_custom_envs_real_ur_drivers_URBasic_realTimeClientEvent - INFO - Program send to Robot:
servoj([0.15800017455030002, -1.5447186534008406, -1.6459613854012929, -1.4910293258248433, 1.672039058795502, 2.7228157450989343], 0.5, 0.5, 0.04, 0.05, 300)

2025-07-07 17:20:59,684 - gym_custom_envs_real_ur_drivers_URBasic_realTimeClientEvent - INFO - Program send to Robot:
servoj([0.158000022686202, -1.5447186534008406, -1.6459613854012929, -1.4910293258248433, 1.6720390587953502, 2.722815896963032], 0.5, 0.5, 0.04, 0.05, 300)

2025-07-07 17:20:59,692 - gym_custom_envs_real_ur_drivers_URBasic_realTimeClientEvent - INFO - Program send to Robot:
servoj([0.1564813801875541, -1.5447186534008406, -1.6459613854012929, -1.4910293258248433, 1.670520417815342, 2.7228158984816733], 0.5, 0.5, 0.04, 0.05, 300)

2025-07-07 17:20:59,700 - gym_custom_envs_real_ur_drivers_URBasic_realTimeClientEvent - INFO - Program send to Robot:
servoj([0.1564661937625676, -1.5447186534008406, -1.6459613854012929, -1.4910293258248433, 1.670505231405542, 2.72281589849686], 0.5, 0.5, 0.04, 0.05, 300)

2025-07-07 17:20:59,715 - gym_custom_envs_real_ur_drivers_URBasic_realTimeClientEvent - INFO - Program send to Robot:
servoj([0.15646604189831773, -1.5447186534008406, -1.6459613854012929, -1.4910293258248433, 1.670505079541444, 2.7228158984970117], 0.5, 0.5, 0.04, 0.05, 300)

2025-07-07 17:20:59,724 - gym_custom_envs_real_ur_drivers_URBasic_realTimeClientEvent - INFO - Program send to Robot:
servoj([0.1549473993996683, -1.5447186534008406, -1.644442744421286, -1.4910293258248433, 1.670505078022803, 2.722815898497013], 0.5, 0.5, 0.04, 0.05, 300)

2025-07-07 17:20:59,732 - gym_custom_envs_real_ur_drivers_URBasic_realTimeClientEvent - INFO - Program send to Robot:
servoj([0.15493221297468182, -1.5447186534008406, -1.6444275580114858, -1.4910293258248433, 1.6705050780076165, 2.722815898497013], 0.5, 0.5, 0.04, 0.05, 300)

2025-07-07 17:20:59,748 - gym_custom_envs_real_ur_drivers_URBasic_realTimeClientEvent - INFO - Program send to Robot:
servoj([0.15493206111043195, -1.5447186534008406, -1.6444274061473878, -1.4910293258248433, 1.6705050780074646, 2.722815898497013], 0.5, 0.5, 0.04, 0.05, 300)

2025-07-07 17:20:59,756 - gym_custom_envs_real_ur_drivers_URBasic_realTimeClientEvent - INFO - Program send to Robot:
servoj([0.14885749567176254, -1.5447186534008406, -1.6429087636487398, -1.4910293258248433, 1.668986437027456, 2.7243345394770198], 0.5, 0.5, 0.04, 0.05, 300)

2025-07-07 17:20:59,763 - gym_custom_envs_real_ur_drivers_URBasic_realTimeClientEvent - INFO - Program send to Robot:
servoj([0.14879675001737583, -1.5447186534008406, -1.6428935772237534, -1.4910293258248433, 1.6689712506176562, 2.7243497258868197], 0.5, 0.5, 0.04, 0.05, 300)

2025-07-07 17:20:59,771 - gym_custom_envs_real_ur_drivers_URBasic_realTimeClientEvent - INFO - Program send to Robot:
servoj([0.14879614256083198, -1.5447186534008406, -1.6428934253595036, -1.4910293258248433, 1.6689710987535582, 2.724349877750918], 0.5, 0.5, 0.04, 0.05, 300)

2025-07-07 17:20:59,788 - gym_custom_envs_real_ur_drivers_URBasic_realTimeClientEvent - INFO - Program send to Robot:
servoj([0.13968429060622575, -1.5447186534008406, -1.6398561418808482, -1.4910293258248433, 1.6689710972349172, 2.724349879269559], 0.5, 0.5, 0.04, 0.05, 300)

2025-07-07 17:20:59,796 - gym_custom_envs_real_ur_drivers_URBasic_realTimeClientEvent - INFO - Program send to Robot:
servoj([0.1395931720866797, -1.5447186534008406, -1.6398257690460616, -1.4910293258248433, 1.6689710972197307, 2.724349879284745], 0.5, 0.5, 0.04, 0.05, 300)

2025-07-07 17:20:59,804 - gym_custom_envs_real_ur_drivers_URBasic_realTimeClientEvent - INFO - Program send to Robot:
servoj([0.13959226090148424, -1.5447186534008406, -1.6398254653177138, -1.4910293258248433, 1.6689710972195788, 2.724349879284897], 0.5, 0.5, 0.04, 0.05, 300)

2025-07-07 17:20:59,812 - gym_custom_envs_real_ur_drivers_URBasic_realTimeClientEvent - INFO - Program send to Robot:
servoj([0.13959225178963228, -1.5447186534008406, -1.6398254622804302, -1.4910293258248433, 1.6689710972195773, 2.724349879284899], 0.5, 0.5, 0.04, 0.05, 300)

2025-07-07 17:20:59,827 - gym_custom_envs_real_ur_drivers_URBasic_realTimeClientEvent - INFO - Program send to Robot:
servoj([0.13048040581847298, -1.5447186534008406, -1.6367881802900435, -1.4910293258248433, 1.6689710972195773, 2.7258685202649056], 0.5, 0.5, 0.04, 0.05, 300)

2025-07-07 17:20:59,836 - gym_custom_envs_real_ur_drivers_URBasic_realTimeClientEvent - INFO - Program send to Robot:
servoj([0.13038928735876137, -1.5447186534008406, -1.6367578074701397, -1.4910293258248433, 1.6689710972195773, 2.7258837066747055], 0.5, 0.5, 0.04, 0.05, 300)

2025-07-07 17:20:59,844 - gym_custom_envs_real_ur_drivers_URBasic_realTimeClientEvent - INFO - Program send to Robot:
servoj([0.13038837617416427, -1.5447186534008406, -1.6367575037419406, -1.4910293258248433, 1.6689710972195773, 2.7258838585388037], 0.5, 0.5, 0.04, 0.05, 300)

2025-07-07 17:20:59,852 - gym_custom_envs_real_ur_drivers_URBasic_realTimeClientEvent - INFO - Program send to Robot:
servoj([0.119757880202271, -1.5447186534008406, -1.6337202187446456, -1.4910293258248433, 1.6689710972195773, 2.7258838600574444], 0.5, 0.5, 0.04, 0.05, 300)

2025-07-07 17:20:59,867 - gym_custom_envs_real_ur_drivers_URBasic_realTimeClientEvent - INFO - Program send to Robot:
servoj([0.11965157524255207, -1.5447186534008406, -1.6336898458946725, -1.4910293258248433, 1.6689710972195773, 2.725883860072631], 0.5, 0.5, 0.04, 0.05, 300)

2025-07-07 17:20:59,875 - gym_custom_envs_real_ur_drivers_URBasic_realTimeClientEvent - INFO - Program send to Robot:
servoj([0.11965051219295487, -1.5447186534008406, -1.6336895421661728, -1.4910293258248433, 1.6689710972195773, 2.725883860072783], 0.5, 0.5, 0.04, 0.05, 300)

2025-07-07 17:20:59,883 - gym_custom_envs_real_ur_drivers_URBasic_realTimeClientEvent - INFO - Program send to Robot:
servoj([0.10902001470241117, -1.5447186534008406, -1.6306522571688742, -1.4910293258248433, 1.6689710972195773, 2.727402501052791], 0.5, 0.5, 0.04, 0.05, 300)

2025-07-07 17:20:59,900 - gym_custom_envs_real_ur_drivers_URBasic_realTimeClientEvent - INFO - Program send to Robot:
servoj([0.10891370972750573, -1.5447186534008406, -1.630621884318901, -1.4910293258248433, 1.6689710972195773, 2.7274176874625913], 0.5, 0.5, 0.04, 0.05, 300)

2025-07-07 17:20:59,908 - gym_custom_envs_real_ur_drivers_URBasic_realTimeClientEvent - INFO - Program send to Robot:
servoj([0.10891264667775667, -1.5447186534008406, -1.6306215805904014, -1.4910293258248433, 1.6689710972195773, 2.727417839326689], 0.5, 0.5, 0.04, 0.05, 300)

2025-07-07 17:20:59,916 - gym_custom_envs_real_ur_drivers_URBasic_realTimeClientEvent - INFO - Program send to Robot:
servoj([0.0982821491872119, -1.5447186534008406, -1.6291029365731093, -1.4910293258248433, 1.6689710972195773, 2.7289364818253374], 0.5, 0.5, 0.04, 0.05, 300)

2025-07-07 17:20:59,924 - gym_custom_envs_real_ur_drivers_URBasic_realTimeClientEvent - INFO - Program send to Robot:
servoj([0.09817584421230645, -1.5447186534008406, -1.6290877501329364, -1.4910293258248433, 1.6689710972195773, 2.728951668250324], 0.5, 0.5, 0.04, 0.05, 300)

2025-07-07 17:20:59,940 - gym_custom_envs_real_ur_drivers_URBasic_realTimeClientEvent - INFO - Program send to Robot:
servoj([0.09817478116255739, -1.5447186534008406, -1.6290875982685347, -1.4910293258248433, 1.6689710972195773, 2.7289518201145735], 0.5, 0.5, 0.04, 0.05, 300)

2025-07-07 17:20:59,948 - gym_custom_envs_real_ur_drivers_URBasic_realTimeClientEvent - INFO - Program send to Robot:
servoj([0.08602564269200567, -1.5447186534008406, -1.6275689557698838, -1.4910293258248433, 1.6689710972195773, 2.728951821633216], 0.5, 0.5, 0.04, 0.05, 300)

2025-07-07 17:20:59,956 - gym_custom_envs_real_ur_drivers_URBasic_realTimeClientEvent - INFO - Program send to Robot:
servoj([0.08590415130730016, -1.5447186534008406, -1.6275537693448971, -1.4910293258248433, 1.6689710972195773, 2.7289518216484026], 0.5, 0.5, 0.04, 0.05, 300)

2025-07-07 17:20:59,964 - gym_custom_envs_real_ur_drivers_URBasic_realTimeClientEvent - INFO - Program send to Robot:
servoj([0.0859029363934531, -1.5447186534008406, -1.6275536174806473, -1.4910293258248433, 1.6689710972195773, 2.7289518216485544], 0.5, 0.5, 0.04, 0.05, 300)

2025-07-07 17:20:59,980 - gym_custom_envs_real_ur_drivers_URBasic_realTimeClientEvent - INFO - Program send to Robot:
servoj([0.0752724373842669, -1.5447186534008406, -1.627553615962005, -1.4910293258248433, 1.6689710972195773, 2.7289518216485558], 0.5, 0.5, 0.04, 0.05, 300)

2025-07-07 17:20:59,988 - gym_custom_envs_real_ur_drivers_URBasic_realTimeClientEvent - INFO - Program send to Robot:
servoj([0.07516613239417504, -1.5447186534008406, -1.6275536159468185, -1.4910293258248433, 1.6689710972195773, 2.7289518216485558], 0.5, 0.5, 0.04, 0.05, 300)

2025-07-07 17:20:59,996 - gym_custom_envs_real_ur_drivers_URBasic_realTimeClientEvent - INFO - Program send to Robot:
servoj([0.07516506934427411, -1.5447186534008406, -1.6275536159466666, -1.4910293258248433, 1.6689710972195773, 2.7289518216485558], 0.5, 0.5, 0.04, 0.05, 300)

2025-07-07 17:21:00,003 - gym_custom_envs_real_ur_drivers_URBasic_realTimeClientEvent - INFO - Program send to Robot:
servoj([0.0751650587137751, -1.5447186534008406, -1.627553615946665, -1.4910293258248433, 1.6689710972195773, 2.7289518216485558], 0.5, 0.5, 0.04, 0.05, 300)

2025-07-07 17:21:00,020 - gym_custom_envs_real_ur_drivers_URBasic_realTimeClientEvent - INFO - Program send to Robot:
servoj([0.06453457174742282, -1.5447186534008406, -1.626034974966658, -1.4910293258248433, 1.6689710972195773, 2.7304704626285625], 0.5, 0.5, 0.04, 0.05, 300)

2025-07-07 17:21:00,028 - gym_custom_envs_real_ur_drivers_URBasic_realTimeClientEvent - INFO - Program send to Robot:
servoj([0.0644282668777593, -1.5447186534008406, -1.626019788556858, -1.4910293258248433, 1.6689710972195773, 2.730485649038363], 0.5, 0.5, 0.04, 0.05, 300)

2025-07-07 17:21:00,036 - gym_custom_envs_real_ur_drivers_URBasic_realTimeClientEvent - INFO - Program send to Robot:
servoj([0.06442720382906267, -1.5447186534008406, -1.62601963669276, -1.4910293258248433, 1.6689710972195773, 2.7304858009024606], 0.5, 0.5, 0.04, 0.05, 300)

2025-07-07 17:21:00,044 - gym_custom_envs_real_ur_drivers_URBasic_realTimeClientEvent - INFO - Program send to Robot:
servoj([0.05227806535852147, -1.5447186534008406, -1.6245009941941129, -1.4910293258248433, 1.6689710972195773, 2.730485802421102], 0.5, 0.5, 0.04, 0.05, 300)

2025-07-07 17:21:00,061 - gym_custom_envs_real_ur_drivers_URBasic_realTimeClientEvent - INFO - Program send to Robot:
servoj([0.05215657397381605, -1.5447186534008406, -1.6244858077691264, -1.4910293258248433, 1.6689710972195773, 2.7304858024362884], 0.5, 0.5, 0.04, 0.05, 300)

2025-07-07 17:21:00,068 - gym_custom_envs_real_ur_drivers_URBasic_realTimeClientEvent - INFO - Program send to Robot:
servoj([0.052155359059969, -1.5447186534008406, -1.6244856559048766, -1.4910293258248433, 1.6689710972195773, 2.7304858024364402], 0.5, 0.5, 0.04, 0.05, 300)

2025-07-07 17:21:00,076 - gym_custom_envs_real_ur_drivers_URBasic_realTimeClientEvent - INFO - Program send to Robot:
servoj([0.04000621907077629, -1.5447186534008406, -1.622967013406227, -1.4910293258248433, 1.6689710972195773, 2.7304858024364416], 0.5, 0.5, 0.04, 0.05, 300)

2025-07-07 17:21:00,084 - gym_custom_envs_real_ur_drivers_URBasic_realTimeClientEvent - INFO - Program send to Robot:
servoj([0.039884727670884364, -1.5447186534008406, -1.6229518269812406, -1.4910293258248433, 1.6689710972195773, 2.7304858024364416], 0.5, 0.5, 0.04, 0.05, 300)

2025-07-07 17:21:00,100 - gym_custom_envs_real_ur_drivers_URBasic_realTimeClientEvent - INFO - Program send to Robot:
servoj([0.039883512756885446, -1.5447186534008406, -1.6229516751169908, -1.4910293258248433, 1.6689710972195773, 2.7304858024364416], 0.5, 0.5, 0.04, 0.05, 300)

2025-07-07 17:21:00,107 - gym_custom_envs_real_ur_drivers_URBasic_realTimeClientEvent - INFO - Program send to Robot:
servoj([0.02773437276769078, -1.5447186534008406, -1.6229516735983482, -1.4910293258248433, 1.6689710972195773, 2.7304858024364416], 0.5, 0.5, 0.04, 0.05, 300)

2025-07-07 17:21:00,115 - gym_custom_envs_real_ur_drivers_URBasic_realTimeClientEvent - INFO - Program send to Robot:
servoj([0.027612881367798832, -1.5447186534008406, -1.6229516735831617, -1.4910293258248433, 1.6689710972195773, 2.7304858024364416], 0.5, 0.5, 0.04, 0.05, 300)

2025-07-07 17:21:00,124 - gym_custom_envs_real_ur_drivers_URBasic_realTimeClientEvent - INFO - Program send to Robot:
servoj([0.027611666453799914, -1.5447186534008406, -1.62295167358301, -1.4910293258248433, 1.6689710972195773, 2.7304858024364416], 0.5, 0.5, 0.04, 0.05, 300)

2025-07-07 17:21:00,140 - gym_custom_envs_real_ur_drivers_URBasic_realTimeClientEvent - INFO - Program send to Robot:
servoj([0.018499808424619575, -1.5447186534008406, -1.6229516735830085, -1.4910293258248433, 1.6689710972195773, 2.7304858024364416], 0.5, 0.5, 0.04, 0.05, 300)

2025-07-07 17:21:00,147 - gym_custom_envs_real_ur_drivers_URBasic_realTimeClientEvent - INFO - Program send to Robot:
servoj([0.01840868984432777, -1.5447186534008406, -1.6229516735830085, -1.4910293258248433, 1.6689710972195773, 2.7304858024364416], 0.5, 0.5, 0.04, 0.05, 300)

2025-07-07 17:21:00,156 - gym_custom_envs_real_ur_drivers_URBasic_realTimeClientEvent - INFO - Program send to Robot:
servoj([0.018407778658524852, -1.5447186534008406, -1.6229516735830085, -1.4910293258248433, 1.6689710972195773, 2.7304858024364416], 0.5, 0.5, 0.04, 0.05, 300)

2025-07-07 17:21:00,172 - gym_custom_envs_real_ur_drivers_URBasic_realTimeClientEvent - INFO - Program send to Robot:
servoj([0.009295923666626037, -1.5447186534008406, -1.6229516735830085, -1.4910293258248433, 1.6689710972195773, 2.7304858024364416], 0.5, 0.5, 0.04, 0.05, 300)

2025-07-07 17:21:00,180 - gym_custom_envs_real_ur_drivers_URBasic_realTimeClientEvent - INFO - Program send to Robot:
servoj([0.009204805116707047, -1.5447186534008406, -1.6229516735830085, -1.4910293258248433, 1.6689710972195773, 2.7304858024364416], 0.5, 0.5, 0.04, 0.05, 300)

2025-07-07 17:21:00,188 - gym_custom_envs_real_ur_drivers_URBasic_realTimeClientEvent - INFO - Program send to Robot:
servoj([0.009203893931207859, -1.5447186534008406, -1.6229516735830085, -1.4910293258248433, 1.6689710972195773, 2.7304858024364416], 0.5, 0.5, 0.04, 0.05, 300)

2025-07-07 17:21:00,196 - gym_custom_envs_real_ur_drivers_URBasic_realTimeClientEvent - INFO - Program send to Robot:
servoj([0.009203884819352866, -1.5447186534008406, -1.6229516735830085, -1.4910293258248433, 1.6689710972195773, 2.7304858024364416], 0.5, 0.5, 0.04, 0.05, 300)

2025-07-07 17:21:00,211 - gym_custom_envs_real_ur_drivers_URBasic_realTimeClientEvent - INFO - Program send to Robot:
servoj([9.203884819352873e-05, -1.5447186534008406, -1.6229516735830085, -1.4910293258248433, 1.6689710972195773, 2.7304858024364416], 0.5, 0.5, 0.04, 0.05, 300)

2025-07-07 17:21:00,219 - gym_custom_envs_real_ur_drivers_URBasic_realTimeClientEvent - INFO - Program send to Robot:
servoj([9.203884819352881e-07, -1.5447186534008406, -1.6229516735830085, -1.4910293258248433, 1.6689710972195773, 2.7304858024364416], 0.5, 0.5, 0.04, 0.05, 300)

2025-07-07 17:21:00,228 - gym_custom_envs_real_ur_drivers_URBasic_realTimeClientEvent - INFO - Program send to Robot:
servoj([9.203884819352889e-09, -1.5447186534008406, -1.6229516735830085, -1.4910293258248433, 1.6689710972195773, 2.7304858024364416], 0.5, 0.5, 0.04, 0.05, 300)

2025-07-07 17:21:00,236 - gym_custom_envs_real_ur_drivers_URBasic_realTimeClientEvent - INFO - Program send to Robot:
servoj([-0.007593204807994995, -1.5462372943808476, -1.6214330326030015, -1.4910293258248433, 1.6689710972195773, 2.7304858024364416], 0.5, 0.5, 0.04, 0.05, 300)

2025-07-07 17:21:00,252 - gym_custom_envs_real_ur_drivers_URBasic_realTimeClientEvent - INFO - Program send to Robot:
servoj([-0.007669136948113792, -1.5462524807906477, -1.6214178461932014, -1.4910293258248433, 1.6689710972195773, 2.7304858024364416], 0.5, 0.5, 0.04, 0.05, 300)

2025-07-07 17:21:00,260 - gym_custom_envs_real_ur_drivers_URBasic_realTimeClientEvent - INFO - Program send to Robot:
servoj([-0.0076698962695149805, -1.5462526326547457, -1.6214176943291034, -1.4910293258248433, 1.6689710972195773, 2.7304858024364416], 0.5, 0.5, 0.04, 0.05, 300)

2025-07-07 17:21:00,275 - gym_custom_envs_real_ur_drivers_URBasic_realTimeClientEvent - INFO - Program send to Robot:
servoj([-0.01678174974276978, -1.5462526341733867, -1.6214176928104624, -1.4910293258248433, 1.6689710972195773, 2.7304858024364416], 0.5, 0.5, 0.04, 0.05, 300)

2025-07-07 17:21:00,284 - gym_custom_envs_real_ur_drivers_URBasic_realTimeClientEvent - INFO - Program send to Robot:
servoj([-0.016872868277502326, -1.546252634188573, -1.621417692795276, -1.4910293258248433, 1.6689710972195773, 2.7304858024364416], 0.5, 0.5, 0.04, 0.05, 300)

2025-07-07 17:21:00,299 - gym_custom_envs_real_ur_drivers_URBasic_realTimeClientEvent - INFO - Program send to Robot:
servoj([-0.025985625342890444, -1.5462526341887248, -1.6198990518151173, -1.4910293258248433, 1.6689710972195773, 2.7304858024364416], 0.5, 0.5, 0.04, 0.05, 300)

2025-07-07 17:21:00,308 - gym_custom_envs_real_ur_drivers_URBasic_realTimeClientEvent - INFO - Program send to Robot:
servoj([-0.026076752913544325, -1.5462526341887264, -1.6198838654053158, -1.4910293258248433, 1.6689710972195773, 2.7304858024364416], 0.5, 0.5, 0.04, 0.05, 300)

2025-07-07 17:21:00,324 - gym_custom_envs_real_ur_drivers_URBasic_realTimeClientEvent - INFO - Program send to Robot:
servoj([-0.026077664189250862, -1.5462526341887264, -1.6198837135412179, -1.4910293258248433, 1.6689710972195773, 2.7304858024364416], 0.5, 0.5, 0.04, 0.05, 300)

2025-07-07 17:21:00,332 - gym_custom_envs_real_ur_drivers_URBasic_realTimeClientEvent - INFO - Program send to Robot:
servoj([-0.038226801142062165, -1.5462526341887264, -1.6198837120225769, -1.4910293258248433, 1.6674524562395712, 2.7304858024364416], 0.5, 0.5, 0.04, 0.05, 300)

2025-07-07 17:21:00,347 - gym_custom_envs_real_ur_drivers_URBasic_realTimeClientEvent - INFO - Program send to Robot:
servoj([-0.038348292511590276, -1.5462526341887264, -1.6198837120073903, -1.4910293258248433, 1.6674372698297713, 2.7304858024364416], 0.5, 0.5, 0.04, 0.05, 300)

2025-07-07 17:21:00,356 - gym_custom_envs_real_ur_drivers_URBasic_realTimeClientEvent - INFO - Program send to Robot:
servoj([-0.03834950742528556, -1.5462526341887264, -1.6198837120072385, -1.4910293258248433, 1.667437117965673, 2.7304858024364416], 0.5, 0.5, 0.04, 0.05, 300)

2025-07-07 17:21:00,371 - gym_custom_envs_real_ur_drivers_URBasic_realTimeClientEvent - INFO - Program send to Robot:
servoj([-0.0474613654544633, -1.5477712751687331, -1.619883712007237, -1.4910293258248433, 1.667437116447032, 2.7304858024364416], 0.5, 0.5, 0.04, 0.05, 300)

2025-07-07 17:21:00,380 - gym_custom_envs_real_ur_drivers_URBasic_realTimeClientEvent - INFO - Program send to Robot:
servoj([-0.04755248403475507, -1.5477864615785333, -1.619883712007237, -1.4910293258248433, 1.6674371164318458, 2.7304858024364416], 0.5, 0.5, 0.04, 0.05, 300)

2025-07-07 17:21:00,388 - gym_custom_envs_real_ur_drivers_URBasic_realTimeClientEvent - INFO - Program send to Robot:
servoj([-0.047553395220557994, -1.5477866134426312, -1.619883712007237, -1.4910293258248433, 1.667437116431694, 2.7304858024364416], 0.5, 0.5, 0.04, 0.05, 300)

2025-07-07 17:21:00,404 - gym_custom_envs_real_ur_drivers_URBasic_realTimeClientEvent - INFO - Program send to Robot:
servoj([-0.05818389119246331, -1.549305255941279, -1.61836507102723, -1.4910293258248433, 1.6674371164316923, 2.7304858024364416], 0.5, 0.5, 0.04, 0.05, 300)

2025-07-07 17:21:00,411 - gym_custom_envs_real_ur_drivers_URBasic_realTimeClientEvent - INFO - Program send to Robot:
servoj([-0.058290196152182366, -1.5493204423662654, -1.61834988461743, -1.4910293258248433, 1.6674371164316923, 2.7304858024364416], 0.5, 0.5, 0.04, 0.05, 300)

2025-07-07 17:21:00,419 - gym_custom_envs_real_ur_drivers_URBasic_realTimeClientEvent - INFO - Program send to Robot:
servoj([-0.058291259201779556, -1.5493205942305153, -1.618349732753332, -1.4910293258248433, 1.6674371164316923, 2.7304858024364416], 0.5, 0.5, 0.04, 0.05, 300)

2025-07-07 17:21:00,436 - gym_custom_envs_real_ur_drivers_URBasic_realTimeClientEvent - INFO - Program send to Robot:
servoj([-0.07044039767232978, -1.5493205957491578, -1.618349731234691, -1.4910293258248433, 1.6659184754516854, 2.7304858024364416], 0.5, 0.5, 0.04, 0.05, 300)

2025-07-07 17:21:00,444 - gym_custom_envs_real_ur_drivers_URBasic_realTimeClientEvent - INFO - Program send to Robot:
servoj([-0.07056188905703527, -1.549320595764344, -1.6183497312195045, -1.4910293258248433, 1.6659032890418852, 2.7304858024364416], 0.5, 0.5, 0.04, 0.05, 300)

2025-07-07 17:21:00,452 - gym_custom_envs_real_ur_drivers_URBasic_realTimeClientEvent - INFO - Program send to Robot:
servoj([-0.07056310397088233, -1.549320595764496, -1.6183497312193527, -1.4910293258248433, 1.6659031371777873, 2.7304858024364416], 0.5, 0.5, 0.04, 0.05, 300)

2025-07-07 17:21:00,467 - gym_custom_envs_real_ur_drivers_URBasic_realTimeClientEvent - INFO - Program send to Robot:
servoj([-0.08271224396007502, -1.5508392367445043, -1.618349731219351, -1.4910293258248433, 1.6628658536991323, 2.7304858024364416], 0.5, 0.5, 0.04, 0.05, 300)

2025-07-07 17:21:00,476 - gym_custom_envs_real_ur_drivers_URBasic_realTimeClientEvent - INFO - Program send to Robot:
servoj([-0.08283373535996695, -1.5508544231543044, -1.618349731219351, -1.4910293258248433, 1.6628354808643457, 2.7304858024364416], 0.5, 0.5, 0.04, 0.05, 300)

2025-07-07 17:21:00,484 - gym_custom_envs_real_ur_drivers_URBasic_realTimeClientEvent - INFO - Program send to Robot:
servoj([-0.08283495027396588, -1.5508545750184024, -1.618349731219351, -1.4910293258248433, 1.662835177135998, 2.7304858024364416], 0.5, 0.5, 0.04, 0.05, 300)

2025-07-07 17:21:00,500 - gym_custom_envs_real_ur_drivers_URBasic_realTimeClientEvent - INFO - Program send to Robot:
servoj([-0.09498409026316011, -1.5523732175170502, -1.616831090239345, -1.4910293258248433, 1.6567606101786876, 2.7304858024364416], 0.5, 0.5, 0.04, 0.05, 300)

2025-07-07 17:21:00,508 - gym_custom_envs_real_ur_drivers_URBasic_realTimeClientEvent - INFO - Program send to Robot:
servoj([-0.09510558166305205, -1.5523884039420366, -1.616815903829545, -1.4910293258248433, 1.6566998645091147, 2.7304858024364416], 0.5, 0.5, 0.04, 0.05, 300)

2025-07-07 17:21:00,516 - gym_custom_envs_real_ur_drivers_URBasic_realTimeClientEvent - INFO - Program send to Robot:
servoj([-0.09510679657705097, -1.5523885558062864, -1.616815751965447, -1.4910293258248433, 1.6566992570524188, 2.7304858024364416], 0.5, 0.5, 0.04, 0.05, 300)

2025-07-07 17:21:00,531 - gym_custom_envs_real_ur_drivers_URBasic_realTimeClientEvent - INFO - Program send to Robot:
servoj([-0.10877457754625212, -1.552388557324929, -1.613778468486792, -1.4910293258248433, 1.6491060460778182, 2.7304858024364416], 0.5, 0.5, 0.04, 0.05, 300)

2025-07-07 17:21:00,539 - gym_custom_envs_real_ur_drivers_URBasic_realTimeClientEvent - INFO - Program send to Robot:
servoj([-0.10891125535594415, -1.5523885573401155, -1.6137480956520056, -1.4910293258248433, 1.649030113968072, 2.7304858024364416], 0.5, 0.5, 0.04, 0.05, 300)

2025-07-07 17:21:00,547 - gym_custom_envs_real_ur_drivers_URBasic_realTimeClientEvent - INFO - Program send to Robot:
servoj([-0.10891262213404106, -1.5523885573402674, -1.6137477919236576, -1.4910293258248433, 1.6490293546469745, 2.7304858024364416], 0.5, 0.5, 0.04, 0.05, 300)

2025-07-07 17:21:00,556 - gym_custom_envs_real_ur_drivers_URBasic_realTimeClientEvent - INFO - Program send to Robot:
servoj([-0.12713632756190363, -1.5539071983202757, -1.6122291479063673, -1.4910293258248433, 1.6444734241137426, 2.7304858024364416], 0.5, 0.5, 0.04, 0.05, 300)

2025-07-07 17:21:00,572 - gym_custom_envs_real_ur_drivers_URBasic_realTimeClientEvent - INFO - Program send to Robot:
servoj([-0.12731856461618224, -1.5539223847300756, -1.6122139614661943, -1.4910293258248433, 1.6444278648084103, 2.7304858024364416], 0.5, 0.5, 0.04, 0.05, 300)

2025-07-07 17:21:00,580 - gym_custom_envs_real_ur_drivers_URBasic_realTimeClientEvent - INFO - Program send to Robot:
servoj([-0.12732038698672504, -1.5539225365941736, -1.6122138096017926, -1.4910293258248433, 1.644427409215357, 2.7304858024364416], 0.5, 0.5, 0.04, 0.05, 300)

2025-07-07 17:21:00,588 - gym_custom_envs_real_ur_drivers_URBasic_realTimeClientEvent - INFO - Program send to Robot:
servoj([-0.1455440969705116, -1.5554411790928213, -1.6091765261231348, -1.4910293258248433, 1.6413901226994134, 2.728967161456435], 0.5, 0.5, 0.04, 0.05, 300)

2025-07-07 17:21:00,596 - gym_custom_envs_real_ur_drivers_URBasic_realTimeClientEvent - INFO - Program send to Robot:
servoj([-0.14572633407034946, -1.555456365517808, -1.6091461532883482, -1.4910293258248433, 1.641359749834254, 2.728951975046635], 0.5, 0.5, 0.04, 0.05, 300)

2025-07-07 17:21:00,612 - gym_custom_envs_real_ur_drivers_URBasic_realTimeClientEvent - INFO - Program send to Robot:
servoj([-0.14572815644134784, -1.5554565173820578, -1.6091458495600004, -1.4910293258248433, 1.6413594461056025, 2.7289518231825367], 0.5, 0.5, 0.04, 0.05, 300)

2025-07-07 17:21:00,620 - gym_custom_envs_real_ur_drivers_URBasic_realTimeClientEvent - INFO - Program send to Robot:
servoj([-0.16698914838515286, -1.5554565189007004, -1.6061085645627038, -1.4910293258248433, 1.6413594430683158, 2.728951821663896], 0.5, 0.5, 0.04, 0.05, 300)

2025-07-07 17:21:00,628 - gym_custom_envs_real_ur_drivers_URBasic_realTimeClientEvent - INFO - Program send to Robot:
servoj([-0.1672017583045909, -1.5554565189158867, -1.606078191712731, -1.4910293258248433, 1.641359443037943, 2.7289518216487094], 0.5, 0.5, 0.04, 0.05, 300)

2025-07-07 17:21:00,643 - gym_custom_envs_real_ur_drivers_URBasic_realTimeClientEvent - INFO - Program send to Robot:
servoj([-0.16720388440378528, -1.5554565189160385, -1.606077887984231, -1.4910293258248433, 1.6413594430376393, 2.7289518216485575], 0.5, 0.5, 0.04, 0.05, 300)

2025-07-07 17:21:00,652 - gym_custom_envs_real_ur_drivers_URBasic_realTimeClientEvent - INFO - Program send to Robot:
servoj([-0.18846487938487225, -1.55545651891604, -1.6030406029869322, -1.4910293258248433, 1.6398408020576296, 2.7289518216485558], 0.5, 0.5, 0.04, 0.05, 300)

2025-07-07 17:21:00,663 - gym_custom_envs_real_ur_drivers_URBasic_realTimeClientEvent - INFO - Program send to Robot:
servoj([-0.18867748933468312, -1.55545651891604, -1.603010230136959, -1.4910293258248433, 1.6398256156478295, 2.7289518216485558], 0.5, 0.5, 0.04, 0.05, 300)

2025-07-07 17:21:00,668 - gym_custom_envs_real_ur_drivers_URBasic_realTimeClientEvent - INFO - Program send to Robot:
servoj([-0.1886796154341812, -1.55545651891604, -1.6030099264084594, -1.4910293258248433, 1.6398254637837315, 2.7289518216485558], 0.5, 0.5, 0.04, 0.05, 300)

2025-07-07 17:21:00,684 - gym_custom_envs_real_ur_drivers_URBasic_realTimeClientEvent - INFO - Program send to Robot:
servoj([-0.21145925139527816, -1.55545651891604, -1.5984540004311545, -1.4910293258248433, 1.6398254622650905, 2.7289518216485558], 0.5, 0.5, 0.04, 0.05, 300)

2025-07-07 17:21:00,691 - gym_custom_envs_real_ur_drivers_URBasic_realTimeClientEvent - INFO - Program send to Robot:
servoj([-0.21168704775488914, -1.55545651891604, -1.5984084411713815, -1.4910293258248433, 1.639825462249904, 2.7289518216485558], 0.5, 0.5, 0.04, 0.05, 300)

2025-07-07 17:21:00,700 - gym_custom_envs_real_ur_drivers_URBasic_realTimeClientEvent - INFO - Program send to Robot:
servoj([-0.21168932571848523, -1.55545651891604, -1.5984079855787838, -1.4910293258248433, 1.6398254622497521, 2.7289518216485558], 0.5, 0.5, 0.04, 0.05, 300)

2025-07-07 17:21:00,716 - gym_custom_envs_real_ur_drivers_URBasic_realTimeClientEvent - INFO - Program send to Robot:
servoj([-0.23446896319822275, -1.556975159896047, -1.5923334171028298, -1.4910293258248433, 1.6398254622497506, 2.7274331806685486], 0.5, 0.5, 0.04, 0.05, 300)

2025-07-07 17:21:00,724 - gym_custom_envs_real_ur_drivers_URBasic_realTimeClientEvent - INFO - Program send to Robot:
servoj([-0.2346967595730201, -1.5569903463058472, -1.5922726714180704, -1.4910293258248433, 1.6398254622497506, 2.7274179942587486], 0.5, 0.5, 0.04, 0.05, 300)

2025-07-07 17:21:00,733 - gym_custom_envs_real_ur_drivers_URBasic_realTimeClientEvent - INFO - Program send to Robot:
servoj([-0.23469903753676807, -1.5569904981699452, -1.592272063961223, -1.4910293258248433, 1.6398254622497506, 2.7274178423946505], 0.5, 0.5, 0.04, 0.05, 300)

2025-07-07 17:21:00,748 - gym_custom_envs_real_ur_drivers_URBasic_realTimeClientEvent - INFO - Program send to Robot:
servoj([-0.2559600340365006, -1.5600277816485997, -1.5846788529866205, -1.4910293258248433, 1.6398254622497506, 2.7228619179359894], 0.5, 0.5, 0.04, 0.05, 300)

2025-07-07 17:21:00,756 - gym_custom_envs_real_ur_drivers_URBasic_realTimeClientEvent - INFO - Program send to Robot:
servoj([-0.2561726440014979, -1.5600581544833863, -1.5846029208768746, -1.4910293258248433, 1.6398254622497506, 2.7228163586914027], 0.5, 0.5, 0.04, 0.05, 300)

2025-07-07 17:21:00,764 - gym_custom_envs_real_ur_drivers_URBasic_realTimeClientEvent - INFO - Program send to Robot:
servoj([-0.25617477010114786, -1.560058458211734, -1.584602161555777, -1.4910293258248433, 1.6398254622497506, 2.722815903098957], 0.5, 0.5, 0.04, 0.05, 300)

2025-07-07 17:21:00,771 - gym_custom_envs_real_ur_drivers_URBasic_realTimeClientEvent - INFO - Program send to Robot:
servoj([-0.2561747913621444, -1.5600584612490176, -1.584602153962566, -1.4910293258248433, 1.6398254622497506, 2.7228158985430326], 0.5, 0.5, 0.04, 0.05, 300)

2025-07-07 17:21:00,788 - gym_custom_envs_real_ur_drivers_URBasic_realTimeClientEvent - INFO - Program send to Robot:
servoj([-0.27895440627485635, -1.5676516661794242, -1.5770089489866002, -1.49254796680485, 1.6413441032297573, 2.7212972575174663], 0.5, 0.5, 0.04, 0.05, 300)

2025-07-07 17:21:00,796 - gym_custom_envs_real_ur_drivers_URBasic_realTimeClientEvent - INFO - Program send to Robot:
servoj([-0.27918220242398345, -1.5677275982287282, -1.5769330169368405, -1.49256315321465, 1.6413592896395575, 2.7212820711072108], 0.5, 0.5, 0.04, 0.05, 300)

2025-07-07 17:21:00,804 - gym_custom_envs_real_ur_drivers_URBasic_realTimeClientEvent - INFO - Program send to Robot:
servoj([-0.2791844803854747, -1.5677283575492211, -1.576932257616343, -1.492563305078748, 1.6413594415036554, 2.721281919243108], 0.5, 0.5, 0.04, 0.05, 300)

2025-07-07 17:21:00,812 - gym_custom_envs_real_ur_drivers_URBasic_realTimeClientEvent - INFO - Program send to Robot:
servoj([-0.3019641178651912, -1.57532157004246, -1.5678204041430972, -1.492563306597389, 1.6413594430222964, 2.7152073538044403], 0.5, 0.5, 0.04, 0.05, 300)

2025-07-07 17:21:00,828 - gym_custom_envs_real_ur_drivers_URBasic_realTimeClientEvent - INFO - Program send to Robot:
servoj([-0.3021919142399883, -1.5753975021673925, -1.5677292856083647, -1.4925633066125754, 1.641359443037483, 2.7151466081500537], 0.5, 0.5, 0.04, 0.05, 300)

2025-07-07 17:21:00,836 - gym_custom_envs_real_ur_drivers_URBasic_realTimeClientEvent - INFO - Program send to Robot:
servoj([-0.30219419220373633, -1.575398261488642, -1.5677283744230175, -1.4925633066127273, 1.6413594430376348, 2.7151460006935095], 0.5, 0.5, 0.04, 0.05, 300)

2025-07-07 17:21:00,844 - gym_custom_envs_real_ur_drivers_URBasic_realTimeClientEvent - INFO - Program send to Robot:
servoj([-0.3219365477234623, -1.5829914739818882, -1.5601351604111302, -1.4925633066127288, 1.6428780840176422, 2.7060341487389032], 0.5, 0.5, 0.04, 0.05, 300)

2025-07-07 17:21:00,860 - gym_custom_envs_real_ur_drivers_URBasic_realTimeClientEvent - INFO - Program send to Robot:
servoj([-0.32213397127865956, -1.5830674061068206, -1.5600592282710113, -1.4925633066127288, 1.6428932704274424, 2.7059430302193572], 0.5, 0.5, 0.04, 0.05, 300)

2025-07-07 17:21:00,867 - gym_custom_envs_real_ur_drivers_URBasic_realTimeClientEvent - INFO - Program send to Robot:
servoj([-0.32213594551421154, -1.58306816542807, -1.56005846894961, -1.4925633066127288, 1.6428934222915403, 2.7059421190341615], 0.5, 0.5, 0.04, 0.05, 300)

2025-07-07 17:21:00,876 - gym_custom_envs_real_ur_drivers_URBasic_realTimeClientEvent - INFO - Program send to Robot:
servoj([-0.33732237505663476, -1.5845868140012893, -1.555502538416376, -1.4925633066127288, 1.6428934238101813, 2.690755700122242], 0.5, 0.5, 0.04, 0.05, 300)

2025-07-07 17:21:00,892 - gym_custom_envs_real_ur_drivers_URBasic_realTimeClientEvent - INFO - Program send to Robot:
servoj([-0.337474239352059, -1.5846020004870214, -1.5554569791110437, -1.4925633066127288, 1.6428934238253678, 2.690603835933123], 0.5, 0.5, 0.04, 0.05, 300)

2025-07-07 17:21:00,899 - gym_custom_envs_real_ur_drivers_URBasic_realTimeClientEvent - INFO - Program send to Robot:
servoj([-0.3374757579950132, -1.5846021523518787, -1.5554565235179902, -1.4925633066127288, 1.6428934238255197, 2.6906023172912317], 0.5, 0.5, 0.04, 0.05, 300)

2025-07-07 17:21:00,907 - gym_custom_envs_real_ur_drivers_URBasic_realTimeClientEvent - INFO - Program send to Robot:
servoj([-0.3526621829815104, -1.5861207948505343, -1.549381955042033, -1.4925633066127288, 1.6428934238255213, 2.673897251324738], 0.5, 0.5, 0.04, 0.05, 300)

2025-07-07 17:21:00,915 - gym_custom_envs_real_ur_drivers_URBasic_realTimeClientEvent - INFO - Program send to Robot:
servoj([-0.3528140472313754, -1.586135981275521, -1.5493212093572735, -1.4925633066127288, 1.6428934238255213, 2.673730200665073], 0.5, 0.5, 0.04, 0.05, 300)

2025-07-07 17:21:00,932 - gym_custom_envs_real_ur_drivers_URBasic_realTimeClientEvent - INFO - Program send to Robot:
servoj([-0.352815565873874, -1.5861361331397708, -1.5493206019004258, -1.4925633066127288, 1.6428934238255213, 2.6737285301584763], 0.5, 0.5, 0.04, 0.05, 300)

2025-07-07 17:21:00,940 - gym_custom_envs_real_ur_drivers_URBasic_realTimeClientEvent - INFO - Program send to Robot:
servoj([-0.36496470890035376, -1.5891734166184268, -1.5432460319058294, -1.4925633066127288, 1.6444120648055283, 2.6570234626733362], 0.5, 0.5, 0.04, 0.05, 300)

2025-07-07 17:21:00,948 - gym_custom_envs_real_ur_drivers_URBasic_realTimeClientEvent - INFO - Program send to Robot:
servoj([-0.36508620033061856, -1.5892037894532134, -1.5431852862058835, -1.4925633066127288, 1.6444272512153282, 2.656856411998485], 0.5, 0.5, 0.04, 0.05, 300)

2025-07-07 17:21:00,963 - gym_custom_envs_real_ur_drivers_URBasic_realTimeClientEvent - INFO - Program send to Robot:
servoj([-0.36508741524492117, -1.5892040931815612, -1.543184678748884, -1.4925633066127288, 1.6444274030794261, 2.6568547414917365], 0.5, 0.5, 0.04, 0.05, 300)

2025-07-07 17:21:00,971 - gym_custom_envs_real_ur_drivers_URBasic_realTimeClientEvent - INFO - Program send to Robot:
servoj([-0.3787551962141249, -1.5967973011188787, -1.537110108754287, -1.4925633066127288, 1.6444274045980671, 2.6447055969466144], 0.5, 0.5, 0.04, 0.05, 300)

2025-07-07 17:21:00,979 - gym_custom_envs_real_ur_drivers_URBasic_realTimeClientEvent - INFO - Program send to Robot:
servoj([-0.37889187402381697, -1.5968732331982518, -1.5370493630543411, -1.4925633066127288, 1.6444274046132537, 2.644584105501163], 0.5, 0.5, 0.04, 0.05, 300)

2025-07-07 17:21:00,996 - gym_custom_envs_real_ur_drivers_URBasic_realTimeClientEvent - INFO - Program send to Robot:
servoj([-0.3788932408019139, -1.5968739925190456, -1.5370487555973418, -1.4925633066127288, 1.6444274046134055, 2.6445828905867086], 0.5, 0.5, 0.04, 0.05, 300)

2025-07-07 17:21:01,004 - gym_custom_envs_real_ur_drivers_URBasic_realTimeClientEvent - INFO - Program send to Robot:
servoj([-0.3895237413297426, -1.6014299230522735, -1.5324928265827518, -1.4925633066127288, 1.644427404613407, 2.6324337505975093], 0.5, 0.5, 0.04, 0.05, 300)

2025-07-07 17:21:01,011 - gym_custom_envs_real_ur_drivers_URBasic_realTimeClientEvent - INFO - Program send to Robot:
servoj([-0.3896300463350209, -1.6014754823576058, -1.5324472672926057, -1.4925633066127288, 1.644427404613407, 2.6323122591976174], 0.5, 0.5, 0.04, 0.05, 300)

2025-07-07 17:21:01,027 - gym_custom_envs_real_ur_drivers_URBasic_realTimeClientEvent - INFO - Program send to Robot:
servoj([-0.38963110938507367, -1.6014759379506591, -1.5324468116997043, -1.4925633066127288, 1.644427404613407, 2.6323110442836186], 0.5, 0.5, 0.04, 0.05, 300)

2025-07-07 17:21:01,036 - gym_custom_envs_real_ur_drivers_URBasic_realTimeClientEvent - INFO - Program send to Robot:
servoj([-0.40178024785562844, -1.6029945834865966, -1.5278908842037546, -1.4925633066127288, 1.644427404613407, 2.623199186254438], 0.5, 0.5, 0.04, 0.05, 300)

2025-07-07 17:21:01,044 - gym_custom_envs_real_ur_drivers_URBasic_realTimeClientEvent - INFO - Program send to Robot:
servoj([-0.40190173924033396, -1.603009769941956, -1.527845324928795, -1.4925633066127288, 1.644427404613407, 2.623108067674146], 0.5, 0.5, 0.04, 0.05, 300)

2025-07-07 17:21:01,060 - gym_custom_envs_real_ur_drivers_URBasic_realTimeClientEvent - INFO - Program send to Robot:
servoj([-0.40190295415418104, -1.6030099218065097, -1.5278448693360456, -1.4925633066127288, 1.644427404613407, 2.6231071564883433], 0.5, 0.5, 0.04, 0.05, 300)

2025-07-07 17:21:01,067 - gym_custom_envs_real_ur_drivers_URBasic_realTimeClientEvent - INFO - Program send to Robot:
servoj([-0.41405209414337374, -1.6030099233251551, -1.526326223800111, -1.4925633066127288, 1.644427404613407, 2.615513942476451], 0.5, 0.5, 0.04, 0.05, 300)

2025-07-07 17:21:01,076 - gym_custom_envs_real_ur_drivers_URBasic_realTimeClientEvent - INFO - Program send to Robot:
servoj([-0.41417358554326567, -1.6030099233403416, -1.5263110373447517, -1.4925633066127288, 1.644427404613407, 2.615438010336332], 0.5, 0.5, 0.04, 0.05, 300)

2025-07-07 17:21:01,092 - gym_custom_envs_real_ur_drivers_URBasic_realTimeClientEvent - INFO - Program send to Robot:
servoj([-0.41417480045726457, -1.6030099233404935, -1.526310885480198, -1.4925633066127288, 1.644427404613407, 2.615437251014931], 0.5, 0.5, 0.04, 0.05, 300)

2025-07-07 17:21:01,099 - gym_custom_envs_real_ur_drivers_URBasic_realTimeClientEvent - INFO - Program send to Robot:
servoj([-0.4263239404464588, -1.6045285643205018, -1.5247922429815457, -1.4925633066127288, 1.644427404613407, 2.6048067565616697], 0.5, 0.5, 0.04, 0.05, 300)

2025-07-07 17:21:01,116 - gym_custom_envs_real_ur_drivers_URBasic_realTimeClientEvent - INFO - Program send to Robot:
servoj([-0.42644543184635075, -1.6045437507303018, -1.524777056556559, -1.4925633066127288, 1.644427404613407, 2.604700451617137], 0.5, 0.5, 0.04, 0.05, 300)

2025-07-07 17:21:01,124 - gym_custom_envs_real_ur_drivers_URBasic_realTimeClientEvent - INFO - Program send to Robot:
servoj([-0.42644664676034966, -1.6045439025944, -1.5247769046923092, -1.4925633066127288, 1.644427404613407, 2.604699388567692], 0.5, 0.5, 0.04, 0.05, 300)

2025-07-07 17:21:01,132 - gym_custom_envs_real_ur_drivers_URBasic_realTimeClientEvent - INFO - Program send to Robot:
servoj([-0.43859578674954386, -1.6060625450930475, -1.5247769031736667, -1.4925633066127288, 1.644427404613407, 2.595587532057157], 0.5, 0.5, 0.04, 0.05, 300)

2025-07-07 17:21:01,148 - gym_custom_envs_real_ur_drivers_URBasic_realTimeClientEvent - INFO - Program send to Robot:
servoj([-0.43871727814943584, -1.6060777315180341, -1.5247769031584804, -1.4925633066127288, 1.644427404613407, 2.595496413492052], 0.5, 0.5, 0.04, 0.05, 300)

2025-07-07 17:21:01,156 - gym_custom_envs_real_ur_drivers_URBasic_realTimeClientEvent - INFO - Program send to Robot:
servoj([-0.43871849306343474, -1.606077883382284, -1.5247769031583285, -1.4925633066127288, 1.644427404613407, 2.5954955023064006], 0.5, 0.5, 0.04, 0.05, 300)

2025-07-07 17:21:01,169 - gym_custom_envs_real_ur_drivers_URBasic_realTimeClientEvent - INFO - Program send to Robot:
servoj([-0.4523862740326359, -1.6075965258809335, -1.524776903158327, -1.4925633066127288, 1.644427404613407, 2.58790228829451], 0.5, 0.5, 0.04, 0.05, 300)

2025-07-07 17:21:01,180 - gym_custom_envs_real_ur_drivers_URBasic_realTimeClientEvent - INFO - Program send to Robot:
servoj([-0.45252295184232794, -1.60761171230592, -1.524776903158327, -1.4925633066127288, 1.644427404613407, 2.587826356154391], 0.5, 0.5, 0.04, 0.05, 300)

2025-07-07 17:21:01,188 - gym_custom_envs_real_ur_drivers_URBasic_realTimeClientEvent - INFO - Program send to Robot:
servoj([-0.45252431862042486, -1.6076118641701698, -1.524776903158327, -1.4925633066127288, 1.644427404613407, 2.5878255968329897], 0.5, 0.5, 0.04, 0.05, 300)

2025-07-07 17:21:01,196 - gym_custom_envs_real_ur_drivers_URBasic_realTimeClientEvent - INFO - Program send to Robot:
servoj([-0.466192101108267, -1.6076118656888123, -1.524776903158327, -1.4925633066127288, 1.644427404613407, 2.583269666299755], 0.5, 0.5, 0.04, 0.05, 300)

2025-07-07 17:21:01,211 - gym_custom_envs_real_ur_drivers_URBasic_realTimeClientEvent - INFO - Program send to Robot:
servoj([-0.4663287789331454, -1.6076118657039986, -1.524776903158327, -1.4925633066127288, 1.644427404613407, 2.5832241069944226], 0.5, 0.5, 0.04, 0.05, 300)

2025-07-07 17:21:01,220 - gym_custom_envs_real_ur_drivers_URBasic_realTimeClientEvent - INFO - Program send to Robot:
servoj([-0.4663301457113942, -1.6076118657041505, -1.524776903158327, -1.4925633066127288, 1.644427404613407, 2.5832236514013696], 0.5, 0.5, 0.04, 0.05, 300)

2025-07-07 17:21:01,235 - gym_custom_envs_real_ur_drivers_URBasic_realTimeClientEvent - INFO - Program send to Robot:
servoj([-0.4799979281992375, -1.607611865704152, -1.526295544138334, -1.4925633066127288, 1.644427404613407, 2.5771490829254122], 0.5, 0.5, 0.04, 0.05, 300)

2025-07-07 17:21:01,244 - gym_custom_envs_real_ur_drivers_URBasic_realTimeClientEvent - INFO - Program send to Robot:
servoj([-0.4801346060241159, -1.607611865704152, -1.526310730548134, -1.4925633066127288, 1.644427404613407, 2.577088337240653], 0.5, 0.5, 0.04, 0.05, 300)

2025-07-07 17:21:01,260 - gym_custom_envs_real_ur_drivers_URBasic_realTimeClientEvent - INFO - Program send to Robot:
servoj([-0.4922851006424189, -1.607611865704152, -1.526310882412232, -1.4925633066127288, 1.644427404613407, 2.5694945248837713], 0.5, 0.5, 0.04, 0.05, 300)

2025-07-07 17:21:01,267 - gym_custom_envs_real_ur_drivers_URBasic_realTimeClientEvent - INFO - Program send to Robot:
servoj([-0.49240660558860194, -1.607611865704152, -1.526310883930873, -1.4925633066127288, 1.644427404613407, 2.5694185867602024], 0.5, 0.5, 0.04, 0.05, 300)

2025-07-07 17:21:01,284 - gym_custom_envs_real_ur_drivers_URBasic_realTimeClientEvent - INFO - Program send to Robot:
servoj([-0.49240782063806376, -1.607611865704152, -1.5263108839460593, -1.4925633066127288, 1.644427404613407, 2.5694178273789667], 0.5, 0.5, 0.04, 0.05, 300)

2025-07-07 17:21:01,293 - gym_custom_envs_real_ur_drivers_URBasic_realTimeClientEvent - INFO - Program send to Robot:
servoj([-0.5015196786685991, -1.607611865704152, -1.5263108839462112, -1.4925633066127288, 1.6429087636334, 2.5603059739051135], 0.5, 0.5, 0.04, 0.05, 300)

2025-07-07 17:21:01,300 - gym_custom_envs_real_ur_drivers_URBasic_realTimeClientEvent - INFO - Program send to Robot:
servoj([-0.5016107972489046, -1.607611865704152, -1.5263108839462127, -1.4925633066127288, 1.6428935772236, 2.560214855370375], 0.5, 0.5, 0.04, 0.05, 300)

2025-07-07 17:21:01,315 - gym_custom_envs_real_ur_drivers_URBasic_realTimeClientEvent - INFO - Program send to Robot:
servoj([-0.5016117084347076, -1.607611865704152, -1.5263108839462127, -1.4925633066127288, 1.642893425359502, 2.5602139441850276], 0.5, 0.5, 0.04, 0.05, 300)

2025-07-07 17:21:01,324 - gym_custom_envs_real_ur_drivers_URBasic_realTimeClientEvent - INFO - Program send to Robot:
servoj([-0.5122422044066134, -1.6091305066841588, -1.5263108839462127, -1.4925633066127288, 1.642893423840861, 2.551102089193133], 0.5, 0.5, 0.04, 0.05, 300)

2025-07-07 17:21:01,331 - gym_custom_envs_real_ur_drivers_URBasic_realTimeClientEvent - INFO - Program send to Robot:
servoj([-0.5123485093663324, -1.609145693093959, -1.5263108839462127, -1.4925633066127288, 1.6428934238256745, 2.551010970643214], 0.5, 0.5, 0.04, 0.05, 300)

2025-07-07 17:21:01,348 - gym_custom_envs_real_ur_drivers_URBasic_realTimeClientEvent - INFO - Program send to Robot:
servoj([-0.5123495724159296, -1.609145844958057, -1.5263108839462127, -1.4925633066127288, 1.6428934238255228, 2.551010059457715], 0.5, 0.5, 0.04, 0.05, 300)

2025-07-07 17:21:01,356 - gym_custom_envs_real_ur_drivers_URBasic_realTimeClientEvent - INFO - Program send to Robot:
servoj([-0.5260173518664862, -1.609145846476698, -1.5247922429662057, -1.4925633066127288, 1.6428934238255213, 2.5418982044658196], 0.5, 0.5, 0.04, 0.05, 300)

2025-07-07 17:21:01,364 - gym_custom_envs_real_ur_drivers_URBasic_realTimeClientEvent - INFO - Program send to Robot:
servoj([-0.5261540296609918, -1.6091458464918842, -1.5247770565564056, -1.4925633066127288, 1.6428934238255213, 2.5418070859159005], 0.5, 0.5, 0.04, 0.05, 300)

2025-07-07 17:21:01,380 - gym_custom_envs_real_ur_drivers_URBasic_realTimeClientEvent - INFO - Program send to Robot:
servoj([-0.5261553964389369, -1.609145846492036, -1.5247769046923076, -1.4925633066127288, 1.6428934238255213, 2.5418061747304015], 0.5, 0.5, 0.04, 0.05, 300)

2025-07-07 17:21:01,388 - gym_custom_envs_real_ur_drivers_URBasic_realTimeClientEvent - INFO - Program send to Robot:
servoj([-0.5398231789267774, -1.6091458464920376, -1.5247769031736667, -1.4925633066127288, 1.6428934238255213, 2.535731601698519], 0.5, 0.5, 0.04, 0.05, 300)

2025-07-07 17:21:01,396 - gym_custom_envs_real_ur_drivers_URBasic_realTimeClientEvent - INFO - Program send to Robot:
servoj([-0.5399598567516559, -1.6091458464920376, -1.5247769031584804, -1.4925633066127288, 1.6428934238255213, 2.5356708559682004], 0.5, 0.5, 0.04, 0.05, 300)

2025-07-07 17:21:01,411 - gym_custom_envs_real_ur_drivers_URBasic_realTimeClientEvent - INFO - Program send to Robot:
servoj([-0.5399612235299047, -1.6091458464920376, -1.5247769031583285, -1.4925633066127288, 1.6428934238255213, 2.5356702485108973], 0.5, 0.5, 0.04, 0.05, 300)

2025-07-07 17:21:01,419 - gym_custom_envs_real_ur_drivers_URBasic_realTimeClientEvent - INFO - Program send to Robot:
servoj([-0.5521103650377415, -1.6091458464920376, -1.524776903158327, -1.4925633066127288, 1.6413747828455152, 2.5295956785162974], 0.5, 0.5, 0.04, 0.05, 300)

2025-07-07 17:21:01,427 - gym_custom_envs_real_ur_drivers_URBasic_realTimeClientEvent - INFO - Program send to Robot:
servoj([-0.5522318564528198, -1.6091458464920376, -1.524776903158327, -1.4925633066127288, 1.641359596435715, 2.5295349328163512], 0.5, 0.5, 0.04, 0.05, 300)

2025-07-07 17:21:01,444 - gym_custom_envs_real_ur_drivers_URBasic_realTimeClientEvent - INFO - Program send to Robot:
servoj([-0.5522330713669706, -1.6091458464920376, -1.524776903158327, -1.4925633066127288, 1.641359444571617, 2.529534325359352], 0.5, 0.5, 0.04, 0.05, 300)

2025-07-07 17:21:01,452 - gym_custom_envs_real_ur_drivers_URBasic_realTimeClientEvent - INFO - Program send to Robot:
servoj([-0.5628635703761599, -1.6091458464920376, -1.524776903158327, -1.4925633066127288, 1.641359443052976, 2.526497037324768], 0.5, 0.5, 0.04, 0.05, 300)

2025-07-07 17:21:01,460 - gym_custom_envs_real_ur_drivers_URBasic_realTimeClientEvent - INFO - Program send to Robot:
servoj([-0.5629698753662518, -1.6091458464920376, -1.524776903158327, -1.4925633066127288, 1.6413594430377896, 2.5264666644444222], 0.5, 0.5, 0.04, 0.05, 300)

2025-07-07 17:21:01,476 - gym_custom_envs_real_ur_drivers_URBasic_realTimeClientEvent - INFO - Program send to Robot:
servoj([-0.5629709384161526, -1.6091458464920376, -1.524776903158327, -1.4925633066127288, 1.6413594430376377, 2.526466360715619], 0.5, 0.5, 0.04, 0.05, 300)

2025-07-07 17:21:01,483 - gym_custom_envs_real_ur_drivers_URBasic_realTimeClientEvent - INFO - Program send to Robot:
servoj([-0.573601435906699, -1.612183128452051, -1.524776903158327, -1.4925633066127288, 1.6428780840176425, 2.523429075718317], 0.5, 0.5, 0.04, 0.05, 300)

2025-07-07 17:21:01,492 - gym_custom_envs_real_ur_drivers_URBasic_realTimeClientEvent - INFO - Program send to Robot:
servoj([-0.5737077408816045, -1.6122135012716512, -1.524776903158327, -1.4925633066127288, 1.6428932704274424, 2.523398702868344], 0.5, 0.5, 0.04, 0.05, 300)

2025-07-07 17:21:01,508 - gym_custom_envs_real_ur_drivers_URBasic_realTimeClientEvent - INFO - Program send to Robot:
servoj([-0.5737088039313535, -1.6122138049998471, -1.524776903158327, -1.4925633066127288, 1.6428934222915403, 2.523398399139844], 0.5, 0.5, 0.04, 0.05, 300)

2025-07-07 17:21:01,516 - gym_custom_envs_real_ur_drivers_URBasic_realTimeClientEvent - INFO - Program send to Robot:
servoj([-0.5843393014218987, -1.613732449017136, -1.524776903158327, -1.4925633066127288, 1.6428934238101813, 2.5218797551225527], 0.5, 0.5, 0.04, 0.05, 300)

2025-07-07 17:21:01,523 - gym_custom_envs_real_ur_drivers_URBasic_realTimeClientEvent - INFO - Program send to Robot:
servoj([-0.5844456063968042, -1.613747635457309, -1.524776903158327, -1.4925633066127288, 1.6428934238253678, 2.5218645686823797], 0.5, 0.5, 0.04, 0.05, 300)

2025-07-07 17:21:01,531 - gym_custom_envs_real_ur_drivers_URBasic_realTimeClientEvent - INFO - Program send to Robot:
servoj([-0.5844466694465532, -1.6137477873217108, -1.524776903158327, -1.4925633066127288, 1.6428934238255197, 2.521864416817978], 0.5, 0.5, 0.04, 0.05, 300)

2025-07-07 17:21:01,548 - gym_custom_envs_real_ur_drivers_URBasic_realTimeClientEvent - INFO - Program send to Robot:
servoj([-0.5920398849770846, -1.6137477888403546, -1.526295544138334, -1.4925633066127288, 1.6428934238255213, 2.520345774319327], 0.5, 0.5, 0.04, 0.05, 300)

2025-07-07 17:21:01,556 - gym_custom_envs_real_ur_drivers_URBasic_realTimeClientEvent - INFO - Program send to Robot:
servoj([-0.5921158171323898, -1.6137477888555412, -1.526310730548134, -1.4925633066127288, 1.6428934238255213, 2.5203305878943407], 0.5, 0.5, 0.04, 0.05, 300)

2025-07-07 17:21:01,572 - gym_custom_envs_real_ur_drivers_URBasic_realTimeClientEvent - INFO - Program send to Robot:
servoj([-0.5921165764539429, -1.613747788855693, -1.526310882412232, -1.4925633066127288, 1.6428934238255213, 2.5203304360300907], 0.5, 0.5, 0.04, 0.05, 300)

2025-07-07 17:21:01,580 - gym_custom_envs_real_ur_drivers_URBasic_realTimeClientEvent - INFO - Program send to Robot:
servoj([-0.5981911479671853, -1.6137477888556946, -1.524792242950866, -1.4925633066127288, 1.6428934238255213, 2.520330434511448], 0.5, 0.5, 0.04, 0.05, 300)

2025-07-07 17:21:01,595 - gym_custom_envs_real_ur_drivers_URBasic_realTimeClientEvent - INFO - Program send to Robot:
servoj([-0.5982518936823178, -1.6137477888556946, -1.5247770565562522, -1.4925633066127288, 1.6428934238255213, 2.5203304344962616], 0.5, 0.5, 0.04, 0.05, 300)

2025-07-07 17:21:01,604 - gym_custom_envs_real_ur_drivers_URBasic_realTimeClientEvent - INFO - Program send to Robot:
servoj([-0.5982525011394692, -1.6137477888556946, -1.524776904692306, -1.4925633066127288, 1.6428934238255213, 2.5203304344961097], 0.5, 0.5, 0.04, 0.05, 300)

2025-07-07 17:21:01,612 - gym_custom_envs_real_ur_drivers_URBasic_realTimeClientEvent - INFO - Program send to Robot:
servoj([-0.5997711481940476, -1.6137477888556946, -1.5247769031736667, -1.4925633066127288, 1.6428934238255213, 2.5203304344961084], 0.5, 0.5, 0.04, 0.05, 300)

2025-07-07 17:21:01,628 - gym_custom_envs_real_ur_drivers_URBasic_realTimeClientEvent - INFO - Program send to Robot:
servoj([-0.5997863346645934, -1.6137477888556946, -1.5247769031584804, -1.4925633066127288, 1.6428934238255213, 2.5203304344961084], 0.5, 0.5, 0.04, 0.05, 300)

2025-07-07 17:21:01,635 - gym_custom_envs_real_ur_drivers_URBasic_realTimeClientEvent - INFO - Program send to Robot:
servoj([-0.5997864865292989, -1.6137477888556946, -1.5247769031583285, -1.4925633066127288, 1.6428934238255213, 2.5203304344961084], 0.5, 0.5, 0.04, 0.05, 300)

2025-07-07 17:21:01,643 - gym_custom_envs_real_ur_drivers_URBasic_realTimeClientEvent - INFO - Program send to Robot:
servoj([-0.5997864880479459, -1.6137477888556946, -1.524776903158327, -1.4925633066127288, 1.6444120648055283, 2.5203304344961084], 0.5, 0.5, 0.04, 0.05, 300)

2025-07-07 17:21:01,651 - gym_custom_envs_real_ur_drivers_URBasic_realTimeClientEvent - INFO - Program send to Robot:
servoj([-0.5997864880631324, -1.6137477888556946, -1.524776903158327, -1.4925633066127288, 1.6444272512153282, 2.5203304344961084], 0.5, 0.5, 0.04, 0.05, 300)

2025-07-07 17:21:01,668 - gym_custom_envs_real_ur_drivers_URBasic_realTimeClientEvent - INFO - Program send to Robot:
servoj([-0.5997864880632843, -1.6137477888556946, -1.524776903158327, -1.4925633066127288, 1.6444274030794261, 2.5203304344961084], 0.5, 0.5, 0.04, 0.05, 300)

2025-07-07 17:21:01,676 - gym_custom_envs_real_ur_drivers_URBasic_realTimeClientEvent - INFO - Program send to Robot:
servoj([-0.5982678470832787, -1.6137477888556946, -1.5232582621783208, -1.4925633066127288, 1.6444274045980671, 2.5203304344961084], 0.5, 0.5, 0.04, 0.05, 300)

2025-07-07 17:21:01,692 - gym_custom_envs_real_ur_drivers_URBasic_realTimeClientEvent - INFO - Program send to Robot:
servoj([-0.5982526606734787, -1.6137477888556946, -1.5232430757685207, -1.4925633066127288, 1.6444274046132537, 2.5203304344961084], 0.5, 0.5, 0.04, 0.05, 300)

2025-07-07 17:21:01,708 - gym_custom_envs_real_ur_drivers_URBasic_realTimeClientEvent - INFO - Program send to Robot:
servoj([-0.5982525088093807, -1.6137477888556946, -1.5217242829244157, -1.4925633066127288, 1.6444274046134055, 2.521849075476115], 0.5, 0.5, 0.04, 0.05, 300)

2025-07-07 17:21:01,715 - gym_custom_envs_real_ur_drivers_URBasic_realTimeClientEvent - INFO - Program send to Robot:
servoj([-0.5982525072907398, -1.6137477888556946, -1.5217090949959746, -1.4925633066127288, 1.644427404613407, 2.521864261885915], 0.5, 0.5, 0.04, 0.05, 300)

2025-07-07 17:21:01,724 - gym_custom_envs_real_ur_drivers_URBasic_realTimeClientEvent - INFO - Program send to Robot:
servoj([-0.5982525072755533, -1.6137477888556946, -1.5217089431166904, -1.4925633066127288, 1.644427404613407, 2.5218644137500132], 0.5, 0.5, 0.04, 0.05, 300)

2025-07-07 17:21:01,733 - gym_custom_envs_real_ur_drivers_URBasic_realTimeClientEvent - INFO - Program send to Robot:
servoj([-0.5982525072754015, -1.6137477888556946, -1.5217089415978975, -1.4925633066127288, 1.644427404613407, 2.521864415268654], 0.5, 0.5, 0.04, 0.05, 300)

2025-07-07 17:21:01,748 - gym_custom_envs_real_ur_drivers_URBasic_realTimeClientEvent - INFO - Program send to Robot:
servoj([-0.590659302375366, -1.6137477888556946, -1.5201903006027027, -1.4925633066127288, 1.644427404613407, 2.5218644152838405], 0.5, 0.5, 0.04, 0.05, 300)

2025-07-07 17:21:01,756 - gym_custom_envs_real_ur_drivers_URBasic_realTimeClientEvent - INFO - Program send to Robot:
servoj([-0.5905833703263657, -1.6137477888556946, -1.5201751141927509, -1.4925633066127288, 1.644427404613407, 2.5218644152839924], 0.5, 0.5, 0.04, 0.05, 300)

2025-07-07 17:21:01,764 - gym_custom_envs_real_ur_drivers_URBasic_realTimeClientEvent - INFO - Program send to Robot:
servoj([-0.5905826110058757, -1.6137477888556946, -1.5201749623286513, -1.4925633066127288, 1.644427404613407, 2.521864415283994], 0.5, 0.5, 0.04, 0.05, 300)

2025-07-07 17:21:01,772 - gym_custom_envs_real_ur_drivers_URBasic_realTimeClientEvent - INFO - Program send to Robot:
servoj([-0.5769148345926096, -1.6137477888556946, -1.5186563198300034, -1.4925633066127288, 1.647464686573421, 2.523383056264001], 0.5, 0.5, 0.04, 0.05, 300)

2025-07-07 17:21:01,788 - gym_custom_envs_real_ur_drivers_URBasic_realTimeClientEvent - INFO - Program send to Robot:
servoj([-0.576778156828477, -1.6137477888556946, -1.518641133405017, -1.4925633066127288, 1.647495059393021, 2.523398242673801], 0.5, 0.5, 0.04, 0.05, 300)

2025-07-07 17:21:01,796 - gym_custom_envs_real_ur_drivers_URBasic_realTimeClientEvent - INFO - Program send to Robot:
servoj([-0.5767767900508356, -1.6137477888556946, -1.5186409815407669, -1.4925633066127288, 1.6474953631212172, 2.523398394537899], 0.5, 0.5, 0.04, 0.05, 300)

2025-07-07 17:21:01,812 - gym_custom_envs_real_ur_drivers_URBasic_realTimeClientEvent - INFO - Program send to Robot:
servoj([-0.5494412387429374, -1.6122291478756876, -1.5186409800221246, -1.4925633066127288, 1.647495366158499, 2.52339839605654], 0.5, 0.5, 0.04, 0.05, 300)

2025-07-07 17:21:01,820 - gym_custom_envs_real_ur_drivers_URBasic_realTimeClientEvent - INFO - Program send to Robot:
servoj([-0.5491678832298584, -1.6122139614658875, -1.518640980006938, -1.4925633066127288, 1.6474953661888718, 2.5233983960717263], 0.5, 0.5, 0.04, 0.05, 300)

2025-07-07 17:21:01,828 - gym_custom_envs_real_ur_drivers_URBasic_realTimeClientEvent - INFO - Program send to Robot:
servoj([-0.5491651496747276, -1.6122138096017895, -1.5186409800067862, -1.4925633066127288, 1.6474953661891756, 2.523398396071878], 0.5, 0.5, 0.04, 0.05, 300)

2025-07-07 17:21:01,844 - gym_custom_envs_real_ur_drivers_URBasic_realTimeClientEvent - INFO - Program send to Robot:
servoj([-0.5203109437190473, -1.6122138080831485, -1.5186409800067846, -1.4925633066127288, 1.6474953661891787, 2.5249170370518863], 0.5, 0.5, 0.04, 0.05, 300)

2025-07-07 17:21:01,852 - gym_custom_envs_real_ur_drivers_URBasic_realTimeClientEvent - INFO - Program send to Robot:
servoj([-0.5200224016594905, -1.612213808067962, -1.5186409800067846, -1.4925633066127288, 1.6474953661891787, 2.5249322234616867], 0.5, 0.5, 0.04, 0.05, 300)

2025-07-07 17:21:01,860 - gym_custom_envs_real_ur_drivers_URBasic_realTimeClientEvent - INFO - Program send to Robot:
servoj([-0.520019516238895, -1.6122138080678101, -1.5186409800067846, -1.4925633066127288, 1.6474953661891787, 2.5249323753257844], 0.5, 0.5, 0.04, 0.05, 300)

2025-07-07 17:21:01,868 - gym_custom_envs_real_ur_drivers_URBasic_realTimeClientEvent - INFO - Program send to Robot:
servoj([-0.4957212317045806, -1.6122138080678088, -1.5186409800067846, -1.4925633066127288, 1.6474953661891787, 2.526451017824433], 0.5, 0.5, 0.04, 0.05, 300)

2025-07-07 17:21:01,884 - gym_custom_envs_real_ur_drivers_URBasic_realTimeClientEvent - INFO - Program send to Robot:
servoj([-0.49547824885923747, -1.6122138080678088, -1.5186409800067846, -1.4925633066127288, 1.6474953661891787, 2.5264662042494193], 0.5, 0.5, 0.04, 0.05, 300)

2025-07-07 17:21:01,892 - gym_custom_envs_real_ur_drivers_URBasic_realTimeClientEvent - INFO - Program send to Robot:
servoj([-0.495475819030784, -1.6122138080678088, -1.5186409800067846, -1.4925633066127288, 1.6474953661891787, 2.526466356113669], 0.5, 0.5, 0.04, 0.05, 300)

2025-07-07 17:21:01,899 - gym_custom_envs_real_ur_drivers_URBasic_realTimeClientEvent - INFO - Program send to Robot:
servoj([-0.4742148210124044, -1.6106951670878022, -1.5156036980467715, -1.4925633066127288, 1.6490140071691857, 2.5264663576323114], 0.5, 0.5, 0.04, 0.05, 300)

2025-07-07 17:21:01,907 - gym_custom_envs_real_ur_drivers_URBasic_realTimeClientEvent - INFO - Program send to Robot:
servoj([-0.4740022110322206, -1.610679980678002, -1.5155733252271715, -1.4925633066127288, 1.6490291935789858, 2.526466357647498], 0.5, 0.5, 0.04, 0.05, 300)

2025-07-07 17:21:01,923 - gym_custom_envs_real_ur_drivers_URBasic_rtdeEvent - INFO - Total packages: 1000
2025-07-07 17:21:01,924 - gym_custom_envs_real_ur_drivers_URBasic_realTimeClientEvent - INFO - Program send to Robot:
servoj([-0.4740000849324188, -1.6106798288139041, -1.5155730214989755, -1.4925633066127288, 1.6490293454430838, 2.52646635764765], 0.5, 0.5, 0.04, 0.05, 300)

2025-07-07 17:21:01,932 - gym_custom_envs_real_ur_drivers_URBasic_realTimeClientEvent - INFO - Program send to Robot:
servoj([-0.4481831670113054, -1.6091611863152564, -1.5125357365016796, -1.4940819475927356, 1.6490293469617248, 2.5295036396076647], 0.5, 0.5, 0.04, 0.05, 300)

2025-07-07 17:21:01,939 - gym_custom_envs_real_ur_drivers_URBasic_realTimeClientEvent - INFO - Program send to Robot:
servoj([-0.4479249978320943, -1.60914599989027, -1.5125053636517065, -1.4940971340025355, 1.649029346976911, 2.529534012427265], 0.5, 0.5, 0.04, 0.05, 300)

2025-07-07 17:21:01,947 - gym_custom_envs_real_ur_drivers_URBasic_realTimeClientEvent - INFO - Program send to Robot:
servoj([-0.44792241614030215, -1.60914584802602, -1.5125050599232068, -1.4940972858666337, 1.649029346977063, 2.529534316155461], 0.5, 0.5, 0.04, 0.05, 300)

2025-07-07 17:21:01,964 - gym_custom_envs_real_ur_drivers_URBasic_realTimeClientEvent - INFO - Program send to Robot:
servoj([-0.42058685268326185, -1.6076272055273708, -1.510986415905915, -1.4940972873852745, 1.6490293469770645, 2.532571601152756], 0.5, 0.5, 0.04, 0.05, 300)

2025-07-07 17:21:01,972 - gym_custom_envs_real_ur_drivers_URBasic_realTimeClientEvent - INFO - Program send to Robot:
servoj([-0.4203134970486915, -1.6076120191023842, -1.510971229465742, -1.494097287400461, 1.6490293469770645, 2.532601974002729], 0.5, 0.5, 0.04, 0.05, 300)

2025-07-07 17:21:01,980 - gym_custom_envs_real_ur_drivers_URBasic_realTimeClientEvent - INFO - Program send to Robot:
servoj([-0.42031076349234575, -1.6076118672381343, -1.5109710776013403, -1.4940972874006129, 1.6490293469770645, 2.5326022777312285], 0.5, 0.5, 0.04, 0.05, 300)

2025-07-07 17:21:01,988 - gym_custom_envs_real_ur_drivers_URBasic_realTimeClientEvent - INFO - Program send to Robot:
servoj([-0.4203107361567823, -1.607611865719492, -1.5109710760826962, -1.4940972874006144, 1.6490293469770645, 2.5326022807685136], 0.5, 0.5, 0.04, 0.05, 300)

2025-07-07 17:21:02,003 - gym_custom_envs_real_ur_drivers_URBasic_realTimeClientEvent - INFO - Program send to Robot:
servoj([-0.39449383922331166, -1.6076118657043055, -1.5109710760675097, -1.4940972874006144, 1.6490293469770645, 2.5371582037389073], 0.5, 0.5, 0.04, 0.05, 300)

2025-07-07 17:21:02,012 - gym_custom_envs_real_ur_drivers_URBasic_realTimeClientEvent - INFO - Program send to Robot:
servoj([-0.394235670253977, -1.6076118657041536, -1.5109710760673578, -1.4940972874006144, 1.6490293469770645, 2.5372037629686113], 0.5, 0.5, 0.04, 0.05, 300)

2025-07-07 17:21:02,020 - gym_custom_envs_real_ur_drivers_URBasic_realTimeClientEvent - INFO - Program send to Robot:
servoj([-0.39423308856428363, -1.607611865704152, -1.5109710760673565, -1.4940972874006144, 1.6490293469770645, 2.537204218560908], 0.5, 0.5, 0.04, 0.05, 300)

2025-07-07 17:21:02,028 - gym_custom_envs_real_ur_drivers_URBasic_realTimeClientEvent - INFO - Program send to Robot:
servoj([-0.36993480706727777, -1.6030559427641315, -1.5109710760673565, -1.4956159283806214, 1.6505479879570715, 2.5432787870368583], 0.5, 0.5, 0.04, 0.05, 300)

2025-07-07 17:21:02,044 - gym_custom_envs_real_ur_drivers_URBasic_realTimeClientEvent - INFO - Program send to Robot:
servoj([-0.36969182425230773, -1.6030103835347314, -1.5109710760673565, -1.4956311147904215, 1.6505631743668716, 2.5433395327216175], 0.5, 0.5, 0.04, 0.05, 300)

2025-07-07 17:21:02,051 - gym_custom_envs_real_ur_drivers_URBasic_realTimeClientEvent - INFO - Program send to Robot:
servoj([-0.36968939442415805, -1.6030099279424375, -1.5109710760673565, -1.4956312666545195, 1.6505633262309696, 2.5433401401784654], 0.5, 0.5, 0.04, 0.05, 300)

2025-07-07 17:21:02,059 - gym_custom_envs_real_ur_drivers_URBasic_realTimeClientEvent - INFO - Program send to Robot:
servoj([-0.34387247346576155, -1.5984540004464942, -1.5109710760673565, -1.4971499091531673, 1.6520819687296164, 2.547896069193054], 0.5, 0.5, 0.04, 0.05, 300)

2025-07-07 17:21:02,076 - gym_custom_envs_real_ur_drivers_URBasic_realTimeClientEvent - INFO - Program send to Robot:
servoj([-0.34361430425617756, -1.5984084411715347, -1.5109710760673565, -1.4971650955781537, 1.6520971551546029, 2.5479416284832], 0.5, 0.5, 0.04, 0.05, 300)

2025-07-07 17:21:02,084 - gym_custom_envs_real_ur_drivers_URBasic_realTimeClientEvent - INFO - Program send to Robot:
servoj([-0.34361172256408173, -1.5984079855787852, -1.5109710760673565, -1.4971652474424035, 1.6520973070188527, 2.5479420840761016], 0.5, 0.5, 0.04, 0.05, 300)

2025-07-07 17:21:02,092 - gym_custom_envs_real_ur_drivers_URBasic_realTimeClientEvent - INFO - Program send to Robot:
servoj([-0.3177948000870453, -1.5908147761228237, -1.5109710760673565, -1.5032398128810731, 1.6536159495175022, 2.5524980115720513], 0.5, 0.5, 0.04, 0.05, 300)

2025-07-07 17:21:02,100 - gym_custom_envs_real_ur_drivers_URBasic_realTimeClientEvent - INFO - Program send to Robot:
servoj([-0.31753663086227496, -1.5907388440282642, -1.5109710760673565, -1.5033005585354597, 1.6536311359424887, 2.5525435708470106], 0.5, 0.5, 0.04, 0.05, 300)

2025-07-07 17:21:02,115 - gym_custom_envs_real_ur_drivers_URBasic_realTimeClientEvent - INFO - Program send to Robot:
servoj([-0.31753404917002725, -1.5907380847073187, -1.5109710760673565, -1.5033011659920037, 1.6536312878067385, 2.5525440264397603], 0.5, 0.5, 0.04, 0.05, 300)

2025-07-07 17:21:02,124 - gym_custom_envs_real_ur_drivers_URBasic_realTimeClientEvent - INFO - Program send to Robot:
servoj([-0.2917171266929894, -1.5831448722140748, -1.5109710760673565, -1.5139316589266165, 1.656668571285395, 2.5570999539357073], 0.5, 0.5, 0.04, 0.05, 300)

2025-07-07 17:21:02,132 - gym_custom_envs_real_ur_drivers_URBasic_realTimeClientEvent - INFO - Program send to Robot:
servoj([-0.29145895746821904, -1.5830689400891425, -1.5109710760673565, -1.5140379638559627, 1.6566989441201816, 2.557145513210667], 0.5, 0.5, 0.04, 0.05, 300)

2025-07-07 17:21:02,140 - gym_custom_envs_real_ur_drivers_URBasic_realTimeClientEvent - INFO - Program send to Robot:
servoj([-0.29145637577597133, -1.5830681807678932, -1.5109710760673565, -1.5140390269052562, 1.6566992478485294, 2.557145968803417], 0.5, 0.5, 0.04, 0.05, 300)

2025-07-07 17:21:02,156 - gym_custom_envs_real_ur_drivers_URBasic_realTimeClientEvent - INFO - Program send to Robot:
servoj([-0.2671580942789404, -1.575474968274647, -1.5109710760673565, -1.5261881653758034, 1.656699250885813, 2.5617018962993643], 0.5, 0.5, 0.04, 0.05, 300)

2025-07-07 17:21:02,164 - gym_custom_envs_real_ur_drivers_URBasic_realTimeClientEvent - INFO - Program send to Robot:
servoj([-0.26691511146397007, -1.5753990361497143, -1.5109710760673565, -1.5263096567605088, 1.6566992509161858, 2.561747455574324], 0.5, 0.5, 0.04, 0.05, 300)

2025-07-07 17:21:02,172 - gym_custom_envs_real_ur_drivers_URBasic_realTimeClientEvent - INFO - Program send to Robot:
servoj([-0.2669126816358204, -1.5753982768284651, -1.5109710760673565, -1.5263108716743559, 1.6566992509164895, 2.5617479111670733], 0.5, 0.5, 0.04, 0.05, 300)

2025-07-07 17:21:02,180 - gym_custom_envs_real_ur_drivers_URBasic_realTimeClientEvent - INFO - Program send to Robot:
servoj([-0.2669126573375389, -1.5753982692352526, -1.5109710760673565, -1.5263108838234944, 1.6566992509164926, 2.561747915723001], 0.5, 0.5, 0.04, 0.05, 300)

2025-07-07 17:21:02,196 - gym_custom_envs_real_ur_drivers_URBasic_realTimeClientEvent - INFO - Program send to Robot:
servoj([-0.24261440141444757, -1.5678050642592865, -1.5109710760673565, -1.5339040888450195, 1.6582178918964996, 2.5678224796885876], 0.5, 0.5, 0.04, 0.05, 300)

2025-07-07 17:21:02,204 - gym_custom_envs_real_ur_drivers_URBasic_realTimeClientEvent - INFO - Program send to Robot:
servoj([-0.24237141885521665, -1.5677291322095268, -1.5109710760673565, -1.5339800208952348, 1.6582330783062997, 2.5678832253282438], 0.5, 0.5, 0.04, 0.05, 300)

2025-07-07 17:21:02,212 - gym_custom_envs_real_ur_drivers_URBasic_realTimeClientEvent - INFO - Program send to Robot:
servoj([-0.24236898902962434, -1.5677283728890292, -1.5109710760673565, -1.533980780215737, 1.6582332301703977, 2.56788383278464], 0.5, 0.5, 0.04, 0.05, 300)

2025-07-07 17:21:02,220 - gym_custom_envs_real_ur_drivers_URBasic_realTimeClientEvent - INFO - Program send to Robot:
servoj([-0.21503342709124604, -1.5586165194157837, -1.5109710760673565, -1.5385367107489625, 1.6582332316890387, 2.575477043759238], 0.5, 0.5, 0.04, 0.05, 300)

2025-07-07 17:21:02,236 - gym_custom_envs_real_ur_drivers_URBasic_realTimeClientEvent - INFO - Program send to Robot:
servoj([-0.21476007147186227, -1.5585254008810512, -1.5109710760673565, -1.5385822700542948, 1.658233231704225, 2.575552975868984], 0.5, 0.5, 0.04, 0.05, 300)

2025-07-07 17:21:02,244 - gym_custom_envs_real_ur_drivers_URBasic_realTimeClientEvent - INFO - Program send to Robot:
servoj([-0.21475733791566842, -1.558524489695704, -1.5109710760673565, -1.538582725647348, 1.6582332317043769, 2.5755537351900815], 0.5, 0.5, 0.04, 0.05, 300)

2025-07-07 17:21:02,252 - gym_custom_envs_real_ur_drivers_URBasic_realTimeClientEvent - INFO - Program send to Robot:
servoj([-0.18590313195997762, -1.5494126347038097, -1.5124897170473632, -1.543138653143299, 1.6582332317043784, 2.587702870623347], 0.5, 0.5, 0.04, 0.05, 300)

2025-07-07 17:21:02,260 - gym_custom_envs_real_ur_drivers_URBasic_realTimeClientEvent - INFO - Program send to Robot:
servoj([-0.1856145899004207, -1.5493215161538907, -1.5125049034571634, -1.5431842124182584, 1.6582332317043784, 2.5878243619776793], 0.5, 0.5, 0.04, 0.05, 300)

2025-07-07 17:21:02,276 - gym_custom_envs_real_ur_drivers_URBasic_realTimeClientEvent - INFO - Program send to Robot:
servoj([-0.18561170447982514, -1.5493206049683916, -1.5125050553212613, -1.543184668011008, 1.6582332317043784, 2.587825576891223], 0.5, 0.5, 0.04, 0.05, 300)

2025-07-07 17:21:02,284 - gym_custom_envs_real_ur_drivers_URBasic_realTimeClientEvent - INFO - Program send to Robot:
servoj([-0.15827613798549728, -1.5417273909565026, -1.5155423387999163, -1.5492592364869626, 1.6582332317043784, 2.5999747168804124], 0.5, 0.5, 0.04, 0.05, 300)

2025-07-07 17:21:02,292 - gym_custom_envs_real_ur_drivers_URBasic_realTimeClientEvent - INFO - Program send to Robot:
servoj([-0.15800278232055398, -1.5416514588163837, -1.5155727116347029, -1.5493199821717223, 1.6582332317043784, 2.6000962082803043], 0.5, 0.5, 0.04, 0.05, 300)

2025-07-07 17:21:02,308 - gym_custom_envs_real_ur_drivers_URBasic_realTimeClientEvent - INFO - Program send to Robot:
servoj([-0.15800004876390455, -1.5416506994949826, -1.5155730153630507, -1.5493205896285698, 1.6582332317043784, 2.600097423194303], 0.5, 0.5, 0.04, 0.05, 300)

2025-07-07 17:21:02,316 - gym_custom_envs_real_ur_drivers_URBasic_realTimeClientEvent - INFO - Program send to Robot:
servoj([-0.13066448378821569, -1.5340574870017345, -1.5186103003603473, -1.5569138006031724, 1.6582332317043784, 2.6122465631834975], 0.5, 0.5, 0.04, 0.05, 300)

2025-07-07 17:21:02,323 - gym_custom_envs_real_ur_drivers_URBasic_realTimeClientEvent - INFO - Program send to Robot:
servoj([-0.1303911281384588, -1.5339815548768019, -1.5186406732103204, -1.5569897327129183, 1.6582332317043784, 2.6123680545833894], 0.5, 0.5, 0.04, 0.05, 300)

2025-07-07 17:21:02,332 - gym_custom_envs_real_ur_drivers_URBasic_realTimeClientEvent - INFO - Program send to Robot:
servoj([-0.13038839458196125, -1.5339807955555527, -1.51864097693882, -1.5569904920340158, 1.6582332317043784, 2.6123692694973886], 0.5, 0.5, 0.04, 0.05, 300)

2025-07-07 17:21:02,348 - gym_custom_envs_real_ur_drivers_URBasic_realTimeClientEvent - INFO - Program send to Robot:
servoj([-0.1015341886262674, -1.5263875830623064, -1.520159620956112, -1.5645837045272606, 1.6582332317043784, 2.622999768506576], 0.5, 0.5, 0.04, 0.05, 300)

2025-07-07 17:21:02,356 - gym_custom_envs_real_ur_drivers_URBasic_realTimeClientEvent - INFO - Program send to Robot:
servoj([-0.10124564656671046, -1.526311650937374, -1.5201748073962849, -1.564659636652193, 1.6582332317043784, 2.623106073496668], 0.5, 0.5, 0.04, 0.05, 300)

2025-07-07 17:21:02,364 - gym_custom_envs_real_ur_drivers_URBasic_realTimeClientEvent - INFO - Program send to Robot:
servoj([-0.1012427611461149, -1.5263108916161245, -1.5201749592606866, -1.5646603959734424, 1.6582332317043784, 2.6231071365465684], 0.5, 0.5, 0.04, 0.05, 300)

2025-07-07 17:21:02,372 - gym_custom_envs_real_ur_drivers_URBasic_realTimeClientEvent - INFO - Program send to Robot:
servoj([-0.10124273229190894, -1.526310884022912, -1.5201749607793307, -1.564660403566655, 1.6582332317043784, 2.6231071471770675], 0.5, 0.5, 0.04, 0.05, 300)

2025-07-07 17:21:02,387 - gym_custom_envs_real_ur_drivers_URBasic_realTimeClientEvent - INFO - Program send to Robot:
servoj([-0.07542583534325145, -1.5202363200269529, -1.523212242754531, -1.5707349675626143, 1.6582332317043784, 2.6307003521834065], 0.5, 0.5, 0.04, 0.05, 300)

2025-07-07 17:21:02,395 - gym_custom_envs_real_ur_drivers_URBasic_realTimeClientEvent - INFO - Program send to Robot:
servoj([-0.07516766637376487, -1.5201755743869934, -1.5232426155742829, -1.5707957132025738, 1.6582332317043784, 2.6307762842334697], 0.5, 0.5, 0.04, 0.05, 300)

2025-07-07 17:21:02,403 - gym_custom_envs_real_ur_drivers_URBasic_realTimeClientEvent - INFO - Program send to Robot:
servoj([-0.07516508468407002, -1.5201749669305937, -1.5232429193024803, -1.5707963206589735, 1.6582332317043784, 2.6307770435539704], 0.5, 0.5, 0.04, 0.05, 300)

2025-07-07 17:21:02,420 - gym_custom_envs_real_ur_drivers_URBasic_realTimeClientEvent - INFO - Program send to Robot:
servoj([-0.05238544416707154, -1.517137678896016, -1.5247615633197684, -1.5753522496735577, 1.6597518726843845, 2.6353329740871962], 0.5, 0.5, 0.04, 0.05, 300)

2025-07-07 17:21:02,427 - gym_custom_envs_real_ur_drivers_URBasic_realTimeClientEvent - INFO - Program send to Robot:
servoj([-0.05215764776190156, -1.5171073060156701, -1.5247767497599414, -1.5753978089637035, 1.6597670590941846, 2.635378533392528], 0.5, 0.5, 0.04, 0.05, 300)

2025-07-07 17:21:02,435 - gym_custom_envs_real_ur_drivers_URBasic_realTimeClientEvent - INFO - Program send to Robot:
servoj([-0.052155369797849856, -1.5171070022868667, -1.524776901624343, -1.575398264556605, 1.6597672109582826, 2.6353789889855816], 0.5, 0.5, 0.04, 0.05, 300)

2025-07-07 17:21:02,452 - gym_custom_envs_real_ur_drivers_URBasic_realTimeClientEvent - INFO - Program send to Robot:
servoj([-0.03089437329811431, -1.5125510763095584, -1.526295544122994, -1.5799541920525546, 1.6597672124769236, 2.636897634521519], 0.5, 0.5, 0.04, 0.05, 300)

2025-07-07 17:21:02,459 - gym_custom_envs_real_ur_drivers_URBasic_realTimeClientEvent - INFO - Program send to Robot:
servoj([-0.030681763333116955, -1.5125055170497854, -1.5263107305479806, -1.579999751327514, 1.65976721249211, 2.636912820976878], 0.5, 0.5, 0.04, 0.05, 300)

2025-07-07 17:21:02,467 - gym_custom_envs_real_ur_drivers_URBasic_realTimeClientEvent - INFO - Program send to Robot:
servoj([-0.03067963723346698, -1.5125050614571875, -1.5263108824122305, -1.5800002069202637, 1.6597672124922618, 2.636912972841432], 0.5, 0.5, 0.04, 0.05, 300)

2025-07-07 17:21:02,484 - gym_custom_envs_real_ur_drivers_URBasic_realTimeClientEvent - INFO - Program send to Robot:
servoj([-0.01397456519239585, -1.5109864159212547, -1.526310883930873, -1.5830374934362044, 1.6612858534722703, 2.639950256320091], 0.5, 0.5, 0.04, 0.05, 300)

2025-07-07 17:21:02,492 - gym_custom_envs_real_ur_drivers_URBasic_realTimeClientEvent - INFO - Program send to Robot:
servoj([-0.01380751447198514, -1.5109712294658952, -1.5263108839460593, -1.5830678663013638, 1.6613010398820705, 2.6399806291548775], 0.5, 0.5, 0.04, 0.05, 300)

2025-07-07 17:21:02,500 - gym_custom_envs_real_ur_drivers_URBasic_realTimeClientEvent - INFO - Program send to Robot:
servoj([-0.013805843964781033, -1.5109710776013419, -1.5263108839462112, -1.5830681700300153, 1.6613011917461684, 2.6399809328832253], 0.5, 0.5, 0.04, 0.05, 300)

2025-07-07 17:21:02,508 - gym_custom_envs_real_ur_drivers_URBasic_realTimeClientEvent - INFO - Program send to Robot:
servoj([-0.00013805843964781044, -1.507933794122683, -1.5263108839462127, -1.5876240960073225, 1.6643384752248231, 2.6445368588605294], 0.5, 0.5, 0.04, 0.05, 300)

2025-07-07 17:21:02,523 - gym_custom_envs_real_ur_drivers_URBasic_realTimeClientEvent - INFO - Program send to Robot:
servoj([-1.3805843964781055e-06, -1.5079034212878963, -1.5263108839462127, -1.5876696552670955, 1.6643688480596097, 2.644582418120302], 0.5, 0.5, 0.04, 0.05, 300)

2025-07-07 17:21:02,531 - gym_custom_envs_real_ur_drivers_URBasic_realTimeClientEvent - INFO - Program send to Robot:
servoj([-1.3805843964781068e-08, -1.5079031175595485, -1.5263108839462127, -1.5876701108596931, 1.6643691517879575, 2.6445828737129], 0.5, 0.5, 0.04, 0.05, 300)

2025-07-07 17:21:02,540 - gym_custom_envs_real_ur_drivers_URBasic_realTimeClientEvent - INFO - Program send to Robot:
servoj([0.010630486721988852, -1.5063844735422582, -1.5263108839462127, -1.590707397375633, 1.665887795805248, 2.646101519248833], 0.5, 0.5, 0.04, 0.05, 300)

2025-07-07 17:21:02,557 - gym_custom_envs_real_ur_drivers_URBasic_realTimeClientEvent - INFO - Program send to Robot:
servoj([0.010736791727267181, -1.5063692871020853, -1.5263108839462127, -1.5907377702407923, 1.665902982245421, 2.6461167057041926], 0.5, 0.5, 0.04, 0.05, 300)

2025-07-07 17:21:02,565 - gym_custom_envs_real_ur_drivers_URBasic_realTimeClientEvent - INFO - Program send to Robot:
servoj([0.010737854777319963, -1.5063691352376836, -1.5263108839462127, -1.5907380739694439, 1.6659031341098227, 2.646116857568746], 0.5, 0.5, 0.04, 0.05, 300)

2025-07-07 17:21:02,571 - gym_custom_envs_real_ur_drivers_URBasic_realTimeClientEvent - INFO - Program send to Robot:
servoj([0.015293788347840885, -1.5063691337190397, -1.5263108839462127, -1.5952939999467506, 1.6674217766084736, 2.647635500067398], 0.5, 0.5, 0.04, 0.05, 300)

2025-07-07 17:21:02,588 - gym_custom_envs_real_ur_drivers_URBasic_realTimeClientEvent - INFO - Program send to Robot:
servoj([0.015339347683546094, -1.5063691337038532, -1.5263108839462127, -1.5953395592065236, 1.6674369630334602, 2.6476506864923843], 0.5, 0.5, 0.04, 0.05, 300)

2025-07-07 17:21:02,595 - gym_custom_envs_real_ur_drivers_URBasic_realTimeClientEvent - INFO - Program send to Robot:
servoj([0.015339803276903147, -1.5063691337037013, -1.5263108839462127, -1.5953400147991212, 1.66743711489771, 2.6476508383566344], 0.5, 0.5, 0.04, 0.05, 300)

2025-07-07 17:21:02,603 - gym_custom_envs_real_ur_drivers_URBasic_realTimeClientEvent - INFO - Program send to Robot:
servoj([0.016858448812843662, -1.5048504927236928, -1.5278295249262197, -1.598377301315061, 1.6674371164163526, 2.647650839875277], 0.5, 0.5, 0.04, 0.05, 300)

