2025-07-07 17:01:23,886 - gym_custom_envs_real_ur_drivers_URBasic_robotModelEvent - INFO - Init done
2025-07-07 17:01:24,387 - gym_custom_envs_real_ur_drivers_URBasic_realTimeClientEvent - INFO - Connected
2025-07-07 17:01:24,387 - gym_custom_envs_real_ur_drivers_URBasic_realTimeClientEvent - INFO - RT_CLient constructor done
2025-07-07 17:01:24,388 - gym_custom_envs_real_ur_drivers_URBasic_dataLogEvent - INFO - Data logging (not event logging) is disabled
2025-07-07 17:01:24,388 - gym_custom_envs_real_ur_drivers_URBasic_dataLogEvent - INFO - DataLog constructor done
2025-07-07 17:01:24,389 - gym_custom_envs_real_ur_drivers_URBasic_dataLogEvent - INFO - DataLog is stopped
2025-07-07 17:01:24,390 - gym_custom_envs_real_ur_drivers_URBasic_rtdeEvent - INFO - RTDE constructor done
2025-07-07 17:01:24,738 - gym_custom_envs_real_ur_drivers_URBasic_rtdeEvent - INFO - Controller version: 3.3.1-60
2025-07-07 17:01:24,741 - gym_custom_envs_real_ur_drivers_URBasic_rtdeEvent - INFO - RTDE started
2025-07-07 17:01:24,892 - gym_custom_envs_real_ur_drivers_URBasic_dashboardEvent - INFO - Connected
2025-07-07 17:01:24,893 - gym_custom_envs_real_ur_drivers_URBasic_dashboardEvent - INFO - UR Dashboard respond Connected: Universal Robots Dashboard Server
2025-07-07 17:01:24,893 - gym_custom_envs_real_ur_drivers_URBasic_dashboardEvent - INFO - Dashboard server constructor done
2025-07-07 17:01:24,893 - gym_custom_envs_real_ur_drivers_URBasic_robotConnectorEvent - INFO - Init done
2025-07-07 17:01:24,893 - gym_custom_envs_real_ur_drivers_URBasic_urScriptEvent - INFO - Init done!!!
2025-07-07 17:01:24,908 - gym_custom_envs_real_ur_drivers_URBasic_urScriptExtEvent - INFO - Init done
2025-07-07 17:01:26,516 - gym_custom_envs_real_ur_interfaceEvent - INFO - [] init done
2025-07-07 17:01:26,516 - gym_custom_envs_real_ur_drivers_URBasic_realTimeClientEvent - INFO - Program send to Robot:
end_freedrive_mode()

2025-07-07 17:01:28,794 - gym_custom_envs_real_ur_drivers_URBasic_realTimeClientEvent - INFO - Program send to Robot:
servoj([-0.046836868916646776, -1.614337626588167, -1.5586182554668995, -1.527348902814772, 1.5928763997510498, 2.942348209118963], 0.5, 0.5, 0.01, 0.2, 100)

2025-07-07 17:01:28,817 - gym_custom_envs_real_ur_drivers_URBasic_realTimeClientEvent - INFO - Program send to Robot:
servoj([-0.046848789845601854, -1.614197797144261, -1.5582333933415746, -1.527490587255638, 1.5926400949556172, 2.9417480614302582], 0.5, 0.5, 0.01, 0.2, 100)

2025-07-07 17:01:28,829 - gym_custom_envs_real_ur_drivers_URBasic_realTimeClientEvent - INFO - Program send to Robot:
servoj([-0.046836868916646776, -1.6141900217510243, -1.558277707597235, -1.5274684762691697, 1.5926546272512692, 2.941784464268273], 0.5, 0.5, 0.01, 0.2, 100)

2025-07-07 17:01:28,844 - gym_custom_envs_real_ur_drivers_URBasic_realTimeClientEvent - INFO - Program send to Robot:
servoj([-0.0468249479876917, -1.6142061315127314, -1.5582354834674121, -1.5274674462621665, 1.592634150384645, 2.941803512783317], 0.5, 0.5, 0.01, 0.2, 100)

2025-07-07 17:01:28,860 - gym_custom_envs_real_ur_drivers_URBasic_realTimeClientEvent - INFO - Program send to Robot:
servoj([-0.046836868916646776, -1.6143376265897358, -1.5586182554706494, -1.5273489028134115, 1.5928912938470858, 2.942281222752466], 0.5, 0.5, 0.01, 0.2, 100)

2025-07-07 17:01:28,878 - gym_custom_envs_real_ur_drivers_URBasic_realTimeClientEvent - INFO - Program send to Robot:
servoj([-0.0468249479876917, -1.614355245282476, -1.5586548829392157, -1.5273239501907176, 1.5928805397986967, 2.942357576655114], 0.5, 0.5, 0.01, 0.2, 100)

2025-07-07 17:01:28,893 - gym_custom_envs_real_ur_drivers_URBasic_realTimeClientEvent - INFO - Program send to Robot:
servoj([-0.04678870836366826, -1.6143738199886968, -1.5586487580421577, -1.5273132835883299, 1.5929083980298286, 2.9423999380479655], 0.5, 0.5, 0.01, 0.2, 100)

2025-07-07 17:01:28,913 - gym_custom_envs_real_ur_drivers_URBasic_realTimeClientEvent - INFO - Program send to Robot:
servoj([-0.046680943165914354, -1.6143849565154784, -1.5587944668098577, -1.5272962223269027, 1.59296951880422, 2.942533773012027], 0.5, 0.5, 0.01, 0.2, 100)

2025-07-07 17:01:28,925 - gym_custom_envs_real_ur_drivers_URBasic_realTimeClientEvent - INFO - Program send to Robot:
servoj([-0.046369568501607714, -1.6144471057473508, -1.5589309849600554, -1.527238667637195, 1.5930913607217825, 2.9427531989432647], 0.5, 0.5, 0.01, 0.2, 100)

2025-07-07 17:01:28,941 - gym_custom_envs_real_ur_drivers_URBasic_realTimeClientEvent - INFO - Program send to Robot:
servoj([-0.04599858919252568, -1.6145598145991458, -1.559156630527284, -1.5271012887044035, 1.5932445114478262, 2.943126715501216], 0.5, 0.5, 0.01, 0.2, 100)

2025-07-07 17:01:28,956 - gym_custom_envs_real_ur_drivers_URBasic_realTimeClientEvent - INFO - Program send to Robot:
servoj([-0.045519844685689745, -1.6146913869112531, -1.5593718227518263, -1.527050404910481, 1.593421770355442, 2.9435896965374853], 0.5, 0.5, 0.01, 0.2, 100)

2025-07-07 17:01:28,973 - gym_custom_envs_real_ur_drivers_URBasic_realTimeClientEvent - INFO - Program send to Robot:
servoj([-0.04502917924989873, -1.6148239106697606, -1.559701539238218, -1.5269543634511296, 1.5936599427797058, 2.943975476833521], 0.5, 0.5, 0.01, 0.2, 100)

2025-07-07 17:01:28,989 - gym_custom_envs_real_ur_drivers_URBasic_realTimeClientEvent - INFO - Program send to Robot:
servoj([-0.04439450899233037, -1.6149716067165627, -1.5601190781591667, -1.526785859153376, 1.5938246125607864, 2.9446184265202984], 0.5, 0.5, 0.01, 0.2, 100)

2025-07-07 17:01:29,005 - gym_custom_envs_real_ur_drivers_URBasic_realTimeClientEvent - INFO - Program send to Robot:
servoj([-0.043592468892232714, -1.615166712904492, -1.5606520150506822, -1.5266531623961428, 1.5942359105311381, 2.9453127601983655], 0.5, 0.5, 0.01, 0.2, 100)

2025-07-07 17:01:29,021 - gym_custom_envs_real_ur_drivers_URBasic_realTimeClientEvent - INFO - Program send to Robot:
servoj([-0.04258634248842412, -1.6154497975415438, -1.5613755562285847, -1.5263772782625307, 1.5945178595439111, 2.9462844454499444], 0.5, 0.5, 0.01, 0.2, 100)

2025-07-07 17:01:29,037 - gym_custom_envs_real_ur_drivers_URBasic_realTimeClientEvent - INFO - Program send to Robot:
servoj([-0.041425720845357714, -1.615734758194138, -1.5621312496082607, -1.5261667180116552, 1.5950724987864608, 2.947318254332355], 0.5, 0.5, 0.01, 0.2, 100)

2025-07-07 17:01:29,059 - gym_custom_envs_real_ur_drivers_URBasic_realTimeClientEvent - INFO - Program send to Robot:
servoj([-0.03994084993471318, -1.6161493173770831, -1.5631367788965569, -1.5257734850371085, 1.5956349471748184, 2.948679269235323], 0.5, 0.5, 0.01, 0.2, 100)

2025-07-07 17:01:29,083 - gym_custom_envs_real_ur_drivers_URBasic_realTimeClientEvent - INFO - Program send to Robot:
servoj([-0.03754665056337529, -1.6168497504219814, -1.5646595648366235, -1.5252077624031035, 1.597213765011893, 2.950846666488149], 0.5, 0.5, 0.01, 0.2, 100)

2025-07-07 17:01:29,101 - gym_custom_envs_real_ur_drivers_URBasic_realTimeClientEvent - INFO - Program send to Robot:
servoj([-0.03493739763368779, -1.61753130488708, -1.5663399130226432, -1.5246349043387912, 1.5982658124120215, 2.9531871754012133], 0.5, 0.5, 0.01, 0.2, 100)

2025-07-07 17:01:29,125 - gym_custom_envs_real_ur_drivers_URBasic_realTimeClientEvent - INFO - Program send to Robot:
servoj([-0.03207589784731084, -1.6183123044653125, -1.5681257314026629, -1.5238969388472288, 1.599405682302707, 2.955716340307547], 0.5, 0.5, 0.01, 0.2, 100)

2025-07-07 17:01:29,149 - gym_custom_envs_real_ur_drivers_URBasic_realTimeClientEvent - INFO - Program send to Robot:
servoj([-0.028998867665426073, -1.6191527493189926, -1.5701309862757762, -1.5232401312279444, 1.600667632138505, 2.958389106039958], 0.5, 0.5, 0.01, 0.2, 100)

2025-07-07 17:01:29,173 - gym_custom_envs_real_ur_drivers_URBasic_realTimeClientEvent - INFO - Program send to Robot:
servoj([-0.025910870228902635, -1.6200345258716464, -1.5721469337578338, -1.522499450661094, 1.6019458615904052, 2.961118718828946], 0.5, 0.5, 0.01, 0.2, 100)

2025-07-07 17:01:29,197 - gym_custom_envs_real_ur_drivers_URBasic_realTimeClientEvent - INFO - Program send to Robot:
servoj([-0.022857681904928026, -1.6208971565001158, -1.574139276093967, -1.5218212409293654, 1.6031346575510144, 2.9638573936278574], 0.5, 0.5, 0.01, 0.2, 100)

2025-07-07 17:01:29,221 - gym_custom_envs_real_ur_drivers_URBasic_realTimeClientEvent - INFO - Program send to Robot:
servoj([-0.019781128560201464, -1.6217364128422769, -1.5761020049290178, -1.5210998709071728, 1.6043635104612197, 2.9666661126195994], 0.5, 0.5, 0.01, 0.2, 100)

2025-07-07 17:01:29,237 - gym_custom_envs_real_ur_drivers_URBasic_realTimeClientEvent - INFO - Program send to Robot:
servoj([-0.01769782701601201, -1.6222775406938728, -1.576674443802631, -1.5205858782037234, 1.605251019502158, 2.968527247187555], 0.5, 0.5, 0.01, 0.2, 100)

2025-07-07 17:01:29,254 - gym_custom_envs_real_ur_drivers_URBasic_realTimeClientEvent - INFO - Program send to Robot:
servoj([0.035281558121369905, -1.6367575006739792, -1.610679828813904, -1.5079031144915853, 1.627553615946665, 3.0173402097710564], 0.5, 0.5, 0.01, 0.2, 100)

2025-07-07 17:01:29,262 - gym_custom_envs_real_ur_drivers_URBasic_realTimeClientEvent - INFO - Program send to Robot:
servoj([0.035281558121369905, -1.6367575006739792, -1.610679827295263, -1.5079031144915853, 1.627553615946665, 3.0173402097710564], 0.5, 0.5, 0.01, 0.2, 100)

2025-07-07 17:01:29,270 - gym_custom_envs_real_ur_drivers_URBasic_realTimeClientEvent - INFO - Program send to Robot:
servoj([0.035281558121369905, -1.6367575006739792, -1.6121984682600832, -1.5079031144915853, 1.627553615946665, 3.0173402097710564], 0.5, 0.5, 0.01, 0.2, 100)

2025-07-07 17:01:29,285 - gym_custom_envs_real_ur_drivers_URBasic_realTimeClientEvent - INFO - Program send to Robot:
servoj([0.035281558121369905, -1.6367575006739792, -1.6122136546697314, -1.5079031144915853, 1.627553615946665, 3.0173402097710564], 0.5, 0.5, 0.01, 0.2, 100)

2025-07-07 17:01:29,293 - gym_custom_envs_real_ur_drivers_URBasic_realTimeClientEvent - INFO - Program send to Robot:
servoj([0.035281558121369905, -1.6367575006739792, -1.6122138065338278, -1.5079031144915853, 1.627553615946665, 3.0173402097710564], 0.5, 0.5, 0.01, 0.2, 100)

2025-07-07 17:01:29,302 - gym_custom_envs_real_ur_drivers_URBasic_realTimeClientEvent - INFO - Program send to Robot:
servoj([0.035281558121369905, -1.6367575006739792, -1.610695167072462, -1.5079031144915853, 1.627553615946665, 3.0173402097710564], 0.5, 0.5, 0.01, 0.2, 100)

2025-07-07 17:01:29,317 - gym_custom_envs_real_ur_drivers_URBasic_realTimeClientEvent - INFO - Program send to Robot:
servoj([0.035281558121369905, -1.6367575006739792, -1.6106799806778485, -1.5079031144915853, 1.627553615946665, 3.0173402097710564], 0.5, 0.5, 0.01, 0.2, 100)

2025-07-07 17:01:29,325 - gym_custom_envs_real_ur_drivers_URBasic_realTimeClientEvent - INFO - Program send to Robot:
servoj([0.035281558121369905, -1.6367575006739792, -1.6106798288139024, -1.5079031144915853, 1.627553615946665, 3.0173402097710564], 0.5, 0.5, 0.01, 0.2, 100)

2025-07-07 17:01:29,334 - gym_custom_envs_real_ur_drivers_URBasic_realTimeClientEvent - INFO - Program send to Robot:
servoj([0.035281558121369905, -1.6367575006739792, -1.610679827295263, -1.5079031144915853, 1.627553615946665, 3.0173402097710564], 0.5, 0.5, 0.01, 0.2, 100)

2025-07-07 17:01:29,350 - gym_custom_envs_real_ur_drivers_URBasic_realTimeClientEvent - INFO - Program send to Robot:
servoj([0.035281558121369905, -1.6367575006739792, -1.6106798272800764, -1.5079031144915853, 1.627553615946665, 3.0173402097710564], 0.5, 0.5, 0.01, 0.2, 100)

2025-07-07 17:01:29,358 - gym_custom_envs_real_ur_drivers_URBasic_realTimeClientEvent - INFO - Program send to Robot:
servoj([0.035281558121369905, -1.6367575006739792, -1.6106798272799245, -1.5079031144915853, 1.627553615946665, 3.0173402097710564], 0.5, 0.5, 0.01, 0.2, 100)

2025-07-07 17:01:29,364 - gym_custom_envs_real_ur_drivers_URBasic_realTimeClientEvent - INFO - Program send to Robot:
servoj([0.03680019910137641, -1.6367575006739792, -1.610679827279923, -1.5079031144915853, 1.627553615946665, 3.0173402097710564], 0.5, 0.5, 0.01, 0.2, 100)

2025-07-07 17:01:29,382 - gym_custom_envs_real_ur_drivers_URBasic_realTimeClientEvent - INFO - Program send to Robot:
servoj([0.036815385511176475, -1.6367575006739792, -1.610679827279923, -1.5079031144915853, 1.627553615946665, 3.0173402097710564], 0.5, 0.5, 0.01, 0.2, 100)

2025-07-07 17:01:29,388 - gym_custom_envs_real_ur_drivers_URBasic_realTimeClientEvent - INFO - Program send to Robot:
servoj([0.036815537375274474, -1.6367575006739792, -1.610679827279923, -1.5079031144915853, 1.627553615946665, 3.0173402097710564], 0.5, 0.5, 0.01, 0.2, 100)

2025-07-07 17:01:29,397 - gym_custom_envs_real_ur_drivers_URBasic_realTimeClientEvent - INFO - Program send to Robot:
servoj([0.03681553889391546, -1.6367575006739792, -1.609161186299916, -1.5079031144915853, 1.627553615946665, 3.0173402097710564], 0.5, 0.5, 0.01, 0.2, 100)

2025-07-07 17:01:29,413 - gym_custom_envs_real_ur_drivers_URBasic_realTimeClientEvent - INFO - Program send to Robot:
servoj([0.036815538909101865, -1.6367575006739792, -1.609145999890116, -1.5079031144915853, 1.627553615946665, 3.0173402097710564], 0.5, 0.5, 0.01, 0.2, 100)

2025-07-07 17:01:29,421 - gym_custom_envs_real_ur_drivers_URBasic_realTimeClientEvent - INFO - Program send to Robot:
servoj([0.03681553890925373, -1.6367575006739792, -1.6091458480260181, -1.5079031144915853, 1.627553615946665, 3.0173402097710564], 0.5, 0.5, 0.01, 0.2, 100)

2025-07-07 17:01:29,429 - gym_custom_envs_real_ur_drivers_URBasic_realTimeClientEvent - INFO - Program send to Robot:
servoj([0.03681553890925525, -1.6367575006739792, -1.6091458465073771, -1.5079031144915853, 1.627553615946665, 3.0173402097710564], 0.5, 0.5, 0.01, 0.2, 100)

2025-07-07 17:01:29,437 - gym_custom_envs_real_ur_drivers_URBasic_realTimeClientEvent - INFO - Program send to Robot:
servoj([0.03681553890925526, -1.6367575006739792, -1.6091458464921906, -1.5079031144915853, 1.627553615946665, 3.0173402097710564], 0.5, 0.5, 0.01, 0.2, 100)

2025-07-07 17:01:29,454 - gym_custom_envs_real_ur_drivers_URBasic_realTimeClientEvent - INFO - Program send to Robot:
servoj([0.03681553890925526, -1.6367575006739792, -1.6091458464920387, -1.5079031144915853, 1.627553615946665, 3.0173402097710564], 0.5, 0.5, 0.01, 0.2, 100)

2025-07-07 17:01:29,460 - gym_custom_envs_real_ur_drivers_URBasic_realTimeClientEvent - INFO - Program send to Robot:
servoj([0.03681553890925526, -1.6367575006739792, -1.607627205512031, -1.5079031144915853, 1.627553615946665, 3.0173402097710564], 0.5, 0.5, 0.01, 0.2, 100)

2025-07-07 17:01:29,470 - gym_custom_envs_real_ur_drivers_URBasic_realTimeClientEvent - INFO - Program send to Robot:
servoj([0.03681553890925526, -1.6367575006739792, -1.6076120191022312, -1.5079031144915853, 1.627553615946665, 3.0173402097710564], 0.5, 0.5, 0.01, 0.2, 100)

2025-07-07 17:01:29,485 - gym_custom_envs_real_ur_drivers_URBasic_realTimeClientEvent - INFO - Program send to Robot:
servoj([0.03681553890925526, -1.6367575006739792, -1.607611867238133, -1.5079031144915853, 1.627553615946665, 3.0173402097710564], 0.5, 0.5, 0.01, 0.2, 100)

2025-07-07 17:01:29,493 - gym_custom_envs_real_ur_drivers_URBasic_realTimeClientEvent - INFO - Program send to Robot:
servoj([0.03681553890925526, -1.6367575006739792, -1.607611865719492, -1.5079031144915853, 1.627553615946665, 3.0173402097710564], 0.5, 0.5, 0.01, 0.2, 100)

2025-07-07 17:01:29,501 - gym_custom_envs_real_ur_drivers_URBasic_realTimeClientEvent - INFO - Program send to Robot:
servoj([0.03681553890925526, -1.6367575006739792, -1.6076118657043057, -1.5079031144915853, 1.627553615946665, 3.0173402097710564], 0.5, 0.5, 0.01, 0.2, 100)

2025-07-07 17:01:29,510 - gym_custom_envs_real_ur_drivers_URBasic_realTimeClientEvent - INFO - Program send to Robot:
servoj([0.03681553890925526, -1.6367575006739792, -1.6076118657041538, -1.5079031144915853, 1.627553615946665, 3.0173402097710564], 0.5, 0.5, 0.01, 0.2, 100)

2025-07-07 17:01:29,525 - gym_custom_envs_real_ur_drivers_URBasic_realTimeClientEvent - INFO - Program send to Robot:
servoj([0.03681553890925526, -1.6352388596939722, -1.6076118657041523, -1.5079031144915853, 1.627553615946665, 3.0158215687910497], 0.5, 0.5, 0.01, 0.2, 100)

2025-07-07 17:01:29,533 - gym_custom_envs_real_ur_drivers_URBasic_realTimeClientEvent - INFO - Program send to Robot:
servoj([0.03681553890925526, -1.635223673284172, -1.6076118657041523, -1.5079031144915853, 1.627553615946665, 3.0158063823812493], 0.5, 0.5, 0.01, 0.2, 100)

2025-07-07 17:01:29,542 - gym_custom_envs_real_ur_drivers_URBasic_realTimeClientEvent - INFO - Program send to Robot:
servoj([0.03681553890925526, -1.635223521420074, -1.6076118657041523, -1.5079031144915853, 1.627553615946665, 3.0158062305171516], 0.5, 0.5, 0.01, 0.2, 100)

2025-07-07 17:01:29,557 - gym_custom_envs_real_ur_drivers_URBasic_realTimeClientEvent - INFO - Program send to Robot:
servoj([0.03681553890925526, -1.635223519901433, -1.6076118657041523, -1.5063844735115786, 1.627553615946665, 3.0158062289985104], 0.5, 0.5, 0.01, 0.2, 100)

2025-07-07 17:01:29,565 - gym_custom_envs_real_ur_drivers_URBasic_realTimeClientEvent - INFO - Program send to Robot:
servoj([0.03681553890925526, -1.6352235198862468, -1.6076118657041523, -1.5063692871017786, 1.627553615946665, 3.0158062289833243], 0.5, 0.5, 0.01, 0.2, 100)

2025-07-07 17:01:29,581 - gym_custom_envs_real_ur_drivers_URBasic_realTimeClientEvent - INFO - Program send to Robot:
servoj([0.03681553890925526, -1.635223519886095, -1.6076118657041523, -1.5063691352376805, 1.627553615946665, 3.0158062289831724], 0.5, 0.5, 0.01, 0.2, 100)

2025-07-07 17:01:29,589 - gym_custom_envs_real_ur_drivers_URBasic_realTimeClientEvent - INFO - Program send to Robot:
servoj([0.035296897929248755, -1.6352235198860934, -1.6060932247241453, -1.5063691337190395, 1.627553615946665, 3.0158062289831706], 0.5, 0.5, 0.01, 0.2, 100)

2025-07-07 17:01:29,597 - gym_custom_envs_real_ur_drivers_URBasic_realTimeClientEvent - INFO - Program send to Robot:
servoj([0.03528171151944869, -1.6352235198860934, -1.6060780383143451, -1.5063691337038532, 1.627553615946665, 3.0158062289831706], 0.5, 0.5, 0.01, 0.2, 100)

2025-07-07 17:01:29,613 - gym_custom_envs_real_ur_drivers_URBasic_realTimeClientEvent - INFO - Program send to Robot:
servoj([0.03528155965535069, -1.6352235198860934, -1.6060778864502472, -1.5063691337037013, 1.627553615946665, 3.0158062289831706], 0.5, 0.5, 0.01, 0.2, 100)

2025-07-07 17:01:29,621 - gym_custom_envs_real_ur_drivers_URBasic_realTimeClientEvent - INFO - Program send to Robot:
servoj([0.03528155813670971, -1.6352235198860934, -1.6045592439515992, -1.5063691337036997, 1.627553615946665, 3.0142875880031634], 0.5, 0.5, 0.01, 0.2, 100)

2025-07-07 17:01:29,629 - gym_custom_envs_real_ur_drivers_URBasic_realTimeClientEvent - INFO - Program send to Robot:
servoj([0.0352815581215233, -1.6352235198860934, -1.6045440575266128, -1.5063691337036997, 1.627553615946665, 3.0142724015933635], 0.5, 0.5, 0.01, 0.2, 100)

2025-07-07 17:01:29,636 - gym_custom_envs_real_ur_drivers_URBasic_realTimeClientEvent - INFO - Program send to Robot:
servoj([0.03528155812137144, -1.6352235198860934, -1.604543905662363, -1.5063691337036997, 1.627553615946665, 3.0142722497292653], 0.5, 0.5, 0.01, 0.2, 100)

2025-07-07 17:01:29,653 - gym_custom_envs_real_ur_drivers_URBasic_realTimeClientEvent - INFO - Program send to Robot:
servoj([0.032244276161356035, -1.6352235198860934, -1.6030252631637134, -1.5063691337036997, 1.627553615946665, 3.0142722482106246], 0.5, 0.5, 0.01, 0.2, 100)

2025-07-07 17:01:29,661 - gym_custom_envs_real_ur_drivers_URBasic_realTimeClientEvent - INFO - Program send to Robot:
servoj([0.03221390334175588, -1.6352235198860934, -1.603010076738727, -1.5063691337036997, 1.627553615946665, 3.014272248195438], 0.5, 0.5, 0.01, 0.2, 100)

2025-07-07 17:01:29,677 - gym_custom_envs_real_ur_drivers_URBasic_realTimeClientEvent - INFO - Program send to Robot:
servoj([0.03221359961355988, -1.6352235198860934, -1.6030099248744771, -1.5063691337036997, 1.627553615946665, 3.014272248195286], 0.5, 0.5, 0.01, 0.2, 100)

2025-07-07 17:01:29,685 - gym_custom_envs_real_ur_drivers_URBasic_realTimeClientEvent - INFO - Program send to Robot:
servoj([0.029176314616264465, -1.6352235198860934, -1.5969353594358078, -1.5048504927236928, 1.627553615946665, 3.014272248195285], 0.5, 0.5, 0.01, 0.2, 100)

2025-07-07 17:01:29,701 - gym_custom_envs_real_ur_drivers_URBasic_realTimeClientEvent - INFO - Program send to Robot:
servoj([0.02914594176629151, -1.6352235198860934, -1.5968746137814211, -1.5048353063138926, 1.627553615946665, 3.014272248195285], 0.5, 0.5, 0.01, 0.2, 100)

2025-07-07 17:01:29,717 - gym_custom_envs_real_ur_drivers_URBasic_realTimeClientEvent - INFO - Program send to Robot:
servoj([0.023071074117764885, -1.6352235198860934, -1.5892808014248434, -1.4972419495497609, 1.627553615946665, 3.014272248195285], 0.5, 0.5, 0.01, 0.2, 100)

2025-07-07 17:01:29,725 - gym_custom_envs_real_ur_drivers_URBasic_realTimeClientEvent - INFO - Program send to Robot:
servoj([0.02301032544127962, -1.6352235198860934, -1.5892048633012776, -1.4971660159821196, 1.627553615946665, 3.014272248195285], 0.5, 0.5, 0.01, 0.2, 100)

2025-07-07 17:01:29,733 - gym_custom_envs_real_ur_drivers_URBasic_realTimeClientEvent - INFO - Program send to Robot:
servoj([0.023009717954514765, -1.6352235198860934, -1.589204103920042, -1.497165256646443, 1.627553615946665, 3.014272248195285], 0.5, 0.5, 0.01, 0.2, 100)

2025-07-07 17:01:29,741 - gym_custom_envs_real_ur_drivers_URBasic_realTimeClientEvent - INFO - Program send to Robot:
servoj([0.023009711879647118, -1.6352235198860934, -1.5892040963262297, -1.4971652490530865, 1.627553615946665, 3.014272248195285], 0.5, 0.5, 0.01, 0.2, 100)

2025-07-07 17:01:29,757 - gym_custom_envs_real_ur_drivers_URBasic_realTimeClientEvent - INFO - Program send to Robot:
servoj([0.01997242985888455, -1.6352235198860934, -1.5861668142902776, -1.4850161211370985, 1.629072256926672, 3.014272248195285], 0.5, 0.5, 0.01, 0.2, 100)

2025-07-07 17:01:29,764 - gym_custom_envs_real_ur_drivers_URBasic_realTimeClientEvent - INFO - Program send to Robot:
servoj([0.019942057038676925, -1.6352235198860934, -1.586136441469918, -1.4848946298579386, 1.6290874433364722, 3.014272248195285], 0.5, 0.5, 0.01, 0.2, 100)

2025-07-07 17:01:29,773 - gym_custom_envs_real_ur_drivers_URBasic_realTimeClientEvent - INFO - Program send to Robot:
servoj([0.019941753310474847, -1.6352235198860934, -1.5861361377417145, -1.4848934149451471, 1.6290875952005701, 3.014272248195285], 0.5, 0.5, 0.01, 0.2, 100)

2025-07-07 17:01:29,789 - gym_custom_envs_real_ur_drivers_URBasic_realTimeClientEvent - INFO - Program send to Robot:
servoj([0.018423109293186322, -1.6352235198860934, -1.5846174937244255, -1.4697069929959514, 1.629087596719211, 3.014272248195285], 0.5, 0.5, 0.01, 0.2, 100)

2025-07-07 17:01:29,797 - gym_custom_envs_real_ur_drivers_URBasic_realTimeClientEvent - INFO - Program send to Robot:
servoj([0.018407922853013438, -1.6352235198860934, -1.5846023072842526, -1.4695551287764594, 1.6290875967343974, 3.014272248195285], 0.5, 0.5, 0.01, 0.2, 100)

2025-07-07 17:01:29,813 - gym_custom_envs_real_ur_drivers_URBasic_realTimeClientEvent - INFO - Program send to Robot:
servoj([0.016889130008604765, -1.6352235198860934, -1.5846021554198508, -1.4498112773941763, 1.6290875967345493, 3.014272248195285], 0.5, 0.5, 0.01, 0.2, 100)

2025-07-07 17:01:29,821 - gym_custom_envs_real_ur_drivers_URBasic_realTimeClientEvent - INFO - Program send to Robot:
servoj([0.016873942080160676, -1.6352235198860934, -1.5846021539012067, -1.4496138388803534, 1.6290875967345508, 3.014272248195285], 0.5, 0.5, 0.01, 0.2, 100)

2025-07-07 17:01:29,837 - gym_custom_envs_real_ur_drivers_URBasic_realTimeClientEvent - INFO - Program send to Robot:
servoj([0.016873790200876235, -1.6352235198860934, -1.5846021538860204, -1.4496118644952152, 1.6290875967345508, 3.014272248195285], 0.5, 0.5, 0.01, 0.2, 100)

2025-07-07 17:01:29,845 - gym_custom_envs_real_ur_drivers_URBasic_realTimeClientEvent - INFO - Program send to Robot:
servoj([0.012317865742063, -1.6352235198860934, -1.5830835129058625, -1.428350871031269, 1.6306062377145578, 3.014272248195285], 0.5, 0.5, 0.01, 0.2, 100)

2025-07-07 17:01:29,854 - gym_custom_envs_real_ur_drivers_URBasic_realTimeClientEvent - INFO - Program send to Robot:
servoj([0.012272306497474867, -1.6352235198860934, -1.5830683264960608, -1.4281382610966296, 1.630621424124358, 3.014272248195285], 0.5, 0.5, 0.01, 0.2, 100)

2025-07-07 17:01:29,862 - gym_custom_envs_real_ur_drivers_URBasic_realTimeClientEvent - INFO - Program send to Robot:
servoj([0.012271850905028987, -1.6352235198860934, -1.5830681746319628, -1.428136134997283, 1.630621575988456, 3.014272248195285], 0.5, 0.5, 0.01, 0.2, 100)

2025-07-07 17:01:29,877 - gym_custom_envs_real_ur_drivers_URBasic_realTimeClientEvent - INFO - Program send to Robot:
servoj([0.004678641449070683, -1.6352235198860934, -1.580030891153308, -1.4083937809962013, 1.630621577507097, 3.014272248195285], 0.5, 0.5, 0.01, 0.2, 100)

2025-07-07 17:01:29,885 - gym_custom_envs_real_ur_drivers_URBasic_realTimeClientEvent - INFO - Program send to Robot:
servoj([0.0046027093545111, -1.6352235198860934, -1.5800005183185215, -1.4081963574561904, 1.6306215775222834, 3.014272248195285], 0.5, 0.5, 0.01, 0.2, 100)

2025-07-07 17:01:29,893 - gym_custom_envs_real_ur_drivers_URBasic_realTimeClientEvent - INFO - Program send to Robot:
servoj([0.004601950033565505, -1.6352235198860934, -1.5800002145901737, -1.4081943832207904, 1.6306215775224353, 3.014272248195285], 0.5, 0.5, 0.01, 0.2, 100)

2025-07-07 17:01:29,900 - gym_custom_envs_real_ur_drivers_URBasic_realTimeClientEvent - INFO - Program send to Robot:
servoj([0.004601942440356049, -1.6352235198860934, -1.5800002115528902, -1.4081943634784364, 1.6306215775224366, 3.014272248195285], 0.5, 0.5, 0.01, 0.2, 100)

2025-07-07 17:01:29,917 - gym_custom_envs_real_ur_drivers_URBasic_realTimeClientEvent - INFO - Program send to Robot:
servoj([-0.0029912625356098886, -1.6352235198860934, -1.5769629295625034, -1.391489312500938, 1.6321402185024434, 3.012753607215278], 0.5, 0.5, 0.01, 0.2, 100)

2025-07-07 17:01:29,933 - gym_custom_envs_real_ur_drivers_URBasic_realTimeClientEvent - INFO - Program send to Robot:
servoj([-0.003067194585369548, -1.6352235198860934, -1.5769325567425996, -1.3913222619911632, 1.6321554049122435, 3.0127384208054777], 0.5, 0.5, 0.01, 0.2, 100)

2025-07-07 17:01:29,941 - gym_custom_envs_real_ur_drivers_URBasic_realTimeClientEvent - INFO - Program send to Robot:
servoj([-0.013698440765914876, -1.6352235198860934, -1.5738949710543875, -1.3791714636460113, 1.6351928387363546, 3.01273826894138], 0.5, 0.5, 0.01, 0.2, 100)

2025-07-07 17:01:29,957 - gym_custom_envs_real_ur_drivers_URBasic_realTimeClientEvent - INFO - Program send to Robot:
servoj([-0.01380475322772033, -1.6352235198860934, -1.5738645951975052, -1.3790499556625597, 1.6352232130745958, 3.0127382674227388], 0.5, 0.5, 0.01, 0.2, 100)

2025-07-07 17:01:29,965 - gym_custom_envs_real_ur_drivers_URBasic_realTimeClientEvent - INFO - Program send to Robot:
servoj([-0.013805816352338384, -1.6352235198860934, -1.5738642914389365, -1.3790487405827252, 1.635223516817978, 3.0127382674075522], 0.5, 0.5, 0.01, 0.2, 100)

2025-07-07 17:01:29,974 - gym_custom_envs_real_ur_drivers_URBasic_realTimeClientEvent - INFO - Program send to Robot:
servoj([-0.021399031883618407, -1.6352235198860934, -1.5738642884013507, -1.3729741645118996, 1.6428167247554457, 3.0127382674074004], 0.5, 0.5, 0.01, 0.2, 100)

2025-07-07 17:01:29,981 - gym_custom_envs_real_ur_drivers_URBasic_realTimeClientEvent - INFO - Program send to Robot:
servoj([-0.021474964038931208, -1.6352235198860934, -1.573864288370975, -1.3729134187511913, 1.6428926568348206, 3.012738267407399], 0.5, 0.5, 0.01, 0.2, 100)

2025-07-07 17:01:29,998 - gym_custom_envs_real_ur_drivers_URBasic_realTimeClientEvent - INFO - Program send to Robot:
servoj([-0.021475723360484335, -1.6352235198860934, -1.5738642883706713, -1.3729128112935842, 1.6428934161556141, 3.012738267407399], 0.5, 0.5, 0.01, 0.2, 100)

2025-07-07 17:01:30,006 - gym_custom_envs_real_ur_drivers_URBasic_realTimeClientEvent - INFO - Program send to Robot:
servoj([-0.02906893585373371, -1.6352235198860934, -1.5738642883706682, -1.3713941642390013, 1.650486628648857, 3.012738267407399], 0.5, 0.5, 0.01, 0.2, 100)

2025-07-07 17:01:30,013 - gym_custom_envs_real_ur_drivers_URBasic_realTimeClientEvent - INFO - Program send to Robot:
servoj([-0.029144867978666205, -1.6352235198860934, -1.5738642883706682, -1.3713789777684553, 1.6505625607737895, 3.012738267407399], 0.5, 0.5, 0.01, 0.2, 100)

2025-07-07 17:01:30,021 - gym_custom_envs_real_ur_drivers_URBasic_realTimeClientEvent - INFO - Program send to Robot:
servoj([-0.029145627299915527, -1.6352235198860934, -1.5738642883706682, -1.37137882590375, 1.6505633200950387, 3.012738267407399], 0.5, 0.5, 0.01, 0.2, 100)

2025-07-07 17:01:30,037 - gym_custom_envs_real_ur_drivers_URBasic_realTimeClientEvent - INFO - Program send to Robot:
servoj([-0.036738839793161865, -1.6367421608661004, -1.5738642883706682, -1.3698601834050963, 1.655119250628271, 3.012738267407399], 0.5, 0.5, 0.01, 0.2, 100)

2025-07-07 17:01:30,054 - gym_custom_envs_real_ur_drivers_URBasic_realTimeClientEvent - INFO - Program send to Robot:
servoj([-0.03681477191809433, -1.6367573472759005, -1.5738642883706682, -1.3698449969801099, 1.6551648099336034, 3.012738267407399], 0.5, 0.5, 0.01, 0.2, 100)

2025-07-07 17:01:30,062 - gym_custom_envs_real_ur_drivers_URBasic_realTimeClientEvent - INFO - Program send to Robot:
servoj([-0.036815531239343655, -1.6367574991399985, -1.5738642883706682, -1.36984484511586, 1.6551652655266567, 3.012738267407399], 0.5, 0.5, 0.01, 0.2, 100)

2025-07-07 17:01:30,069 - gym_custom_envs_real_ur_drivers_URBasic_realTimeClientEvent - INFO - Program send to Robot:
servoj([-0.04137146177257654, -1.6382761416386462, -1.5738642883706682, -1.365288920657197, 1.6551652700825872, 3.012738267407399], 0.5, 0.5, 0.01, 0.2, 100)

2025-07-07 17:01:30,078 - gym_custom_envs_real_ur_drivers_URBasic_realTimeClientEvent - INFO - Program send to Robot:
servoj([-0.04141702107790887, -1.6382913280636326, -1.5738642883706682, -1.3652433614126103, 1.6551652701281465, 3.012738267407399], 0.5, 0.5, 0.01, 0.2, 100)

2025-07-07 17:01:30,094 - gym_custom_envs_real_ur_drivers_URBasic_realTimeClientEvent - INFO - Program send to Robot:
servoj([-0.04141747667096219, -1.6382914799278825, -1.5738642883706682, -1.3652429058201645, 1.6551652701286022, 3.012738267407399], 0.5, 0.5, 0.01, 0.2, 100)

2025-07-07 17:01:30,102 - gym_custom_envs_real_ur_drivers_URBasic_realTimeClientEvent - INFO - Program send to Robot:
servoj([-0.04293612220689967, -1.6398101224265318, -1.5738642883706682, -1.3530937734241857, 1.6551652701286068, 3.012738267407399], 0.5, 0.5, 0.01, 0.2, 100)

2025-07-07 17:01:30,108 - gym_custom_envs_real_ur_drivers_URBasic_realTimeClientEvent - INFO - Program send to Robot:
servoj([-0.04295130866225905, -1.6398253088515182, -1.5738642883706682, -1.352972282100226, 1.6551652701286068, 3.012738267407399], 0.5, 0.5, 0.01, 0.2, 100)

2025-07-07 17:01:30,125 - gym_custom_envs_real_ur_drivers_URBasic_realTimeClientEvent - INFO - Program send to Robot:
servoj([-0.04295146052681264, -1.639825460715768, -1.5738642883706682, -1.3529710671869863, 1.6551652701286068, 3.012738267407399], 0.5, 0.5, 0.01, 0.2, 100)

2025-07-07 17:01:30,132 - gym_custom_envs_real_ur_drivers_URBasic_realTimeClientEvent - INFO - Program send to Robot:
servoj([-0.04447010302546468, -1.6443813851744309, -1.5753829293506743, -1.3362660042577794, 1.6551652701286068, 3.012738267407399], 0.5, 0.5, 0.01, 0.2, 100)

2025-07-07 17:01:30,140 - gym_custom_envs_real_ur_drivers_URBasic_realTimeClientEvent - INFO - Program send to Robot:
servoj([-0.0444852894504512, -1.6444269444190176, -1.5753981157604742, -1.3360989536284873, 1.6551652701286068, 3.012738267407399], 0.5, 0.5, 0.01, 0.2, 100)

2025-07-07 17:01:30,148 - gym_custom_envs_real_ur_drivers_URBasic_realTimeClientEvent - INFO - Program send to Robot:
servoj([-0.04448544131470107, -1.6444274000114634, -1.5753982676245724, -1.3360972831221944, 1.6551652701286068, 3.012738267407399], 0.5, 0.5, 0.01, 0.2, 100)

2025-07-07 17:01:30,165 - gym_custom_envs_real_ur_drivers_URBasic_realTimeClientEvent - INFO - Program send to Robot:
servoj([-0.04448544283334357, -1.6489833275074084, -1.5753982691432133, -1.3148362926970365, 1.6551652701286068, 3.012738267407399], 0.5, 0.5, 0.01, 0.2, 100)

2025-07-07 17:01:30,173 - gym_custom_envs_real_ur_drivers_URBasic_realTimeClientEvent - INFO - Program send to Robot:
servoj([-0.04448544284852999, -1.6490288867823677, -1.5753982691583996, -1.3146236827927849, 1.6551652701286068, 3.012738267407399], 0.5, 0.5, 0.01, 0.2, 100)

2025-07-07 17:01:30,181 - gym_custom_envs_real_ur_drivers_URBasic_realTimeClientEvent - INFO - Program send to Robot:
servoj([-0.044485442848681854, -1.6490293423751174, -1.5753982691585515, -1.3146215566937423, 1.6551652701286068, 3.012738267407399], 0.5, 0.5, 0.01, 0.2, 100)

2025-07-07 17:01:30,189 - gym_custom_envs_real_ur_drivers_URBasic_realTimeClientEvent - INFO - Program send to Robot:
servoj([-0.044485442848683374, -1.6490293469310449, -1.575398269158553, -1.314621535432752, 1.6551652701286068, 3.012738267407399], 0.5, 0.5, 0.01, 0.2, 100)

2025-07-07 17:01:30,206 - gym_custom_envs_real_ur_drivers_URBasic_realTimeClientEvent - INFO - Program send to Robot:
servoj([-0.04448544284868339, -1.6520666289366175, -1.57691691013856, -1.294879202480054, 1.6551652701286068, 3.012738267407399], 0.5, 0.5, 0.01, 0.2, 100)

2025-07-07 17:01:30,213 - gym_custom_envs_real_ur_drivers_URBasic_realTimeClientEvent - INFO - Program send to Robot:
servoj([-0.04448544284868339, -1.6520970017566732, -1.5769320965483602, -1.294681779150527, 1.6551652701286068, 3.012738267407399], 0.5, 0.5, 0.01, 0.2, 100)

2025-07-07 17:01:30,221 - gym_custom_envs_real_ur_drivers_URBasic_realTimeClientEvent - INFO - Program send to Robot:
servoj([-0.04448544284868339, -1.6520973054848738, -1.5769322484124582, -1.2946798049172317, 1.6551652701286068, 3.012738267407399], 0.5, 0.5, 0.01, 0.2, 100)

2025-07-07 17:01:30,229 - gym_custom_envs_real_ur_drivers_URBasic_realTimeClientEvent - INFO - Program send to Robot:
servoj([-0.04448544284868339, -1.6581718724421832, -1.5769322499310992, -1.279493375374831, 1.6551652701286068, 3.0112196264273927], 0.5, 0.5, 0.01, 0.2, 100)

2025-07-07 17:01:30,245 - gym_custom_envs_real_ur_drivers_URBasic_realTimeClientEvent - INFO - Program send to Robot:
servoj([-0.04448544284868339, -1.6582326181117564, -1.5769322499462854, -1.2793415110794069, 1.6551652701286068, 3.011204440017593], 0.5, 0.5, 0.01, 0.2, 100)

2025-07-07 17:01:30,252 - gym_custom_envs_real_ur_drivers_URBasic_realTimeClientEvent - INFO - Program send to Robot:
servoj([-0.04448544284868339, -1.658233225568452, -1.5769322499464373, -1.2793399924364526, 1.6551652701286068, 3.0112042881534946], 0.5, 0.5, 0.01, 0.2, 100)

2025-07-07 17:01:30,260 - gym_custom_envs_real_ur_drivers_URBasic_realTimeClientEvent - INFO - Program send to Robot:
servoj([-0.046004083828690326, -1.664307795563046, -1.5769322499464389, -1.2717467723499891, 1.6551652701286068, 3.011204286634854], 0.5, 0.5, 0.01, 0.2, 100)

2025-07-07 17:01:30,277 - gym_custom_envs_real_ur_drivers_URBasic_realTimeClientEvent - INFO - Program send to Robot:
servoj([-0.0460192702384904, -1.664368541262992, -1.5769322499464389, -1.2716708401491243, 1.6551652701286068, 3.0112042866196673], 0.5, 0.5, 0.01, 0.2, 100)

2025-07-07 17:01:30,293 - gym_custom_envs_real_ur_drivers_URBasic_realTimeClientEvent - INFO - Program send to Robot:
servoj([-0.047538063082595346, -1.6719623536200252, -1.5784508909264459, -1.2716700808271157, 1.6551652701286068, 3.008167004659502], 0.5, 0.5, 0.01, 0.2, 100)

2025-07-07 17:01:30,301 - gym_custom_envs_real_ur_drivers_URBasic_realTimeClientEvent - INFO - Program send to Robot:
servoj([-0.04755325101103639, -1.6720382917435956, -1.578466077336246, -1.2716700732338957, 1.6551652701286068, 3.0081366318399003], 0.5, 0.5, 0.01, 0.2, 100)

2025-07-07 17:01:30,309 - gym_custom_envs_real_ur_drivers_URBasic_realTimeClientEvent - INFO - Program send to Robot:
servoj([-0.047553402890320805, -1.6720390511248313, -1.578466229200344, -1.2716700731579635, 1.6551652701286068, 3.0081363281117044], 0.5, 0.5, 0.01, 0.2, 100)

2025-07-07 17:01:30,325 - gym_custom_envs_real_ur_drivers_URBasic_realTimeClientEvent - INFO - Program send to Robot:
servoj([-0.047553404409113646, -1.6781136226386708, -1.579984871698992, -1.2701514321771972, 1.6566839111086138, 3.0005431201743886], 0.5, 0.5, 0.01, 0.2, 100)

2025-07-07 17:01:30,333 - gym_custom_envs_real_ur_drivers_URBasic_realTimeClientEvent - INFO - Program send to Robot:
servoj([-0.04755340442430158, -1.6781743683538093, -1.5800000581239784, -1.2701362457673895, 1.656699097518414, 3.000467188095015], 0.5, 0.5, 0.01, 0.2, 100)

2025-07-07 17:01:30,341 - gym_custom_envs_real_ur_drivers_URBasic_realTimeClientEvent - INFO - Program send to Robot:
servoj([-0.04755340442445346, -1.6781749758109605, -1.5800002099882282, -1.2701360939032915, 1.656699249382512, 3.0004664287742218], 0.5, 0.5, 0.01, 0.2, 100)

2025-07-07 17:01:30,358 - gym_custom_envs_real_ur_drivers_URBasic_realTimeClientEvent - INFO - Program send to Robot:
servoj([-0.04755340442445498, -1.684249545805559, -1.5815188524868775, -1.2701360923846505, 1.6566992509011529, 2.994391857260986], 0.5, 0.5, 0.01, 0.2, 100)

2025-07-07 17:01:30,365 - gym_custom_envs_real_ur_drivers_URBasic_realTimeClientEvent - INFO - Program send to Robot:
servoj([-0.04755340442445499, -1.684310291505505, -1.581534038911864, -1.270136092369464, 1.6566992509163392, 2.9943311115458537], 0.5, 0.5, 0.01, 0.2, 100)

2025-07-07 17:01:30,373 - gym_custom_envs_real_ur_drivers_URBasic_realTimeClientEvent - INFO - Program send to Robot:
servoj([-0.04755340442445499, -1.6843108989625046, -1.5815341907761138, -1.2701360923693121, 1.656699250916491, 2.9943305040887025], 0.5, 0.5, 0.01, 0.2, 100)

2025-07-07 17:01:30,381 - gym_custom_envs_real_ur_drivers_URBasic_realTimeClientEvent - INFO - Program send to Robot:
servoj([-0.04755340442445499, -1.6843109050370746, -1.5815341922947563, -1.2701360923693108, 1.6566992509164926, 2.994330498014131], 0.5, 0.5, 0.01, 0.2, 100)

2025-07-07 17:01:30,398 - gym_custom_envs_real_ur_drivers_URBasic_realTimeClientEvent - INFO - Program send to Robot:
servoj([-0.04755340442445499, -1.6888668280378407, -1.584571474269956, -1.2686174513893043, 1.6566992509164926, 2.989774575013365], 0.5, 0.5, 0.01, 0.2, 100)

2025-07-07 17:01:30,414 - gym_custom_envs_real_ur_drivers_URBasic_realTimeClientEvent - INFO - Program send to Robot:
servoj([-0.04755340442445499, -1.6889123872678484, -1.5846018470897079, -1.2686022649795041, 1.6566992509164926, 2.9897290157833574], 0.5, 0.5, 0.01, 0.2, 100)

2025-07-07 17:01:30,421 - gym_custom_envs_real_ur_drivers_URBasic_realTimeClientEvent - INFO - Program send to Robot:
servoj([-0.0490720454044615, -1.6934687658001688, -1.5861207917979123, -1.2670834721353994, 1.6566992509164926, 2.98820991921105], 0.5, 0.5, 0.01, 0.2, 100)

2025-07-07 17:01:30,429 - gym_custom_envs_real_ur_drivers_URBasic_realTimeClientEvent - INFO - Program send to Robot:
servoj([-0.04908723181426156, -1.693514329585492, -1.5861359812449944, -1.2670682842069583, 1.6566992509164926, 2.988194728245327], 0.5, 0.5, 0.01, 0.2, 100)

2025-07-07 17:01:30,438 - gym_custom_envs_real_ur_drivers_URBasic_realTimeClientEvent - INFO - Program send to Robot:
servoj([-0.04908738367835956, -1.6935147852233452, -1.5861361331394652, -1.2670681323276738, 1.6566992509164926, 2.98819457633567], 0.5, 0.5, 0.01, 0.2, 100)

2025-07-07 17:01:30,454 - gym_custom_envs_real_ur_drivers_URBasic_realTimeClientEvent - INFO - Program send to Robot:
servoj([-0.049087385197000545, -1.6980707127197443, -1.587654775638417, -1.267068130808881, 1.6566992509164926, 2.988194574816573], 0.5, 0.5, 0.01, 0.2, 100)

2025-07-07 17:01:30,464 - gym_custom_envs_real_ur_drivers_URBasic_realTimeClientEvent - INFO - Program send to Robot:
servoj([-0.04908738521218695, -1.6981162719947083, -1.5876699620634065, -1.267068130793693, 1.6566992509164926, 2.988194574801382], 0.5, 0.5, 0.01, 0.2, 100)

2025-07-07 17:01:30,468 - gym_custom_envs_real_ur_drivers_URBasic_realTimeClientEvent - INFO - Program send to Robot:
servoj([-0.04908738521233882, -1.698116727587458, -1.5876701139276563, -1.2670681307935412, 1.6566992509164926, 2.98819457480123], 0.5, 0.5, 0.01, 0.2, 100)

2025-07-07 17:01:30,487 - gym_custom_envs_real_ur_drivers_URBasic_realTimeClientEvent - INFO - Program send to Robot:
servoj([-0.04908738521234034, -1.7041912960634125, -1.5891887564263059, -1.2670681307935396, 1.6566992509164926, 2.986675933821222], 0.5, 0.5, 0.01, 0.2, 100)

2025-07-07 17:01:30,493 - gym_custom_envs_real_ur_drivers_URBasic_realTimeClientEvent - INFO - Program send to Robot:
servoj([-0.04908738521234035, -1.704252041748172, -1.5892039428512923, -1.2670681307935396, 1.6566992509164926, 2.9866607474114217], 0.5, 0.5, 0.01, 0.2, 100)

2025-07-07 17:01:30,502 - gym_custom_envs_real_ur_drivers_URBasic_realTimeClientEvent - INFO - Program send to Robot:
servoj([-0.04908738521234035, -1.7042526492050196, -1.5892040947155421, -1.2670681307935396, 1.6566992509164926, 2.986660595547324], 0.5, 0.5, 0.01, 0.2, 100)

2025-07-07 17:01:30,517 - gym_custom_envs_real_ur_drivers_URBasic_realTimeClientEvent - INFO - Program send to Robot:
servoj([-0.04756874423233384, -1.7088085782196085, -1.5907227372141917, -1.2655494898135329, 1.6582178918964996, 2.986660594028683], 0.5, 0.5, 0.01, 0.2, 100)

2025-07-07 17:01:30,526 - gym_custom_envs_real_ur_drivers_URBasic_realTimeClientEvent - INFO - Program send to Robot:
servoj([-0.04755355782253378, -1.7088541375097543, -1.590737923639178, -1.265534303403733, 1.6582330783062997, 2.9866605940134967], 0.5, 0.5, 0.01, 0.2, 100)

2025-07-07 17:01:30,534 - gym_custom_envs_real_ur_drivers_URBasic_realTimeClientEvent - INFO - Program send to Robot:
servoj([-0.047553405958435775, -1.708854593102656, -1.590738075503428, -1.2655341515396348, 1.6582332301703977, 2.986660594013345], 0.5, 0.5, 0.01, 0.2, 100)

2025-07-07 17:01:30,540 - gym_custom_envs_real_ur_drivers_URBasic_realTimeClientEvent - INFO - Program send to Robot:
servoj([-0.0475534044397948, -1.708854597658585, -1.5907380770220705, -1.2655341500209938, 1.6582332316890387, 2.986660594013343], 0.5, 0.5, 0.01, 0.2, 100)

2025-07-07 17:01:30,560 - gym_custom_envs_real_ur_drivers_URBasic_realTimeClientEvent - INFO - Program send to Robot:
servoj([-0.04755340442460839, -1.7118918796641576, -1.590738077037257, -1.2655341500058075, 1.658233231704225, 2.986660594013343], 0.5, 0.5, 0.01, 0.2, 100)

2025-07-07 17:01:30,565 - gym_custom_envs_real_ur_drivers_URBasic_realTimeClientEvent - INFO - Program send to Robot:
servoj([-0.047553404424456526, -1.7119222524842133, -1.5907380770374089, -1.2655341500056556, 1.6582332317043769, 2.986660594013343], 0.5, 0.5, 0.01, 0.2, 100)

2025-07-07 17:01:30,575 - gym_custom_envs_real_ur_drivers_URBasic_realTimeClientEvent - INFO - Program send to Robot:
servoj([-0.047553404424455006, -1.7119225562124138, -1.5907380770374102, -1.265534150005654, 1.6582332317043784, 2.986660594013343], 0.5, 0.5, 0.01, 0.2, 100)

2025-07-07 17:01:30,589 - gym_custom_envs_real_ur_drivers_URBasic_realTimeClientEvent - INFO - Program send to Robot:
servoj([-0.04755340442445499, -1.7149598412097096, -1.592256718017416, -1.2624968680456403, 1.6627891546443982, 2.98817923499335], 0.5, 0.5, 0.01, 0.2, 100)

2025-07-07 17:01:30,599 - gym_custom_envs_real_ur_drivers_URBasic_realTimeClientEvent - INFO - Program send to Robot:
servoj([-0.04755340442445499, -1.7149902140596824, -1.5922719044272162, -1.2624664952260403, 1.6628347138737984, 2.98819442140315], 0.5, 0.5, 0.01, 0.2, 100)

2025-07-07 17:01:30,607 - gym_custom_envs_real_ur_drivers_URBasic_realTimeClientEvent - INFO - Program send to Robot:
servoj([-0.04755340442445499, -1.7149905177881821, -1.5922720562913142, -1.2624661914978441, 1.6628351694660926, 2.988194573267248], 0.5, 0.5, 0.01, 0.2, 100)

2025-07-07 17:01:30,613 - gym_custom_envs_real_ur_drivers_URBasic_realTimeClientEvent - INFO - Program send to Robot:
servoj([-0.04755340442445499, -1.716509161805474, -1.5937906987899622, -1.2548729835605283, 1.6689097379420426, 2.988194574785889], 0.5, 0.5, 0.01, 0.2, 100)

2025-07-07 17:01:30,630 - gym_custom_envs_real_ur_drivers_URBasic_realTimeClientEvent - INFO - Program send to Robot:
servoj([-0.04755340442445499, -1.716524348245647, -1.5938058852149486, -1.2547970514811553, 1.668970483626802, 2.988194574801075], 0.5, 0.5, 0.01, 0.2, 100)

2025-07-07 17:01:30,636 - gym_custom_envs_real_ur_drivers_URBasic_realTimeClientEvent - INFO - Program send to Robot:
servoj([-0.04755340442445499, -1.7165245001100486, -1.5938060370791987, -1.2547962921603615, 1.6689710910836495, 2.988194574801227], 0.5, 0.5, 0.01, 0.2, 100)

2025-07-07 17:01:30,646 - gym_custom_envs_real_ur_drivers_URBasic_realTimeClientEvent - INFO - Program send to Robot:
servoj([-0.04755340442445499, -1.7180431426086993, -1.595324679577848, -1.2502403616271331, 1.6750456610782458, 2.986675933821222], 0.5, 0.5, 0.01, 0.2, 100)

2025-07-07 17:01:30,661 - gym_custom_envs_real_ur_drivers_URBasic_realTimeClientEvent - INFO - Program send to Robot:
servoj([-0.04755340442445499, -1.718058329033686, -1.5953398660028346, -1.2501948023218008, 1.6751064067781918, 2.9866607474114217], 0.5, 0.5, 0.01, 0.2, 100)

2025-07-07 17:01:30,670 - gym_custom_envs_real_ur_drivers_URBasic_realTimeClientEvent - INFO - Program send to Robot:
servoj([-0.04755340442445499, -1.7180584808979358, -1.5953400178670845, -1.2501943467287475, 1.6751070142351911, 2.986660595547324], 0.5, 0.5, 0.01, 0.2, 100)

2025-07-07 17:01:30,679 - gym_custom_envs_real_ur_drivers_URBasic_realTimeClientEvent - INFO - Program send to Robot:
servoj([-0.04755340442445499, -1.7226144053565986, -1.5968586603657338, -1.24411977825279, 1.6811815842297881, 2.986660594028683], 0.5, 0.5, 0.01, 0.2, 100)

2025-07-07 17:01:30,685 - gym_custom_envs_real_ur_drivers_URBasic_realTimeClientEvent - INFO - Program send to Robot:
servoj([-0.04755340442445499, -1.722659964601185, -1.5968738467907204, -1.2440590325680303, 1.681242329929734, 2.9866605940134967], 0.5, 0.5, 0.01, 0.2, 100)

2025-07-07 17:01:30,704 - gym_custom_envs_real_ur_drivers_URBasic_realTimeClientEvent - INFO - Program send to Robot:
servoj([-0.04755340442445499, -1.7241790611736378, -1.5983926396349772, -1.241021143151169, 1.6873175013067605, 2.986660594013345], 0.5, 0.5, 0.01, 0.2, 100)

2025-07-07 17:01:30,708 - gym_custom_envs_real_ur_drivers_URBasic_realTimeClientEvent - INFO - Program send to Robot:
servoj([-0.04755340442445499, -1.7241942521393623, -1.5984078275634197, -1.2409907642570004, 1.6873782530205306, 2.986660594013343], 0.5, 0.5, 0.01, 0.2, 100)

2025-07-07 17:01:30,725 - gym_custom_envs_real_ur_drivers_URBasic_realTimeClientEvent - INFO - Program send to Robot:
servoj([-0.04755340442445499, -1.7241944040490196, -1.5984079794427042, -1.2409904604680588, 1.6873788605376683, 2.986660594013343], 0.5, 0.5, 0.01, 0.2, 100)

2025-07-07 17:01:30,732 - gym_custom_envs_real_ur_drivers_URBasic_realTimeClientEvent - INFO - Program send to Robot:
servoj([-0.04755340442445499, -1.7241944055681162, -1.598407980961497, -1.2409904574301693, 1.6873788666128398, 2.986660594013343], 0.5, 0.5, 0.01, 0.2, 100)

2025-07-07 17:01:30,744 - gym_custom_envs_real_ur_drivers_URBasic_realTimeClientEvent - INFO - Program send to Robot:
servoj([-0.04603476344444805, -1.7241944055833072, -1.6014452629366978, -1.2409904573997905, 1.6904161486336053, 2.986660594013343], 0.5, 0.5, 0.01, 0.2, 100)

2025-07-07 17:01:30,757 - gym_custom_envs_real_ur_drivers_URBasic_realTimeClientEvent - INFO - Program send to Robot:
servoj([-0.04601957703464798, -1.724194405583459, -1.60147563575645, -1.2409904573994865, 1.6904465214538131, 2.986660594013343], 0.5, 0.5, 0.01, 0.2, 100)

2025-07-07 17:01:30,768 - gym_custom_envs_real_ur_drivers_URBasic_realTimeClientEvent - INFO - Program send to Robot:
servoj([-0.04601942517054997, -1.7257130465634676, -1.6014759394846474, -1.2409904573994837, 1.6904468251820153, 2.986660594013343], 0.5, 0.5, 0.01, 0.2, 100)

2025-07-07 17:01:30,773 - gym_custom_envs_real_ur_drivers_URBasic_realTimeClientEvent - INFO - Program send to Robot:
servoj([-0.046019423651908996, -1.7257282329732675, -1.6014759425219294, -1.2409904573994837, 1.6904468282192973, 2.986660594013343], 0.5, 0.5, 0.01, 0.2, 100)

2025-07-07 17:01:30,792 - gym_custom_envs_real_ur_drivers_URBasic_realTimeClientEvent - INFO - Program send to Robot:
servoj([-0.04601942363672259, -1.7257283848373657, -1.6014759425523022, -1.2409904573994837, 1.69044682824967, 2.986660594013343], 0.5, 0.5, 0.01, 0.2, 100)

2025-07-07 17:01:30,797 - gym_custom_envs_real_ur_drivers_URBasic_realTimeClientEvent - INFO - Program send to Robot:
servoj([-0.046019423636570723, -1.7257283863560067, -1.601475942552606, -1.2409904573994837, 1.6904468282499738, 2.986660594013343], 0.5, 0.5, 0.01, 0.2, 100)

2025-07-07 17:01:30,817 - gym_custom_envs_real_ur_drivers_URBasic_realTimeClientEvent - INFO - Program send to Robot:
servoj([-0.046019423636569204, -1.724209745391186, -1.6029945835326158, -1.2409904573994837, 1.6904468282499767, 2.9851419530333363], 0.5, 0.5, 0.01, 0.2, 100)

2025-07-07 17:01:30,821 - gym_custom_envs_real_ur_drivers_URBasic_realTimeClientEvent - INFO - Program send to Robot:
servoj([-0.04601942363656919, -1.7241945589815377, -1.603009769942416, -1.2409904573994837, 1.6904468282499767, 2.9851267666235364], 0.5, 0.5, 0.01, 0.2, 100)

2025-07-07 17:01:30,842 - gym_custom_envs_real_ur_drivers_URBasic_realTimeClientEvent - INFO - Program send to Robot:
servoj([-0.04450078265656225, -1.7241944071174413, -1.6060472037665279, -1.2409904573994837, 1.6904468282499767, 2.983607973779432], 0.5, 0.5, 0.01, 0.2, 100)

2025-07-07 17:01:30,845 - gym_custom_envs_real_ur_drivers_URBasic_realTimeClientEvent - INFO - Program send to Robot:
servoj([-0.04448559624676218, -1.7241944055988003, -1.6060775781047691, -1.2409904573994837, 1.6904468282499767, 2.983592785850991], 0.5, 0.5, 0.01, 0.2, 100)

2025-07-07 17:01:30,866 - gym_custom_envs_real_ur_drivers_URBasic_realTimeClientEvent - INFO - Program send to Robot:
servoj([-0.04448544438266418, -1.724194405583614, -1.6075965228281586, -1.2409904573994837, 1.6919654692299835, 2.9835926339717065], 0.5, 0.5, 0.01, 0.2, 100)

2025-07-07 17:01:30,877 - gym_custom_envs_real_ur_drivers_URBasic_realTimeClientEvent - INFO - Program send to Robot:
servoj([-0.0444854428640232, -1.7241944055834622, -1.6076117122753923, -1.2409904573994837, 1.6919806556397836, 2.983592632452914], 0.5, 0.5, 0.01, 0.2, 100)

2025-07-07 17:01:30,890 - gym_custom_envs_real_ur_drivers_URBasic_realTimeClientEvent - INFO - Program send to Robot:
servoj([-0.04448544284883679, -1.7241944055834606, -1.6076118641698647, -1.2409904573994837, 1.6919808075038816, 2.983592632437726], 0.5, 0.5, 0.01, 0.2, 100)

2025-07-07 17:01:30,893 - gym_custom_envs_real_ur_drivers_URBasic_realTimeClientEvent - INFO - Program send to Robot:
servoj([-0.04448544284868493, -1.7241944055834606, -1.6076118656888094, -1.2409904573994837, 1.6919808090225226, 2.983592632437574], 0.5, 0.5, 0.01, 0.2, 100)

2025-07-07 17:01:30,914 - gym_custom_envs_real_ur_drivers_URBasic_realTimeClientEvent - INFO - Program send to Robot:
servoj([-0.0429668018686769, -1.7226757646034538, -1.609130506684005, -1.2409904573994837, 1.691980809037709, 2.9835926324375723], 0.5, 0.5, 0.01, 0.2, 100)

2025-07-07 17:01:30,917 - gym_custom_envs_real_ur_drivers_URBasic_realTimeClientEvent - INFO - Program send to Robot:
servoj([-0.04295161545887682, -1.7226605781936537, -1.609145693093957, -1.2409904573994837, 1.691980809037861, 2.9835926324375723], 0.5, 0.5, 0.01, 0.2, 100)

2025-07-07 17:01:30,932 - gym_custom_envs_real_ur_drivers_URBasic_realTimeClientEvent - INFO - Program send to Robot:
servoj([-0.04295146359477882, -1.7226604263295557, -1.6106644859380634, -1.2409904573994837, 1.6919808090378623, 2.9835926324375723], 0.5, 0.5, 0.01, 0.2, 100)

2025-07-07 17:01:30,940 - gym_custom_envs_real_ur_drivers_URBasic_realTimeClientEvent - INFO - Program send to Robot:
servoj([-0.042951462076137835, -1.7226604248109147, -1.6106796738665046, -1.2409904573994837, 1.6919808090378625, 2.9835926324375723], 0.5, 0.5, 0.01, 0.2, 100)

2025-07-07 17:01:30,957 - gym_custom_envs_real_ur_drivers_URBasic_realTimeClientEvent - INFO - Program send to Robot:
servoj([-0.04295146206095143, -1.7226604247957282, -1.6106798257457888, -1.2409904573994837, 1.6919808090378625, 2.9835926324375723], 0.5, 0.5, 0.01, 0.2, 100)

2025-07-07 17:01:30,973 - gym_custom_envs_real_ur_drivers_URBasic_realTimeClientEvent - INFO - Program send to Robot:
servoj([-0.04295146206079956, -1.7226604247955764, -1.6152357502046024, -1.2394718164194771, 1.6919808090378625, 2.9835926324375723], 0.5, 0.5, 0.01, 0.2, 100)

2025-07-07 17:01:30,982 - gym_custom_envs_real_ur_drivers_URBasic_realTimeClientEvent - INFO - Program send to Robot:
servoj([-0.04295146206079804, -1.722660424795575, -1.6152813094491907, -1.239456630009677, 1.6919808090378625, 2.9835926324375723], 0.5, 0.5, 0.01, 0.2, 100)

2025-07-07 17:01:30,997 - gym_custom_envs_real_ur_drivers_URBasic_realTimeClientEvent - INFO - Program send to Robot:
servoj([-0.04295146206079803, -1.722660424795575, -1.6198376879816565, -1.2409751191255856, 1.6919808090378625, 2.982073991457565], 0.5, 0.5, 0.01, 0.2, 100)

2025-07-07 17:01:31,005 - gym_custom_envs_real_ur_drivers_URBasic_realTimeClientEvent - INFO - Program send to Robot:
servoj([-0.04295146206079803, -1.722660424795575, -1.6198832517669812, -1.2409903040167445, 1.6919808090378625, 2.982058805047765], 0.5, 0.5, 0.01, 0.2, 100)

2025-07-07 17:01:31,013 - gym_custom_envs_real_ur_drivers_URBasic_realTimeClientEvent - INFO - Program send to Robot:
servoj([-0.04295146206079803, -1.722660424795575, -1.6198837074048344, -1.2409904558656562, 1.6919808090378625, 2.982058653183667], 0.5, 0.5, 0.01, 0.2, 100)

2025-07-07 17:01:31,029 - gym_custom_envs_real_ur_drivers_URBasic_realTimeClientEvent - INFO - Program send to Robot:
servoj([-0.04295146206079803, -1.7241790657755818, -1.6229209939212268, -1.2409904573841453, 1.6919808090378625, 2.977502728725006], 0.5, 0.5, 0.01, 0.2, 100)

2025-07-07 17:01:31,037 - gym_custom_envs_real_ur_drivers_URBasic_realTimeClientEvent - INFO - Program send to Robot:
servoj([-0.04295146206079803, -1.7241942521853817, -1.6229513667863906, -1.2409904573993302, 1.6919808090378625, 2.9774571694804193], 0.5, 0.5, 0.01, 0.2, 100)

2025-07-07 17:01:31,046 - gym_custom_envs_real_ur_drivers_URBasic_realTimeClientEvent - INFO - Program send to Robot:
servoj([-0.04295146206079803, -1.7241944040494797, -1.6229516705150422, -1.240990457399482, 1.6919808090378625, 2.9774567138879733], 0.5, 0.5, 0.01, 0.2, 100)

2025-07-07 17:01:31,062 - gym_custom_envs_real_ur_drivers_URBasic_realTimeClientEvent - INFO - Program send to Robot:
servoj([-0.04295146206079803, -1.7241944055681206, -1.6275075964923489, -1.2409904573994837, 1.6904621680578558, 2.968344863452008], 0.5, 0.5, 0.01, 0.2, 100)

2025-07-07 17:01:31,071 - gym_custom_envs_real_ur_drivers_URBasic_realTimeClientEvent - INFO - Program send to Robot:
servoj([-0.04295146206079803, -1.7241944055833072, -1.627553155752122, -1.2409904573994837, 1.6904469816480556, 2.9682537449476487], 0.5, 0.5, 0.01, 0.2, 100)

2025-07-07 17:01:31,076 - gym_custom_envs_real_ur_drivers_URBasic_realTimeClientEvent - INFO - Program send to Robot:
servoj([-0.04295146206079803, -1.724194405583459, -1.6275536113447195, -1.2409904573994837, 1.6904468297839577, 2.9682528337626053], 0.5, 0.5, 0.01, 0.2, 100)

2025-07-07 17:01:31,093 - gym_custom_envs_real_ur_drivers_URBasic_realTimeClientEvent - INFO - Program send to Robot:
servoj([-0.04295146206079803, -1.7241944055834606, -1.6305908978606596, -1.2409904573994837, 1.6904468282653167, 2.9561036968107004], 0.5, 0.5, 0.01, 0.2, 100)

2025-07-07 17:01:31,100 - gym_custom_envs_real_ur_drivers_URBasic_realTimeClientEvent - INFO - Program send to Robot:
servoj([-0.04295146206079803, -1.7241944055834606, -1.630621270725819, -1.2409904573994837, 1.6904468282501302, 2.955982205441181], 0.5, 0.5, 0.01, 0.2, 100)

2025-07-07 17:01:31,112 - gym_custom_envs_real_ur_drivers_URBasic_realTimeClientEvent - INFO - Program send to Robot:
servoj([-0.04295146206079803, -1.7241944055834606, -1.6306215744544705, -1.2409904573994837, 1.6904468282499783, 2.955980990527486], 0.5, 0.5, 0.01, 0.2, 100)

2025-07-07 17:01:31,125 - gym_custom_envs_real_ur_drivers_URBasic_realTimeClientEvent - INFO - Program send to Robot:
servoj([-0.04295146206079803, -1.7241944055834606, -1.633658859451771, -1.2409904573994837, 1.6904468282499767, 2.945350491518301], 0.5, 0.5, 0.01, 0.2, 100)

2025-07-07 17:01:31,137 - gym_custom_envs_real_ur_drivers_URBasic_realTimeClientEvent - INFO - Program send to Robot:
servoj([-0.04295146206079803, -1.7241944055834606, -1.6336892323017438, -1.2409904573994837, 1.6904468282499767, 2.9452441865282095], 0.5, 0.5, 0.01, 0.2, 100)

2025-07-07 17:01:31,141 - gym_custom_envs_real_ur_drivers_URBasic_realTimeClientEvent - INFO - Program send to Robot:
servoj([-0.04295146206079803, -1.7241944055834606, -1.6336895360302435, -1.2409904573994837, 1.6904468282499767, 2.9452431234783085], 0.5, 0.5, 0.01, 0.2, 100)

2025-07-07 17:01:31,160 - gym_custom_envs_real_ur_drivers_URBasic_realTimeClientEvent - INFO - Program send to Robot:
servoj([-0.04295146206079803, -1.7241944055834606, -1.6367268210275416, -1.2409904573994837, 1.6889281872699697, 2.939168548927783], 0.5, 0.5, 0.01, 0.2, 100)

2025-07-07 17:01:31,170 - gym_custom_envs_real_ur_drivers_URBasic_realTimeClientEvent - INFO - Program send to Robot:
servoj([-0.04295146206079803, -1.7241944055834606, -1.6367571938775145, -1.2409904573994837, 1.6889130008601698, 2.9391078031822775], 0.5, 0.5, 0.01, 0.2, 100)

2025-07-07 17:01:31,173 - gym_custom_envs_real_ur_drivers_URBasic_realTimeClientEvent - INFO - Program send to Robot:
servoj([-0.04295146206079803, -1.7241944055834606, -1.6367574976060144, -1.2409904573994837, 1.6889128489960719, 2.9391071957248225], 0.5, 0.5, 0.01, 0.2, 100)

2025-07-07 17:01:31,189 - gym_custom_envs_real_ur_drivers_URBasic_realTimeClientEvent - INFO - Program send to Robot:
servoj([-0.04295146206079803, -1.7257130465634676, -1.6382761416233063, -1.2394718164194771, 1.6889128474774309, 2.933032625730221], 0.5, 0.5, 0.01, 0.2, 100)

2025-07-07 17:01:31,197 - gym_custom_envs_real_ur_drivers_URBasic_realTimeClientEvent - INFO - Program send to Robot:
servoj([-0.04295146206079803, -1.7257282329732675, -1.6382913280634792, -1.239456630009677, 1.6889128474622443, 2.932971880030275], 0.5, 0.5, 0.01, 0.2, 100)

2025-07-07 17:01:31,213 - gym_custom_envs_real_ur_drivers_URBasic_realTimeClientEvent - INFO - Program send to Robot:
servoj([-0.04295146206079803, -1.7257283848373657, -1.638291479927881, -1.239456478145579, 1.6889128474620925, 2.9329712725732757], 0.5, 0.5, 0.01, 0.2, 100)

2025-07-07 17:01:31,221 - gym_custom_envs_real_ur_drivers_URBasic_realTimeClientEvent - INFO - Program send to Robot:
servoj([-0.04295146206079803, -1.7257283863560067, -1.639810122426532, -1.239456476626938, 1.688912847462091, 2.9299339845386916], 0.5, 0.5, 0.01, 0.2, 100)

2025-07-07 17:01:31,233 - gym_custom_envs_real_ur_drivers_URBasic_realTimeClientEvent - INFO - Program send to Robot:
servoj([-0.04295146206079803, -1.725728386371193, -1.6398253088515184, -1.2394564766117515, 1.688912847462091, 2.9299036116583457], 0.5, 0.5, 0.01, 0.2, 100)

2025-07-07 17:01:31,237 - gym_custom_envs_real_ur_drivers_URBasic_realTimeClientEvent - INFO - Program send to Robot:
servoj([-0.04295146206079803, -1.7257283863713448, -1.6398254607157683, -1.2394564766115996, 1.688912847462091, 2.9299033079295422], 0.5, 0.5, 0.01, 0.2, 100)

2025-07-07 17:01:31,257 - gym_custom_envs_real_ur_drivers_URBasic_realTimeClientEvent - INFO - Program send to Robot:
servoj([-0.04295146206079803, -1.7272470273513532, -1.6398254622344108, -1.2394564766115983, 1.687394206482084, 2.9268660229322405], 0.5, 0.5, 0.01, 0.2, 100)

2025-07-07 17:01:31,261 - gym_custom_envs_real_ur_drivers_URBasic_realTimeClientEvent - INFO - Program send to Robot:
servoj([-0.04295146206079803, -1.7272622137611533, -1.6398254622495974, -1.239456476611598, 1.687379020072284, 2.9268356500822676], 0.5, 0.5, 0.01, 0.2, 100)

2025-07-07 17:01:31,281 - gym_custom_envs_real_ur_drivers_URBasic_realTimeClientEvent - INFO - Program send to Robot:
servoj([-0.04295146206079803, -1.7302996475852648, -1.639825462249749, -1.239456476611598, 1.6873788682081858, 2.9237980643937544], 0.5, 0.5, 0.01, 0.2, 100)

2025-07-07 17:01:31,284 - gym_custom_envs_real_ur_drivers_URBasic_realTimeClientEvent - INFO - Program send to Robot:
servoj([-0.04295146206079803, -1.7303300219235058, -1.6398254622497506, -1.239456476611598, 1.6873788666895448, 2.9237676885368695], 0.5, 0.5, 0.01, 0.2, 100)

2025-07-07 17:01:31,306 - gym_custom_envs_real_ur_drivers_URBasic_realTimeClientEvent - INFO - Program send to Robot:
servoj([-0.04295146206079803, -1.7303303256668883, -1.6398254622497506, -1.239456476611598, 1.6873788666743585, 2.9237673847783006], 0.5, 0.5, 0.01, 0.2, 100)

2025-07-07 17:01:31,317 - gym_custom_envs_real_ur_drivers_URBasic_realTimeClientEvent - INFO - Program send to Robot:
servoj([-0.04447010304080454, -1.7303303287043221, -1.6413441032297573, -1.239456476611598, 1.6873788666742067, 2.9207300997807013], 0.5, 0.5, 0.01, 0.2, 100)

2025-07-07 17:01:31,325 - gym_custom_envs_real_ur_drivers_URBasic_realTimeClientEvent - INFO - Program send to Robot:
servoj([-0.0444852894506046, -1.7303303287346965, -1.6413592896395575, -1.239456476611598, 1.6873788666742051, 2.9206997269307253], 0.5, 0.5, 0.01, 0.2, 100)

2025-07-07 17:01:31,332 - gym_custom_envs_real_ur_drivers_URBasic_realTimeClientEvent - INFO - Program send to Robot:
servoj([-0.044485441314702605, -1.7303303287350003, -1.6413594415036554, -1.239456476611598, 1.6873788666742051, 2.9206994232022256], 0.5, 0.5, 0.01, 0.2, 100)

2025-07-07 17:01:31,349 - gym_custom_envs_real_ur_drivers_URBasic_realTimeClientEvent - INFO - Program send to Robot:
servoj([-0.04448544283334358, -1.73184896971501, -1.6428780840023025, -1.239456476611598, 1.6873788666742051, 2.917662138204927], 0.5, 0.5, 0.01, 0.2, 100)

2025-07-07 17:01:31,356 - gym_custom_envs_real_ur_drivers_URBasic_realTimeClientEvent - INFO - Program send to Robot:
servoj([-0.044485442848529996, -1.73186415612481, -1.642893270427289, -1.239456476611598, 1.6873788666742051, 2.917631765354954], 0.5, 0.5, 0.01, 0.2, 100)

2025-07-07 17:01:31,377 - gym_custom_envs_real_ur_drivers_URBasic_realTimeClientEvent - INFO - Program send to Robot:
servoj([-0.044485442848681854, -1.731864307988908, -1.6428934222915388, -1.239456476611598, 1.6873788666742051, 2.9161128206464477], 0.5, 0.5, 0.01, 0.2, 100)

2025-07-07 17:01:31,380 - gym_custom_envs_real_ur_drivers_URBasic_realTimeClientEvent - INFO - Program send to Robot:
servoj([-0.044485442848683374, -1.731864309507549, -1.6428934238101813, -1.239456476611598, 1.6873788666742051, 2.9160976311993623], 0.5, 0.5, 0.01, 0.2, 100)

2025-07-07 17:01:31,401 - gym_custom_envs_real_ur_drivers_URBasic_realTimeClientEvent - INFO - Program send to Robot:
servoj([-0.04448544284868339, -1.7318643095227355, -1.6428934238253678, -1.239456476611598, 1.6873788666742051, 2.9160974793048915], 0.5, 0.5, 0.01, 0.2, 100)

2025-07-07 17:01:31,404 - gym_custom_envs_real_ur_drivers_URBasic_realTimeClientEvent - INFO - Program send to Robot:
servoj([-0.04448544284868339, -1.7318643095228874, -1.6428934238255197, -1.239456476611598, 1.6873788666742051, 2.916097477785947], 0.5, 0.5, 0.01, 0.2, 100)

2025-07-07 17:01:31,426 - gym_custom_envs_real_ur_drivers_URBasic_realTimeClientEvent - INFO - Program send to Robot:
servoj([-0.04448544284868339, -1.7349015914829022, -1.6459307057855352, -1.2379378356315913, 1.6873788666742051, 2.9130601958107434], 0.5, 0.5, 0.01, 0.2, 100)

2025-07-07 17:01:31,438 - gym_custom_envs_real_ur_drivers_URBasic_realTimeClientEvent - INFO - Program send to Robot:
servoj([-0.04448544284868339, -1.7349319643025025, -1.6459610786051353, -1.2379226492217914, 1.6873788666742051, 2.9130298229909917], 0.5, 0.5, 0.01, 0.2, 100)

2025-07-07 17:01:31,445 - gym_custom_envs_real_ur_drivers_URBasic_realTimeClientEvent - INFO - Program send to Robot:
servoj([-0.04448544284868339, -1.7364509090107054, -1.6474800233133382, -1.2379224973576934, 1.6873788666742051, 2.913029519262794], 0.5, 0.5, 0.01, 0.2, 100)

2025-07-07 17:01:31,452 - gym_custom_envs_real_ur_drivers_URBasic_realTimeClientEvent - INFO - Program send to Robot:
servoj([-0.04448544284868339, -1.7364660984577875, -1.6474952127604203, -1.2379224958390525, 1.6873788666742051, 2.913029516225512], 0.5, 0.5, 0.01, 0.2, 100)

2025-07-07 17:01:31,469 - gym_custom_envs_real_ur_drivers_URBasic_realTimeClientEvent - INFO - Program send to Robot:
servoj([-0.04448544284868339, -1.7364662503522583, -1.647495364654891, -1.237922495823866, 1.6873788666742051, 2.913029516195139], 0.5, 0.5, 0.01, 0.2, 100)

2025-07-07 17:01:31,476 - gym_custom_envs_real_ur_drivers_URBasic_realTimeClientEvent - INFO - Program send to Robot:
servoj([-0.04448544284868339, -1.7379848928512098, -1.6505326481338498, -1.2348852138637003, 1.6873788666742051, 2.9115108752148284], 0.5, 0.5, 0.01, 0.2, 100)

2025-07-07 17:01:31,497 - gym_custom_envs_real_ur_drivers_URBasic_realTimeClientEvent - INFO - Program send to Robot:
servoj([-0.04448544284868339, -1.7380000792761994, -1.6505630209686393, -1.2348548410440987, 1.6873788666742051, 2.9114956888050254], 0.5, 0.5, 0.01, 0.2, 100)

2025-07-07 17:01:31,500 - gym_custom_envs_real_ur_drivers_URBasic_realTimeClientEvent - INFO - Program send to Robot:
servoj([-0.04448544284868339, -1.7380002311404492, -1.6505633246969873, -1.2348545373159028, 1.6873788666742051, 2.9114955369409277], 0.5, 0.5, 0.01, 0.2, 100)

2025-07-07 17:01:31,522 - gym_custom_envs_real_ur_drivers_URBasic_realTimeClientEvent - INFO - Program send to Robot:
servoj([-0.04448544284868339, -1.7395188736390985, -1.6536006096942837, -1.227261329378587, 1.6873788666742051, 2.9114955354222865], 0.5, 0.5, 0.01, 0.2, 100)

2025-07-07 17:01:31,525 - gym_custom_envs_real_ur_drivers_URBasic_realTimeClientEvent - INFO - Program send to Robot:
servoj([-0.04448544284868339, -1.739534060064085, -1.6536309825442566, -1.2271853972992137, 1.6873788666742051, 2.9114955354071], 0.5, 0.5, 0.01, 0.2, 100)

2025-07-07 17:01:31,546 - gym_custom_envs_real_ur_drivers_URBasic_realTimeClientEvent - INFO - Program send to Robot:
servoj([-0.046004083828690326, -1.7425714938883483, -1.6551499272527632, -1.2150355101383659, 1.6873788666742051, 2.911495535406948], 0.5, 0.5, 0.01, 0.2, 100)

2025-07-07 17:01:31,549 - gym_custom_envs_real_ur_drivers_URBasic_realTimeClientEvent - INFO - Program send to Robot:
servoj([-0.0460192702384904, -1.742601868226591, -1.6551651166998484, -1.2149140112667574, 1.6873788666742051, 2.9114955354069467], 0.5, 0.5, 0.01, 0.2, 100)

2025-07-07 17:01:31,570 - gym_custom_envs_real_ur_drivers_URBasic_realTimeClientEvent - INFO - Program send to Robot:
servoj([-0.0460194221025884, -1.7486767358900006, -1.6597211915343393, -1.1997263864779735, 1.688897507654212, 2.9099768944269404], 0.5, 0.5, 0.01, 0.2, 100)

2025-07-07 17:01:31,573 - gym_custom_envs_real_ur_drivers_URBasic_realTimeClientEvent - INFO - Program send to Robot:
servoj([-0.04601942362122938, -1.7487374845666348, -1.6597667522826842, -1.1995745102300857, 1.6889126940640122, 2.9099617080171405], 0.5, 0.5, 0.01, 0.2, 100)

2025-07-07 17:01:31,589 - gym_custom_envs_real_ur_drivers_URBasic_realTimeClientEvent - INFO - Program send to Robot:
servoj([-0.04601942363641579, -1.748738092053401, -1.6597672078901675, -1.1995729914676068, 1.6889128459281102, 2.9099615561530423], 0.5, 0.5, 0.01, 0.2, 100)

2025-07-07 17:01:31,597 - gym_custom_envs_real_ur_drivers_URBasic_realTimeClientEvent - INFO - Program send to Robot:
servoj([-0.046019423636567656, -1.7487380981282687, -1.6597672124462424, -1.1995729762799818, 1.6889128474467512, 2.9099615546344015], 0.5, 0.5, 0.01, 0.2, 100)

2025-07-07 17:01:31,617 - gym_custom_envs_real_ur_drivers_URBasic_realTimeClientEvent - INFO - Program send to Robot:
servoj([-0.04601942363656917, -1.7548126621090445, -1.662804494451817, -1.181349284368024, 1.6889128474619375, 2.9038869906991875], 0.5, 0.5, 0.01, 0.2, 100)

2025-07-07 17:01:31,621 - gym_custom_envs_real_ur_drivers_URBasic_realTimeClientEvent - INFO - Program send to Robot:
servoj([-0.04601942363656919, -1.7548734077488521, -1.6628348672718727, -1.1811670474489044, 1.6889128474620894, 2.9038262450598356], 0.5, 0.5, 0.01, 0.2, 100)

2025-07-07 17:01:31,642 - gym_custom_envs_real_ur_drivers_URBasic_realTimeClientEvent - INFO - Program send to Robot:
servoj([-0.04601942363656919, -1.7594299381452707, -1.6658724529600872, -1.1644601742996388, 1.690431488442098, 2.896232432703408], 0.5, 0.5, 0.01, 0.2, 100)

2025-07-07 17:01:31,645 - gym_custom_envs_real_ur_drivers_URBasic_realTimeClientEvent - INFO - Program send to Robot:
servoj([-0.04601942363656919, -1.7594755034492349, -1.6659028288169693, -1.164293105568146, 1.690446674851898, 2.8961564945798437], 0.5, 0.5, 0.01, 0.2, 100)

2025-07-07 17:01:31,666 - gym_custom_envs_real_ur_drivers_URBasic_realTimeClientEvent - INFO - Program send to Robot:
servoj([-0.047538064616576135, -1.7640318820422947, -1.6689404145355513, -1.1475863841007565, 1.690446826715996, 2.8855252483385603], 0.5, 0.5, 0.01, 0.2, 100)

2025-07-07 17:01:31,677 - gym_custom_envs_real_ur_drivers_URBasic_realTimeClientEvent - INFO - Program send to Robot:
servoj([-0.047553251026376205, -1.7640774458282253, -1.668970790392737, -1.1474193168860827, 1.690446828234637, 2.8854189358761477], 0.5, 0.5, 0.01, 0.2, 100)

2025-07-07 17:01:31,686 - gym_custom_envs_real_ur_drivers_URBasic_realTimeClientEvent - INFO - Program send to Robot:
servoj([-0.0475534028904742, -1.7640779014660846, -1.668971094151309, -1.147417646213936, 1.6904468282498235, 2.8854178727515234], 0.5, 0.5, 0.01, 0.2, 100)

2025-07-07 17:01:31,693 - gym_custom_envs_real_ur_drivers_URBasic_realTimeClientEvent - INFO - Program send to Robot:
servoj([-0.04755340440911518, -1.7640779060224632, -1.6689710971888947, -1.1474176295072145, 1.6904468282499752, 2.8854178621202773], 0.5, 0.5, 0.01, 0.2, 100)

2025-07-07 17:01:31,709 - gym_custom_envs_real_ur_drivers_URBasic_realTimeClientEvent - INFO - Program send to Robot:
servoj([-0.0490720454043081, -1.7686338290080474, -1.6720083791792841, -1.1307125785600722, 1.6904468282499767, 2.8717500931939037], 0.5, 0.5, 0.01, 0.2, 100)

2025-07-07 17:01:31,726 - gym_custom_envs_real_ur_drivers_URBasic_realTimeClientEvent - INFO - Program send to Robot:
servoj([-0.04908723181426003, -1.7686793882379033, -1.6720387519991882, -1.130545528050601, 1.6904468282499767, 2.87161341550464], 0.5, 0.5, 0.01, 0.2, 100)

2025-07-07 17:01:31,734 - gym_custom_envs_real_ur_drivers_URBasic_realTimeClientEvent - INFO - Program send to Robot:
servoj([-0.04908738367835955, -1.7747544077502289, -1.6750763376874012, -1.1138388067654317, 1.6889281872699697, 2.8594629208876934], 0.5, 0.5, 0.01, 0.2, 100)

2025-07-07 17:01:31,749 - gym_custom_envs_real_ur_drivers_URBasic_realTimeClientEvent - INFO - Program send to Robot:
servoj([-0.049087385197000545, -1.7748151579453522, -1.6751067135442832, -1.11367173955258, 1.6889130008601698, 2.859341415941524], 0.5, 0.5, 0.01, 0.2, 100)

2025-07-07 17:01:31,757 - gym_custom_envs_real_ur_drivers_URBasic_realTimeClientEvent - INFO - Program send to Robot:
servoj([-0.04908738521218695, -1.7748157654473034, -1.6751070173028522, -1.1136700688804515, 1.6889128489960719, 2.859340200892062], 0.5, 0.5, 0.01, 0.2, 100)

2025-07-07 17:01:31,764 - gym_custom_envs_real_ur_drivers_URBasic_realTimeClientEvent - INFO - Program send to Robot:
servoj([-0.05060602619234576, -1.7778530534823367, -1.6766256613204438, -1.1000022833536693, 1.6873942064974239, 2.847191060901513], 0.5, 0.5, 0.01, 0.2, 100)

2025-07-07 17:01:31,781 - gym_custom_envs_real_ur_drivers_URBasic_realTimeClientEvent - INFO - Program send to Robot:
servoj([-0.05062121260214735, -1.777883426362687, -1.6766408477606198, -1.0998656054984015, 1.6873790200724372, 2.8470695695016075], 0.5, 0.5, 0.01, 0.2, 100)

2025-07-07 17:01:31,790 - gym_custom_envs_real_ur_drivers_URBasic_realTimeClientEvent - INFO - Program send to Robot:
servoj([-0.05062136446624537, -1.7778837300914905, -1.6766409996250216, -1.0998642387198487, 1.6873788682081874, 2.8470683545876088], 0.5, 0.5, 0.01, 0.2, 100)

2025-07-07 17:01:31,805 - gym_custom_envs_real_ur_drivers_URBasic_realTimeClientEvent - INFO - Program send to Robot:
servoj([-0.05214000696489329, -1.780921015088792, -1.6781596421236724, -1.0892337381920156, 1.6858602257095379, 2.833400573618407], 0.5, 0.5, 0.01, 0.2, 100)

2025-07-07 17:01:31,812 - gym_custom_envs_real_ur_drivers_URBasic_realTimeClientEvent - INFO - Program send to Robot:
servoj([-0.05215519338987977, -1.780951387938765, -1.678174828548659, -1.0891274331867373, 1.6858450392845514, 2.8332638958087153], 0.5, 0.5, 0.01, 0.2, 100)

2025-07-07 17:01:31,830 - gym_custom_envs_real_ur_drivers_URBasic_realTimeClientEvent - INFO - Program send to Robot:
servoj([-0.055192627214143086, -1.785507614607285, -1.678174980412909, -1.0830518062166576, 1.6828076054602885, 2.8211134011905643], 0.5, 0.5, 0.01, 0.2, 100)

2025-07-07 17:01:31,845 - gym_custom_envs_real_ur_drivers_URBasic_realTimeClientEvent - INFO - Program send to Robot:
servoj([-0.055223001552385714, -1.7855531768739703, -1.6781749819315515, -1.0829910499469568, 1.682777231122046, 2.820991896244383], 0.5, 0.5, 0.01, 0.2, 100)

2025-07-07 17:01:31,852 - gym_custom_envs_real_ur_drivers_URBasic_realTimeClientEvent - INFO - Program send to Robot:
servoj([-0.055223305295768146, -1.785553632496637, -1.6781749819467378, -1.0829904423842598, 1.6827769273786635, 2.820990681194921], 0.5, 0.5, 0.01, 0.2, 100)

2025-07-07 17:01:31,860 - gym_custom_envs_real_ur_drivers_URBasic_realTimeClientEvent - INFO - Program send to Robot:
servoj([-0.05674194931320891, -1.7901095599928842, -1.6781749819468896, -1.079953154348619, 1.676702360421202, 2.8058042592443586], 0.5, 0.5, 0.01, 0.2, 100)

2025-07-07 17:01:31,868 - gym_custom_envs_real_ur_drivers_URBasic_realTimeClientEvent - INFO - Program send to Robot:
servoj([-0.05675713575338332, -1.7901551192678467, -1.6781749819468912, -1.0799227814682624, 1.6766416147516274, 2.805652395024853], 0.5, 0.5, 0.01, 0.2, 100)

2025-07-07 17:01:31,886 - gym_custom_envs_real_ur_drivers_URBasic_realTimeClientEvent - INFO - Program send to Robot:
servoj([-0.05675728761778506, -1.7901555748605964, -1.6781749819468912, -1.079922477739459, 1.6766410072949316, 2.805650876382658], 0.5, 0.5, 0.01, 0.2, 100)

2025-07-07 17:01:31,893 - gym_custom_envs_real_ur_drivers_URBasic_realTimeClientEvent - INFO - Program send to Robot:
servoj([-0.059794571096442525, -1.794711502356544, -1.6796936229268982, -1.0784038337221646, 1.669047796320331, 2.793501733356181], 0.5, 0.5, 0.01, 0.2, 100)

2025-07-07 17:01:31,901 - gym_custom_envs_real_ur_drivers_URBasic_realTimeClientEvent - INFO - Program send to Robot:
servoj([-0.059824943931229106, -1.7947570616315036, -1.6797088093366983, -1.0783886472819917, 1.6689718642105849, 2.7933802419259166], 0.5, 0.5, 0.01, 0.2, 100)

2025-07-07 17:01:31,909 - gym_custom_envs_real_ur_drivers_URBasic_realTimeClientEvent - INFO - Program send to Robot:
servoj([-0.05982524765957697, -1.7947575172242531, -1.6797089612007963, -1.07838849541759, 1.6689711048894873, 2.7933790270116137], 0.5, 0.5, 0.01, 0.2, 100)

2025-07-07 17:01:31,925 - gym_custom_envs_real_ur_drivers_URBasic_realTimeClientEvent - INFO - Program send to Robot:
servoj([-0.061343891676866956, -1.797794803740194, -1.6812276036994442, -1.0783884938989459, 1.6568219694562225, 2.78426716898243], 0.5, 0.5, 0.01, 0.2, 100)

2025-07-07 17:01:31,933 - gym_custom_envs_real_ur_drivers_URBasic_realTimeClientEvent - INFO - Program send to Robot:
servoj([-0.061359078117039854, -1.7978251766053537, -1.6812427901244307, -1.0783884938837593, 1.65670047810189, 2.7841760504021384], 0.5, 0.5, 0.01, 0.2, 100)

2025-07-07 17:01:31,949 - gym_custom_envs_real_ur_drivers_URBasic_realTimeClientEvent - INFO - Program send to Robot:
servoj([-0.06135922998144158, -1.7978254803340052, -1.6812429419886805, -1.0783884938836075, 1.6566992631883466, 2.7841751392163356], 0.5, 0.5, 0.01, 0.2, 100)

2025-07-07 17:01:31,965 - gym_custom_envs_real_ur_drivers_URBasic_realTimeClientEvent - INFO - Program send to Robot:
servoj([-0.061359231500085605, -1.802381406311312, -1.6842802254673368, -1.078388493883606, 1.6460687641791634, 2.7796192071644574], 0.5, 0.5, 0.01, 0.2, 100)

2025-07-07 17:01:31,973 - gym_custom_envs_real_ur_drivers_URBasic_realTimeClientEvent - INFO - Program send to Robot:
servoj([-0.06135923151527204, -1.802426965571085, -1.6843105983021234, -1.078388493883606, 1.6459624591890716, 2.779573647843939], 0.5, 0.5, 0.01, 0.2, 100)

2025-07-07 17:01:31,981 - gym_custom_envs_real_ur_drivers_URBasic_realTimeClientEvent - INFO - Program send to Robot:
servoj([-0.061359231515423905, -1.8024274211636828, -1.6843109020304712, -1.078388493883606, 1.6459613961391706, 2.7795731922507336], 0.5, 0.5, 0.01, 0.2, 100)

2025-07-07 17:01:31,989 - gym_custom_envs_real_ur_drivers_URBasic_realTimeClientEvent - INFO - Program send to Robot:
servoj([-0.061359231515425425, -1.8069833486596292, -1.6873481870277678, -1.076869852903599, 1.635330898648624, 2.7780545467147943], 0.5, 0.5, 0.01, 0.2, 100)

2025-07-07 17:01:32,004 - gym_custom_envs_real_ur_drivers_URBasic_realTimeClientEvent - INFO - Program send to Robot:
servoj([-0.06135923151542544, -1.8070289079345887, -1.6873785598777407, -1.076854666493799, 1.6352245936737184, 2.778039360259435], 0.5, 0.5, 0.01, 0.2, 100)

2025-07-07 17:01:32,012 - gym_custom_envs_real_ur_drivers_URBasic_realTimeClientEvent - INFO - Program send to Robot:
servoj([-0.06135923151542544, -1.8070293635273382, -1.6873788636062406, -1.076854514629701, 1.6352235306239693, 2.7780392083948815], 0.5, 0.5, 0.01, 0.2, 100)

2025-07-07 17:01:32,020 - gym_custom_envs_real_ur_drivers_URBasic_realTimeClientEvent - INFO - Program send to Robot:
servoj([-0.05984059053541893, -1.8100666500432796, -1.6919347895835462, -1.0707799491910326, 1.6276303150934381, 2.778039206876236], 0.5, 0.5, 0.01, 0.2, 100)

2025-07-07 17:01:32,028 - gym_custom_envs_real_ur_drivers_URBasic_realTimeClientEvent - INFO - Program send to Robot:
servoj([-0.05982540412561887, -1.810097022908439, -1.6919803488433192, -1.0707192035366457, 1.6275543829381327, 2.7780392068610493], 0.5, 0.5, 0.01, 0.2, 100)

2025-07-07 17:01:32,045 - gym_custom_envs_real_ur_drivers_URBasic_realTimeClientEvent - INFO - Program send to Robot:
servoj([-0.05982525226152087, -1.8100973266370906, -1.691980804435917, -1.070718596080102, 1.6275536236165797, 2.7780392068608974], 0.5, 0.5, 0.01, 0.2, 100)

2025-07-07 17:01:32,052 - gym_custom_envs_real_ur_drivers_URBasic_realTimeClientEvent - INFO - Program send to Robot:
servoj([-0.059825250742879886, -1.810097329674377, -1.696536731931863, -1.0616067441254962, 1.624516334063351, 2.778039206860896], 0.5, 0.5, 0.01, 0.2, 100)

2025-07-07 17:01:32,069 - gym_custom_envs_real_ur_drivers_URBasic_realTimeClientEvent - INFO - Program send to Robot:
servoj([-0.05982525072769348, -1.81009732970475, -1.6965822912068225, -1.0615156256059501, 1.6244859611678188, 2.778039206860896], 0.5, 0.5, 0.01, 0.2, 100)

2025-07-07 17:01:32,077 - gym_custom_envs_real_ur_drivers_URBasic_realTimeClientEvent - INFO - Program send to Robot:
servoj([-0.059825250727541614, -1.8100973297050538, -1.696582746799572, -1.0615147144207546, 1.6244856574388635, 2.778039206860896], 0.5, 0.5, 0.01, 0.2, 100)

2025-07-07 17:01:32,085 - gym_custom_envs_real_ur_drivers_URBasic_realTimeClientEvent - INFO - Program send to Robot:
servoj([-0.059825250727540094, -1.8100973297050567, -1.7026573152755264, -1.0478469364888416, 1.622967013421567, 2.778039206860896], 0.5, 0.5, 0.01, 0.2, 100)

2025-07-07 17:01:32,093 - gym_custom_envs_real_ur_drivers_URBasic_realTimeClientEvent - INFO - Program send to Robot:
servoj([-0.05982525072754008, -1.8100973297050567, -1.7027180609602859, -1.0477102587095226, 1.622951826981394, 2.778039206860896], 0.5, 0.5, 0.01, 0.2, 100)

2025-07-07 17:01:32,109 - gym_custom_envs_real_ur_drivers_URBasic_realTimeClientEvent - INFO - Program send to Robot:
servoj([-0.05982525072754008, -1.8100973297050567, -1.7027186684171336, -1.0477088919317294, 1.6229516751169923, 2.778039206860896], 0.5, 0.5, 0.01, 0.2, 100)

2025-07-07 17:01:32,117 - gym_custom_envs_real_ur_drivers_URBasic_realTimeClientEvent - INFO - Program send to Robot:
servoj([-0.06134389170754659, -1.8116159706850634, -1.710311879391736, -1.0340411094438902, 1.6229516735983482, 2.7765205658808894], 0.5, 0.5, 0.01, 0.2, 100)

2025-07-07 17:01:32,125 - gym_custom_envs_real_ur_drivers_URBasic_realTimeClientEvent - INFO - Program send to Robot:
servoj([-0.06135907811734665, -1.8116311570948636, -1.7103878115014821, -1.0339044316190118, 1.6229516735831617, 2.7765053794710894], 0.5, 0.5, 0.01, 0.2, 100)

2025-07-07 17:01:32,133 - gym_custom_envs_real_ur_drivers_URBasic_realTimeClientEvent - INFO - Program send to Robot:
servoj([-0.061359229981444656, -1.8116313089589615, -1.7103885708225794, -1.033903064840763, 1.62295167358301, 2.7765052276069913], 0.5, 0.5, 0.01, 0.2, 100)

2025-07-07 17:01:32,148 - gym_custom_envs_real_ur_drivers_URBasic_realTimeClientEvent - INFO - Program send to Robot:
servoj([-0.06135923150008563, -1.8116313104776025, -1.717981783315825, -1.018716641372913, 1.6229516735830085, 2.77650522608835], 0.5, 0.5, 0.01, 0.2, 100)

2025-07-07 17:01:32,156 - gym_custom_envs_real_ur_drivers_URBasic_realTimeClientEvent - INFO - Program send to Robot:
servoj([-0.06135923151527204, -1.811631310492789, -1.7180577154407577, -1.0185647771382345, 1.6229516735830085, 2.776505226073164], 0.5, 0.5, 0.01, 0.2, 100)

2025-07-07 17:01:32,164 - gym_custom_envs_real_ur_drivers_URBasic_realTimeClientEvent - INFO - Program send to Robot:
servoj([-0.061359231515423905, -1.811631310492941, -1.718058474762007, -1.0185632584958877, 1.6229516735830085, 2.776505226073012], 0.5, 0.5, 0.01, 0.2, 100)

2025-07-07 17:01:32,181 - gym_custom_envs_real_ur_drivers_URBasic_realTimeClientEvent - INFO - Program send to Robot:
servoj([-0.061359231515425425, -1.8116313104929422, -1.7256516872552532, -1.0018581925293895, 1.6229516735830085, 2.7749865850930036], 0.5, 0.5, 0.01, 0.2, 100)

2025-07-07 17:01:32,189 - gym_custom_envs_real_ur_drivers_URBasic_realTimeClientEvent - INFO - Program send to Robot:
servoj([-0.06135923151542544, -1.8116313104929422, -1.7257276193801856, -1.0016911418697243, 1.6229516735830085, 2.7749713986832036], 0.5, 0.5, 0.01, 0.2, 100)

2025-07-07 17:01:32,196 - gym_custom_envs_real_ur_drivers_URBasic_realTimeClientEvent - INFO - Program send to Robot:
servoj([-0.06135923151542544, -1.8116313104929422, -1.725728378701435, -1.0016894713631277, 1.6229516735830085, 2.7749712468191055], 0.5, 0.5, 0.01, 0.2, 100)

2025-07-07 17:01:32,205 - gym_custom_envs_real_ur_drivers_URBasic_realTimeClientEvent - INFO - Program send to Robot:
servoj([-0.06135923151542544, -1.8116313104929422, -1.7257283862946475, -1.0016894546580617, 1.6229516735830085, 2.7749712453004647], 0.5, 0.5, 0.01, 0.2, 100)

2025-07-07 17:01:32,221 - gym_custom_envs_real_ur_drivers_URBasic_realTimeClientEvent - INFO - Program send to Robot:
servoj([-0.06135923151542544, -1.8131499514729488, -1.7378775142106335, -0.98802168567095, 1.6229516735830085, 2.770415322345258], 0.5, 0.5, 0.01, 0.2, 100)

2025-07-07 17:01:32,230 - gym_custom_envs_real_ur_drivers_URBasic_realTimeClientEvent - INFO - Program send to Robot:
servoj([-0.06135923151542544, -1.813165137882749, -1.7379990054897934, -0.9878850079810788, 1.6229516735830085, 2.770369763115706], 0.5, 0.5, 0.01, 0.2, 100)

2025-07-07 17:01:32,236 - gym_custom_envs_real_ur_drivers_URBasic_realTimeClientEvent - INFO - Program send to Robot:
servoj([-0.06135923151542544, -1.8131652897468469, -1.7380002204025848, -0.9878836412041802, 1.6229516735830085, 2.7703693075234104], 0.5, 0.5, 0.01, 0.2, 100)

2025-07-07 17:01:32,245 - gym_custom_envs_real_ur_drivers_URBasic_realTimeClientEvent - INFO - Program send to Robot:
servoj([-0.06135923151542544, -1.8177212142055084, -1.7516680013717743, -0.9726972177363434, 1.6229516735830085, 2.7658133800274673], 0.5, 0.5, 0.01, 0.2, 100)

2025-07-07 17:01:32,261 - gym_custom_envs_real_ur_drivers_URBasic_realTimeClientEvent - INFO - Program send to Robot:
servoj([-0.06135923151542544, -1.817766773450095, -1.7518046791814663, -0.972545353501665, 1.6229516735830085, 2.7657678207525076], 0.5, 0.5, 0.01, 0.2, 100)

2025-07-07 17:01:32,269 - gym_custom_envs_real_ur_drivers_URBasic_realTimeClientEvent - INFO - Program send to Robot:
servoj([-0.06135923151542544, -1.8177672290425408, -1.751806045959563, -0.9725438348593183, 1.6229516735830085, 2.7657673651597583], 0.5, 0.5, 0.01, 0.2, 100)

2025-07-07 17:01:32,277 - gym_custom_envs_real_ur_drivers_URBasic_realTimeClientEvent - INFO - Program send to Robot:
servoj([-0.06135923151542544, -1.820804515558479, -1.763955187467398, -0.9558387688928203, 1.6244703145630155, 2.7657673606038307], 0.5, 0.5, 0.01, 0.2, 100)

2025-07-07 17:01:32,285 - gym_custom_envs_real_ur_drivers_URBasic_realTimeClientEvent - INFO - Program send to Robot:
servoj([-0.06135923151542544, -1.8208348884236385, -1.7640766788824762, -0.9556717182331553, 1.6244855009728154, 2.7657673605582715], 0.5, 0.5, 0.01, 0.2, 100)

2025-07-07 17:01:32,301 - gym_custom_envs_real_ur_drivers_URBasic_realTimeClientEvent - INFO - Program send to Robot:
servoj([-0.06135923151542544, -1.82083519215229, -1.764077893796627, -0.9556700477265586, 1.6244856528369136, 2.765767360557816], 0.5, 0.5, 0.01, 0.2, 100)

2025-07-07 17:01:32,309 - gym_custom_envs_real_ur_drivers_URBasic_realTimeClientEvent - INFO - Program send to Robot:
servoj([-0.06135923151542544, -1.8238724771495898, -1.7747083928058163, -0.9389649802414181, 1.6260042953355605, 2.765767360557811], 0.5, 0.5, 0.01, 0.2, 100)

2025-07-07 17:01:32,325 - gym_custom_envs_real_ur_drivers_URBasic_realTimeClientEvent - INFO - Program send to Robot:
servoj([-0.06135923151542544, -1.8239028499995629, -1.7748146977959083, -0.9387979295665666, 1.6260194817605471, 2.765767360557811], 0.5, 0.5, 0.01, 0.2, 100)

2025-07-07 17:01:32,333 - gym_custom_envs_real_ur_drivers_URBasic_realTimeClientEvent - INFO - Program send to Robot:
servoj([-0.06135923151542544, -1.8239031537280626, -1.774815760845809, -0.9387962590598181, 1.626019633624797, 2.765767360557811], 0.5, 0.5, 0.01, 0.2, 100)

2025-07-07 17:01:32,341 - gym_custom_envs_real_ur_drivers_URBasic_realTimeClientEvent - INFO - Program send to Robot:
servoj([-0.06135923151542544, -1.8269404387253614, -1.783927617356349, -0.9220911915746759, 1.6260196351434395, 2.7642487195778043], 0.5, 0.5, 0.01, 0.2, 100)

2025-07-07 17:01:32,349 - gym_custom_envs_real_ur_drivers_URBasic_realTimeClientEvent - INFO - Program send to Robot:
servoj([-0.06135923151542544, -1.8269708115753343, -1.7840187359214543, -0.9219241408998246, 1.6260196351586258, 2.7642335331680044], 0.5, 0.5, 0.01, 0.2, 100)

2025-07-07 17:01:32,365 - gym_custom_envs_real_ur_drivers_URBasic_realTimeClientEvent - INFO - Program send to Robot:
servoj([-0.06135923151542544, -1.8269711153038342, -1.7840196471071055, -0.921922470393076, 1.6260196351587777, 2.764233381303906], 0.5, 0.5, 0.01, 0.2, 100)

2025-07-07 17:01:32,372 - gym_custom_envs_real_ur_drivers_URBasic_realTimeClientEvent - INFO - Program send to Robot:
servoj([-0.06135923151542544, -1.8300084003011325, -1.790094220138989, -0.9067360438879404, 1.6290569171187932, 2.7642333797852654], 0.5, 0.5, 0.01, 0.2, 100)

2025-07-07 17:01:32,381 - gym_custom_envs_real_ur_drivers_URBasic_realTimeClientEvent - INFO - Program send to Robot:
servoj([-0.06135923151542544, -1.8300387731511056, -1.7901549658693077, -0.9065841796228891, 1.6290872899383932, 2.764233379770079], 0.5, 0.5, 0.01, 0.2, 100)

2025-07-07 17:01:32,388 - gym_custom_envs_real_ur_drivers_URBasic_realTimeClientEvent - INFO - Program send to Robot:
servoj([-0.06135923151542544, -1.8300390768796053, -1.790155573326611, -0.9065826609802385, 1.6290875936665894, 2.764233379769927], 0.5, 0.5, 0.01, 0.2, 100)

2025-07-07 17:01:32,405 - gym_custom_envs_real_ur_drivers_URBasic_realTimeClientEvent - INFO - Program send to Robot:
servoj([-0.05984059053541893, -1.8345950028569105, -1.7962301433212107, -0.8929148769737513, 1.6290875967038714, 2.7642333797699257], 0.5, 0.5, 0.01, 0.2, 100)

2025-07-07 17:01:32,421 - gym_custom_envs_real_ur_drivers_URBasic_realTimeClientEvent - INFO - Program send to Robot:
servoj([-0.05982540412561887, -1.8346405621166837, -1.7962908890211569, -0.8927781991336864, 1.6290875967342442, 2.7642333797699257], 0.5, 0.5, 0.01, 0.2, 100)

2025-07-07 17:01:32,429 - gym_custom_envs_real_ur_drivers_URBasic_realTimeClientEvent - INFO - Program send to Robot:
servoj([-0.05982525226152087, -1.8346410177092813, -1.7962914964781562, -0.8927768323552858, 1.6290875967345477, 2.7642333797699257], 0.5, 0.5, 0.01, 0.2, 100)

2025-07-07 17:01:32,437 - gym_custom_envs_real_ur_drivers_URBasic_realTimeClientEvent - INFO - Program send to Robot:
servoj([-0.059825250742879886, -1.8376783042252212, -1.7993287845127401, -0.8851836137874676, 1.6306062377145578, 2.7642333797699257], 0.5, 0.5, 0.01, 0.2, 100)

2025-07-07 17:01:32,445 - gym_custom_envs_real_ur_drivers_URBasic_realTimeClientEvent - INFO - Program send to Robot:
servoj([-0.05982525072769348, -1.8377086770903805, -1.799359157393086, -0.8851076816017893, 1.630621424124358, 2.7642333797699257], 0.5, 0.5, 0.01, 0.2, 100)

2025-07-07 17:01:32,461 - gym_custom_envs_real_ur_drivers_URBasic_realTimeClientEvent - INFO - Program send to Robot:
servoj([-0.059825250727541614, -1.8377089808190321, -1.7993594611218895, -0.8851069222799326, 1.630621575988456, 2.7642333797699257], 0.5, 0.5, 0.01, 0.2, 100)

2025-07-07 17:01:32,469 - gym_custom_envs_real_ur_drivers_URBasic_realTimeClientEvent - INFO - Program send to Robot:
servoj([-0.059825250727540094, -1.8392276248363253, -1.8039153870991973, -0.8790323507666871, 1.630621577507097, 2.7657520207499324], 0.5, 0.5, 0.01, 0.2, 100)

2025-07-07 17:01:32,476 - gym_custom_envs_real_ur_drivers_URBasic_realTimeClientEvent - INFO - Program send to Robot:
servoj([-0.05982525072754008, -1.8392428112764982, -1.8039609463589705, -0.8789716050515546, 1.6306215775222834, 2.7657672071597323], 0.5, 0.5, 0.01, 0.2, 100)

2025-07-07 17:01:32,485 - gym_custom_envs_real_ur_drivers_URBasic_realTimeClientEvent - INFO - Program send to Robot:
servoj([-0.05982525072754008, -1.8392429631409, -1.8039614019515682, -0.8789709975944033, 1.6306215775224353, 2.7657673590238305], 0.5, 0.5, 0.01, 0.2, 100)

2025-07-07 17:01:32,501 - gym_custom_envs_real_ur_drivers_URBasic_realTimeClientEvent - INFO - Program send to Robot:
servoj([-0.05982525072754008, -1.8422802466195574, -1.806998688467508, -0.8744150685798114, 1.6306215775224366, 2.7657673605424713], 0.5, 0.5, 0.01, 0.2, 100)

2025-07-07 17:01:32,508 - gym_custom_envs_real_ur_drivers_URBasic_realTimeClientEvent - INFO - Program send to Robot:
servoj([-0.05982525072754008, -1.842310619454344, -1.8070290613326676, -0.8743695092896655, 1.6306215775224366, 2.765767360557658], 0.5, 0.5, 0.01, 0.2, 100)

2025-07-07 17:01:32,516 - gym_custom_envs_real_ur_drivers_URBasic_realTimeClientEvent - INFO - Program send to Robot:
servoj([-0.05982525072754008, -1.8423109231826917, -1.8070293650613192, -0.874369053696764, 1.6306215775224366, 2.7657673605578097], 0.5, 0.5, 0.01, 0.2, 100)

2025-07-07 17:01:32,525 - gym_custom_envs_real_ur_drivers_URBasic_realTimeClientEvent - INFO - Program send to Robot:
servoj([-0.05982525072754008, -1.8423109262199753, -1.8070293680986056, -0.874369049140835, 1.6306215775224366, 2.765767360557811], 0.5, 0.5, 0.01, 0.2, 100)

2025-07-07 17:01:32,541 - gym_custom_envs_real_ur_drivers_URBasic_realTimeClientEvent - INFO - Program send to Robot:
servoj([-0.058306609747533135, -1.843829567230355, -1.8115852910689985, -0.8743690490952757, 1.6321402185024434, 2.765767360557811], 0.5, 0.5, 0.01, 0.2, 100)

2025-07-07 17:01:32,549 - gym_custom_envs_real_ur_drivers_URBasic_realTimeClientEvent - INFO - Program send to Robot:
servoj([-0.058291423337733066, -1.8438447536404587, -1.8116308502987024, -0.8743690490948202, 1.6321554049122435, 2.765767360557811], 0.5, 0.5, 0.01, 0.2, 100)

2025-07-07 17:01:32,565 - gym_custom_envs_real_ur_drivers_URBasic_realTimeClientEvent - INFO - Program send to Robot:
servoj([-0.05829127147363506, -1.8438449055045598, -1.8131499468710062, -0.8743690490948156, 1.6321555567763415, 2.7672860015378173], 0.5, 0.5, 0.01, 0.2, 100)

2025-07-07 17:01:32,572 - gym_custom_envs_real_ur_drivers_URBasic_realTimeClientEvent - INFO - Program send to Robot:
servoj([-0.058291269954994084, -1.8438449070232008, -1.8131651378367293, -0.8743690490948155, 1.6321555582949825, 2.7673011879476177], 0.5, 0.5, 0.01, 0.2, 100)

2025-07-07 17:01:32,581 - gym_custom_envs_real_ur_drivers_URBasic_realTimeClientEvent - INFO - Program send to Robot:
servoj([-0.058291269939807676, -1.8438449070383873, -1.8131652897463866, -0.8743690490948155, 1.632155558310169, 2.7673013398117154], 0.5, 0.5, 0.01, 0.2, 100)

2025-07-07 17:01:32,590 - gym_custom_envs_real_ur_drivers_URBasic_realTimeClientEvent - INFO - Program send to Robot:
servoj([-0.05829126993965581, -1.8438449070385392, -1.8131652912654832, -0.8743690490948155, 1.6321555583103209, 2.7673013413303567], 0.5, 0.5, 0.01, 0.2, 100)

2025-07-07 17:01:32,605 - gym_custom_envs_real_ur_drivers_URBasic_realTimeClientEvent - INFO - Program send to Robot:
servoj([-0.05829126993965429, -1.8453635480185475, -1.8162025732406881, -0.8743690490948155, 1.6321555583103224, 2.7673013413455427], 0.5, 0.5, 0.01, 0.2, 100)

2025-07-07 17:01:32,614 - gym_custom_envs_real_ur_drivers_URBasic_realTimeClientEvent - INFO - Program send to Robot:
servoj([-0.05829126993965428, -1.8453787344283474, -1.81623294606044, -0.8743690490948155, 1.6321555583103224, 2.7673013413456946], 0.5, 0.5, 0.01, 0.2, 100)

2025-07-07 17:01:32,621 - gym_custom_envs_real_ur_drivers_URBasic_realTimeClientEvent - INFO - Program send to Robot:
servoj([-0.05829126993965428, -1.8453788862924454, -1.8162332497886375, -0.8743690490948155, 1.6321555583103224, 2.7673013413456964], 0.5, 0.5, 0.01, 0.2, 100)

2025-07-07 17:01:32,629 - gym_custom_envs_real_ur_drivers_URBasic_realTimeClientEvent - INFO - Program send to Robot:
servoj([-0.05829126993965428, -1.8453788878110864, -1.8177518938059265, -0.8728504081148085, 1.6321555583103224, 2.7673013413456964], 0.5, 0.5, 0.01, 0.2, 100)

2025-07-07 17:01:32,645 - gym_custom_envs_real_ur_drivers_URBasic_realTimeClientEvent - INFO - Program send to Robot:
servoj([-0.05829126993965428, -1.845378887826273, -1.8177670802460995, -0.8728352217050085, 1.6321555583103224, 2.7673013413456964], 0.5, 0.5, 0.01, 0.2, 100)

2025-07-07 17:01:32,661 - gym_custom_envs_real_ur_drivers_URBasic_realTimeClientEvent - INFO - Program send to Robot:
servoj([-0.05829126993965428, -1.8468975288064315, -1.8192858730905082, -0.8728350698409104, 1.6321555583103224, 2.7688199823257036], 0.5, 0.5, 0.01, 0.2, 100)

2025-07-07 17:01:32,669 - gym_custom_envs_real_ur_drivers_URBasic_realTimeClientEvent - INFO - Program send to Robot:
servoj([-0.05829126993965428, -1.846912715216233, -1.8193010610189522, -0.8728350683222695, 1.6321555583103224, 2.7688351687355035], 0.5, 0.5, 0.01, 0.2, 100)

2025-07-07 17:01:32,685 - gym_custom_envs_real_ur_drivers_URBasic_realTimeClientEvent - INFO - Program send to Robot:
servoj([-0.05829126993965428, -1.8469128670803312, -1.8193012128982367, -0.8728350683070831, 1.6321555583103224, 2.7688353205996017], 0.5, 0.5, 0.01, 0.2, 100)

2025-07-07 17:01:32,692 - gym_custom_envs_real_ur_drivers_URBasic_realTimeClientEvent - INFO - Program send to Robot:
servoj([-0.05829126993965428, -1.8469128685989722, -1.8208198553970356, -0.8728350683069312, 1.6321555583103224, 2.7673166811382353], 0.5, 0.5, 0.01, 0.2, 100)

2025-07-07 17:01:32,701 - gym_custom_envs_real_ur_drivers_URBasic_realTimeClientEvent - INFO - Program send to Robot:
servoj([-0.05829126993965428, -1.8469128686141585, -1.8208350418220236, -0.8728350683069297, 1.6321555583103224, 2.767301494743622], 0.5, 0.5, 0.01, 0.2, 100)

2025-07-07 17:01:32,710 - gym_custom_envs_real_ur_drivers_URBasic_realTimeClientEvent - INFO - Program send to Robot:
servoj([-0.05829126993965428, -1.8469128686143104, -1.8208351936862734, -0.8728350683069297, 1.6321555583103224, 2.7673013428796756], 0.5, 0.5, 0.01, 0.2, 100)

2025-07-07 17:01:32,726 - gym_custom_envs_real_ur_drivers_URBasic_realTimeClientEvent - INFO - Program send to Robot:
servoj([-0.05829126993965428, -1.846912868614312, -1.820835195204916, -0.8728350683069297, 1.6321555583103224, 2.7688199823410433], 0.5, 0.5, 0.01, 0.2, 100)

2025-07-07 17:01:32,732 - gym_custom_envs_real_ur_drivers_URBasic_rtdeEvent - INFO - Total packages: 1000
2025-07-07 17:01:32,734 - gym_custom_envs_real_ur_drivers_URBasic_realTimeClientEvent - INFO - Program send to Robot:
servoj([-0.05829126993965428, -1.846912868614312, -1.8208351952201025, -0.8728350683069297, 1.6321555583103224, 2.768835168735657], 0.5, 0.5, 0.01, 0.2, 100)

2025-07-07 17:01:32,740 - gym_custom_envs_real_ur_drivers_URBasic_realTimeClientEvent - INFO - Program send to Robot:
servoj([-0.05829126993965428, -1.846912868614312, -1.8208351952202542, -0.8728350683069297, 1.6321555583103224, 2.768835320599603], 0.5, 0.5, 0.01, 0.2, 100)

2025-07-07 17:01:32,758 - gym_custom_envs_real_ur_drivers_URBasic_realTimeClientEvent - INFO - Program send to Robot:
servoj([-0.056772628959647777, -1.8499501505743257, -1.8208351952202557, -0.8728350683069297, 1.6336741992903294, 2.7688353221182425], 0.5, 0.5, 0.01, 0.2, 100)

2025-07-07 17:01:32,764 - gym_custom_envs_real_ur_drivers_URBasic_realTimeClientEvent - INFO - Program send to Robot:
servoj([-0.05675744254984771, -1.8499805233939257, -1.8208351952202557, -0.8728350683069297, 1.6336893857001293, 2.768835322133429], 0.5, 0.5, 0.01, 0.2, 100)

2025-07-07 17:01:32,774 - gym_custom_envs_real_ur_drivers_URBasic_realTimeClientEvent - INFO - Program send to Robot:
servoj([-0.05675729068574971, -1.8499808271221219, -1.8208351952202557, -0.8728350683069297, 1.6336895375642273, 2.768835322133581], 0.5, 0.5, 0.01, 0.2, 100)

2025-07-07 17:01:32,788 - gym_custom_envs_real_ur_drivers_URBasic_realTimeClientEvent - INFO - Program send to Robot:
servoj([-0.05675728916710873, -1.8530181121194171, -1.8223538362002625, -0.8728350683069297, 1.6336895390828683, 2.768835322133582], 0.5, 0.5, 0.01, 0.2, 100)

2025-07-07 17:01:32,799 - gym_custom_envs_real_ur_drivers_URBasic_realTimeClientEvent - INFO - Program send to Robot:
servoj([-0.05675728915192232, -1.85304848496939, -1.8223690226100626, -0.8728350683069297, 1.6336895390980548, 2.768835322133582], 0.5, 0.5, 0.01, 0.2, 100)

2025-07-07 17:01:32,804 - gym_custom_envs_real_ur_drivers_URBasic_realTimeClientEvent - INFO - Program send to Robot:
servoj([-0.05675728915177045, -1.8530487886978897, -1.8223691744741606, -0.8728350683069297, 1.6336895390982067, 2.768835322133582], 0.5, 0.5, 0.01, 0.2, 100)

2025-07-07 17:01:32,813 - gym_custom_envs_real_ur_drivers_URBasic_realTimeClientEvent - INFO - Program send to Robot:
