2025-07-07 17:19:07,271 - gym_custom_envs_real_ur_drivers_URBasic_robotModelEvent - INFO - Init done
2025-07-07 17:19:07,772 - gym_custom_envs_real_ur_drivers_URBasic_realTimeClientEvent - INFO - Connected
2025-07-07 17:19:07,772 - gym_custom_envs_real_ur_drivers_URBasic_realTimeClientEvent - INFO - RT_CLient constructor done
2025-07-07 17:19:07,773 - gym_custom_envs_real_ur_drivers_URBasic_dataLogEvent - INFO - Data logging (not event logging) is disabled
2025-07-07 17:19:07,773 - gym_custom_envs_real_ur_drivers_URBasic_dataLogEvent - INFO - DataLog constructor done
2025-07-07 17:19:07,774 - gym_custom_envs_real_ur_drivers_URBasic_dataLogEvent - INFO - DataLog is stopped
2025-07-07 17:19:07,774 - gym_custom_envs_real_ur_drivers_URBasic_rtdeEvent - INFO - RTDE constructor done
2025-07-07 17:19:08,093 - gym_custom_envs_real_ur_drivers_URBasic_rtdeEvent - INFO - Controller version: 3.3.1-60
2025-07-07 17:19:08,095 - gym_custom_envs_real_ur_drivers_URBasic_rtdeEvent - INFO - RTDE started
2025-07-07 17:19:08,276 - gym_custom_envs_real_ur_drivers_URBasic_dashboardEvent - INFO - Connected
2025-07-07 17:19:08,276 - gym_custom_envs_real_ur_drivers_URBasic_dashboardEvent - INFO - UR Dashboard respond Connected: Universal Robots Dashboard Server
2025-07-07 17:19:08,276 - gym_custom_envs_real_ur_drivers_URBasic_dashboardEvent - INFO - Dashboard server constructor done
2025-07-07 17:19:08,277 - gym_custom_envs_real_ur_drivers_URBasic_robotConnectorEvent - INFO - Init done
2025-07-07 17:19:08,277 - gym_custom_envs_real_ur_drivers_URBasic_urScriptEvent - INFO - Init done!!!
2025-07-07 17:19:08,288 - gym_custom_envs_real_ur_drivers_URBasic_urScriptExtEvent - INFO - Init done
2025-07-07 17:19:09,869 - gym_custom_envs_real_ur_interfaceEvent - INFO - [] init done
2025-07-07 17:19:09,869 - gym_custom_envs_real_ur_drivers_URBasic_realTimeClientEvent - INFO - Program send to Robot:
end_freedrive_mode()

2025-07-07 17:19:10,424 - gym_custom_envs_real_ur_drivers_URBasic_realTimeClientEvent - INFO - Program send to Robot:
servoj([-0.06421914871687491, -1.5148706381182484, -1.5891866661771137, -1.6421527146127597, 1.663225483894348, 3.036690955881126], 0.5, 0.5, 0.01, 0.05, 300)

2025-07-07 17:19:10,439 - gym_custom_envs_real_ur_drivers_URBasic_realTimeClientEvent - INFO - Program send to Robot:
servoj([-0.06416656155639497, -1.5149227964786403, -1.5891952720938147, -1.642075814501321, 1.6631420373916626, 3.036683669596615], 0.5, 0.5, 0.01, 0.05, 300)

2025-07-07 17:19:10,456 - gym_custom_envs_real_ur_drivers_URBasic_realTimeClientEvent - INFO - Program send to Robot:
servoj([-0.06363687652634906, -1.514443262615972, -1.5891637124896987, -1.6418267299609737, 1.663201880455017, 3.035963383593563], 0.5, 0.5, 0.01, 0.05, 300)

2025-07-07 17:19:10,472 - gym_custom_envs_real_ur_drivers_URBasic_realTimeClientEvent - INFO - Program send to Robot:
servoj([-0.06365080611596768, -1.5144229708449883, -1.5892232093149272, -1.6418112836019827, 1.6632139205932617, 3.0359721114907146], 0.5, 0.5, 0.01, 0.05, 300)

2025-07-07 17:19:10,487 - gym_custom_envs_real_ur_drivers_URBasic_realTimeClientEvent - INFO - Program send to Robot:
servoj([-0.0636048346122077, -1.5150217549654346, -1.5892170101439753, -1.6417712385838683, 1.663129997253418, 3.0359790980445185], 0.5, 0.5, 0.01, 0.05, 300)

2025-07-07 17:19:10,503 - gym_custom_envs_real_ur_drivers_URBasic_realTimeClientEvent - INFO - Program send to Robot:
servoj([-0.06359306030404432, -1.5150214812988145, -1.5892171797662482, -1.6417687458006383, 1.6631180763244628, 3.0359779774300626], 0.5, 0.5, 0.01, 0.05, 300)

2025-07-07 17:19:10,519 - gym_custom_envs_real_ur_drivers_URBasic_realTimeClientEvent - INFO - Program send to Robot:
servoj([-0.06331245719120368, -1.5145065483374442, -1.5892583509416276, -1.6416319331900697, 1.6628188610076904, 3.0359052212817734], 0.5, 0.5, 0.01, 0.05, 300)

2025-07-07 17:19:10,535 - gym_custom_envs_real_ur_drivers_URBasic_realTimeClientEvent - INFO - Program send to Robot:
servoj([-0.06280567881473248, -1.5146211712767184, -1.5892146268980512, -1.6413752194769184, 1.6622682332992553, 3.035757152624098], 0.5, 0.5, 0.01, 0.05, 300)

2025-07-07 17:19:10,551 - gym_custom_envs_real_ur_drivers_URBasic_realTimeClientEvent - INFO - Program send to Robot:
servoj([-0.06176519385724913, -1.515404706702644, -1.5892750974742762, -1.6408002170982032, 1.6611563682556152, 3.0354818681548554], 0.5, 0.5, 0.01, 0.05, 300)

2025-07-07 17:19:10,568 - gym_custom_envs_real_ur_drivers_URBasic_realTimeClientEvent - INFO - Program send to Robot:
servoj([-0.06004238681599709, -1.515797418913848, -1.5893079468784983, -1.6397855508082955, 1.6593980312347412, 3.03502027707985], 0.5, 0.5, 0.01, 0.05, 300)

2025-07-07 17:19:10,583 - gym_custom_envs_real_ur_drivers_URBasic_realTimeClientEvent - INFO - Program send to Robot:
servoj([-0.05843158368436132, -1.5161404111188395, -1.5893406885069348, -1.6388766479355563, 1.657723617553711, 3.0345819037210875], 0.5, 0.5, 0.01, 0.05, 300)

2025-07-07 17:19:10,599 - gym_custom_envs_real_ur_drivers_URBasic_realTimeClientEvent - INFO - Program send to Robot:
servoj([-0.05629116069621299, -1.516668610360812, -1.5894531817351958, -1.6376886901339653, 1.655535054206848, 3.034049843653357], 0.5, 0.5, 0.01, 0.05, 300)

2025-07-07 17:19:10,616 - gym_custom_envs_real_ur_drivers_URBasic_realTimeClientEvent - INFO - Program send to Robot:
servoj([-0.0540751992389843, -1.517169557152925, -1.589454498137428, -1.6363733587713254, 1.6531905651092529, 3.0334387483863194], 0.5, 0.5, 0.01, 0.05, 300)

2025-07-07 17:19:10,632 - gym_custom_envs_real_ur_drivers_URBasic_realTimeClientEvent - INFO - Program send to Robot:
servoj([-0.05093543686625593, -1.5179077756612298, -1.5897388591596953, -1.6346126218614905, 1.649793815612793, 3.0326637024662775], 0.5, 0.5, 0.01, 0.05, 300)

2025-07-07 17:19:10,648 - gym_custom_envs_real_ur_drivers_URBasic_realTimeClientEvent - INFO - Program send to Robot:
servoj([-0.04761527308985986, -1.5186977362224217, -1.5897907469455224, -1.6326194373599208, 1.6465768337249755, 3.0318038897960156], 0.5, 0.5, 0.01, 0.05, 300)

2025-07-07 17:19:10,663 - gym_custom_envs_real_ur_drivers_URBasic_realTimeClientEvent - INFO - Program send to Robot:
servoj([-0.04288997769884532, -1.5198998516422169, -1.589995210669519, -1.6300333512441394, 1.6415655136108398, 3.0305971771580253], 0.5, 0.5, 0.01, 0.05, 300)

2025-07-07 17:19:10,679 - gym_custom_envs_real_ur_drivers_URBasic_realTimeClientEvent - INFO - Program send to Robot:
servoj([-0.03754827417789826, -1.521168292182162, -1.5901420431362736, -1.6270068811677325, 1.6370808601379394, 3.0292769027073136], 0.5, 0.5, 0.01, 0.05, 300)

2025-07-07 17:19:10,695 - gym_custom_envs_real_ur_drivers_URBasic_realTimeClientEvent - INFO - Program send to Robot:
servoj([-0.031815171622300104, -1.5225581238996235, -1.590415867304788, -1.6237275005062655, 1.631041121482849, 3.027802729733035], 0.5, 0.5, 0.01, 0.05, 300)

2025-07-07 17:19:10,712 - gym_custom_envs_real_ur_drivers_URBasic_realTimeClientEvent - INFO - Program send to Robot:
servoj([-0.02633857258206944, -1.5238948067541205, -1.5906026956861705, -1.620742114630558, 1.6265440702438354, 3.0264385601514796], 0.5, 0.5, 0.01, 0.05, 300)

2025-07-07 17:19:10,727 - gym_custom_envs_real_ur_drivers_URBasic_realTimeClientEvent - INFO - Program send to Robot:
servoj([-0.0204815444161969, -1.5253312936318675, -1.5908393638872393, -1.6173190754229276, 1.6204448461532592, 3.024961073879647], 0.5, 0.5, 0.01, 0.05, 300)

2025-07-07 17:19:10,744 - gym_custom_envs_real_ur_drivers_URBasic_realTimeClientEvent - INFO - Program send to Robot:
servoj([-0.015884712760337448, -1.5264626050174006, -1.5909947767393542, -1.6147841790815494, 1.615995717048645, 3.0238196421697223], 0.5, 0.5, 0.01, 0.05, 300)

2025-07-07 17:19:10,760 - gym_custom_envs_real_ur_drivers_URBasic_realTimeClientEvent - INFO - Program send to Robot:
servoj([-0.01016018556787289, -1.5278273346203555, -1.591175918386483, -1.6114943286791255, 1.6101717472076416, 3.0223580659558085], 0.5, 0.5, 0.01, 0.05, 300)

2025-07-07 17:19:10,775 - gym_custom_envs_real_ur_drivers_URBasic_realTimeClientEvent - INFO - Program send to Robot:
servoj([-0.005769632189491947, -1.5288740362293904, -1.5913483182628319, -1.6090203799114755, 1.6059858322143554, 3.0212551841342545], 0.5, 0.5, 0.01, 0.05, 300)

2025-07-07 17:19:10,791 - gym_custom_envs_real_ur_drivers_URBasic_realTimeClientEvent - INFO - Program send to Robot:
servoj([7.76329438120782e-06, -1.5302721516497988, -1.5916105508658311, -1.6057459866879076, 1.6000899791717529, 3.019776855354799], 0.5, 0.5, 0.01, 0.05, 300)

2025-07-07 17:19:10,811 - gym_custom_envs_real_ur_drivers_URBasic_realTimeClientEvent - INFO - Program send to Robot:
servoj([0.005298598612650099, -1.5315547480751168, -1.591828361550026, -1.602702536031211, 1.596130968002338, 3.018427780366047], 0.5, 0.5, 0.01, 0.05, 300)

2025-07-07 17:19:10,825 - gym_custom_envs_real_ur_drivers_URBasic_realTimeClientEvent - INFO - Program send to Robot:
servoj([0.015339807878856249, -1.533980787885641, -1.5922720578252951, -1.5968740001889525, 1.586136133139772, 3.0158062289831706], 0.5, 0.5, 0.01, 0.05, 300)

2025-07-07 17:19:10,832 - gym_custom_envs_real_ur_drivers_URBasic_realTimeClientEvent - INFO - Program send to Robot:
servoj([0.015339807878856249, -1.533980787885641, -1.5922720578252951, -1.5968740001889525, 1.586136134658413, 3.0158062289831706], 0.5, 0.5, 0.01, 0.05, 300)

2025-07-07 17:19:10,840 - gym_custom_envs_real_ur_drivers_URBasic_realTimeClientEvent - INFO - Program send to Robot:
servoj([0.015339807878856249, -1.533980787885641, -1.5922720578252951, -1.5968740001889525, 1.5861361346735994, 3.0158062289831706], 0.5, 0.5, 0.01, 0.05, 300)

2025-07-07 17:19:10,855 - gym_custom_envs_real_ur_drivers_URBasic_realTimeClientEvent - INFO - Program send to Robot:
servoj([0.015339807878856249, -1.533980787885641, -1.5922720578252951, -1.5968740001889525, 1.5861361346737513, 3.0158062289831706], 0.5, 0.5, 0.01, 0.05, 300)

2025-07-07 17:19:10,863 - gym_custom_envs_real_ur_drivers_URBasic_realTimeClientEvent - INFO - Program send to Robot:
servoj([0.015339807878856249, -1.533980787885641, -1.5922720578252951, -1.5968740001889525, 1.5861361346737528, 3.0158062289831706], 0.5, 0.5, 0.01, 0.05, 300)

2025-07-07 17:19:10,871 - gym_custom_envs_real_ur_drivers_URBasic_realTimeClientEvent - INFO - Program send to Robot:
servoj([0.015339807878856249, -1.533980787885641, -1.5922720578252951, -1.5968740001889525, 1.5861361346737528, 3.0158062289831706], 0.5, 0.5, 0.01, 0.05, 300)

2025-07-07 17:19:10,887 - gym_custom_envs_real_ur_drivers_URBasic_realTimeClientEvent - INFO - Program send to Robot:
servoj([0.015339807878856249, -1.533980787885641, -1.5922720578252951, -1.5968740001889525, 1.5861361346737528, 3.0158062289831706], 0.5, 0.5, 0.01, 0.05, 300)

2025-07-07 17:19:10,895 - gym_custom_envs_real_ur_drivers_URBasic_realTimeClientEvent - INFO - Program send to Robot:
servoj([0.015339807878856249, -1.533980787885641, -1.5922720578252951, -1.5968740001889525, 1.5861361346737528, 3.0158062289831706], 0.5, 0.5, 0.01, 0.05, 300)

2025-07-07 17:19:10,903 - gym_custom_envs_real_ur_drivers_URBasic_realTimeClientEvent - INFO - Program send to Robot:
servoj([0.015339807878856249, -1.533980787885641, -1.5922720578252951, -1.5968740001889525, 1.5861361346737528, 3.0158062289831706], 0.5, 0.5, 0.01, 0.05, 300)

2025-07-07 17:19:10,911 - gym_custom_envs_real_ur_drivers_URBasic_realTimeClientEvent - INFO - Program send to Robot:
servoj([0.015339807878856249, -1.533980787885641, -1.5922720578252951, -1.5968740001889525, 1.5861361346737528, 3.0158062289831706], 0.5, 0.5, 0.01, 0.05, 300)

2025-07-07 17:19:10,928 - gym_custom_envs_real_ur_drivers_URBasic_realTimeClientEvent - INFO - Program send to Robot:
servoj([0.015339807878856249, -1.533980787885641, -1.5922720578252951, -1.5968740001889525, 1.5861361346737528, 3.0158062289831706], 0.5, 0.5, 0.01, 0.05, 300)

2025-07-07 17:19:10,936 - gym_custom_envs_real_ur_drivers_URBasic_realTimeClientEvent - INFO - Program send to Robot:
servoj([0.015339807878856249, -1.533980787885641, -1.5907534168452893, -1.5968740001889525, 1.5861361346737528, 3.0158062289831706], 0.5, 0.5, 0.01, 0.05, 300)

2025-07-07 17:19:10,944 - gym_custom_envs_real_ur_drivers_URBasic_realTimeClientEvent - INFO - Program send to Robot:
servoj([0.015339807878856249, -1.533980787885641, -1.5907382304354891, -1.5968740001889525, 1.5861361346737528, 3.0158062289831706], 0.5, 0.5, 0.01, 0.05, 300)

2025-07-07 17:19:10,959 - gym_custom_envs_real_ur_drivers_URBasic_realTimeClientEvent - INFO - Program send to Robot:
servoj([0.015339807878856249, -1.533980787885641, -1.5907380785713912, -1.5968740001889525, 1.5861361346737528, 3.0158062289831706], 0.5, 0.5, 0.01, 0.05, 300)

2025-07-07 17:19:10,967 - gym_custom_envs_real_ur_drivers_URBasic_realTimeClientEvent - INFO - Program send to Robot:
servoj([0.015339807878856249, -1.533980787885641, -1.5907380770527502, -1.5968740001889525, 1.5846174936937458, 3.0158062289831706], 0.5, 0.5, 0.01, 0.05, 300)

2025-07-07 17:19:10,975 - gym_custom_envs_real_ur_drivers_URBasic_realTimeClientEvent - INFO - Program send to Robot:
servoj([0.015339807878856249, -1.533980787885641, -1.5907380770375636, -1.5968740001889525, 1.5846023072839457, 3.0158062289831706], 0.5, 0.5, 0.01, 0.05, 300)

2025-07-07 17:19:10,992 - gym_custom_envs_real_ur_drivers_URBasic_realTimeClientEvent - INFO - Program send to Robot:
servoj([0.015339807878856249, -1.533980787885641, -1.5907380770374118, -1.5968740001889525, 1.5846021554198477, 3.0158062289831706], 0.5, 0.5, 0.01, 0.05, 300)

2025-07-07 17:19:11,000 - gym_custom_envs_real_ur_drivers_URBasic_realTimeClientEvent - INFO - Program send to Robot:
servoj([0.01685844885886319, -1.533980787885641, -1.5907380770374104, -1.5968740001889525, 1.5846021539012067, 3.0158062289831706], 0.5, 0.5, 0.01, 0.05, 300)

2025-07-07 17:19:11,007 - gym_custom_envs_real_ur_drivers_URBasic_realTimeClientEvent - INFO - Program send to Robot:
servoj([0.01687363526866326, -1.533980787885641, -1.5907380770374102, -1.5968740001889525, 1.5846021538860204, 3.0158062289831706], 0.5, 0.5, 0.01, 0.05, 300)

2025-07-07 17:19:11,016 - gym_custom_envs_real_ur_drivers_URBasic_realTimeClientEvent - INFO - Program send to Robot:
servoj([0.01687378713276126, -1.533980787885641, -1.5907380770374102, -1.5968740001889525, 1.5846021538858686, 3.0158062289831706], 0.5, 0.5, 0.01, 0.05, 300)

2025-07-07 17:19:11,031 - gym_custom_envs_real_ur_drivers_URBasic_realTimeClientEvent - INFO - Program send to Robot:
servoj([0.016873788651402242, -1.533980787885641, -1.5907380770374102, -1.5968740001889525, 1.586120794865874, 3.0158062289831706], 0.5, 0.5, 0.01, 0.05, 300)

2025-07-07 17:19:11,039 - gym_custom_envs_real_ur_drivers_URBasic_realTimeClientEvent - INFO - Program send to Robot:
servoj([0.016873788666588653, -1.533980787885641, -1.5907380770374102, -1.5968740001889525, 1.5861359812756741, 3.0158062289831706], 0.5, 0.5, 0.01, 0.05, 300)

2025-07-07 17:19:11,047 - gym_custom_envs_real_ur_drivers_URBasic_realTimeClientEvent - INFO - Program send to Robot:
servoj([0.016873788666740514, -1.533980787885641, -1.5907380770374102, -1.5968740001889525, 1.586136133139772, 3.0158062289831706], 0.5, 0.5, 0.01, 0.05, 300)

2025-07-07 17:19:11,063 - gym_custom_envs_real_ur_drivers_URBasic_realTimeClientEvent - INFO - Program send to Robot:
servoj([0.016873788666742034, -1.533980787885641, -1.5907380770374102, -1.5968740001889525, 1.586136134658413, 3.0158062289831706], 0.5, 0.5, 0.01, 0.05, 300)

2025-07-07 17:19:11,072 - gym_custom_envs_real_ur_drivers_URBasic_realTimeClientEvent - INFO - Program send to Robot:
servoj([0.01687378866674205, -1.533980787885641, -1.5907380770374102, -1.5968740001889525, 1.5861361346735994, 3.0158062289831706], 0.5, 0.5, 0.01, 0.05, 300)

2025-07-07 17:19:11,080 - gym_custom_envs_real_ur_drivers_URBasic_realTimeClientEvent - INFO - Program send to Robot:
servoj([0.01687378866674205, -1.533980787885641, -1.5907380770374102, -1.5968740001889525, 1.5861361346737513, 3.0158062289831706], 0.5, 0.5, 0.01, 0.05, 300)

2025-07-07 17:19:11,095 - gym_custom_envs_real_ur_drivers_URBasic_realTimeClientEvent - INFO - Program send to Robot:
servoj([0.018392429646748996, -1.533980787885641, -1.5907380770374102, -1.5968740001889525, 1.5876547756537598, 3.0158062289831706], 0.5, 0.5, 0.01, 0.05, 300)

2025-07-07 17:19:11,104 - gym_custom_envs_real_ur_drivers_URBasic_realTimeClientEvent - INFO - Program send to Robot:
servoj([0.018407616056549066, -1.533980787885641, -1.5907380770374102, -1.5968740001889525, 1.58766996206356, 3.0158062289831706], 0.5, 0.5, 0.01, 0.05, 300)

2025-07-07 17:19:11,113 - gym_custom_envs_real_ur_drivers_URBasic_realTimeClientEvent - INFO - Program send to Robot:
servoj([0.018407767920647064, -1.533980787885641, -1.5907380770374102, -1.5968740001889525, 1.5876701139276579, 3.0158062289831706], 0.5, 0.5, 0.01, 0.05, 300)

2025-07-07 17:19:11,129 - gym_custom_envs_real_ur_drivers_URBasic_realTimeClientEvent - INFO - Program send to Robot:
servoj([0.018407769439288044, -1.533980787885641, -1.5907380770374102, -1.5968740001889525, 1.5891887564263059, 3.0158062289831706], 0.5, 0.5, 0.01, 0.05, 300)

2025-07-07 17:19:11,137 - gym_custom_envs_real_ur_drivers_URBasic_realTimeClientEvent - INFO - Program send to Robot:
servoj([0.018407769454474456, -1.533980787885641, -1.5907380770374102, -1.5968740001889525, 1.5892039428512923, 3.0158062289831706], 0.5, 0.5, 0.01, 0.05, 300)

2025-07-07 17:19:11,144 - gym_custom_envs_real_ur_drivers_URBasic_realTimeClientEvent - INFO - Program send to Robot:
servoj([0.01840776945462632, -1.533980787885641, -1.5907380770374102, -1.5968740001889525, 1.5892040947155421, 3.0158062289831706], 0.5, 0.5, 0.01, 0.05, 300)

2025-07-07 17:19:11,152 - gym_custom_envs_real_ur_drivers_URBasic_realTimeClientEvent - INFO - Program send to Robot:
servoj([0.018407769454627836, -1.533980787885641, -1.5907380770374102, -1.5968740001889525, 1.5892040962341847, 3.0158062289831706], 0.5, 0.5, 0.01, 0.05, 300)

2025-07-07 17:19:11,167 - gym_custom_envs_real_ur_drivers_URBasic_realTimeClientEvent - INFO - Program send to Robot:
servoj([0.01992641043463436, -1.533980787885641, -1.5907380770374102, -1.5968740001889525, 1.590722737229378, 3.0158062289831706], 0.5, 0.5, 0.01, 0.05, 300)

2025-07-07 17:19:11,175 - gym_custom_envs_real_ur_drivers_URBasic_realTimeClientEvent - INFO - Program send to Robot:
servoj([0.019941596844434424, -1.533980787885641, -1.5907380770374102, -1.5968740001889525, 1.59073792363933, 3.0158062289831706], 0.5, 0.5, 0.01, 0.05, 300)

2025-07-07 17:19:11,184 - gym_custom_envs_real_ur_drivers_URBasic_realTimeClientEvent - INFO - Program send to Robot:
servoj([0.019941748708532422, -1.533980787885641, -1.5907380770374102, -1.5968740001889525, 1.5907380755034295, 3.0158062289831706], 0.5, 0.5, 0.01, 0.05, 300)

2025-07-07 17:19:11,200 - gym_custom_envs_real_ur_drivers_URBasic_realTimeClientEvent - INFO - Program send to Robot:
servoj([0.019941750227173403, -1.533980787885641, -1.5907380770374102, -1.5968740001889525, 1.5907380770220705, 3.0158062289831706], 0.5, 0.5, 0.01, 0.05, 300)

2025-07-07 17:19:11,208 - gym_custom_envs_real_ur_drivers_URBasic_realTimeClientEvent - INFO - Program send to Robot:
servoj([0.019941750242359814, -1.533980787885641, -1.5907380770374102, -1.5968740001889525, 1.590738077037257, 3.0158062289831706], 0.5, 0.5, 0.01, 0.05, 300)

2025-07-07 17:19:11,216 - gym_custom_envs_real_ur_drivers_URBasic_realTimeClientEvent - INFO - Program send to Robot:
servoj([0.01994175024251168, -1.533980787885641, -1.5907380770374102, -1.5968740001889525, 1.5907380770374089, 3.0158062289831706], 0.5, 0.5, 0.01, 0.05, 300)

2025-07-07 17:19:11,224 - gym_custom_envs_real_ur_drivers_URBasic_realTimeClientEvent - INFO - Program send to Robot:
servoj([0.02146039122252014, -1.533980787885641, -1.5907380770374102, -1.5968740001889525, 1.5907380770374102, 3.0158062289831706], 0.5, 0.5, 0.01, 0.05, 300)

2025-07-07 17:19:11,239 - gym_custom_envs_real_ur_drivers_URBasic_realTimeClientEvent - INFO - Program send to Robot:
servoj([0.021475577632320227, -1.533980787885641, -1.5907380770374102, -1.5968740001889525, 1.5907380770374102, 3.0158062289831706], 0.5, 0.5, 0.01, 0.05, 300)

2025-07-07 17:19:11,247 - gym_custom_envs_real_ur_drivers_URBasic_realTimeClientEvent - INFO - Program send to Robot:
servoj([0.02147572949641823, -1.533980787885641, -1.5907380770374102, -1.5968740001889525, 1.5907380770374102, 3.0158062289831706], 0.5, 0.5, 0.01, 0.05, 300)

2025-07-07 17:19:11,256 - gym_custom_envs_real_ur_drivers_URBasic_realTimeClientEvent - INFO - Program send to Robot:
servoj([0.027550294935086105, -1.533980787885641, -1.5907380770374102, -1.5968740001889525, 1.5907380770374102, 3.0158062289831706], 0.5, 0.5, 0.01, 0.05, 300)

2025-07-07 17:19:11,264 - gym_custom_envs_real_ur_drivers_URBasic_realTimeClientEvent - INFO - Program send to Robot:
servoj([0.027611040589472786, -1.533980787885641, -1.5907380770374102, -1.5968740001889525, 1.5907380770374102, 3.0158062289831706], 0.5, 0.5, 0.01, 0.05, 300)

2025-07-07 17:19:11,280 - gym_custom_envs_real_ur_drivers_URBasic_realTimeClientEvent - INFO - Program send to Robot:
servoj([0.02761164804601665, -1.533980787885641, -1.5907380770374102, -1.5968740001889525, 1.5907380770374102, 3.0158062289831706], 0.5, 0.5, 0.01, 0.05, 300)

2025-07-07 17:19:11,287 - gym_custom_envs_real_ur_drivers_URBasic_realTimeClientEvent - INFO - Program send to Robot:
servoj([0.036723500000622876, -1.533980787885641, -1.5907380770374102, -1.5968740001889525, 1.5892194360574032, 3.0158062289831706], 0.5, 0.5, 0.01, 0.05, 300)

2025-07-07 17:19:11,295 - gym_custom_envs_real_ur_drivers_URBasic_realTimeClientEvent - INFO - Program send to Robot:
servoj([0.03681461852016894, -1.533980787885641, -1.5907380770374102, -1.5968740001889525, 1.5892042496476033, 3.0158062289831706], 0.5, 0.5, 0.01, 0.05, 300)

2025-07-07 17:19:11,303 - gym_custom_envs_real_ur_drivers_URBasic_realTimeClientEvent - INFO - Program send to Robot:
servoj([0.0368155297053644, -1.533980787885641, -1.5907380770374102, -1.5968740001889525, 1.5892040977835054, 3.0158062289831706], 0.5, 0.5, 0.01, 0.05, 300)

2025-07-07 17:19:11,321 - gym_custom_envs_real_ur_drivers_URBasic_realTimeClientEvent - INFO - Program send to Robot:
servoj([0.042890102737243696, -1.533980787885641, -1.5907380770374102, -1.5968740001889525, 1.5861668143048504, 3.0173248699631774], 0.5, 0.5, 0.01, 0.05, 300)

2025-07-07 17:19:11,328 - gym_custom_envs_real_ur_drivers_URBasic_realTimeClientEvent - INFO - Program send to Robot:
servoj([0.04295084846756249, -1.533980787885641, -1.5907380770374102, -1.5968740001889525, 1.5861364414700638, 3.0173400563729778], 0.5, 0.5, 0.01, 0.05, 300)

2025-07-07 17:19:11,336 - gym_custom_envs_real_ur_drivers_URBasic_realTimeClientEvent - INFO - Program send to Robot:
servoj([0.04295145592486568, -1.533980787885641, -1.5907380770374102, -1.5968740001889525, 1.586136137741716, 3.0173402082370755], 0.5, 0.5, 0.01, 0.05, 300)

2025-07-07 17:19:11,351 - gym_custom_envs_real_ur_drivers_URBasic_realTimeClientEvent - INFO - Program send to Robot:
servoj([0.0475073849394591, -1.533980787885641, -1.5907380770374102, -1.5968740001889525, 1.5861361347044325, 3.0173402097557167], 0.5, 0.5, 0.01, 0.05, 300)

2025-07-07 17:19:11,361 - gym_custom_envs_real_ur_drivers_URBasic_realTimeClientEvent - INFO - Program send to Robot:
servoj([0.04755294422960503, -1.533980787885641, -1.5907380770374102, -1.5968740001889525, 1.5861361346740597, 3.017340209770903], 0.5, 0.5, 0.01, 0.05, 300)

2025-07-07 17:19:11,367 - gym_custom_envs_real_ur_drivers_URBasic_realTimeClientEvent - INFO - Program send to Robot:
servoj([0.04755339982250649, -1.533980787885641, -1.5907380770374102, -1.5968740001889525, 1.586136134673756, 3.0173402097710547], 0.5, 0.5, 0.01, 0.05, 300)

2025-07-07 17:19:11,384 - gym_custom_envs_real_ur_drivers_URBasic_realTimeClientEvent - INFO - Program send to Robot:
servoj([0.047553404378435506, -1.533980787885641, -1.5907380770374102, -1.5968740001889525, 1.5846174936937458, 3.0173402097710564], 0.5, 0.5, 0.01, 0.05, 300)

2025-07-07 17:19:11,392 - gym_custom_envs_real_ur_drivers_URBasic_realTimeClientEvent - INFO - Program send to Robot:
servoj([0.0475534044239948, -1.533980787885641, -1.5907380770374102, -1.5968740001889525, 1.5846023072839457, 3.0173402097710564], 0.5, 0.5, 0.01, 0.05, 300)

2025-07-07 17:19:11,400 - gym_custom_envs_real_ur_drivers_URBasic_realTimeClientEvent - INFO - Program send to Robot:
servoj([0.04755340442445039, -1.533980787885641, -1.5907380770374102, -1.5968740001889525, 1.5846021554198477, 3.0173402097710564], 0.5, 0.5, 0.01, 0.05, 300)

2025-07-07 17:19:11,408 - gym_custom_envs_real_ur_drivers_URBasic_realTimeClientEvent - INFO - Program send to Robot:
servoj([0.047553404424454944, -1.533980787885641, -1.5907380770374102, -1.5968740001889525, 1.5846021539012067, 3.0173402097710564], 0.5, 0.5, 0.01, 0.05, 300)

2025-07-07 17:19:11,423 - gym_custom_envs_real_ur_drivers_URBasic_realTimeClientEvent - INFO - Program send to Robot:
servoj([0.04755340442445499, -1.533980787885641, -1.5907380770374102, -1.5968740001889525, 1.5846021538860204, 3.0173402097710564], 0.5, 0.5, 0.01, 0.05, 300)

2025-07-07 17:19:11,431 - gym_custom_envs_real_ur_drivers_URBasic_realTimeClientEvent - INFO - Program send to Robot:
servoj([0.04755340442445499, -1.533980787885641, -1.5907380770374102, -1.5968740001889525, 1.5846021538858686, 3.0173402097710564], 0.5, 0.5, 0.01, 0.05, 300)

2025-07-07 17:19:11,439 - gym_custom_envs_real_ur_drivers_URBasic_realTimeClientEvent - INFO - Program send to Robot:
servoj([0.04755340442445499, -1.533980787885641, -1.5907380770374102, -1.5968740001889525, 1.584602153885867, 3.0173402097710564], 0.5, 0.5, 0.01, 0.05, 300)

2025-07-07 17:19:11,456 - gym_custom_envs_real_ur_drivers_URBasic_realTimeClientEvent - INFO - Program send to Robot:
servoj([0.04755340442445499, -1.533980787885641, -1.5907380770374102, -1.5968740001889525, 1.584602153885867, 3.0173402097710564], 0.5, 0.5, 0.01, 0.05, 300)

2025-07-07 17:19:11,464 - gym_custom_envs_real_ur_drivers_URBasic_realTimeClientEvent - INFO - Program send to Robot:
servoj([0.04755340442445499, -1.533980787885641, -1.5907380770374102, -1.5968740001889525, 1.584602153885867, 3.0173402097710564], 0.5, 0.5, 0.01, 0.05, 300)

2025-07-07 17:19:11,472 - gym_custom_envs_real_ur_drivers_URBasic_realTimeClientEvent - INFO - Program send to Robot:
servoj([0.04755340442445499, -1.533980787885641, -1.5907380770374102, -1.5968740001889525, 1.584602153885867, 3.0173402097710564], 0.5, 0.5, 0.01, 0.05, 300)

2025-07-07 17:19:11,487 - gym_custom_envs_real_ur_drivers_URBasic_realTimeClientEvent - INFO - Program send to Robot:
servoj([0.04755340442445499, -1.533980787885641, -1.5907380770374102, -1.5968740001889525, 1.584602153885867, 3.0173402097710564], 0.5, 0.5, 0.01, 0.05, 300)

2025-07-07 17:19:11,495 - gym_custom_envs_real_ur_drivers_URBasic_realTimeClientEvent - INFO - Program send to Robot:
servoj([0.04755340442445499, -1.533980787885641, -1.5907380770374102, -1.5968740001889525, 1.584602153885867, 3.0173402097710564], 0.5, 0.5, 0.01, 0.05, 300)

2025-07-07 17:19:11,503 - gym_custom_envs_real_ur_drivers_URBasic_realTimeClientEvent - INFO - Program send to Robot:
servoj([0.04755340442445499, -1.533980787885641, -1.5907380770374102, -1.5968740001889525, 1.584602153885867, 3.0173402097710564], 0.5, 0.5, 0.01, 0.05, 300)

2025-07-07 17:19:11,511 - gym_custom_envs_real_ur_drivers_URBasic_realTimeClientEvent - INFO - Program send to Robot:
servoj([0.04755340442445499, -1.533980787885641, -1.5907380770374102, -1.5968740001889525, 1.584602153885867, 3.0173402097710564], 0.5, 0.5, 0.01, 0.05, 300)

2025-07-07 17:19:11,527 - gym_custom_envs_real_ur_drivers_URBasic_realTimeClientEvent - INFO - Program send to Robot:
servoj([0.04755340442445499, -1.533980787885641, -1.5907380770374102, -1.5968740001889525, 1.584602153885867, 3.0173402097710564], 0.5, 0.5, 0.01, 0.05, 300)

2025-07-07 17:19:11,536 - gym_custom_envs_real_ur_drivers_URBasic_realTimeClientEvent - INFO - Program send to Robot:
servoj([0.04755340442445499, -1.533980787885641, -1.5907380770374102, -1.5968740001889525, 1.584602153885867, 3.0173402097710564], 0.5, 0.5, 0.01, 0.05, 300)

2025-07-07 17:19:11,544 - gym_custom_envs_real_ur_drivers_URBasic_realTimeClientEvent - INFO - Program send to Robot:
servoj([0.04755340442445499, -1.533980787885641, -1.592256718017416, -1.5968740001889525, 1.583083512905861, 3.0173402097710564], 0.5, 0.5, 0.01, 0.05, 300)

2025-07-07 17:19:11,552 - gym_custom_envs_real_ur_drivers_URBasic_realTimeClientEvent - INFO - Program send to Robot:
servoj([0.04755340442445499, -1.533980787885641, -1.5922719044272162, -1.5968740001889525, 1.5830683264960608, 3.0173402097710564], 0.5, 0.5, 0.01, 0.05, 300)

2025-07-07 17:19:11,567 - gym_custom_envs_real_ur_drivers_URBasic_realTimeClientEvent - INFO - Program send to Robot:
servoj([0.04755340442445499, -1.533980787885641, -1.5922720562913142, -1.5968740001889525, 1.5830681746319628, 3.0173402097710564], 0.5, 0.5, 0.01, 0.05, 300)

2025-07-07 17:19:11,576 - gym_custom_envs_real_ur_drivers_URBasic_realTimeClientEvent - INFO - Program send to Robot:
servoj([0.04755340442445499, -1.533980787885641, -1.5922720578099552, -1.5968740001889525, 1.5830681731133218, 3.0173402097710564], 0.5, 0.5, 0.01, 0.05, 300)

2025-07-07 17:19:11,584 - gym_custom_envs_real_ur_drivers_URBasic_realTimeClientEvent - INFO - Program send to Robot:
servoj([0.04755340442445499, -1.533980787885641, -1.5922720578251417, -1.5968740001889525, 1.5830681730981355, 3.0173402097710564], 0.5, 0.5, 0.01, 0.05, 300)

2025-07-07 17:19:11,599 - gym_custom_envs_real_ur_drivers_URBasic_realTimeClientEvent - INFO - Program send to Robot:
servoj([0.04755340442445499, -1.533980787885641, -1.5922720578252936, -1.5968740001889525, 1.5830681730979836, 3.0173402097710564], 0.5, 0.5, 0.01, 0.05, 300)

2025-07-07 17:19:11,608 - gym_custom_envs_real_ur_drivers_URBasic_realTimeClientEvent - INFO - Program send to Robot:
servoj([0.0490720454044615, -1.535499428865648, -1.593790698805302, -1.5968740001889525, 1.583068173097982, 3.0173402097710564], 0.5, 0.5, 0.01, 0.05, 300)

2025-07-07 17:19:11,616 - gym_custom_envs_real_ur_drivers_URBasic_realTimeClientEvent - INFO - Program send to Robot:
servoj([0.04908723181426156, -1.535514615275448, -1.593805885215102, -1.5968740001889525, 1.583068173097982, 3.0173402097710564], 0.5, 0.5, 0.01, 0.05, 300)

2025-07-07 17:19:11,624 - gym_custom_envs_real_ur_drivers_URBasic_realTimeClientEvent - INFO - Program send to Robot:
servoj([0.04908738367835956, -1.5355147671395462, -1.5938060370792, -1.5968740001889525, 1.583068173097982, 3.0173402097710564], 0.5, 0.5, 0.01, 0.05, 300)

2025-07-07 17:19:11,639 - gym_custom_envs_real_ur_drivers_URBasic_realTimeClientEvent - INFO - Program send to Robot:
servoj([0.052124667157014436, -1.5355147686581871, -1.595324679577848, -1.5968740001889525, 1.583068173097982, 3.018858850751063], 0.5, 0.5, 0.01, 0.05, 300)

2025-07-07 17:19:11,647 - gym_custom_envs_real_ur_drivers_URBasic_realTimeClientEvent - INFO - Program send to Robot:
servoj([0.05215503999180098, -1.5355147686733734, -1.5953398660028346, -1.5968740001889525, 1.583068173097982, 3.018874037160863], 0.5, 0.5, 0.01, 0.05, 300)

2025-07-07 17:19:11,655 - gym_custom_envs_real_ur_drivers_URBasic_realTimeClientEvent - INFO - Program send to Robot:
servoj([0.05215534372014885, -1.5355147686735253, -1.5953400178670845, -1.5968740001889525, 1.583068173097982, 3.0188741890249613], 0.5, 0.5, 0.01, 0.05, 300)

2025-07-07 17:19:11,672 - gym_custom_envs_real_ur_drivers_URBasic_realTimeClientEvent - INFO - Program send to Robot:
servoj([0.05671126969745272, -1.5355147686735269, -1.5968586603657338, -1.5968740001889525, 1.5845868140779882, 3.0203928315236084], 0.5, 0.5, 0.01, 0.05, 300)

2025-07-07 17:19:11,680 - gym_custom_envs_real_ur_drivers_URBasic_realTimeClientEvent - INFO - Program send to Robot:
servoj([0.05675682895722576, -1.5355147686735269, -1.5968738467907204, -1.5968740001889525, 1.584602000487788, 3.020408017948595], 0.5, 0.5, 0.01, 0.05, 300)

2025-07-07 17:19:11,687 - gym_custom_envs_real_ur_drivers_URBasic_realTimeClientEvent - INFO - Program send to Robot:
servoj([0.05675728454982349, -1.5355147686735269, -1.5968739986549703, -1.5968740001889525, 1.5846021523518863, 3.020408169812845], 0.5, 0.5, 0.01, 0.05, 300)

2025-07-07 17:19:11,696 - gym_custom_envs_real_ur_drivers_URBasic_realTimeClientEvent - INFO - Program send to Robot:
servoj([0.05675728910574947, -1.5355147686735269, -1.5968740001736128, -1.5968740001889525, 1.584602153870527, 3.0204081713314874], 0.5, 0.5, 0.01, 0.05, 300)

2025-07-07 17:19:11,711 - gym_custom_envs_real_ur_drivers_URBasic_realTimeClientEvent - INFO - Program send to Robot:
servoj([0.05979457111132217, -1.5370334096535336, -1.599911282148813, -1.5968740001889525, 1.5846021538857136, 3.0204081713466735], 0.5, 0.5, 0.01, 0.05, 300)

2025-07-07 17:19:11,719 - gym_custom_envs_real_ur_drivers_URBasic_realTimeClientEvent - INFO - Program send to Robot:
servoj([0.0598249439313779, -1.5370485960633338, -1.5999416549685652, -1.5968740001889525, 1.5846021538858654, 3.0204081713468254], 0.5, 0.5, 0.01, 0.05, 300)

2025-07-07 17:19:11,727 - gym_custom_envs_real_ur_drivers_URBasic_realTimeClientEvent - INFO - Program send to Robot:
servoj([0.05982524765957846, -1.5370487479274317, -1.5999419586967627, -1.5968740001889525, 1.584602153885867, 3.020408171346827], 0.5, 0.5, 0.01, 0.05, 300)

2025-07-07 17:19:11,743 - gym_custom_envs_real_ur_drivers_URBasic_realTimeClientEvent - INFO - Program send to Robot:
servoj([0.06286253265687392, -1.5385673904260795, -1.5999419617340447, -1.5953553592089456, 1.583083512905861, 3.020408171346827], 0.5, 0.5, 0.01, 0.05, 300)

2025-07-07 17:19:11,752 - gym_custom_envs_real_ur_drivers_URBasic_realTimeClientEvent - INFO - Program send to Robot:
servoj([0.06289290550684687, -1.538582576851066, -1.5999419617644175, -1.5953401727991454, 1.5830683264960608, 3.020408171346827], 0.5, 0.5, 0.01, 0.05, 300)

2025-07-07 17:19:11,760 - gym_custom_envs_real_ur_drivers_URBasic_realTimeClientEvent - INFO - Program send to Robot:
servoj([0.0628932092353466, -1.5385827287153158, -1.5999419617647213, -1.5953400209350475, 1.5830681746319628, 3.020408171346827], 0.5, 0.5, 0.01, 0.05, 300)

2025-07-07 17:19:11,768 - gym_custom_envs_real_ur_drivers_URBasic_realTimeClientEvent - INFO - Program send to Robot:
servoj([0.06441185325263854, -1.5385827302339583, -1.60146060274473, -1.5953400194164065, 1.5830681731133218, 3.021926812326834], 0.5, 0.5, 0.01, 0.05, 300)

2025-07-07 17:19:11,783 - gym_custom_envs_real_ur_drivers_URBasic_realTimeClientEvent - INFO - Program send to Robot:
servoj([0.06442703969281145, -1.5385827302491446, -1.6014757891545301, -1.5953400194012202, 1.5830681730981355, 3.021941998736634], 0.5, 0.5, 0.01, 0.05, 300)

2025-07-07 17:19:11,791 - gym_custom_envs_real_ur_drivers_URBasic_realTimeClientEvent - INFO - Program send to Robot:
servoj([0.06442719155721319, -1.5385827302492965, -1.6014759410186281, -1.5953400194010683, 1.5830681730979836, 3.021942150600732], 0.5, 0.5, 0.01, 0.05, 300)

2025-07-07 17:19:11,799 - gym_custom_envs_real_ur_drivers_URBasic_realTimeClientEvent - INFO - Program send to Robot:
servoj([0.0644271930758572, -1.538582730249298, -1.601475942537269, -1.5953400194010667, 1.583068173097982, 3.021942152119373], 0.5, 0.5, 0.01, 0.05, 300)

2025-07-07 17:19:11,808 - gym_custom_envs_real_ur_drivers_URBasic_realTimeClientEvent - INFO - Program send to Robot:
servoj([0.06746447505105709, -1.540101371229305, -1.6029945835324626, -1.5953400194010667, 1.583068173097982, 3.0219421521345593], 0.5, 0.5, 0.01, 0.05, 300)

2025-07-07 17:19:11,823 - gym_custom_envs_real_ur_drivers_URBasic_realTimeClientEvent - INFO - Program send to Robot:
servoj([0.06749484787080909, -1.5401165576391052, -1.6030097699424144, -1.5953400194010667, 1.583068173097982, 3.021942152134711], 0.5, 0.5, 0.01, 0.05, 300)

2025-07-07 17:19:11,831 - gym_custom_envs_real_ur_drivers_URBasic_realTimeClientEvent - INFO - Program send to Robot:
servoj([0.06749515159900661, -1.5416353504832097, -1.6075658447465349, -1.59382137842106, 1.583068173097982, 3.0219421521347125], 0.5, 0.5, 0.01, 0.05, 300)

2025-07-07 17:19:11,839 - gym_custom_envs_real_ur_drivers_URBasic_realTimeClientEvent - INFO - Program send to Robot:
servoj([0.06749515463628858, -1.5416505384116508, -1.607611405494576, -1.5938061920112598, 1.583068173097982, 3.0219421521347125], 0.5, 0.5, 0.01, 0.05, 300)

2025-07-07 17:19:11,848 - gym_custom_envs_real_ur_drivers_URBasic_realTimeClientEvent - INFO - Program send to Robot:
servoj([0.06749515466666141, -1.541650690290935, -1.6076118611020564, -1.5938060401471619, 1.583068173097982, 3.0219421521347125], 0.5, 0.5, 0.01, 0.05, 300)

2025-07-07 17:19:11,864 - gym_custom_envs_real_ur_drivers_URBasic_realTimeClientEvent - INFO - Program send to Robot:
servoj([0.06901379564697208, -1.541650691809728, -1.613686429578158, -1.5938060386285209, 1.581549532117975, 3.0219421521347125], 0.5, 0.5, 0.01, 0.05, 300)

2025-07-07 17:19:11,872 - gym_custom_envs_real_ur_drivers_URBasic_realTimeClientEvent - INFO - Program send to Robot:
servoj([0.06902898205677518, -1.541650691824916, -1.613747175262919, -1.5938060386133346, 1.581534345708175, 3.0219421521347125], 0.5, 0.5, 0.01, 0.05, 300)

2025-07-07 17:19:11,880 - gym_custom_envs_real_ur_drivers_URBasic_realTimeClientEvent - INFO - Program send to Robot:
servoj([0.06902913392087322, -1.5416506918250679, -1.6137477827197668, -1.5938060386131827, 1.581534193844077, 3.0219421521347125], 0.5, 0.5, 0.01, 0.05, 300)

2025-07-07 17:19:11,888 - gym_custom_envs_real_ur_drivers_URBasic_realTimeClientEvent - INFO - Program send to Robot:
servoj([0.0690291354395142, -1.5416506918250692, -1.6137477887943352, -1.5938060386131812, 1.581534192325436, 3.0219421521347125], 0.5, 0.5, 0.01, 0.05, 300)

2025-07-07 17:19:11,903 - gym_custom_envs_real_ur_drivers_URBasic_realTimeClientEvent - INFO - Program send to Robot:
servoj([0.06902913545470062, -1.5431693328050762, -1.6228596347351216, -1.5892501156731609, 1.5815341923102495, 3.0234607931147197], 0.5, 0.5, 0.01, 0.05, 300)

2025-07-07 17:19:11,911 - gym_custom_envs_real_ur_drivers_URBasic_realTimeClientEvent - INFO - Program send to Robot:
servoj([0.06902913545485248, -1.543184519214876, -1.6229507531945295, -1.5892045564437607, 1.5815341923100976, 3.02347597952452], 0.5, 0.5, 0.01, 0.05, 300)

2025-07-07 17:19:11,919 - gym_custom_envs_real_ur_drivers_URBasic_realTimeClientEvent - INFO - Program send to Robot:
servoj([0.069029135454854, -1.543184671078974, -1.6229516643791237, -1.5892041008514666, 1.5815341923100963, 3.023476131388618], 0.5, 0.5, 0.01, 0.05, 300)

2025-07-07 17:19:11,935 - gym_custom_envs_real_ur_drivers_URBasic_realTimeClientEvent - INFO - Program send to Robot:
servoj([0.07054777643486052, -1.543184672597615, -1.6320635193710105, -1.5755363274754826, 1.5815341923100963, 3.023476132907259], 0.5, 0.5, 0.01, 0.05, 300)

2025-07-07 17:19:11,943 - gym_custom_envs_real_ur_drivers_URBasic_realTimeClientEvent - INFO - Program send to Robot:
servoj([0.07056296284466058, -1.5431846726128016, -1.6321546379209293, -1.5753996497417229, 1.5815341923100963, 3.0234761329224455], 0.5, 0.5, 0.01, 0.05, 300)

2025-07-07 17:19:11,951 - gym_custom_envs_real_ur_drivers_URBasic_realTimeClientEvent - INFO - Program send to Robot:
servoj([0.07056311470875858, -1.5431846726129534, -1.6321555491064283, -1.575398282964385, 1.5815341923100963, 3.0234761329225974], 0.5, 0.5, 0.01, 0.05, 300)

2025-07-07 17:19:11,959 - gym_custom_envs_real_ur_drivers_URBasic_realTimeClientEvent - INFO - Program send to Robot:
servoj([0.07056311622739957, -1.543184672612955, -1.6397487631183174, -1.55261865459651, 1.5800155513300895, 3.0234761329225988], 0.5, 0.5, 0.01, 0.05, 300)

2025-07-07 17:19:11,976 - gym_custom_envs_real_ur_drivers_URBasic_realTimeClientEvent - INFO - Program send to Robot:
servoj([0.07056311624258597, -1.543184672612955, -1.6398246952584363, -1.5523908583128312, 1.5800003649202894, 3.0234761329225988], 0.5, 0.5, 0.01, 0.05, 300)

2025-07-07 17:19:11,983 - gym_custom_envs_real_ur_drivers_URBasic_realTimeClientEvent - INFO - Program send to Robot:
servoj([0.07056311624273784, -1.543184672612955, -1.6398254545798374, -1.5523885803499944, 1.5800002130561914, 3.0234761329225988], 0.5, 0.5, 0.01, 0.05, 300)

2025-07-07 17:19:11,991 - gym_custom_envs_real_ur_drivers_URBasic_realTimeClientEvent - INFO - Program send to Robot:
servoj([0.07056311624273935, -1.543184672612955, -1.6504559490330992, -1.5265716609102509, 1.5800002115375504, 3.0234761329225988], 0.5, 0.5, 0.01, 0.05, 300)

2025-07-07 17:19:11,999 - gym_custom_envs_real_ur_drivers_URBasic_realTimeClientEvent - INFO - Program send to Robot:
servoj([0.07056311624273937, -1.543184672612955, -1.650562253977632, -1.5263134917158534, 1.580000211522364, 3.0234761329225988], 0.5, 0.5, 0.01, 0.05, 300)

2025-07-07 17:19:12,016 - gym_custom_envs_real_ur_drivers_URBasic_realTimeClientEvent - INFO - Program send to Robot:
servoj([0.07056311624273937, -1.543184672612955, -1.6505633170270773, -1.5263109100239094, 1.580000211522212, 3.0234761329225988], 0.5, 0.5, 0.01, 0.05, 300)

2025-07-07 17:19:12,023 - gym_custom_envs_real_ur_drivers_URBasic_realTimeClientEvent - INFO - Program send to Robot:
servoj([0.0720817572227463, -1.543184672612955, -1.6611938145176186, -1.4959380646068543, 1.5784815705422035, 3.0234761329225988], 0.5, 0.5, 0.01, 0.05, 300)

2025-07-07 17:19:12,031 - gym_custom_envs_real_ur_drivers_URBasic_realTimeClientEvent - INFO - Program send to Robot:
servoj([0.07209694363254637, -1.543184672612955, -1.6613001194925239, -1.4956343361526838, 1.5784663841324036, 3.0234761329225988], 0.5, 0.5, 0.01, 0.05, 300)

2025-07-07 17:19:12,039 - gym_custom_envs_real_ur_drivers_URBasic_realTimeClientEvent - INFO - Program send to Robot:
servoj([0.07209709549664438, -1.543184672612955, -1.661301182542273, -1.4956312988681422, 1.5784662322683056, 3.0234761329225988], 0.5, 0.5, 0.01, 0.05, 300)

2025-07-07 17:19:12,056 - gym_custom_envs_real_ur_drivers_URBasic_realTimeClientEvent - INFO - Program send to Robot:
servoj([0.07209709701528536, -1.5462219545729687, -1.6704130390528114, -1.4652584488951608, 1.5754289487896507, 3.0234761329225988], 0.5, 0.5, 0.01, 0.05, 300)

2025-07-07 17:19:12,064 - gym_custom_envs_real_ur_drivers_URBasic_realTimeClientEvent - INFO - Program send to Robot:
servoj([0.07209709703047176, -1.5462523273925688, -1.6705041576179167, -1.464954720395431, 1.575398575954864, 3.0234761329225988], 0.5, 0.5, 0.01, 0.05, 300)

2025-07-07 17:19:12,072 - gym_custom_envs_real_ur_drivers_URBasic_realTimeClientEvent - INFO - Program send to Robot:
servoj([0.07209709703062363, -1.5462526311207647, -1.6705050688035676, -1.4649516831104337, 1.575398272226516, 3.0234761329225988], 0.5, 0.5, 0.01, 0.05, 300)

2025-07-07 17:19:12,079 - gym_custom_envs_real_ur_drivers_URBasic_realTimeClientEvent - INFO - Program send to Robot:
servoj([0.07209709703062515, -1.5462526341580467, -1.6705050779154242, -1.4649516527375837, 1.5753982691892328, 3.0234761329225988], 0.5, 0.5, 0.01, 0.05, 300)

2025-07-07 17:19:12,096 - gym_custom_envs_real_ur_drivers_URBasic_realTimeClientEvent - INFO - Program send to Robot:
servoj([0.07209709703062517, -1.5477712751684263, -1.6780982829065765, -1.4345788328337197, 1.5678050642588262, 3.0219574919425916], 0.5, 0.5, 0.01, 0.05, 300)

2025-07-07 17:19:12,104 - gym_custom_envs_real_ur_drivers_URBasic_realTimeClientEvent - INFO - Program send to Robot:
servoj([0.07209709703062517, -1.5477864615785302, -1.678174214956488, -1.4342751046346809, 1.567729132209522, 3.0219423055327916], 0.5, 0.5, 0.01, 0.05, 300)

2025-07-07 17:19:12,112 - gym_custom_envs_real_ur_drivers_URBasic_realTimeClientEvent - INFO - Program send to Robot:
servoj([0.07209709703062517, -1.5477866134426312, -1.6781749742769871, -1.4342720673526905, 1.567728372889029, 3.0219421536686935], 0.5, 0.5, 0.01, 0.05, 300)

2025-07-07 17:19:12,119 - gym_custom_envs_real_ur_drivers_URBasic_realTimeClientEvent - INFO - Program send to Robot:
servoj([0.07513437899063861, -1.549305255941279, -1.6842495457902198, -1.411492422279769, 1.563172442355804, 3.0219421521500527], 0.5, 0.5, 0.01, 0.05, 300)

2025-07-07 17:19:12,135 - gym_custom_envs_real_ur_drivers_URBasic_realTimeClientEvent - INFO - Program send to Robot:
servoj([0.07516475181023875, -1.5493204423662654, -1.6843102915053523, -1.4112646258290398, 1.5631268830504716, 3.021942152134866], 0.5, 0.5, 0.01, 0.05, 300)

2025-07-07 17:19:12,144 - gym_custom_envs_real_ur_drivers_URBasic_realTimeClientEvent - INFO - Program send to Robot:
servoj([0.07516505553843475, -1.5493205942305153, -1.6843108989625035, -1.4112623478645323, 1.5631264274574184, 3.0219421521347143], 0.5, 0.5, 0.01, 0.05, 300)

2025-07-07 17:19:12,151 - gym_custom_envs_real_ur_drivers_URBasic_realTimeClientEvent - INFO - Program send to Robot:
servoj([0.0751650585757167, -1.5493205957491578, -1.684310905037075, -1.4112623250848872, 1.5631264229014878, 3.021942152134713], 0.5, 0.5, 0.01, 0.05, 300)

2025-07-07 17:19:12,167 - gym_custom_envs_real_ur_drivers_URBasic_realTimeClientEvent - INFO - Program send to Robot:
servoj([0.08123962252611687, -1.5523578777243576, -1.6888668280378407, -1.3991131970170365, 1.5600891408959148, 3.021942152134713], 0.5, 0.5, 0.01, 0.05, 300)

2025-07-07 17:19:12,175 - gym_custom_envs_real_ur_drivers_URBasic_realTimeClientEvent - INFO - Program send to Robot:
servoj([0.08130036816562086, -1.5523882505441098, -1.6889123872678484, -1.3989917057363581, 1.560058768075859, 3.021942152134713], 0.5, 0.5, 0.01, 0.05, 300)

2025-07-07 17:19:12,183 - gym_custom_envs_real_ur_drivers_URBasic_realTimeClientEvent - INFO - Program send to Robot:
servoj([0.0904128215020567, -1.5569444772123278, -1.6949874067801753, -1.3974718498435446, 1.5600584643476585, 3.021942152134713], 0.5, 0.5, 0.01, 0.05, 300)

2025-07-07 17:19:12,191 - gym_custom_envs_real_ur_drivers_URBasic_realTimeClientEvent - INFO - Program send to Robot:
servoj([0.09050394603542106, -1.55699003947901, -1.6950481569752986, -1.3974566512846165, 1.5600584613103765, 3.021942152134713], 0.5, 0.5, 0.01, 0.05, 300)

2025-07-07 17:19:12,207 - gym_custom_envs_real_ur_drivers_URBasic_realTimeClientEvent - INFO - Program send to Robot:
servoj([0.0905048572807547, -1.5569904951016766, -1.6950487644772498, -1.397456499299027, 1.5600584612800037, 3.021942152134713], 0.5, 0.5, 0.01, 0.05, 300)

2025-07-07 17:19:12,216 - gym_custom_envs_real_ur_drivers_URBasic_realTimeClientEvent - INFO - Program send to Robot:
servoj([0.09657943031323493, -1.5600277816179169, -1.6980860525122834, -1.3959378567991645, 1.5600584612797, 3.0234607931147197], 0.5, 0.5, 0.01, 0.05, 300)

2025-07-07 17:19:12,224 - gym_custom_envs_real_ur_drivers_URBasic_realTimeClientEvent - INFO - Program send to Robot:
servoj([0.09664017604355973, -1.5600581544830794, -1.6981164253926337, -1.3959226703741658, 1.560058461279697, 3.02347597952452], 0.5, 0.5, 0.01, 0.05, 300)

2025-07-07 17:19:12,232 - gym_custom_envs_real_ur_drivers_URBasic_realTimeClientEvent - INFO - Program send to Robot:
servoj([0.09664078350086298, -1.560058458211731, -1.6981167291214372, -1.3959225185099158, 1.5600584612796968, 3.023476131388618], 0.5, 0.5, 0.01, 0.05, 300)

2025-07-07 17:19:12,247 - gym_custom_envs_real_ur_drivers_URBasic_realTimeClientEvent - INFO - Program send to Robot:
servoj([0.10423399447546987, -1.5630957432090309, -1.6996353731387321, -1.3959225169912732, 1.5600584612796968, 3.023476132907259], 0.5, 0.5, 0.01, 0.05, 300)

2025-07-07 17:19:12,255 - gym_custom_envs_real_ur_drivers_URBasic_realTimeClientEvent - INFO - Program send to Robot:
servoj([0.10430992658521593, -1.563126116059004, -1.699650559578905, -1.395922516976087, 1.5600584612796968, 3.0234761329224455], 0.5, 0.5, 0.01, 0.05, 300)

2025-07-07 17:19:12,263 - gym_custom_envs_real_ur_drivers_URBasic_realTimeClientEvent - INFO - Program send to Robot:
servoj([0.1043106859063134, -1.5631264197875037, -1.6996507114433068, -1.395922516975935, 1.5600584612796968, 3.0234761329225974], 0.5, 0.5, 0.01, 0.05, 300)

2025-07-07 17:19:12,271 - gym_custom_envs_real_ur_drivers_URBasic_realTimeClientEvent - INFO - Program send to Robot:
servoj([0.10431069349952436, -1.5631264228247888, -1.699650712961951, -1.3959225169759335, 1.5600584612796968, 3.0234761329225988], 0.5, 0.5, 0.01, 0.05, 300)

2025-07-07 17:19:12,288 - gym_custom_envs_real_ur_drivers_URBasic_realTimeClientEvent - INFO - Program send to Robot:
servoj([0.11190389847549033, -1.5707196277551956, -1.6996507129771372, -1.3959225169759335, 1.5600584612796968, 3.0234761329225988], 0.5, 0.5, 0.01, 0.05, 300)

2025-07-07 17:19:12,296 - gym_custom_envs_real_ur_drivers_URBasic_realTimeClientEvent - INFO - Program send to Robot:
servoj([0.11197983052524998, -1.5707955598044996, -1.699650712977289, -1.3959225169759335, 1.5600584612796968, 3.0234761329225988], 0.5, 0.5, 0.01, 0.05, 300)

2025-07-07 17:19:12,304 - gym_custom_envs_real_ur_drivers_URBasic_realTimeClientEvent - INFO - Program send to Robot:
servoj([0.11198058984574757, -1.5707963191249927, -1.6996507129772906, -1.3959225169759335, 1.5600584612796968, 3.0234761329225988], 0.5, 0.5, 0.01, 0.05, 300)

2025-07-07 17:19:12,312 - gym_custom_envs_real_ur_drivers_URBasic_realTimeClientEvent - INFO - Program send to Robot:
servoj([0.1180551613589799, -1.5783895316182315, -1.6981320719972837, -1.3959225169759335, 1.5600584612796968, 3.0234761329225988], 0.5, 0.5, 0.01, 0.05, 300)

2025-07-07 17:19:12,327 - gym_custom_envs_real_ur_drivers_URBasic_realTimeClientEvent - INFO - Program send to Robot:
servoj([0.11811590707411222, -1.5784654637431639, -1.6981168855874837, -1.3959225169759335, 1.5600584612796968, 3.0234761329225988], 0.5, 0.5, 0.01, 0.05, 300)

2025-07-07 17:19:12,335 - gym_custom_envs_real_ur_drivers_URBasic_realTimeClientEvent - INFO - Program send to Robot:
servoj([0.11811651453126354, -1.578466223064413, -1.6981167337233856, -1.3959225169759335, 1.5600584612796968, 3.0234761329225988], 0.5, 0.5, 0.01, 0.05, 300)

2025-07-07 17:19:12,345 - gym_custom_envs_real_ur_drivers_URBasic_realTimeClientEvent - INFO - Program send to Robot:
servoj([0.1211538025658485, -1.5860594355576596, -1.6981167322047446, -1.3944038759959267, 1.5615771022597036, 3.0234761329225988], 0.5, 0.5, 0.01, 0.05, 300)

2025-07-07 17:19:12,361 - gym_custom_envs_real_ur_drivers_URBasic_realTimeClientEvent - INFO - Program send to Robot:
servoj([0.12118417544619435, -1.586135367682592, -1.6981167321895583, -1.3943886895861266, 1.5615922886695037, 3.0234761329225988], 0.5, 0.5, 0.01, 0.05, 300)

2025-07-07 17:19:12,367 - gym_custom_envs_real_ur_drivers_URBasic_realTimeClientEvent - INFO - Program send to Robot:
servoj([0.1211844791749978, -1.5861361270038414, -1.6981167321894064, -1.3943885377220286, 1.5615924405336017, 3.0234761329225988], 0.5, 0.5, 0.01, 0.05, 300)

2025-07-07 17:19:12,376 - gym_custom_envs_real_ur_drivers_URBasic_realTimeClientEvent - INFO - Program send to Robot:
servoj([0.12422176417229973, -1.592210698517081, -1.6981167321894048, -1.3943885362033877, 1.5631110830322497, 3.0234761329225988], 0.5, 0.5, 0.01, 0.05, 300)

2025-07-07 17:19:12,392 - gym_custom_envs_real_ur_drivers_URBasic_realTimeClientEvent - INFO - Program send to Robot:
servoj([0.12425213702227275, -1.5922714442322135, -1.6981167321894048, -1.3943885361882014, 1.563126269457236, 3.0234761329225988], 0.5, 0.5, 0.01, 0.05, 300)

2025-07-07 17:19:12,399 - gym_custom_envs_real_ur_drivers_URBasic_realTimeClientEvent - INFO - Program send to Robot:
servoj([0.12425244075077248, -1.5922720516893647, -1.6981167321894048, -1.3943885361880495, 1.563126421321486, 3.0234761329225988], 0.5, 0.5, 0.01, 0.05, 300)

2025-07-07 17:19:12,407 - gym_custom_envs_real_ur_drivers_URBasic_realTimeClientEvent - INFO - Program send to Robot:
servoj([0.12425244378805748, -1.5983466216839635, -1.6965980912093979, -1.392869895208041, 1.5631264228401285, 3.0234761329225988], 0.5, 0.5, 0.01, 0.05, 300)

2025-07-07 17:19:12,423 - gym_custom_envs_real_ur_drivers_URBasic_realTimeClientEvent - INFO - Program send to Robot:
servoj([0.12425244381843033, -1.5984073673839094, -1.6965829047995977, -1.3928547087982408, 1.563126422855315, 3.0234761329225988], 0.5, 0.5, 0.01, 0.05, 300)

2025-07-07 17:19:12,432 - gym_custom_envs_real_ur_drivers_URBasic_realTimeClientEvent - INFO - Program send to Robot:
servoj([0.12425244381873406, -1.5984079748409088, -1.6965827529354998, -1.3928545569341428, 1.5631264228554669, 3.0234761329225988], 0.5, 0.5, 0.01, 0.05, 300)

2025-07-07 17:19:12,439 - gym_custom_envs_real_ur_drivers_URBasic_realTimeClientEvent - INFO - Program send to Robot:
servoj([0.1242524438187371, -1.598407980915479, -1.6965827514168588, -1.3928545554155018, 1.5631264228554684, 3.0234761329225988], 0.5, 0.5, 0.01, 0.05, 300)

2025-07-07 17:19:12,455 - gym_custom_envs_real_ur_drivers_URBasic_realTimeClientEvent - INFO - Program send to Robot:
servoj([0.12425244381873712, -1.6029639039162449, -1.6950641104216655, -1.3928545554003156, 1.5646450638354754, 3.0234761329225988], 0.5, 0.5, 0.01, 0.05, 300)

2025-07-07 17:19:12,463 - gym_custom_envs_real_ur_drivers_URBasic_realTimeClientEvent - INFO - Program send to Robot:
servoj([0.12425244381873712, -1.6030094631462526, -1.6950489240117135, -1.3928545554001637, 1.5646602502452753, 3.0234761329225988], 0.5, 0.5, 0.01, 0.05, 300)

2025-07-07 17:19:12,471 - gym_custom_envs_real_ur_drivers_URBasic_realTimeClientEvent - INFO - Program send to Robot:
servoj([0.12425244381873712, -1.6030099187385525, -1.695048772147614, -1.3928545554001621, 1.5646604021093735, 3.0234761329225988], 0.5, 0.5, 0.01, 0.05, 300)

2025-07-07 17:19:12,488 - gym_custom_envs_real_ur_drivers_URBasic_realTimeClientEvent - INFO - Program send to Robot:
servoj([0.12577108479874363, -1.6045285642744824, -1.693530129648966, -1.3913359144201554, 1.5646604036280145, 3.0234761329225988], 0.5, 0.5, 0.01, 0.05, 300)

2025-07-07 17:19:12,495 - gym_custom_envs_real_ur_drivers_URBasic_realTimeClientEvent - INFO - Program send to Robot:
servoj([0.1257862712085437, -1.6045437507298417, -1.6935149432239796, -1.3913207280103552, 1.5646604036432008, 3.0234761329225988], 0.5, 0.5, 0.01, 0.05, 300)

2025-07-07 17:19:12,503 - gym_custom_envs_real_ur_drivers_URBasic_realTimeClientEvent - INFO - Program send to Robot:
servoj([0.1257864230726417, -1.606062543574402, -1.6935147913597297, -1.3913205761462573, 1.5646604036433527, 3.0234761329225988], 0.5, 0.5, 0.01, 0.05, 300)

2025-07-07 17:19:12,519 - gym_custom_envs_real_ur_drivers_URBasic_realTimeClientEvent - INFO - Program send to Robot:
servoj([0.12578642459128267, -1.6060777315028476, -1.6935147898410872, -1.3913205746276163, 1.5646604036433542, 3.0234761329225988], 0.5, 0.5, 0.01, 0.05, 300)

2025-07-07 17:19:12,527 - gym_custom_envs_real_ur_drivers_URBasic_realTimeClientEvent - INFO - Program send to Robot:
servoj([0.12578642460646908, -1.606077883382132, -1.6935147898259006, -1.3913205746124298, 1.5646604036433542, 3.0234761329225988], 0.5, 0.5, 0.01, 0.05, 300)

2025-07-07 17:19:12,535 - gym_custom_envs_real_ur_drivers_URBasic_realTimeClientEvent - INFO - Program send to Robot:
servoj([0.1273050655866279, -1.606077884900925, -1.693514789825749, -1.3913205746122779, 1.5646604036433542, 3.0219574919425916], 0.5, 0.5, 0.01, 0.05, 300)

2025-07-07 17:19:12,543 - gym_custom_envs_real_ur_drivers_URBasic_realTimeClientEvent - INFO - Program send to Robot:
servoj([0.1273202519964295, -1.6060778849161128, -1.6935147898257474, -1.3913205746122765, 1.5646604036433542, 3.0219423055327916], 0.5, 0.5, 0.01, 0.05, 300)

2025-07-07 17:19:12,560 - gym_custom_envs_real_ur_drivers_URBasic_realTimeClientEvent - INFO - Program send to Robot:
servoj([0.1273204038605275, -1.6060778849162647, -1.6935147898257474, -1.3913205746122765, 1.5646604036433542, 3.0219421536686935], 0.5, 0.5, 0.01, 0.05, 300)

2025-07-07 17:19:12,568 - gym_custom_envs_real_ur_drivers_URBasic_realTimeClientEvent - INFO - Program send to Robot:
servoj([0.12883904635917498, -1.6060778849162662, -1.6935147898257474, -1.3928392155922833, 1.5646604036433542, 3.0219421521500527], 0.5, 0.5, 0.01, 0.05, 300)

2025-07-07 17:19:12,576 - gym_custom_envs_real_ur_drivers_URBasic_realTimeClientEvent - INFO - Program send to Robot:
servoj([0.12885423278416144, -1.6060778849162662, -1.6935147898257474, -1.3928544020020832, 1.5646604036433542, 3.021942152134866], 0.5, 0.5, 0.01, 0.05, 300)

2025-07-07 17:19:12,584 - gym_custom_envs_real_ur_drivers_URBasic_realTimeClientEvent - INFO - Program send to Robot:
servoj([0.1288543846484113, -1.6060778849162662, -1.6935147898257474, -1.3928545538661812, 1.5646604036433542, 3.0219421521347143], 0.5, 0.5, 0.01, 0.05, 300)

2025-07-07 17:19:12,599 - gym_custom_envs_real_ur_drivers_URBasic_realTimeClientEvent - INFO - Program send to Robot:
servoj([0.13341030910707422, -1.6060778849162662, -1.6935147898257474, -1.3913359144048154, 1.5646604036433542, 3.021942152134713], 0.5, 0.5, 0.01, 0.05, 300)

2025-07-07 17:19:12,607 - gym_custom_envs_real_ur_drivers_URBasic_realTimeClientEvent - INFO - Program send to Robot:
servoj([0.13345586835166084, -1.6060778849162662, -1.6935147898257474, -1.3913207280102018, 1.5646604036433542, 3.021942152134713], 0.5, 0.5, 0.01, 0.05, 300)

2025-07-07 17:19:12,615 - gym_custom_envs_real_ur_drivers_URBasic_realTimeClientEvent - INFO - Program send to Robot:
servoj([0.13345632394410673, -1.6060778849162662, -1.6935147898257474, -1.3913205761462557, 1.5646604036433542, 3.021942152134713], 0.5, 0.5, 0.01, 0.05, 300)

2025-07-07 17:19:12,631 - gym_custom_envs_real_ur_drivers_URBasic_realTimeClientEvent - INFO - Program send to Robot:
servoj([0.13801225144005155, -1.6060778849162662, -1.6935147898257474, -1.3913205746276163, 1.5631417626633473, 3.021942152134713], 0.5, 0.5, 0.01, 0.05, 300)

2025-07-07 17:19:12,639 - gym_custom_envs_real_ur_drivers_URBasic_realTimeClientEvent - INFO - Program send to Robot:
servoj([0.138057810715011, -1.6060778849162662, -1.6935147898257474, -1.3913205746124298, 1.5631265762535471, 3.021942152134713], 0.5, 0.5, 0.01, 0.05, 300)

2025-07-07 17:19:12,647 - gym_custom_envs_real_ur_drivers_URBasic_realTimeClientEvent - INFO - Program send to Robot:
servoj([0.1380582663077606, -1.6060778849162662, -1.6935147898257474, -1.3913205746122779, 1.5631264243894492, 3.021942152134713], 0.5, 0.5, 0.01, 0.05, 300)

2025-07-07 17:19:12,663 - gym_custom_envs_real_ur_drivers_URBasic_realTimeClientEvent - INFO - Program send to Robot:
servoj([0.14413283478371544, -1.6060778849162662, -1.6904775078657346, -1.3928392155922833, 1.5616077818908012, 3.0234607931147197], 0.5, 0.5, 0.01, 0.05, 300)

2025-07-07 17:19:12,671 - gym_custom_envs_real_ur_drivers_URBasic_realTimeClientEvent - INFO - Program send to Robot:
servoj([0.144193580468475, -1.6060778849162662, -1.6904471350461343, -1.3928544020020832, 1.5615925954658147, 3.02347597952452], 0.5, 0.5, 0.01, 0.05, 300)

2025-07-07 17:19:12,679 - gym_custom_envs_real_ur_drivers_URBasic_realTimeClientEvent - INFO - Program send to Robot:
servoj([0.14419418792532257, -1.6060778849162662, -1.6904468313179384, -1.3928545538661812, 1.561592443601565, 3.023476131388618], 0.5, 0.5, 0.01, 0.05, 300)

2025-07-07 17:19:12,695 - gym_custom_envs_real_ur_drivers_URBasic_realTimeClientEvent - INFO - Program send to Robot:
servoj([0.15026875791991795, -1.6060778849162662, -1.6874095463206424, -1.3928545553848222, 1.5615924420829224, 3.023476132907259], 0.5, 0.5, 0.01, 0.05, 300)

2025-07-07 17:19:12,704 - gym_custom_envs_real_ur_drivers_URBasic_realTimeClientEvent - INFO - Program send to Robot:
servoj([0.1503295036198639, -1.6060778849162662, -1.6873791734706696, -1.3928545554000087, 1.5615924420677358, 3.0234761329224455], 0.5, 0.5, 0.01, 0.05, 300)

2025-07-07 17:19:12,712 - gym_custom_envs_real_ur_drivers_URBasic_realTimeClientEvent - INFO - Program send to Robot:
servoj([0.15033011107686337, -1.6060778849162662, -1.6873788697421697, -1.3928545554001606, 1.561592442067584, 3.0234761329225974], 0.5, 0.5, 0.01, 0.05, 300)

2025-07-07 17:19:12,727 - gym_custom_envs_real_ur_drivers_URBasic_realTimeClientEvent - INFO - Program send to Robot:
servoj([0.15336739911144726, -1.6060778849162662, -1.6873788667048848, -1.3928545554001621, 1.5615924420675826, 3.0234761329225988], 0.5, 0.5, 0.01, 0.05, 300)

2025-07-07 17:19:12,735 - gym_custom_envs_real_ur_drivers_URBasic_realTimeClientEvent - INFO - Program send to Robot:
servoj([0.1533977719917931, -1.6060778849162662, -1.687378866674512, -1.3928545554001621, 1.5615924420675826, 3.0234761329225988], 0.5, 0.5, 0.01, 0.05, 300)

2025-07-07 17:19:12,743 - gym_custom_envs_real_ur_drivers_URBasic_realTimeClientEvent - INFO - Program send to Robot:
servoj([0.15339807572059655, -1.6060778849162662, -1.6873788666742082, -1.3928545554001621, 1.5615924420675826, 3.0234761329225988], 0.5, 0.5, 0.01, 0.05, 300)

2025-07-07 17:19:12,760 - gym_custom_envs_real_ur_drivers_URBasic_realTimeClientEvent - INFO - Program send to Robot:
servoj([0.1549167197378911, -1.6060778849162662, -1.6873788666742051, -1.3928545554001621, 1.5631110830475896, 3.0234761329225988], 0.5, 0.5, 0.01, 0.05, 300)

2025-07-07 17:19:12,768 - gym_custom_envs_real_ur_drivers_URBasic_realTimeClientEvent - INFO - Program send to Robot:
servoj([0.15493190617806404, -1.6060778849162662, -1.6873788666742051, -1.3928545554001621, 1.5631262694573895, 3.0234761329225988], 0.5, 0.5, 0.01, 0.05, 300)

2025-07-07 17:19:12,776 - gym_custom_envs_real_ur_drivers_URBasic_realTimeClientEvent - INFO - Program send to Robot:
servoj([0.15493205804246576, -1.6060778849162662, -1.6873788666742051, -1.3928545554001621, 1.5631264213214875, 3.0234761329225988], 0.5, 0.5, 0.01, 0.05, 300)

2025-07-07 17:19:12,784 - gym_custom_envs_real_ur_drivers_URBasic_realTimeClientEvent - INFO - Program send to Robot:
servoj([0.15493205956110978, -1.6060778849162662, -1.6873788666742051, -1.3928545554001621, 1.5631264228401285, 3.0234761329225988], 0.5, 0.5, 0.01, 0.05, 300)

2025-07-07 17:19:12,799 - gym_custom_envs_real_ur_drivers_URBasic_realTimeClientEvent - INFO - Program send to Robot:
servoj([0.15948798251631663, -1.6045592439362595, -1.6873788666742051, -1.3928545554001621, 1.564645063835322, 3.0219574919425916], 0.5, 0.5, 0.01, 0.05, 300)

2025-07-07 17:19:12,807 - gym_custom_envs_real_ur_drivers_URBasic_realTimeClientEvent - INFO - Program send to Robot:
servoj([0.1595335417458687, -1.6045440575264593, -1.6873788666742051, -1.3928545554001621, 1.5646602502452738, 3.0219423055327916], 0.5, 0.5, 0.01, 0.05, 300)

2025-07-07 17:19:12,815 - gym_custom_envs_real_ur_drivers_URBasic_realTimeClientEvent - INFO - Program send to Robot:
servoj([0.1595339973381642, -1.6045439056623614, -1.6873788666742051, -1.3928545554001621, 1.5646604021093733, 3.0219421536686935], 0.5, 0.5, 0.01, 0.05, 300)

2025-07-07 17:19:12,832 - gym_custom_envs_real_ur_drivers_URBasic_realTimeClientEvent - INFO - Program send to Robot:
servoj([0.16712720679412102, -1.6060625451237271, -1.6873788666742051, -1.3913359144201554, 1.5646604036280145, 3.02346079313006], 0.5, 0.5, 0.01, 0.05, 300)

2025-07-07 17:19:12,839 - gym_custom_envs_real_ur_drivers_URBasic_realTimeClientEvent - INFO - Program send to Robot:
servoj([0.16720313888868057, -1.6060777315183408, -1.6873788666742051, -1.3913207280103552, 1.5646604036432008, 3.0234759795246733], 0.5, 0.5, 0.01, 0.05, 300)

2025-07-07 17:19:12,847 - gym_custom_envs_real_ur_drivers_URBasic_realTimeClientEvent - INFO - Program send to Robot:
servoj([0.16720389820962617, -1.606077883382287, -1.6873788666742051, -1.3913205761462573, 1.5646604036433527, 3.0234761313886196], 0.5, 0.5, 0.01, 0.05, 300)

2025-07-07 17:19:12,856 - gym_custom_envs_real_ur_drivers_URBasic_realTimeClientEvent - INFO - Program send to Robot:
servoj([0.1747971107028699, -1.6060778849009265, -1.6873788666742051, -1.3913205746276163, 1.5646604036433542, 3.021957491927252], 0.5, 0.5, 0.01, 0.05, 300)

2025-07-07 17:19:12,871 - gym_custom_envs_real_ur_drivers_URBasic_realTimeClientEvent - INFO - Program send to Robot:
servoj([0.17487304282780236, -1.6060778849161128, -1.6873788666742051, -1.3913205746124298, 1.5646604036433542, 3.021942305532638], 0.5, 0.5, 0.01, 0.05, 300)

2025-07-07 17:19:12,880 - gym_custom_envs_real_ur_drivers_URBasic_realTimeClientEvent - INFO - Program send to Robot:
servoj([0.17487380214905168, -1.6060778849162647, -1.6873788666742051, -1.3913205746122779, 1.5646604036433542, 3.021942153668692], 0.5, 0.5, 0.01, 0.05, 300)

2025-07-07 17:19:12,887 - gym_custom_envs_real_ur_drivers_URBasic_realTimeClientEvent - INFO - Program send to Robot:
servoj([0.18094837366229108, -1.6075965258962732, -1.688897507654212, -1.3913205746122765, 1.5646604036433542, 3.0219421521500527], 0.5, 0.5, 0.01, 0.05, 300)

2025-07-07 17:19:12,904 - gym_custom_envs_real_ur_drivers_URBasic_realTimeClientEvent - INFO - Program send to Robot:
servoj([0.18100911937742345, -1.6076117123060734, -1.6889126940640122, -1.3913205746122765, 1.5646604036433542, 3.021942152134866], 0.5, 0.5, 0.01, 0.05, 300)

2025-07-07 17:19:12,911 - gym_custom_envs_real_ur_drivers_URBasic_realTimeClientEvent - INFO - Program send to Robot:
servoj([0.18100972683457478, -1.6076118641701713, -1.6889128459281102, -1.3913205746122765, 1.5646604036433542, 3.0219421521347143], 0.5, 0.5, 0.01, 0.05, 300)

2025-07-07 17:19:12,920 - gym_custom_envs_real_ur_drivers_URBasic_realTimeClientEvent - INFO - Program send to Robot:
servoj([0.18404701486915973, -1.6121677886288324, -1.6889128474467512, -1.3913205746122765, 1.5661790446233612, 3.021942152134713], 0.5, 0.5, 0.01, 0.05, 300)

2025-07-07 17:19:12,935 - gym_custom_envs_real_ur_drivers_URBasic_realTimeClientEvent - INFO - Program send to Robot:
servoj([0.18407738774950558, -1.6122133478734189, -1.6889128474619375, -1.3913205746122765, 1.5661942310331614, 3.021942152134713], 0.5, 0.5, 0.01, 0.05, 300)

2025-07-07 17:19:12,944 - gym_custom_envs_real_ur_drivers_URBasic_realTimeClientEvent - INFO - Program send to Robot:
servoj([0.18407769147830905, -1.6122138034658648, -1.6889128474620894, -1.3913205746122765, 1.5661943828972593, 3.021942152134713], 0.5, 0.5, 0.01, 0.05, 300)

2025-07-07 17:19:12,960 - gym_custom_envs_real_ur_drivers_URBasic_realTimeClientEvent - INFO - Program send to Robot:
servoj([0.18559633549560403, -1.6198070129218234, -1.690431488442098, -1.3913205746122765, 1.5677130253959064, 3.021942152134713], 0.5, 0.5, 0.01, 0.05, 300)

2025-07-07 17:19:12,967 - gym_custom_envs_real_ur_drivers_URBasic_realTimeClientEvent - INFO - Program send to Robot:
servoj([0.18561152193577699, -1.619882945016383, -1.690446674851898, -1.3913205746122765, 1.5677282118208928, 3.021942152134713], 0.5, 0.5, 0.01, 0.05, 300)

2025-07-07 17:19:12,976 - gym_custom_envs_real_ur_drivers_URBasic_realTimeClientEvent - INFO - Program send to Robot:
servoj([0.1856116738001787, -1.6198837043373286, -1.690446826715996, -1.3913205746122765, 1.5677283636851427, 3.021942152134713], 0.5, 0.5, 0.01, 0.05, 300)

2025-07-07 17:19:12,992 - gym_custom_envs_real_ur_drivers_URBasic_realTimeClientEvent - INFO - Program send to Robot:
servoj([0.18864895727883618, -1.6289955578105786, -1.690446828234637, -1.38980193363227, 1.5677283652037852, 3.021942152134713], 0.5, 0.5, 0.01, 0.05, 300)

2025-07-07 17:19:13,000 - gym_custom_envs_real_ur_drivers_URBasic_realTimeClientEvent - INFO - Program send to Robot:
servoj([0.18867933011362276, -1.6290866763453111, -1.6904468282498235, -1.3897867472224699, 1.5677283652189715, 3.021942152134713], 0.5, 0.5, 0.01, 0.05, 300)

2025-07-07 17:19:13,007 - gym_custom_envs_real_ur_drivers_URBasic_realTimeClientEvent - INFO - Program send to Robot:
servoj([0.18867963384197062, -1.6290875875306585, -1.6904468282499752, -1.389786595358372, 1.5677283652191234, 3.021942152134713], 0.5, 0.5, 0.01, 0.05, 300)

2025-07-07 17:19:13,024 - gym_custom_envs_real_ur_drivers_URBasic_realTimeClientEvent - INFO - Program send to Robot:
servoj([0.19171691883926797, -1.6336435195825323, -1.6950027511899965, -1.389786593839731, 1.5586165193390842, 3.0249794340947265], 0.5, 0.5, 0.01, 0.05, 300)

2025-07-07 17:19:13,032 - gym_custom_envs_real_ur_drivers_URBasic_realTimeClientEvent - INFO - Program send to Robot:
servoj([0.19174729168924096, -1.633689078903051, -1.6950483104193967, -1.3897865938245444, 1.5585254008802838, 3.0250098069143267], 0.5, 0.5, 0.01, 0.05, 300)

2025-07-07 17:19:13,040 - gym_custom_envs_real_ur_drivers_URBasic_realTimeClientEvent - INFO - Program send to Robot:
servoj([0.19174759541774067, -1.633689534496256, -1.6950487660116909, -1.3897865938243925, 1.5585244896956958, 3.0250101106425227], 0.5, 0.5, 0.01, 0.05, 300)

2025-07-07 17:19:13,055 - gym_custom_envs_real_ur_drivers_URBasic_realTimeClientEvent - INFO - Program send to Robot:
servoj([0.1887103164950118, -1.6382454619922087, -1.6965674115476208, -1.3806747479443502, 1.544856711763789, 3.015898267799764], 0.5, 0.5, 0.01, 0.05, 300)

2025-07-07 17:19:13,064 - gym_custom_envs_real_ur_drivers_URBasic_realTimeClientEvent - INFO - Program send to Robot:
servoj([0.1886799437057845, -1.6382910212671682, -1.69658259800298, -1.3805836294855496, 1.54472003398447, 3.0158071493713368], 0.5, 0.5, 0.01, 0.05, 300)

2025-07-07 17:19:13,079 - gym_custom_envs_real_ur_drivers_URBasic_realTimeClientEvent - INFO - Program send to Robot:
servoj([0.18867963997789225, -1.6519592456799788, -1.6920268269275136, -1.35780310360086, 1.532569539366623, 3.0127689562270383], 0.5, 0.5, 0.01, 0.05, 300)

2025-07-07 17:19:13,088 - gym_custom_envs_real_ur_drivers_URBasic_realTimeClientEvent - INFO - Program send to Robot:
servoj([0.18867963694061332, -1.6520959279241068, -1.6919812692167588, -1.357575298342013, 1.5324480344204445, 3.0127385742955957], 0.5, 0.5, 0.01, 0.05, 300)

2025-07-07 17:19:13,103 - gym_custom_envs_real_ur_drivers_URBasic_realTimeClientEvent - INFO - Program send to Robot:
servoj([0.18867963691024053, -1.652097294746548, -1.6919808136396515, -1.3575730202894247, 1.5324468193709828, 3.012738270476281], 0.5, 0.5, 0.01, 0.05, 300)

2025-07-07 17:19:13,112 - gym_custom_envs_real_ur_drivers_URBasic_realTimeClientEvent - INFO - Program send to Robot:
servoj([0.1886796369099368, -1.6733582821348676, -1.6813503222238328, -1.32871881888877, 1.5385213711405152, 3.0112196264580815], 0.5, 0.5, 0.01, 0.05, 300)

2025-07-07 17:19:13,127 - gym_custom_envs_real_ur_drivers_URBasic_realTimeClientEvent - INFO - Program send to Robot:
servoj([0.18867963690993375, -1.6735708920087506, -1.6812440173096745, -1.3284302768747633, 1.5385821166582105, 3.0112044400178997], 0.5, 0.5, 0.01, 0.05, 300)

2025-07-07 17:19:13,136 - gym_custom_envs_real_ur_drivers_URBasic_realTimeClientEvent - INFO - Program send to Robot:
servoj([0.18867963690993372, -1.6735730181074895, -1.681242954260533, -1.3284273914546234, 1.5385827241133874, 3.0112042881534977], 0.5, 0.5, 0.01, 0.05, 300)

2025-07-07 17:19:13,151 - gym_custom_envs_real_ur_drivers_URBasic_realTimeClientEvent - INFO - Program send to Robot:
servoj([0.18867963690993372, -1.694834013088572, -1.6797243026500346, -1.3056477479003201, 1.5476945760679799, 3.01272292761486], 0.5, 0.5, 0.01, 0.05, 300)

2025-07-07 17:19:13,159 - gym_custom_envs_real_ur_drivers_URBasic_realTimeClientEvent - INFO - Program send to Robot:
servoj([0.18867963690993372, -1.6950466230383827, -1.6797091161339297, -1.305419951464777, 1.547785694587526, 3.0127381140094736], 0.5, 0.5, 0.01, 0.05, 300)

2025-07-07 17:19:13,167 - gym_custom_envs_real_ur_drivers_URBasic_realTimeClientEvent - INFO - Program send to Robot:
servoj([0.18867963690993372, -1.695048749137881, -1.6797089642687686, -1.3054176735004217, 1.5477866057727214, 3.01273826587342], 0.5, 0.5, 0.01, 0.05, 300)

2025-07-07 17:19:13,184 - gym_custom_envs_real_ur_drivers_URBasic_realTimeClientEvent - INFO - Program send to Robot:
servoj([0.18867963690993372, -1.7041606162789167, -1.6842648856901377, -1.2887125999407036, 1.5523425378245932, 3.0127382673920593], 0.5, 0.5, 0.01, 0.05, 300)

2025-07-07 17:19:13,191 - gym_custom_envs_real_ur_drivers_URBasic_realTimeClientEvent - INFO - Program send to Robot:
servoj([0.18867963690993372, -1.704251734950327, -1.6843104449043513, -1.2885455492051063, 1.5523880971451118, 3.012738267407246], 0.5, 0.5, 0.01, 0.05, 300)

2025-07-07 17:19:13,199 - gym_custom_envs_real_ur_drivers_URBasic_realTimeClientEvent - INFO - Program send to Robot:
servoj([0.18867963690993372, -1.704252646137041, -1.6843109004964936, -1.2885438786977503, 1.552388552738317, 3.0127382674073977], 0.5, 0.5, 0.01, 0.05, 300)

2025-07-07 17:19:13,207 - gym_custom_envs_real_ur_drivers_URBasic_realTimeClientEvent - INFO - Program send to Robot:
servoj([0.18716099592992722, -1.705771296228915, -1.688866827992435, -1.2748760931726155, 1.552388557294249, 3.012738267407399], 0.5, 0.5, 0.01, 0.05, 300)

2025-07-07 17:19:13,224 - gym_custom_envs_real_ur_drivers_URBasic_realTimeClientEvent - INFO - Program send to Robot:
servoj([0.18714580952012716, -1.7057864827298337, -1.6889123872673943, -1.2747394153173643, 1.5523885573398084, 3.012738267407399], 0.5, 0.5, 0.01, 0.05, 300)

2025-07-07 17:19:13,231 - gym_custom_envs_real_ur_drivers_URBasic_realTimeClientEvent - INFO - Program send to Robot:
servoj([0.18714565765602917, -1.705786634594843, -1.688912842860144, -1.2747380485388118, 1.552388557340264, 3.012738267407399], 0.5, 0.5, 0.01, 0.05, 300)

2025-07-07 17:19:13,248 - gym_custom_envs_real_ur_drivers_URBasic_realTimeClientEvent - INFO - Program send to Robot:
servoj([0.18714565613738818, -1.705786636113493, -1.6904314883960785, -1.262588907030972, 1.5539071983202755, 3.012738267407399], 0.5, 0.5, 0.01, 0.05, 300)

2025-07-07 17:19:13,256 - gym_custom_envs_real_ur_drivers_URBasic_realTimeClientEvent - INFO - Program send to Robot:
servoj([0.18714565612220177, -1.7057866361286795, -1.6904466748514377, -1.2624674156158935, 1.5539223847300756, 3.012738267407399], 0.5, 0.5, 0.01, 0.05, 300)

2025-07-07 17:19:13,271 - gym_custom_envs_real_ur_drivers_URBasic_realTimeClientEvent - INFO - Program send to Robot:
servoj([0.1871456561220499, -1.710342559068852, -1.6904468267159913, -1.2503170728616884, 1.5539225365941736, 3.012738267407399], 0.5, 0.5, 0.01, 0.05, 300)

2025-07-07 17:19:13,280 - gym_custom_envs_real_ur_drivers_URBasic_realTimeClientEvent - INFO - Program send to Robot:
servoj([0.1871456561220484, -1.7103881182982537, -1.690446828234637, -1.2501955694341464, 1.5539225381128146, 3.012738267407399], 0.5, 0.5, 0.01, 0.05, 300)

2025-07-07 17:19:13,288 - gym_custom_envs_real_ur_drivers_URBasic_realTimeClientEvent - INFO - Program send to Robot:
servoj([0.18714565612204836, -1.7103885738905475, -1.6904468282498235, -1.250194354399871, 1.553922538128001, 3.012738267407399], 0.5, 0.5, 0.01, 0.05, 300)

2025-07-07 17:19:13,296 - gym_custom_envs_real_ur_drivers_URBasic_realTimeClientEvent - INFO - Program send to Robot:
servoj([0.18714565612204836, -1.7103885784464705, -1.6904468282499752, -1.2501943422495283, 1.553922538128153, 3.012738267407399], 0.5, 0.5, 0.01, 0.05, 300)

2025-07-07 17:19:13,311 - gym_custom_envs_real_ur_drivers_URBasic_realTimeClientEvent - INFO - Program send to Robot:
servoj([0.18714565612204836, -1.7164631424120569, -1.6904468282499767, -1.2380452142879708, 1.5539225381281545, 3.014256908387406], 0.5, 0.5, 0.01, 0.05, 300)

2025-07-07 17:19:13,320 - gym_custom_envs_real_ur_drivers_URBasic_realTimeClientEvent - INFO - Program send to Robot:
servoj([0.18714565612204836, -1.7165238880517126, -1.6904468282499767, -1.237923723008355, 1.5539225381281545, 3.0142720947972057], 0.5, 0.5, 0.01, 0.05, 300)

2025-07-07 17:19:13,328 - gym_custom_envs_real_ur_drivers_URBasic_realTimeClientEvent - INFO - Program send to Robot:
servoj([0.18714565612204836, -1.7165244955081094, -1.6904468282499767, -1.237922508095559, 1.5539225381281545, 3.014272246661304], 0.5, 0.5, 0.01, 0.05, 300)

2025-07-07 17:19:13,349 - gym_custom_envs_real_ur_drivers_URBasic_realTimeClientEvent - INFO - Program send to Robot:
servoj([0.18866429710205487, -1.7210804245226938, -1.6904468282499767, -1.2303292910463968, 1.5539225381281545, 3.0142722481799447], 0.5, 0.5, 0.01, 0.05, 300)

2025-07-07 17:19:13,352 - gym_custom_envs_real_ur_drivers_URBasic_realTimeClientEvent - INFO - Program send to Robot:
servoj([0.18867948351185496, -1.7211259838128397, -1.6904468282499767, -1.2302533588759053, 1.5539225381281545, 3.014272248195131], 0.5, 0.5, 0.01, 0.05, 300)

2025-07-07 17:19:13,367 - gym_custom_envs_real_ur_drivers_URBasic_realTimeClientEvent - INFO - Program send to Robot:
servoj([0.18867963537595295, -1.7226450803857476, -1.6904468282499767, -1.22569667661418, 1.5539225381281545, 3.014272248195283], 0.5, 0.5, 0.01, 0.05, 300)

2025-07-07 17:19:13,375 - gym_custom_envs_real_ur_drivers_URBasic_realTimeClientEvent - INFO - Program send to Robot:
servoj([0.1886796368945939, -1.7226602713514767, -1.6904468282499767, -1.2256511097915628, 1.5539225381281545, 3.014272248195285], 0.5, 0.5, 0.01, 0.05, 300)

2025-07-07 17:19:13,392 - gym_custom_envs_real_ur_drivers_URBasic_realTimeClientEvent - INFO - Program send to Robot:
servoj([0.18867963690978035, -1.722660423261134, -1.6904468282499767, -1.2256506541233365, 1.5539225381281545, 3.014272248195285], 0.5, 0.5, 0.01, 0.05, 300)

2025-07-07 17:19:13,399 - gym_custom_envs_real_ur_drivers_URBasic_realTimeClientEvent - INFO - Program send to Robot:
servoj([0.1886796369099322, -1.7226604247802306, -1.6904468282499767, -1.2256506495666544, 1.5539225381281545, 3.014272248195285], 0.5, 0.5, 0.01, 0.05, 300)

2025-07-07 17:19:13,415 - gym_custom_envs_real_ur_drivers_URBasic_realTimeClientEvent - INFO - Program send to Robot:
servoj([0.18867963690993372, -1.7226604247954216, -1.6904468282499767, -1.2256506495210875, 1.5539225381281545, 3.014272248195285], 0.5, 0.5, 0.01, 0.05, 300)

2025-07-07 17:19:13,424 - gym_custom_envs_real_ur_drivers_URBasic_realTimeClientEvent - INFO - Program send to Robot:
servoj([0.18867963690993372, -1.7226604247955735, -1.6904468282499767, -1.2256506495206319, 1.5539225381281545, 3.014272248195285], 0.5, 0.5, 0.01, 0.05, 300)

2025-07-07 17:19:13,439 - gym_custom_envs_real_ur_drivers_URBasic_realTimeClientEvent - INFO - Program send to Robot:
servoj([0.18867963690993372, -1.7211417838155685, -1.6904468282499767, -1.2271692905006342, 1.5554411791081615, 3.014272248195285], 0.5, 0.5, 0.01, 0.05, 300)

2025-07-07 17:19:13,447 - gym_custom_envs_real_ur_drivers_URBasic_realTimeClientEvent - INFO - Program send to Robot:
servoj([0.18867963690993372, -1.7211265974057683, -1.6904468282499767, -1.2271844769104343, 1.5554563655179614, 3.014272248195285], 0.5, 0.5, 0.01, 0.05, 300)

2025-07-07 17:19:13,456 - gym_custom_envs_real_ur_drivers_URBasic_realTimeClientEvent - INFO - Program send to Robot:
servoj([0.18867963690993372, -1.7211264455416704, -1.6904468282499767, -1.2271846287745323, 1.5554565173820596, 3.014272248195285], 0.5, 0.5, 0.01, 0.05, 300)

2025-07-07 17:19:13,464 - gym_custom_envs_real_ur_drivers_URBasic_realTimeClientEvent - INFO - Program send to Robot:
servoj([0.19019827788994065, -1.7196078030430226, -1.6919654692299835, -1.22870327127318, 1.5554565189007006, 3.014272248195285], 0.5, 0.5, 0.01, 0.05, 300)

2025-07-07 17:19:13,479 - gym_custom_envs_real_ur_drivers_URBasic_realTimeClientEvent - INFO - Program send to Robot:
servoj([0.19021346429974073, -1.7195926166180362, -1.6919806556397836, -1.2287184576981665, 1.5554565189158869, 3.014272248195285], 0.5, 0.5, 0.01, 0.05, 300)

2025-07-07 17:19:13,487 - gym_custom_envs_real_ur_drivers_URBasic_realTimeClientEvent - INFO - Program send to Robot:
servoj([0.19021361616383872, -1.7195924647537864, -1.6919808075038816, -1.2287186095624163, 1.5554565189160388, 3.014272248195285], 0.5, 0.5, 0.01, 0.05, 300)

2025-07-07 17:19:13,495 - gym_custom_envs_real_ur_drivers_URBasic_realTimeClientEvent - INFO - Program send to Robot:
servoj([0.1902136176824797, -1.71655518127513, -1.6950180909825356, -1.2302372520610654, 1.5539378779360333, 3.014272248195285], 0.5, 0.5, 0.01, 0.05, 300)

2025-07-07 17:19:13,512 - gym_custom_envs_real_ur_drivers_URBasic_realTimeClientEvent - INFO - Program send to Robot:
servoj([0.19021361769766612, -1.7165248084403435, -1.6950484638173222, -1.2302524384860518, 1.5539226915262332, 3.014272248195285], 0.5, 0.5, 0.01, 0.05, 300)

2025-07-07 17:19:13,519 - gym_custom_envs_real_ur_drivers_URBasic_realTimeClientEvent - INFO - Program send to Robot:
servoj([0.19021361769781797, -1.7165245047119955, -1.69504876754567, -1.2302525903503017, 1.5539225396621352, 3.014272248195285], 0.5, 0.5, 0.01, 0.05, 300)

2025-07-07 17:19:13,527 - gym_custom_envs_real_ur_drivers_URBasic_realTimeClientEvent - INFO - Program send to Robot:
servoj([0.1902136176978195, -1.7134872197146984, -1.6996046935229745, -1.2302525918689442, 1.5508852561834805, 3.014272248195285], 0.5, 0.5, 0.01, 0.05, 300)

2025-07-07 17:19:13,543 - gym_custom_envs_real_ur_drivers_URBasic_realTimeClientEvent - INFO - Program send to Robot:
servoj([0.19021361769781953, -1.7134568468647253, -1.6996502527827475, -1.2302525918841307, 1.550854883348694, 3.014272248195285], 0.5, 0.5, 0.01, 0.05, 300)

2025-07-07 17:19:13,551 - gym_custom_envs_real_ur_drivers_URBasic_realTimeClientEvent - INFO - Program send to Robot:
servoj([0.19021361769781953, -1.7134565431362256, -1.6996507083753454, -1.2302525918842826, 1.5508545796203461, 3.014272248195285], 0.5, 0.5, 0.01, 0.05, 300)

2025-07-07 17:19:13,559 - gym_custom_envs_real_ur_drivers_URBasic_realTimeClientEvent - INFO - Program send to Robot:
servoj([0.1886949767178126, -1.7104192581389275, -1.702687994891284, -1.230252591884284, 1.5508545765830626, 3.012753607215278], 0.5, 0.5, 0.01, 0.05, 300)

2025-07-07 17:19:13,567 - gym_custom_envs_real_ur_drivers_URBasic_realTimeClientEvent - INFO - Program send to Robot:
servoj([0.18867979030801252, -1.7103888852889544, -1.7027183677564435, -1.2302525918842842, 1.5508545765526898, 3.0127384208054777], 0.5, 0.5, 0.01, 0.05, 300)

2025-07-07 17:19:13,584 - gym_custom_envs_real_ur_drivers_URBasic_realTimeClientEvent - INFO - Program send to Robot:
servoj([0.18867963844391453, -1.7103885815604547, -1.702718671485095, -1.2302525918842842, 1.550854576552386, 3.01273826894138], 0.5, 0.5, 0.01, 0.05, 300)

2025-07-07 17:19:13,591 - gym_custom_envs_real_ur_drivers_URBasic_realTimeClientEvent - INFO - Program send to Robot:
servoj([0.18716099594526703, -1.7088699375431629, -1.7027186745223817, -1.2302525918842842, 1.5523732175323899, 3.0112196264427324], 0.5, 0.5, 0.01, 0.05, 300)

2025-07-07 17:19:13,599 - gym_custom_envs_real_ur_drivers_URBasic_realTimeClientEvent - INFO - Program send to Robot:
servoj([0.18714580952028056, -1.70885475110299, -1.7027186745527545, -1.2302525918842842, 1.5523884039421898, 3.011204440017746], 0.5, 0.5, 0.01, 0.05, 300)

2025-07-07 17:19:13,615 - gym_custom_envs_real_ur_drivers_URBasic_realTimeClientEvent - INFO - Program send to Robot:
servoj([0.1871456576560307, -1.7088545992385882, -1.7027186745530583, -1.2302525918842842, 1.5523885558062878, 3.0112042881534964], 0.5, 0.5, 0.01, 0.05, 300)

2025-07-07 17:19:13,623 - gym_custom_envs_real_ur_drivers_URBasic_realTimeClientEvent - INFO - Program send to Robot:
servoj([0.1871456561373882, -1.7042986747799238, -1.6996813925930483, -1.2348085148243046, 1.5539071983049357, 3.0051297227148264], 0.5, 0.5, 0.01, 0.05, 300)

2025-07-07 17:19:13,631 - gym_custom_envs_real_ur_drivers_URBasic_realTimeClientEvent - INFO - Program send to Robot:
servoj([0.18714565612220177, -1.704253115535337, -1.6996510197734482, -1.2348540740537048, 1.5539223847299222, 3.0050689770604397], 0.5, 0.5, 0.01, 0.05, 300)

2025-07-07 17:19:13,647 - gym_custom_envs_real_ur_drivers_URBasic_realTimeClientEvent - INFO - Program send to Robot:
servoj([0.1871456561220499, -1.7042526599428913, -1.6996507160452523, -1.2348545296459987, 1.5539225365941722, 3.0050683696038956], 0.5, 0.5, 0.01, 0.05, 300)

2025-07-07 17:19:13,655 - gym_custom_envs_real_ur_drivers_URBasic_realTimeClientEvent - INFO - Program send to Robot:
servoj([0.18562701514204144, -1.695140809506926, -1.6966134310479564, -1.2439663800819625, 1.5539225381128146, 2.9898819537292627], 0.5, 0.5, 0.01, 0.05, 300)

2025-07-07 17:19:13,664 - gym_custom_envs_real_ur_drivers_URBasic_realTimeClientEvent - INFO - Program send to Robot:
servoj([0.18561182873224136, -1.6950496910025663, -1.6965830581979835, -1.2440574985863222, 1.553922538128001, 2.989730089570516], 0.5, 0.5, 0.01, 0.05, 300)

2025-07-07 17:19:13,672 - gym_custom_envs_real_ur_drivers_URBasic_realTimeClientEvent - INFO - Program send to Robot:
servoj([0.18561167686814334, -1.6950487798175227, -1.6965827544694836, -1.2440584097713656, 1.553922538128153, 2.989728570928929], 0.5, 0.5, 0.01, 0.05, 300)

2025-07-07 17:19:13,687 - gym_custom_envs_real_ur_drivers_URBasic_realTimeClientEvent - INFO - Program send to Robot:
servoj([0.18409303436949542, -1.6813810018856115, -1.685952264572151, -1.2653193926033113, 1.5539225381281545, 2.966948941042411], 0.5, 0.5, 0.01, 0.05, 300)

2025-07-07 17:19:13,695 - gym_custom_envs_real_ur_drivers_URBasic_realTimeClientEvent - INFO - Program send to Robot:
servoj([0.18407784794450893, -1.6812443241062924, -1.6858459596731776, -1.2655320024316306, 1.5539225381281545, 2.966721144743546], 0.5, 0.5, 0.01, 0.05, 300)

2025-07-07 17:19:13,703 - gym_custom_envs_real_ur_drivers_URBasic_realTimeClientEvent - INFO - Program send to Robot:
servoj([0.18407769608025906, -1.6812429573284993, -1.685844896624188, -1.2655341285299138, 1.5539225381281545, 2.9667188667805573], 0.5, 0.5, 0.01, 0.05, 300)

2025-07-07 17:19:13,720 - gym_custom_envs_real_ur_drivers_URBasic_realTimeClientEvent - INFO - Program send to Robot:
servoj([0.18104041260160314, -1.6645378928806465, -1.6691398352136235, -1.3004628923310526, 1.5478479742081277, 2.9439392293008257], 0.5, 0.5, 0.01, 0.05, 300)

2025-07-07 17:19:13,727 - gym_custom_envs_real_ur_drivers_URBasic_realTimeClientEvent - INFO - Program send to Robot:
servoj([0.1810100397668166, -1.664370842236168, -1.6689727845995177, -1.300812179969064, 1.5477872285689274, 2.9437114329260283], 0.5, 0.5, 0.01, 0.05, 300)

2025-07-07 17:19:13,735 - gym_custom_envs_real_ur_drivers_URBasic_realTimeClientEvent - INFO - Program send to Robot:
servoj([0.1810097360384687, -1.664369171729723, -1.6689711140933767, -1.300815672845444, 1.5477866211125353, 2.9437091549622805], 0.5, 0.5, 0.01, 0.05, 300)

2025-07-07 17:19:13,743 - gym_custom_envs_real_ur_drivers_URBasic_realTimeClientEvent - INFO - Program send to Robot:
servoj([0.18100973300118522, -1.6643691550246587, -1.6689710973883154, -1.3008157077742077, 1.5477866150379715, 2.9437091321826427], 0.5, 0.5, 0.01, 0.05, 300)

2025-07-07 17:19:13,759 - gym_custom_envs_real_ur_drivers_URBasic_realTimeClientEvent - INFO - Program send to Robot:
servoj([0.1810097329708124, -1.6522200270175535, -1.6461914825211632, -1.3478935785037058, 1.5386747690971851, 2.930041363134785], 0.5, 0.5, 0.01, 0.05, 300)

2025-07-07 17:19:13,767 - gym_custom_envs_real_ur_drivers_URBasic_realTimeClientEvent - INFO - Program send to Robot:
servoj([0.18100973297050868, -1.6520985357374824, -1.6459636863724916, -1.348364357211001, 1.5385836506377772, 2.9299046854443067], 0.5, 0.5, 0.01, 0.05, 300)

2025-07-07 17:19:13,776 - gym_custom_envs_real_ur_drivers_URBasic_realTimeClientEvent - INFO - Program send to Robot:
servoj([0.18100973297050563, -1.6520973208246819, -1.6459614084110048, -1.3483690649980737, 1.538582739453183, 2.9299033186674017], 0.5, 0.5, 0.01, 0.05, 300)

2025-07-07 17:19:13,791 - gym_custom_envs_real_ur_drivers_URBasic_realTimeClientEvent - INFO - Program send to Robot:
servoj([0.1810097329705056, -1.64450410377552, -1.6171072070112615, -1.4045588283361954, 1.5294708844612963, 2.9207914591195925], 0.5, 0.5, 0.01, 0.05, 300)

2025-07-07 17:19:13,799 - gym_custom_envs_real_ur_drivers_URBasic_realTimeClientEvent - INFO - Program send to Robot:
servoj([0.1810097329705056, -1.6444281716050284, -1.6168186649972642, -1.4051207259695766, 1.5293797659113775, 2.9207003405241143], 0.5, 0.5, 0.01, 0.05, 300)

2025-07-07 17:19:13,807 - gym_custom_envs_real_ur_drivers_URBasic_realTimeClientEvent - INFO - Program send to Robot:
servoj([0.1810097329705056, -1.6444274122833236, -1.616815779577124, -1.4051263449459106, 1.5293788547258784, 2.920699429338159], 0.5, 0.5, 0.01, 0.05, 300)

2025-07-07 17:19:13,824 - gym_custom_envs_real_ur_drivers_URBasic_realTimeClientEvent - INFO - Program send to Robot:
servoj([0.17949109199049865, -1.6368341997900726, -1.5834056491627735, -1.4673906813159523, 1.5157110767939626, 2.9161434972862796], 0.5, 0.5, 0.01, 0.05, 300)

2025-07-07 17:19:13,832 - gym_custom_envs_real_ur_drivers_URBasic_realTimeClientEvent - INFO - Program send to Robot:
servoj([0.1794759055806986, -1.6367582676651402, -1.58307154785863, -1.4680133246796527, 1.5155743990146433, 2.916097937965761], 0.5, 0.5, 0.01, 0.05, 300)

2025-07-07 17:19:13,839 - gym_custom_envs_real_ur_drivers_URBasic_realTimeClientEvent - INFO - Program send to Robot:
servoj([0.17947575371660057, -1.6367575083438908, -1.5830682068455886, -1.4680195511132896, 1.5155730322368501, 2.9160974823725554], 0.5, 0.5, 0.01, 0.05, 300)

2025-07-07 17:19:13,856 - gym_custom_envs_real_ur_drivers_URBasic_realTimeClientEvent - INFO - Program send to Robot:
servoj([0.1794757521979596, -1.623089731930617, -1.548139430895302, -1.5302838935579042, 1.5034238907290176, 2.9160974778166233], 0.5, 0.5, 0.01, 0.05, 300)

2025-07-07 17:19:13,863 - gym_custom_envs_real_ur_drivers_URBasic_realTimeClientEvent - INFO - Program send to Robot:
servoj([0.1794757521827732, -1.6229530541664843, -1.5477901431357992, -1.5309065369823505, 1.5033023993139392, 2.916097477771064], 0.5, 0.5, 0.01, 0.05, 300)

2025-07-07 17:19:13,871 - gym_custom_envs_real_ur_drivers_URBasic_realTimeClientEvent - INFO - Program send to Robot:
servoj([0.17947575218262132, -1.622951687388843, -1.547786650258204, -1.5309127634165949, 1.5033011843997883, 2.9160974777706086], 0.5, 0.5, 0.01, 0.05, 300)

2025-07-07 17:19:13,888 - gym_custom_envs_real_ur_drivers_URBasic_realTimeClientEvent - INFO - Program send to Robot:
servoj([0.1794757521826198, -1.607765263920999, -1.5113392318092649, -1.5931771058612152, 1.4896334034305863, 2.91306019581059], 0.5, 0.5, 0.01, 0.05, 300)

2025-07-07 17:19:13,895 - gym_custom_envs_real_ur_drivers_URBasic_realTimeClientEvent - INFO - Program send to Robot:
servoj([0.1794757521826198, -1.6076133996863204, -1.5109747576247754, -1.5937997492856615, 1.4894967256208942, 2.91302982299099], 0.5, 0.5, 0.01, 0.05, 300)

2025-07-07 17:19:13,903 - gym_custom_envs_real_ur_drivers_URBasic_realTimeClientEvent - INFO - Program send to Robot:
servoj([0.1794757521826198, -1.6076118810439737, -1.5109711128829306, -1.593805975719906, 1.4894953588427973, 2.913029519262794], 0.5, 0.5, 0.01, 0.05, 300)

2025-07-07 17:19:13,911 - gym_custom_envs_real_ur_drivers_URBasic_realTimeClientEvent - INFO - Program send to Robot:
servoj([0.18099439316262675, -1.5954627380174957, -1.4745236929153491, -1.6484771132644926, 1.4803834992949756, 2.913029516225512], 0.5, 0.5, 0.01, 0.05, 300)

2025-07-07 17:19:13,927 - gym_custom_envs_real_ur_drivers_URBasic_realTimeClientEvent - INFO - Program send to Robot:
servoj([0.1810095795724268, -1.595341246587231, -1.4741592187156731, -1.6490238246399387, 1.4802923806994974, 2.913029516195139], 0.5, 0.5, 0.01, 0.05, 300)

2025-07-07 17:19:13,935 - gym_custom_envs_real_ur_drivers_URBasic_realTimeClientEvent - INFO - Program send to Robot:
servoj([0.18100973143652482, -1.5953400316729283, -1.4741555739736765, -1.649029291753693, 1.4802914695135425, 2.913029516194835], 0.5, 0.5, 0.01, 0.05, 300)

2025-07-07 17:19:13,943 - gym_custom_envs_real_ur_drivers_URBasic_realTimeClientEvent - INFO - Program send to Robot:
servoj([0.1810097329551658, -1.5953400195237852, -1.4741555375262565, -1.6490293464248307, 1.480291460401683, 2.9130295161948325], 0.5, 0.5, 0.01, 0.05, 300)

2025-07-07 17:19:13,960 - gym_custom_envs_real_ur_drivers_URBasic_realTimeClientEvent - INFO - Program send to Robot:
servoj([0.1810097329703522, -1.5877468145022602, -1.44226407658164, -1.6930699353917387, 1.4742168963905367, 2.9130295161948325], 0.5, 0.5, 0.01, 0.05, 300)

2025-07-07 17:19:13,967 - gym_custom_envs_real_ur_drivers_URBasic_realTimeClientEvent - INFO - Program send to Robot:
servoj([0.18100973297050407, -1.587670882452045, -1.4419451619721937, -1.6935103412814076, 1.474156150750425, 2.9130295161948325], 0.5, 0.5, 0.01, 0.05, 300)

2025-07-07 17:19:13,976 - gym_custom_envs_real_ur_drivers_URBasic_realTimeClientEvent - INFO - Program send to Robot:
servoj([0.1810097329705056, -1.5800769182315089, -1.413087794205971, -1.7284434878804604, 1.4711182613340108, 2.9115108752148258], 0.5, 0.5, 0.01, 0.05, 300)

2025-07-07 17:19:13,984 - gym_custom_envs_real_ur_drivers_URBasic_realTimeClientEvent - INFO - Program send to Robot:
servoj([0.1810097329705056, -1.5800009785893037, -1.4127992205283086, -1.728792819346451, 1.4710878824398468, 2.9114956888050254], 0.5, 0.5, 0.01, 0.05, 300)

2025-07-07 17:19:13,999 - gym_custom_envs_real_ur_drivers_URBasic_realTimeClientEvent - INFO - Program send to Robot:
servoj([0.1810097329705056, -1.5800002191928815, -1.412796334791532, -1.728796312661111, 1.4710875786509052, 2.9114955369409277], 0.5, 0.5, 0.01, 0.05, 300)

2025-07-07 17:19:14,007 - gym_custom_envs_real_ur_drivers_URBasic_realTimeClientEvent - INFO - Program send to Robot:
servoj([0.1810097329705056, -1.5693697247388698, -1.3915353322140689, -1.7530946032743662, 1.465013011692989, 2.9114955354222865], 0.5, 0.5, 0.01, 0.05, 300)

2025-07-07 17:19:14,015 - gym_custom_envs_real_ur_drivers_URBasic_realTimeClientEvent - INFO - Program send to Robot:
servoj([0.1810097329705056, -1.5692634197943296, -1.3913227221882942, -1.7533375861804987, 1.4649522660234098, 2.9114955354071], 0.5, 0.5, 0.01, 0.05, 300)

2025-07-07 17:19:14,032 - gym_custom_envs_real_ur_drivers_URBasic_realTimeClientEvent - INFO - Program send to Robot:
servoj([0.1810097329705056, -1.5692623567448842, -1.3913205960880364, -1.75334001600956, 1.464951658566714, 2.911495535406948], 0.5, 0.5, 0.01, 0.05, 300)

2025-07-07 17:19:14,039 - gym_custom_envs_real_ur_drivers_URBasic_realTimeClientEvent - INFO - Program send to Robot:
servoj([0.1810097329705056, -1.5616691412143555, -1.3791714469869802, -1.7639705271678978, 1.46343301151214, 2.9099768944269404], 0.5, 0.5, 0.01, 0.05, 300)

2025-07-07 17:19:14,047 - gym_custom_envs_real_ur_drivers_URBasic_realTimeClientEvent - INFO - Program send to Robot:
servoj([0.1810097329705056, -1.5615932090590503, -1.3790499554959696, -1.7640768322794813, 1.4634178250415943, 2.9099617080171405], 0.5, 0.5, 0.01, 0.05, 300)

2025-07-07 17:19:14,055 - gym_custom_envs_real_ur_drivers_URBasic_realTimeClientEvent - INFO - Program send to Robot:
servoj([0.1810097329705056, -1.5615924497374971, -1.3790487405810596, -1.7640778953305971, 1.4634176731768889, 2.9099615561530423], 0.5, 0.5, 0.01, 0.05, 300)

2025-07-07 17:19:14,071 - gym_custom_envs_real_ur_drivers_URBasic_realTimeClientEvent - INFO - Program send to Robot:
servoj([0.1810097329705056, -1.553999237244248, -1.3699368825518696, -1.7655965469411152, 1.460380389698228, 2.902368349734367], 0.5, 0.5, 0.01, 0.05, 300)

2025-07-07 17:19:14,079 - gym_custom_envs_real_ur_drivers_URBasic_realTimeClientEvent - INFO - Program send to Robot:
servoj([0.1810097329705056, -1.5539233051193153, -1.3698457639715778, -1.7656117334572203, 1.4603500168634413, 2.90229241767018], 0.5, 0.5, 0.01, 0.05, 300)

2025-07-07 17:19:14,087 - gym_custom_envs_real_ur_drivers_URBasic_realTimeClientEvent - INFO - Program send to Robot:
servoj([0.1810097329705056, -1.553922545798066, -1.369844852785775, -1.7656118853223814, 1.4603497131350935, 2.902291658349538], 0.5, 0.5, 0.01, 0.05, 300)

2025-07-07 17:19:14,095 - gym_custom_envs_real_ur_drivers_URBasic_realTimeClientEvent - INFO - Program send to Robot:
servoj([0.1810097329705056, -1.5539225382048536, -1.3698448436739168, -1.765611886841033, 1.46034971009781, 2.9022916507563314], 0.5, 0.5, 0.01, 0.05, 300)

2025-07-07 17:19:14,112 - gym_custom_envs_real_ur_drivers_URBasic_realTimeClientEvent - INFO - Program send to Robot:
servoj([0.1810097329705056, -1.5463293332288877, -1.3637702796627713, -1.7656118868562196, 1.4603497100674372, 2.8916611638203524], 0.5, 0.5, 0.01, 0.05, 300)

2025-07-07 17:19:14,120 - gym_custom_envs_real_ur_drivers_URBasic_realTimeClientEvent - INFO - Program send to Robot:
servoj([0.1810097329705056, -1.546253401179128, -1.3637095340226597, -1.7656118868563715, 1.4603497100671334, 2.8915548589509923], 0.5, 0.5, 0.01, 0.05, 300)

2025-07-07 17:19:14,128 - gym_custom_envs_real_ur_drivers_URBasic_realTimeClientEvent - INFO - Program send to Robot:
servoj([0.1810097329705056, -1.5462526418586304, -1.3637089265662585, -1.765611886856373, 1.4603497100671305, 2.8915537959022988], 0.5, 0.5, 0.01, 0.05, 300)

2025-07-07 17:19:14,135 - gym_custom_envs_real_ur_drivers_URBasic_realTimeClientEvent - INFO - Program send to Robot:
servoj([0.1810097329705056, -1.5371407883853847, -1.3606716385316806, -1.765611886856373, 1.464905633007151, 2.879404657431758], 0.5, 0.5, 0.01, 0.05, 300)

2025-07-07 17:19:14,151 - gym_custom_envs_real_ur_drivers_URBasic_realTimeClientEvent - INFO - Program send to Robot:
servoj([0.1810097329705056, -1.5370496698506522, -1.360641265651335, -1.765611886856373, 1.4649511922365515, 2.8792831660470526], 0.5, 0.5, 0.01, 0.05, 300)

2025-07-07 17:19:14,159 - gym_custom_envs_real_ur_drivers_URBasic_realTimeClientEvent - INFO - Program send to Robot:
servoj([0.1810097329705056, -1.5370487586653048, -1.3606409619225315, -1.765611886856373, 1.4649516478288453, 2.8792819511332053], 0.5, 0.5, 0.01, 0.05, 300)

2025-07-07 17:19:14,168 - gym_custom_envs_real_ur_drivers_URBasic_realTimeClientEvent - INFO - Program send to Robot:
servoj([0.1810097329705056, -1.526418262693404, -1.3576036769252298, -1.7686491688163866, 1.4664702933647744, 2.8716887340840334], 0.5, 0.5, 0.01, 0.05, 300)

2025-07-07 17:19:14,183 - gym_custom_envs_real_ur_drivers_URBasic_realTimeClientEvent - INFO - Program send to Robot:
servoj([0.1810097329705056, -1.5263119577336848, -1.3575733040752567, -1.7686795416359866, 1.4664854798201337, 2.8716128019135416], 0.5, 0.5, 0.01, 0.05, 300)

2025-07-07 17:19:14,191 - gym_custom_envs_real_ur_drivers_URBasic_realTimeClientEvent - INFO - Program send to Robot:
servoj([0.1810097329705056, -1.5263108946840878, -1.357573000346757, -1.7686798453641828, 1.4664856316846873, 2.8716120425918366], 0.5, 0.5, 0.01, 0.05, 300)

2025-07-07 17:19:14,200 - gym_custom_envs_real_ur_drivers_URBasic_realTimeClientEvent - INFO - Program send to Robot:
servoj([0.17949109199049865, -1.5141617562135374, -1.3590916382894789, -1.7686798484014645, 1.4680042741833397, 2.8700933940186126], 0.5, 0.5, 0.01, 0.05, 300)

2025-07-07 17:19:14,207 - gym_custom_envs_real_ur_drivers_URBasic_realTimeClientEvent - INFO - Program send to Robot:
servoj([0.1794759055806986, -1.5140402648288318, -1.3591068246689062, -1.7686798484318373, 1.4680194606083263, 2.8700782075328806], 0.5, 0.5, 0.01, 0.05, 300)

2025-07-07 17:19:14,224 - gym_custom_envs_real_ur_drivers_URBasic_realTimeClientEvent - INFO - Program send to Robot:
servoj([0.17947575371660057, -1.514039049914985, -1.3591069765327004, -1.768679848432141, 1.4680196124725762, 2.870078055668023], 0.5, 0.5, 0.01, 0.05, 300)

2025-07-07 17:19:14,232 - gym_custom_envs_real_ur_drivers_URBasic_realTimeClientEvent - INFO - Program send to Robot:
servoj([0.1779571112179531, -1.4988526279657786, -1.362144260011352, -1.7686798484321442, 1.4649823320312056, 2.8700780541493747], 0.5, 0.5, 0.01, 0.05, 300)

