2025-07-07 17:06:58,219 - gym_custom_envs_real_ur_drivers_URBasic_robotModelEvent - INFO - Init done
2025-07-07 17:06:58,720 - gym_custom_envs_real_ur_drivers_URBasic_realTimeClientEvent - INFO - Connected
2025-07-07 17:06:58,721 - gym_custom_envs_real_ur_drivers_URBasic_realTimeClientEvent - INFO - RT_CLient constructor done
2025-07-07 17:06:58,722 - gym_custom_envs_real_ur_drivers_URBasic_dataLogEvent - INFO - Data logging (not event logging) is disabled
2025-07-07 17:06:58,722 - gym_custom_envs_real_ur_drivers_URBasic_dataLogEvent - INFO - DataLog constructor done
2025-07-07 17:06:58,723 - gym_custom_envs_real_ur_drivers_URBasic_dataLogEvent - INFO - DataLog is stopped
2025-07-07 17:06:58,724 - gym_custom_envs_real_ur_drivers_URBasic_rtdeEvent - INFO - RTDE constructor done
2025-07-07 17:06:59,118 - gym_custom_envs_real_ur_drivers_URBasic_rtdeEvent - INFO - Controller version: 3.3.1-60
2025-07-07 17:06:59,121 - gym_custom_envs_real_ur_drivers_URBasic_rtdeEvent - INFO - RTDE started
2025-07-07 17:06:59,225 - gym_custom_envs_real_ur_drivers_URBasic_dashboardEvent - INFO - Connected
2025-07-07 17:06:59,226 - gym_custom_envs_real_ur_drivers_URBasic_dashboardEvent - INFO - UR Dashboard respond Connected: Universal Robots Dashboard Server
2025-07-07 17:06:59,226 - gym_custom_envs_real_ur_drivers_URBasic_dashboardEvent - INFO - Dashboard server constructor done
2025-07-07 17:06:59,226 - gym_custom_envs_real_ur_drivers_URBasic_robotConnectorEvent - INFO - Init done
2025-07-07 17:06:59,227 - gym_custom_envs_real_ur_drivers_URBasic_urScriptEvent - INFO - Init done!!!
2025-07-07 17:06:59,241 - gym_custom_envs_real_ur_drivers_URBasic_urScriptExtEvent - INFO - Init done
2025-07-07 17:07:00,850 - gym_custom_envs_real_ur_interfaceEvent - INFO - [] init done
2025-07-07 17:07:00,851 - gym_custom_envs_real_ur_drivers_URBasic_realTimeClientEvent - INFO - Program send to Robot:
end_freedrive_mode()

2025-07-07 17:07:02,634 - gym_custom_envs_real_ur_drivers_URBasic_realTimeClientEvent - INFO - Program send to Robot:
servoj([-0.015562397425646593, -1.5565949513257993, -1.5895962243744701, -1.5189270178786332, 1.6789174453562759, 2.955578851699829], 0.5, 0.5, 0.0125, 0.2, 100)

2025-07-07 17:07:02,657 - gym_custom_envs_real_ur_drivers_URBasic_realTimeClientEvent - INFO - Program send to Robot:
servoj([-0.0155952778559911, -1.5571964550458566, -1.589601767991357, -1.5189124353537589, 1.6770751035911373, 2.955614614486694], 0.5, 0.5, 0.0125, 0.2, 100)

2025-07-07 17:07:02,673 - gym_custom_envs_real_ur_drivers_URBasic_realTimeClientEvent - INFO - Program send to Robot:
servoj([-0.015592521420100142, -1.5572215599724708, -1.5889905657936996, -1.518912669873445, 1.675233127320553, 2.955590772628784], 0.5, 0.5, 0.0125, 0.2, 100)

2025-07-07 17:07:02,689 - gym_custom_envs_real_ur_drivers_URBasic_realTimeClientEvent - INFO - Program send to Robot:
servoj([-0.015599636347769025, -1.55717124750959, -1.588984443292231, -1.518941698778334, 1.675207674661265, 2.955590772628784], 0.5, 0.5, 0.0125, 0.2, 100)

2025-07-07 17:07:02,704 - gym_custom_envs_real_ur_drivers_URBasic_realTimeClientEvent - INFO - Program send to Robot:
servoj([-0.01559668404648795, -1.5572038463326598, -1.5889609947983396, -1.518933940851774, 1.674581645933892, 2.9556267738342283], 0.5, 0.5, 0.0125, 0.2, 100)

2025-07-07 17:07:02,721 - gym_custom_envs_real_ur_drivers_URBasic_realTimeClientEvent - INFO - Program send to Robot:
servoj([-0.015586785039887033, -1.557208573158404, -1.5889837980810928, -1.5189196670905456, 1.6745750474230356, 2.955602693557739], 0.5, 0.5, 0.0125, 0.2, 100)

2025-07-07 17:07:02,736 - gym_custom_envs_real_ur_drivers_URBasic_realTimeClientEvent - INFO - Program send to Robot:
servoj([-0.01540882268320282, -1.5570550607851508, -1.589661090617428, -1.518912448480423, 1.6739481776612273, 2.9556267738342283], 0.5, 0.5, 0.0125, 0.2, 100)

2025-07-07 17:07:02,752 - gym_custom_envs_real_ur_drivers_URBasic_realTimeClientEvent - INFO - Program send to Robot:
servoj([-0.015457393117276072, -1.5570936168297076, -1.5896377945245632, -1.5189325509393947, 1.673923070488474, 2.955817985534668], 0.5, 0.5, 0.0125, 0.2, 100)

2025-07-07 17:07:02,769 - gym_custom_envs_real_ur_drivers_URBasic_realTimeClientEvent - INFO - Program send to Robot:
servoj([-0.015562783801807492, -1.5571428371248588, -1.5896080940035726, -1.5189290685558103, 1.673334960645209, 2.956177282333374], 0.5, 0.5, 0.0125, 0.2, 100)

2025-07-07 17:07:02,784 - gym_custom_envs_real_ur_drivers_URBasic_realTimeClientEvent - INFO - Program send to Robot:
servoj([-0.015766719624667545, -1.557327802860747, -1.5895270852736392, -1.5189291642016707, 1.6733357432220524, 2.956895875930786], 0.5, 0.5, 0.0125, 0.2, 100)

2025-07-07 17:07:02,801 - gym_custom_envs_real_ur_drivers_URBasic_realTimeClientEvent - INFO - Program send to Robot:
servoj([-0.01604404117897759, -1.5575174281919026, -1.5893884127260771, -1.5188900562397418, 1.6696688978681486, 2.9579494476318358], 0.5, 0.5, 0.0125, 0.2, 100)

2025-07-07 17:07:02,818 - gym_custom_envs_real_ur_drivers_URBasic_realTimeClientEvent - INFO - Program send to Robot:
servoj([-0.016360095562769142, -1.5577667886817503, -1.589277456623725, -1.5188863552226248, 1.669616570254599, 2.9590263843536375], 0.5, 0.5, 0.0125, 0.2, 100)

2025-07-07 17:07:02,833 - gym_custom_envs_real_ur_drivers_URBasic_realTimeClientEvent - INFO - Program send to Robot:
servoj([-0.01669832727427473, -1.5580907460803022, -1.589707011494322, -1.5188657965541172, 1.665201543558401, 2.9603553295135496], 0.5, 0.5, 0.0125, 0.2, 100)

2025-07-07 17:07:02,849 - gym_custom_envs_real_ur_drivers_URBasic_realTimeClientEvent - INFO - Program send to Robot:
servoj([-0.0171678725646144, -1.5584509606726518, -1.5895691501640785, -1.5188009702386773, 1.6650452156361675, 2.9619000434875487], 0.5, 0.5, 0.0125, 0.2, 100)

2025-07-07 17:07:02,865 - gym_custom_envs_real_ur_drivers_URBasic_realTimeClientEvent - INFO - Program send to Robot:
servoj([-0.017635608746208016, -1.558904545547187, -1.589411251259969, -1.5194154985201849, 1.6597245838377457, 2.963611888885498], 0.5, 0.5, 0.0125, 0.2, 100)

2025-07-07 17:07:02,881 - gym_custom_envs_real_ur_drivers_URBasic_realTimeClientEvent - INFO - Program send to Robot:
servoj([-0.018164936076007214, -1.559341936811495, -1.5892558846089209, -1.5194128635924113, 1.6593824160675517, 2.96543173789978], 0.5, 0.5, 0.0125, 0.2, 100)

2025-07-07 17:07:02,898 - gym_custom_envs_real_ur_drivers_URBasic_realTimeClientEvent - INFO - Program send to Robot:
servoj([-0.018720132785319827, -1.5611976797847003, -1.589068911549988, -1.5200703941571236, 1.656371838310303, 2.9675148010253904], 0.5, 0.5, 0.0125, 0.2, 100)

2025-07-07 17:07:02,914 - gym_custom_envs_real_ur_drivers_URBasic_realTimeClientEvent - INFO - Program send to Robot:
servoj([-0.019298136504026897, -1.5617174537976053, -1.5889426593592542, -1.5200653276549274, 1.6558517187482447, 2.9695621013641356], 0.5, 0.5, 0.0125, 0.2, 100)

2025-07-07 17:07:02,929 - gym_custom_envs_real_ur_drivers_URBasic_realTimeClientEvent - INFO - Program send to Robot:
servoj([-0.019905741608043648, -1.5629548827038098, -1.5887830577903335, -1.52004759614377, 1.654670570030291, 2.971584844589233], 0.5, 0.5, 0.0125, 0.2, 100)

2025-07-07 17:07:02,945 - gym_custom_envs_real_ur_drivers_URBasic_realTimeClientEvent - INFO - Program send to Robot:
servoj([-0.02052332003038957, -1.5635118288525316, -1.5886146225859776, -1.520043013922798, 1.6540821346417143, 2.9736445426940916], 0.5, 0.5, 0.0125, 0.2, 100)

2025-07-07 17:07:02,962 - gym_custom_envs_real_ur_drivers_URBasic_realTimeClientEvent - INFO - Program send to Robot:
servoj([-0.021152768065131895, -1.5648468269035483, -1.588427800727848, -1.5200137950292076, 1.6534702322130983, 2.9757991313934324], 0.5, 0.5, 0.0125, 0.2, 100)

2025-07-07 17:07:02,977 - gym_custom_envs_real_ur_drivers_URBasic_realTimeClientEvent - INFO - Program send to Robot:
servoj([-0.021770114389410025, -1.565477760168785, -1.5882691934441024, -1.5200415592404184, 1.6528065581743359, 2.977870512008667], 0.5, 0.5, 0.0125, 0.2, 100)

2025-07-07 17:07:02,998 - gym_custom_envs_real_ur_drivers_URBasic_realTimeClientEvent - INFO - Program send to Robot:
servoj([-0.02164708259789873, -1.5661093961849597, -1.5880656989868838, -1.5200503118197457, 1.6521567770816312, 2.9800734996795653], 0.5, 0.5, 0.0125, 0.2, 100)

2025-07-07 17:07:03,010 - gym_custom_envs_real_ur_drivers_URBasic_realTimeClientEvent - INFO - Program send to Robot:
servoj([-0.02224898905549952, -1.5667518258224076, -1.5878448593107555, -1.5200115284425855, 1.6514466237492968, 2.9822643280029295], 0.5, 0.5, 0.0125, 0.2, 100)

2025-07-07 17:07:03,026 - gym_custom_envs_real_ur_drivers_URBasic_realTimeClientEvent - INFO - Program send to Robot:
servoj([-0.022827007138331988, -1.567397938792185, -1.587611851092284, -1.5200266724758895, 1.6507752929244532, 2.984359550476074], 0.5, 0.5, 0.0125, 0.2, 100)

2025-07-07 17:07:03,047 - gym_custom_envs_real_ur_drivers_URBasic_realTimeClientEvent - INFO - Program send to Robot:
servoj([-0.0352815581215233, -1.5815341923100958, -1.583068173097982, -1.5201749607946704, 1.6352235198860932, 3.031146036862027], 0.5, 0.5, 0.0125, 0.2, 100)

2025-07-07 17:07:03,057 - gym_custom_envs_real_ur_drivers_URBasic_realTimeClientEvent - INFO - Program send to Robot:
servoj([-0.03528155812137144, -1.581534192310096, -1.583068173097982, -1.5201749607946704, 1.6352235198860932, 3.031146036862027], 0.5, 0.5, 0.0125, 0.2, 100)

2025-07-07 17:07:03,065 - gym_custom_envs_real_ur_drivers_URBasic_realTimeClientEvent - INFO - Program send to Robot:
servoj([-0.03528155812136992, -1.581534192310096, -1.583068173097982, -1.5201749607946704, 1.6352235198860932, 3.031146036862027], 0.5, 0.5, 0.0125, 0.2, 100)

2025-07-07 17:07:03,074 - gym_custom_envs_real_ur_drivers_URBasic_realTimeClientEvent - INFO - Program send to Robot:
servoj([-0.035281558121369905, -1.581534192310096, -1.583068173097982, -1.5201749607946704, 1.6352235198860932, 3.031146036862027], 0.5, 0.5, 0.0125, 0.2, 100)

2025-07-07 17:07:03,081 - gym_custom_envs_real_ur_drivers_URBasic_realTimeClientEvent - INFO - Program send to Robot:
servoj([-0.035281558121369905, -1.581534192310096, -1.583068173097982, -1.5201749607946704, 1.6352235198860932, 3.031146036862027], 0.5, 0.5, 0.0125, 0.2, 100)

2025-07-07 17:07:03,097 - gym_custom_envs_real_ur_drivers_URBasic_realTimeClientEvent - INFO - Program send to Robot:
servoj([-0.035281558121369905, -1.581534192310096, -1.581549532117975, -1.5201749607946704, 1.6352235198860932, 3.031146036862027], 0.5, 0.5, 0.0125, 0.2, 100)

2025-07-07 17:07:03,106 - gym_custom_envs_real_ur_drivers_URBasic_realTimeClientEvent - INFO - Program send to Robot:
servoj([-0.035281558121369905, -1.581534192310096, -1.581534345708175, -1.5201749607946704, 1.6352235198860932, 3.031146036862027], 0.5, 0.5, 0.0125, 0.2, 100)

2025-07-07 17:07:03,116 - gym_custom_envs_real_ur_drivers_URBasic_realTimeClientEvent - INFO - Program send to Robot:
servoj([-0.035281558121369905, -1.581534192310096, -1.581534193844077, -1.5201749607946704, 1.6352235198860932, 3.031146036862027], 0.5, 0.5, 0.0125, 0.2, 100)

2025-07-07 17:07:03,129 - gym_custom_envs_real_ur_drivers_URBasic_realTimeClientEvent - INFO - Program send to Robot:
servoj([-0.035281558121369905, -1.581534192310096, -1.583052833305443, -1.5201749607946704, 1.6352235198860932, 3.031146036862027], 0.5, 0.5, 0.0125, 0.2, 100)

2025-07-07 17:07:03,140 - gym_custom_envs_real_ur_drivers_URBasic_realTimeClientEvent - INFO - Program send to Robot:
servoj([-0.035281558121369905, -1.581534192310096, -1.5830680197000566, -1.5201749607946704, 1.6352235198860932, 3.031146036862027], 0.5, 0.5, 0.0125, 0.2, 100)

2025-07-07 17:07:03,144 - gym_custom_envs_real_ur_drivers_URBasic_realTimeClientEvent - INFO - Program send to Robot:
servoj([-0.035281558121369905, -1.581534192310096, -1.5830681715640027, -1.5201749607946704, 1.6352235198860932, 3.031146036862027], 0.5, 0.5, 0.0125, 0.2, 100)

2025-07-07 17:07:03,165 - gym_custom_envs_real_ur_drivers_URBasic_realTimeClientEvent - INFO - Program send to Robot:
servoj([-0.035281558121369905, -1.581534192310096, -1.5830681730826421, -1.5201749607946704, 1.6352235198860932, 3.031146036862027], 0.5, 0.5, 0.0125, 0.2, 100)

2025-07-07 17:07:03,169 - gym_custom_envs_real_ur_drivers_URBasic_realTimeClientEvent - INFO - Program send to Robot:
servoj([-0.035281558121369905, -1.581534192310096, -1.5830681730978287, -1.5201749607946704, 1.6352235198860932, 3.031146036862027], 0.5, 0.5, 0.0125, 0.2, 100)

2025-07-07 17:07:03,191 - gym_custom_envs_real_ur_drivers_URBasic_realTimeClientEvent - INFO - Program send to Robot:
servoj([-0.035281558121369905, -1.581534192310096, -1.5830681730979805, -1.5201749607946704, 1.6352235198860932, 3.02962739588202], 0.5, 0.5, 0.0125, 0.2, 100)

2025-07-07 17:07:03,202 - gym_custom_envs_real_ur_drivers_URBasic_realTimeClientEvent - INFO - Program send to Robot:
servoj([-0.035281558121369905, -1.581534192310096, -1.583068173097982, -1.5201749607946704, 1.6352235198860932, 3.02961220947222], 0.5, 0.5, 0.0125, 0.2, 100)

2025-07-07 17:07:03,213 - gym_custom_envs_real_ur_drivers_URBasic_realTimeClientEvent - INFO - Program send to Robot:
servoj([-0.035281558121369905, -1.581534192310096, -1.583068173097982, -1.5201749607946704, 1.6352235198860932, 3.029612057608122], 0.5, 0.5, 0.0125, 0.2, 100)

2025-07-07 17:07:03,218 - gym_custom_envs_real_ur_drivers_URBasic_realTimeClientEvent - INFO - Program send to Robot:
servoj([-0.035281558121369905, -1.581534192310096, -1.583068173097982, -1.5201749607946704, 1.6367421608661001, 3.0296120560894813], 0.5, 0.5, 0.0125, 0.2, 100)

2025-07-07 17:07:03,236 - gym_custom_envs_real_ur_drivers_URBasic_realTimeClientEvent - INFO - Program send to Robot:
servoj([-0.035281558121369905, -1.581534192310096, -1.583068173097982, -1.5201749607946704, 1.6367573472759003, 3.0296120560742947], 0.5, 0.5, 0.0125, 0.2, 100)

2025-07-07 17:07:03,250 - gym_custom_envs_real_ur_drivers_URBasic_realTimeClientEvent - INFO - Program send to Robot:
servoj([-0.035281558121369905, -1.581534192310096, -1.583068173097982, -1.5201749607946704, 1.6382761401200052, 3.029612056074143], 0.5, 0.5, 0.0125, 0.2, 100)

2025-07-07 17:07:03,260 - gym_custom_envs_real_ur_drivers_URBasic_realTimeClientEvent - INFO - Program send to Robot:
servoj([-0.035281558121369905, -1.581534192310096, -1.583068173097982, -1.5201749607946704, 1.6382913280484461, 3.029612056074141], 0.5, 0.5, 0.0125, 0.2, 100)

2025-07-07 17:07:03,268 - gym_custom_envs_real_ur_drivers_URBasic_realTimeClientEvent - INFO - Program send to Robot:
servoj([-0.035281558121369905, -1.581534192310096, -1.583068173097982, -1.5201749607946704, 1.6382914799277306, 3.029612056074141], 0.5, 0.5, 0.0125, 0.2, 100)

2025-07-07 17:07:03,273 - gym_custom_envs_real_ur_drivers_URBasic_realTimeClientEvent - INFO - Program send to Robot:
servoj([-0.035281558121369905, -1.581534192310096, -1.583068173097982, -1.5201749607946704, 1.6382914814465235, 3.029612056074141], 0.5, 0.5, 0.0125, 0.2, 100)

2025-07-07 17:07:03,289 - gym_custom_envs_real_ur_drivers_URBasic_realTimeClientEvent - INFO - Program send to Robot:
servoj([-0.03680019910137641, -1.581534192310096, -1.581549532117975, -1.5201749607946704, 1.6398101224417183, 3.029612056074141], 0.5, 0.5, 0.0125, 0.2, 100)

2025-07-07 17:07:03,297 - gym_custom_envs_real_ur_drivers_URBasic_realTimeClientEvent - INFO - Program send to Robot:
servoj([-0.036815385511176475, -1.581534192310096, -1.581534345708175, -1.5201749607946704, 1.6398253088516703, 3.029612056074141], 0.5, 0.5, 0.0125, 0.2, 100)

2025-07-07 17:07:03,309 - gym_custom_envs_real_ur_drivers_URBasic_realTimeClientEvent - INFO - Program send to Robot:
servoj([-0.036815537375274474, -1.581534192310096, -1.581534193844077, -1.5201749607946704, 1.6398254607157698, 3.029612056074141], 0.5, 0.5, 0.0125, 0.2, 100)

2025-07-07 17:07:03,320 - gym_custom_envs_real_ur_drivers_URBasic_realTimeClientEvent - INFO - Program send to Robot:
servoj([-0.03681553889391546, -1.581534192310096, -1.581534192325436, -1.5201749607946704, 1.6398254622344108, 3.029612056074141], 0.5, 0.5, 0.0125, 0.2, 100)

2025-07-07 17:07:03,332 - gym_custom_envs_real_ur_drivers_URBasic_realTimeClientEvent - INFO - Program send to Robot:
servoj([-0.036815538909101865, -1.581534192310096, -1.5815341923102495, -1.5201749607946704, 1.6398254622495974, 3.029612056074141], 0.5, 0.5, 0.0125, 0.2, 100)

2025-07-07 17:07:03,337 - gym_custom_envs_real_ur_drivers_URBasic_realTimeClientEvent - INFO - Program send to Robot:
servoj([-0.03681553890925373, -1.581534192310096, -1.5815341923100976, -1.5201749607946704, 1.639825462249749, 3.029612056074141], 0.5, 0.5, 0.0125, 0.2, 100)

2025-07-07 17:07:03,345 - gym_custom_envs_real_ur_drivers_URBasic_realTimeClientEvent - INFO - Program send to Robot:
servoj([-0.03681553890925525, -1.581534192310096, -1.5784969103500825, -1.5186563198146636, 1.6413441032297573, 3.029612056074141], 0.5, 0.5, 0.0125, 0.2, 100)

2025-07-07 17:07:03,364 - gym_custom_envs_real_ur_drivers_URBasic_realTimeClientEvent - INFO - Program send to Robot:
servoj([-0.03681553890925526, -1.581534192310096, -1.5784665375304823, -1.5186411334048637, 1.6413592896395575, 3.029612056074141], 0.5, 0.5, 0.0125, 0.2, 100)

2025-07-07 17:07:03,369 - gym_custom_envs_real_ur_drivers_URBasic_realTimeClientEvent - INFO - Program send to Robot:
servoj([-0.03681553890925526, -1.581534192310096, -1.5784662338022863, -1.5186409815407658, 1.6413594415036554, 3.029612056074141], 0.5, 0.5, 0.0125, 0.2, 100)

2025-07-07 17:07:03,380 - gym_custom_envs_real_ur_drivers_URBasic_realTimeClientEvent - INFO - Program send to Robot:
servoj([-0.03681553890925526, -1.581534192310096, -1.5754289488049904, -1.5186409800221248, 1.6413594430222964, 3.029612056074141], 0.5, 0.5, 0.0125, 0.2, 100)

2025-07-07 17:07:03,392 - gym_custom_envs_real_ur_drivers_URBasic_realTimeClientEvent - INFO - Program send to Robot:
servoj([-0.03681553890925526, -1.581534192310096, -1.5753985759550175, -1.5186409800069383, 1.641359443037483, 3.029612056074141], 0.5, 0.5, 0.0125, 0.2, 100)

2025-07-07 17:07:03,404 - gym_custom_envs_real_ur_drivers_URBasic_realTimeClientEvent - INFO - Program send to Robot:
servoj([-0.03681553890925526, -1.581534192310096, -1.5753982722265176, -1.5186409800067864, 1.6413594430376348, 3.029612056074141], 0.5, 0.5, 0.0125, 0.2, 100)

2025-07-07 17:07:03,413 - gym_custom_envs_real_ur_drivers_URBasic_realTimeClientEvent - INFO - Program send to Robot:
servoj([-0.03681553890925526, -1.581534192310096, -1.569323705269206, -1.5186409800067848, 1.6428780840176422, 3.029612056074141], 0.5, 0.5, 0.0125, 0.2, 100)

2025-07-07 17:07:03,417 - gym_custom_envs_real_ur_drivers_URBasic_realTimeClientEvent - INFO - Program send to Robot:
servoj([-0.03681553890925526, -1.581534192310096, -1.5692629595996328, -1.5186409800067848, 1.6428932704274424, 3.029612056074141], 0.5, 0.5, 0.0125, 0.2, 100)

2025-07-07 17:07:03,433 - gym_custom_envs_real_ur_drivers_URBasic_realTimeClientEvent - INFO - Program send to Robot:
servoj([-0.03681553890925526, -1.581534192310096, -1.569262352142937, -1.5186409800067848, 1.6428934222915403, 3.029612056074141], 0.5, 0.5, 0.0125, 0.2, 100)

2025-07-07 17:07:03,442 - gym_custom_envs_real_ur_drivers_URBasic_realTimeClientEvent - INFO - Program send to Robot:
servoj([-0.03833417988926221, -1.581534192310096, -1.5601505001883293, -1.5201596209867916, 1.6459307057701953, 3.029612056074141], 0.5, 0.5, 0.0125, 0.2, 100)

2025-07-07 17:07:03,453 - gym_custom_envs_real_ur_drivers_URBasic_realTimeClientEvent - INFO - Program send to Robot:
servoj([-0.03834936629906228, -1.581534192310096, -1.5600593816687833, -1.5201748073965917, 1.6459610786049819, 3.029612056074141], 0.5, 0.5, 0.0125, 0.2, 100)

2025-07-07 17:07:03,465 - gym_custom_envs_real_ur_drivers_URBasic_realTimeClientEvent - INFO - Program send to Robot:
servoj([-0.03834951816316028, -1.581534192310096, -1.5600584704835878, -1.5201749592606897, 1.6459613823333297, 3.029612056074141], 0.5, 0.5, 0.0125, 0.2, 100)

2025-07-07 17:07:03,477 - gym_custom_envs_real_ur_drivers_URBasic_realTimeClientEvent - INFO - Program send to Robot:
servoj([-0.039868160661808205, -1.581534192310096, -1.550946615491695, -1.5201749607793307, 1.65203594929064, 3.029612056074141], 0.5, 0.5, 0.0125, 0.2, 100)

2025-07-07 17:07:03,481 - gym_custom_envs_real_ur_drivers_URBasic_realTimeClientEvent - INFO - Program send to Robot:
servoj([-0.03988334708679468, -1.581534192310096, -1.550855496941776, -1.5201749607945172, 1.6520966949602132, 3.029612056074141], 0.5, 0.5, 0.0125, 0.2, 100)

2025-07-07 17:07:03,501 - gym_custom_envs_real_ur_drivers_URBasic_realTimeClientEvent - INFO - Program send to Robot:
servoj([-0.03988349895104455, -1.581534192310096, -1.550854585756277, -1.520174960794669, 1.6520973024169088, 3.029612056074141], 0.5, 0.5, 0.0125, 0.2, 100)

2025-07-07 17:07:03,505 - gym_custom_envs_real_ur_drivers_URBasic_realTimeClientEvent - INFO - Program send to Robot:
servoj([-0.04140214144969355, -1.581534192310096, -1.541742730764381, -1.5201749607946704, 1.6596905133915099, 3.029612056074141], 0.5, 0.5, 0.0125, 0.2, 100)

2025-07-07 17:07:03,526 - gym_custom_envs_real_ur_drivers_URBasic_realTimeClientEvent - INFO - Program send to Robot:
servoj([-0.04141732787468004, -1.581534192310096, -1.541651612214462, -1.5201749607946704, 1.659766445501256, 3.029612056074141], 0.5, 0.5, 0.0125, 0.2, 100)

2025-07-07 17:07:03,529 - gym_custom_envs_real_ur_drivers_URBasic_realTimeClientEvent - INFO - Program send to Robot:
servoj([-0.041417479738929903, -1.581534192310096, -1.5416507010289628, -1.5201749607946704, 1.6597672048223533, 3.029612056074141], 0.5, 0.5, 0.0125, 0.2, 100)

2025-07-07 17:07:03,550 - gym_custom_envs_real_ur_drivers_URBasic_realTimeClientEvent - INFO - Program send to Robot:
servoj([-0.04445476321758585, -1.5830528332901028, -1.534057487017074, -1.5201749607946704, 1.670397699275612, 3.029612056074141], 0.5, 0.5, 0.0125, 0.2, 100)

2025-07-07 17:07:03,553 - gym_custom_envs_real_ur_drivers_URBasic_realTimeClientEvent - INFO - Program send to Robot:
servoj([-0.044485136052372413, -1.5830680196999027, -1.533981554876955, -1.5201749607946704, 1.6705040042201447, 3.029612056074141], 0.5, 0.5, 0.0125, 0.2, 100)

2025-07-07 17:07:03,572 - gym_custom_envs_real_ur_drivers_URBasic_realTimeClientEvent - INFO - Program send to Robot:
servoj([-0.05056000370074762, -1.5830681715640007, -1.5279062316355272, -1.5201749607946704, 1.6765796311896168, 3.0280934150941343], 0.5, 0.5, 0.0125, 0.2, 100)

2025-07-07 17:07:03,577 - gym_custom_envs_real_ur_drivers_URBasic_realTimeClientEvent - INFO - Program send to Robot:
servoj([-0.05062075237723137, -1.5830681730826417, -1.5278454784031128, -1.5201749607946704, 1.6766403874593114, 3.0280782286843344], 0.5, 0.5, 0.0125, 0.2, 100)

2025-07-07 17:07:03,596 - gym_custom_envs_real_ur_drivers_URBasic_realTimeClientEvent - INFO - Program send to Robot:
servoj([-0.050621359863996206, -1.5830681730978282, -1.5278448708707888, -1.5201749607946704, 1.6766409950220085, 3.028078076820236], 0.5, 0.5, 0.0125, 0.2, 100)

2025-07-07 17:07:03,601 - gym_custom_envs_real_ur_drivers_URBasic_realTimeClientEvent - INFO - Program send to Robot:
servoj([-0.0627704937789181, -1.58306817309798, -1.5248075828354515, -1.521693601774677, 1.682715565017663, 3.0265594343215887], 0.5, 0.5, 0.0125, 0.2, 100)

2025-07-07 17:07:03,609 - gym_custom_envs_real_ur_drivers_URBasic_realTimeClientEvent - INFO - Program send to Robot:
servoj([-0.06289198511806732, -1.5830681730979816, -1.5247772099550982, -1.521708788184477, 1.6827763107176197, 3.0265442478966023], 0.5, 0.5, 0.0125, 0.2, 100)

2025-07-07 17:07:03,625 - gym_custom_envs_real_ur_drivers_URBasic_realTimeClientEvent - INFO - Program send to Robot:
servoj([-0.0628932000314588, -1.5830681730979816, -1.5247769062262946, -1.521708940048575, 1.6827769181746193, 3.026544096032352], 0.5, 0.5, 0.0125, 0.2, 100)

2025-07-07 17:07:03,633 - gym_custom_envs_real_ur_drivers_URBasic_realTimeClientEvent - INFO - Program send to Robot:
servoj([-0.07504234002064696, -1.5830681730979816, -1.5217396212289935, -1.521708941567216, 1.6873328471892093, 3.023506812553696], 0.5, 0.5, 0.0125, 0.2, 100)

2025-07-07 17:07:03,645 - gym_custom_envs_real_ur_drivers_URBasic_realTimeClientEvent - INFO - Program send to Robot:
servoj([-0.07516383142053883, -1.5830681730979816, -1.5217092483790204, -1.5217089415824026, 1.687378406479355, 3.02347643971891], 0.5, 0.5, 0.0125, 0.2, 100)

2025-07-07 17:07:03,656 - gym_custom_envs_real_ur_drivers_URBasic_realTimeClientEvent - INFO - Program send to Robot:
servoj([-0.07516504633453774, -1.5830681730979816, -1.5217089446505208, -1.5217089415825544, 1.6873788620722567, 3.023476135990562], 0.5, 0.5, 0.0125, 0.2, 100)

2025-07-07 17:07:03,669 - gym_custom_envs_real_ur_drivers_URBasic_realTimeClientEvent - INFO - Program send to Robot:
servoj([-0.08579554534372548, -1.5830681730979816, -1.518671659653222, -1.5217089415825558, 1.6934534305482125, 3.021957491973271], 0.5, 0.5, 0.0125, 0.2, 100)

2025-07-07 17:07:03,672 - gym_custom_envs_real_ur_drivers_URBasic_realTimeClientEvent - INFO - Program send to Robot:
servoj([-0.08590185033381735, -1.5830681730979816, -1.518641286803249, -1.521708941582556, 1.693514176232972, 3.0219423055330985], 0.5, 0.5, 0.0125, 0.2, 100)

2025-07-07 17:07:03,691 - gym_custom_envs_real_ur_drivers_URBasic_realTimeClientEvent - INFO - Program send to Robot:
servoj([-0.08590291338371828, -1.5830681730979816, -1.5186409830747494, -1.521708941582556, 1.6935147836898197, 3.0219421536686966], 0.5, 0.5, 0.0125, 0.2, 100)

2025-07-07 17:07:03,699 - gym_custom_envs_real_ur_drivers_URBasic_realTimeClientEvent - INFO - Program send to Robot:
servoj([-0.09501476989425764, -1.5830681730979816, -1.5156036980774512, -1.521708941582556, 1.696552071724402, 3.0189048701900396], 0.5, 0.5, 0.0125, 0.2, 100)

2025-07-07 17:07:03,704 - gym_custom_envs_real_ur_drivers_URBasic_realTimeClientEvent - INFO - Program send to Robot:
servoj([-0.09510588845936303, -1.5830681730979816, -1.5155733252274783, -1.521708941582556, 1.696582444604748, 3.018874497355253], 0.5, 0.5, 0.0125, 0.2, 100)

2025-07-07 17:07:03,723 - gym_custom_envs_real_ur_drivers_URBasic_realTimeClientEvent - INFO - Program send to Robot:
servoj([-0.09510679964501408, -1.5830681730979816, -1.5155730214989784, -1.521708941582556, 1.6965827483335514, 3.018874193626905], 0.5, 0.5, 0.0125, 0.2, 100)

2025-07-07 17:07:03,729 - gym_custom_envs_real_ur_drivers_URBasic_realTimeClientEvent - INFO - Program send to Robot:
servoj([-0.10725593659692527, -1.5830681730979816, -1.5125357365016796, -1.523227582562563, 1.6981013923508463, 3.0188741905896217], 0.5, 0.5, 0.0125, 0.2, 100)

2025-07-07 17:07:03,739 - gym_custom_envs_real_ur_drivers_URBasic_realTimeClientEvent - INFO - Program send to Robot:
servoj([-0.10737742796644438, -1.5830681730979816, -1.5125053636517065, -1.5232427689723629, 1.6981165787910193, 3.0188741905592487], 0.5, 0.5, 0.0125, 0.2, 100)

2025-07-07 17:07:03,752 - gym_custom_envs_real_ur_drivers_URBasic_realTimeClientEvent - INFO - Program send to Robot:
servoj([-0.10737864288013957, -1.5830681730979816, -1.5125050599232068, -1.5232429208364608, 1.698116730655421, 3.018874190558945], 0.5, 0.5, 0.0125, 0.2, 100)

2025-07-07 17:07:03,764 - gym_custom_envs_real_ur_drivers_URBasic_realTimeClientEvent - INFO - Program send to Robot:
servoj([-0.12408370580935114, -1.5830681730979816, -1.5094677749259082, -1.5232429223551018, 1.699635373154072, 3.017355549578935], 0.5, 0.5, 0.0125, 0.2, 100)

2025-07-07 17:07:03,768 - gym_custom_envs_real_ur_drivers_URBasic_realTimeClientEvent - INFO - Program send to Robot:
servoj([-0.12425075643864326, -1.5830681730979816, -1.5094374020759351, -1.5232429223702884, 1.6996505595790585, 3.017340363169135], 0.5, 0.5, 0.0125, 0.2, 100)

2025-07-07 17:07:03,777 - gym_custom_envs_real_ur_drivers_URBasic_realTimeClientEvent - INFO - Program send to Robot:
servoj([-0.12425242694493618, -1.5830681730979816, -1.5094370983474354, -1.5232429223704402, 1.6996507114433084, 3.017340211305037], 0.5, 0.5, 0.0125, 0.2, 100)

2025-07-07 17:07:03,795 - gym_custom_envs_real_ur_drivers_URBasic_realTimeClientEvent - INFO - Program send to Robot:
servoj([-0.13943885345006682, -1.5815495321179749, -1.5063998133501373, -1.5232429223704418, 1.699650712961951, 3.0082283639063556], 0.5, 0.5, 0.0125, 0.2, 100)

2025-07-07 17:07:03,801 - gym_custom_envs_real_ur_drivers_URBasic_realTimeClientEvent - INFO - Program send to Robot:
servoj([-0.1395907177151181, -1.5815343457081747, -1.5063694405001644, -1.5232429223704418, 1.6996507129771372, 3.0081372454323687], 0.5, 0.5, 0.0125, 0.2, 100)

2025-07-07 17:07:03,810 - gym_custom_envs_real_ur_drivers_URBasic_realTimeClientEvent - INFO - Program send to Robot:
servoj([-0.13959223635776863, -1.5815341938440768, -1.5063691367716645, -1.5232429223704418, 1.699650712977289, 3.008136334247629], 0.5, 0.5, 0.0125, 0.2, 100)

2025-07-07 17:07:03,825 - gym_custom_envs_real_ur_drivers_URBasic_realTimeClientEvent - INFO - Program send to Robot:
servoj([-0.15477866134426282, -1.5815341923254358, -1.5018132107943587, -1.5232429223704418, 1.7011693539572976, 2.99446855631572], 0.5, 0.5, 0.0125, 0.2, 100)

2025-07-07 17:07:03,834 - gym_custom_envs_real_ur_drivers_URBasic_realTimeClientEvent - INFO - Program send to Robot:
servoj([-0.15493052559412776, -1.5815341923102493, -1.5017676515345857, -1.5232429223704418, 1.7011845403670978, 2.9943318785364013], 0.5, 0.5, 0.0125, 0.2, 100)

2025-07-07 17:07:03,842 - gym_custom_envs_real_ur_drivers_URBasic_realTimeClientEvent - INFO - Program send to Robot:
servoj([-0.1549320442366264, -1.5815341923100974, -1.5017671959419878, -1.5232429223704418, 1.7011846922311957, 2.994330511758608], 0.5, 0.5, 0.0125, 0.2, 100)

2025-07-07 17:07:03,849 - gym_custom_envs_real_ur_drivers_URBasic_realTimeClientEvent - INFO - Program send to Robot:
servoj([-0.1549320594230514, -1.581534192310096, -1.501767191386062, -1.5232429223704418, 1.7011846937498367, 2.99433049809083], 0.5, 0.5, 0.0125, 0.2, 100)

2025-07-07 17:07:03,868 - gym_custom_envs_real_ur_drivers_URBasic_realTimeClientEvent - INFO - Program send to Robot:
servoj([-0.17011846937498376, -1.5830528332901028, -1.4956926274204758, -1.5232429223704418, 1.705740616705043, 2.9776254471740775], 0.5, 0.5, 0.0125, 0.2, 100)

2025-07-07 17:07:03,873 - gym_custom_envs_real_ur_drivers_URBasic_realTimeClientEvent - INFO - Program send to Robot:
servoj([-0.17027033347450307, -1.5830680196999027, -1.49563188178082, -1.5232429223704418, 1.7057861759345951, 2.9774583966649097], 0.5, 0.5, 0.0125, 0.2, 100)

2025-07-07 17:07:03,884 - gym_custom_envs_real_ur_drivers_URBasic_realTimeClientEvent - INFO - Program send to Robot:
servoj([-0.17027185211549828, -1.5830681715640007, -1.4956312743244233, -1.5232429223704418, 1.7057866315268906, 2.977456726159818], 0.5, 0.5, 0.0125, 0.2, 100)

2025-07-07 17:07:03,898 - gym_custom_envs_real_ur_drivers_URBasic_realTimeClientEvent - INFO - Program send to Robot:
servoj([-0.18393963612196895, -1.5830681730826417, -1.4880380633498256, -1.5232429223704418, 1.7133798409828473, 2.960751658674693], 0.5, 0.5, 0.0125, 0.2, 100)

2025-07-07 17:07:03,909 - gym_custom_envs_real_ur_drivers_URBasic_realTimeClientEvent - INFO - Program send to Robot:
servoj([-0.18407631396203367, -1.5830681730978282, -1.4879621312400797, -1.5232429223704418, 1.713455773077407, 2.960584607999842], 0.5, 0.5, 0.0125, 0.2, 100)

2025-07-07 17:07:03,913 - gym_custom_envs_real_ur_drivers_URBasic_realTimeClientEvent - INFO - Program send to Robot:
servoj([-0.18407768074043432, -1.58306817309798, -1.4879613719189821, -1.5232429223704418, 1.7134565323983524, 2.9605829374930934], 0.5, 0.5, 0.0125, 0.2, 100)

2025-07-07 17:07:03,932 - gym_custom_envs_real_ur_drivers_URBasic_realTimeClientEvent - INFO - Program send to Robot:
servoj([-0.19926410420828647, -1.5830681730979816, -1.4818868004057442, -1.5232429223704418, 1.7256056678316167, 2.9469151519679646], 0.5, 0.5, 0.0125, 0.2, 100)

2025-07-07 17:07:03,937 - gym_custom_envs_real_ur_drivers_URBasic_realTimeClientEvent - INFO - Program send to Robot:
servoj([-0.19941596844296497, -1.5830681730979816, -1.481826054690612, -1.5232429223704418, 1.7257271591859493, 2.946778474112713], 0.5, 0.5, 0.0125, 0.2, 100)

2025-07-07 17:07:03,945 - gym_custom_envs_real_ur_drivers_URBasic_realTimeClientEvent - INFO - Program send to Robot:
servoj([-0.19941748708531176, -1.5830681730979816, -1.4818254472334604, -1.5232429223704418, 1.7257283740994926, 2.9467771073341607], 0.5, 0.5, 0.0125, 0.2, 100)

2025-07-07 17:07:03,960 - gym_custom_envs_real_ur_drivers_URBasic_realTimeClientEvent - INFO - Program send to Robot:
servoj([-0.21460391207180293, -1.5845868140779884, -1.4757508772388612, -1.5232429223704418, 1.739396155068689, 2.9361466068063273], 0.5, 0.5, 0.0125, 0.2, 100)

2025-07-07 17:07:03,969 - gym_custom_envs_real_ur_drivers_URBasic_realTimeClientEvent - INFO - Program send to Robot:
servoj([-0.21475577632166784, -1.5846020004877883, -1.4756901315389153, -1.5232429223704418, 1.7395328328783808, 2.9360403018010492], 0.5, 0.5, 0.0125, 0.2, 100)

2025-07-07 17:07:03,981 - gym_custom_envs_real_ur_drivers_URBasic_realTimeClientEvent - INFO - Program send to Robot:
servoj([-0.21475729496416648, -1.5846021523518865, -1.475689524081916, -1.5232429223704418, 1.7395341996564777, 2.9360392387509964], 0.5, 0.5, 0.0125, 0.2, 100)

2025-07-07 17:07:03,993 - gym_custom_envs_real_ur_drivers_URBasic_realTimeClientEvent - INFO - Program send to Robot:
servoj([-0.2269064379906457, -1.5891580768105478, -1.4711335950673259, -1.5232429223704418, 1.7516833411643133, 2.9254087412604486], 0.5, 0.5, 0.0125, 0.2, 100)

2025-07-07 17:07:04,006 - gym_custom_envs_real_ur_drivers_URBasic_realTimeClientEvent - INFO - Program send to Robot:
servoj([-0.2270279294209105, -1.5892036360551345, -1.4710880357771798, -1.5232429223704418, 1.7518048325793916, 2.925302436285543], 0.5, 0.5, 0.0125, 0.2, 100)

2025-07-07 17:07:04,009 - gym_custom_envs_real_ur_drivers_URBasic_realTimeClientEvent - INFO - Program send to Robot:
servoj([-0.22702914433521315, -1.5892040916475803, -1.4710875801842784, -1.5232429223704418, 1.7518060474935424, 2.925301373235794], 0.5, 0.5, 0.0125, 0.2, 100)

2025-07-07 17:07:04,030 - gym_custom_envs_real_ur_drivers_URBasic_realTimeClientEvent - INFO - Program send to Robot:
servoj([-0.2391782843244104, -1.593760019143525, -1.4650130117083227, -1.5232429223704418, 1.760917905522724, 2.916189516725256], 0.5, 0.5, 0.0125, 0.2, 100)

2025-07-07 17:07:04,034 - gym_custom_envs_real_ur_drivers_URBasic_realTimeClientEvent - INFO - Program send to Robot:
servoj([-0.23929977572430236, -1.5938055784184846, -1.464952266023563, -1.5232429223704418, 1.7610090241030159, 2.9160983981601505], 0.5, 0.5, 0.0125, 0.2, 100)

2025-07-07 17:07:04,053 - gym_custom_envs_real_ur_drivers_URBasic_realTimeClientEvent - INFO - Program send to Robot:
servoj([-0.2484128365183421, -1.5983619569512546, -1.4588770946466878, -1.5232429223704418, 1.7655658582288394, 2.905467000114452], 0.5, 0.5, 0.0125, 0.2, 100)

2025-07-07 17:07:04,057 - gym_custom_envs_real_ur_drivers_URBasic_realTimeClientEvent - INFO - Program send to Robot:
servoj([-0.24850396712628248, -1.5984075207365824, -1.458816342932919, -1.5232429223704418, 1.7656114265700977, 2.905360686133995], 0.5, 0.5, 0.0125, 0.2, 100)

2025-07-07 17:07:04,077 - gym_custom_envs_real_ur_drivers_URBasic_realTimeClientEvent - INFO - Program send to Robot:
servoj([-0.24850487843236188, -1.5984079763744357, -1.4588157354157814, -1.5232429223704418, 1.7656118822535103, 2.9053596229941903], 0.5, 0.5, 0.0125, 0.2, 100)

2025-07-07 17:07:04,081 - gym_custom_envs_real_ur_drivers_URBasic_realTimeClientEvent - INFO - Program send to Robot:
servoj([-0.25457945146545, -1.6014452628908273, -1.4542598064005898, -1.5232429223704418, 1.7656118868103443, 2.8962477664827517], 0.5, 0.5, 0.0125, 0.2, 100)

2025-07-07 17:07:04,101 - gym_custom_envs_real_ur_drivers_URBasic_realTimeClientEvent - INFO - Program send to Robot:
servoj([-0.2546401971957809, -1.6014756357559914, -1.454214247110438, -1.5232429223704418, 1.7656118868559127, 2.8961566479176373], 0.5, 0.5, 0.0125, 0.2, 100)

2025-07-07 17:07:04,105 - gym_custom_envs_real_ur_drivers_URBasic_realTimeClientEvent - INFO - Program send to Robot:
servoj([-0.25464080465308425, -1.601475939484643, -1.4542137915175364, -1.5232429223704418, 1.7656118868563684, 2.896155736731986], 0.5, 0.5, 0.0125, 0.2, 100)

2025-07-07 17:07:04,126 - gym_custom_envs_real_ur_drivers_URBasic_realTimeClientEvent - INFO - Program send to Robot:
servoj([-0.25919673366767765, -1.6029945835019366, -1.4526951459816004, -1.5232429223704418, 1.765611886856373, 2.885525240760082], 0.5, 0.5, 0.0125, 0.2, 100)

2025-07-07 17:07:04,129 - gym_custom_envs_real_ur_drivers_URBasic_realTimeClientEvent - INFO - Program send to Robot:
servoj([-0.2592422929578236, -1.6030097699421095, -1.4526799595262412, -1.5232429223704418, 1.765611886856373, 2.8854189358003626], 0.5, 0.5, 0.0125, 0.2, 100)

2025-07-07 17:07:04,151 - gym_custom_envs_real_ur_drivers_URBasic_realTimeClientEvent - INFO - Program send to Robot:
servoj([-0.2653173124707519, -1.604528562786518, -1.4511611666816806, -1.5232429223704418, 1.765611886856373, 2.876306026870725], 0.5, 0.5, 0.0125, 0.2, 100)

2025-07-07 17:07:04,160 - gym_custom_envs_real_ur_drivers_URBasic_realTimeClientEvent - INFO - Program send to Robot:
servoj([-0.2653780626658812, -1.604543750714962, -1.451145978753235, -1.5232429223704418, 1.765611886856373, 2.876214897781429], 0.5, 0.5, 0.0125, 0.2, 100)

2025-07-07 17:07:04,168 - gym_custom_envs_real_ur_drivers_URBasic_realTimeClientEvent - INFO - Program send to Robot:
servoj([-0.2653786701678325, -1.6045439025942465, -1.4511458268739506, -1.5232429223704418, 1.765611886856373, 2.876213986490536], 0.5, 0.5, 0.0125, 0.2, 100)

2025-07-07 17:07:04,177 - gym_custom_envs_real_ur_drivers_URBasic_realTimeClientEvent - INFO - Program send to Robot:
servoj([-0.2744905221228928, -1.6060625450930461, -1.4511458253551577, -1.5232429223704418, 1.768649168816387, 2.867102131497586], 0.5, 0.5, 0.0125, 0.2, 100)

2025-07-07 17:07:04,193 - gym_custom_envs_real_ur_drivers_URBasic_realTimeClientEvent - INFO - Program send to Robot:
servoj([-0.27458164064244345, -1.6060777315180341, -1.4511458253399696, -1.5232429223704418, 1.768679541635987, 2.8670110129476565], 0.5, 0.5, 0.0125, 0.2, 100)

2025-07-07 17:07:04,202 - gym_custom_envs_real_ur_drivers_URBasic_realTimeClientEvent - INFO - Program send to Robot:
servoj([-0.27458255182763897, -1.606077883382284, -1.4511458253398177, -1.5232429223704418, 1.7686798453641832, 2.8670101017621574], 0.5, 0.5, 0.0125, 0.2, 100)

2025-07-07 17:07:04,217 - gym_custom_envs_real_ur_drivers_URBasic_realTimeClientEvent - INFO - Program send to Robot:
servoj([-0.28521304779953816, -1.6091151668609402, -1.4511458253398164, -1.5232429223704418, 1.765642566441451, 2.860935528730275], 0.5, 0.5, 0.0125, 0.2, 100)

2025-07-07 17:07:04,226 - gym_custom_envs_real_ur_drivers_URBasic_realTimeClientEvent - INFO - Program send to Robot:
servoj([-0.2853193527592571, -1.6091455396957266, -1.4511458253398164, -1.5232429223704418, 1.7656121936522238, 2.860874782999956], 0.5, 0.5, 0.0125, 0.2, 100)

2025-07-07 17:07:04,241 - gym_custom_envs_real_ur_drivers_URBasic_realTimeClientEvent - INFO - Program send to Robot:
servoj([-0.297469543648909, -1.612183125384088, -1.4511458253398164, -1.5232429223704418, 1.7686491718843456, 2.853280970642619], 0.5, 0.5, 0.0125, 0.2, 100)

2025-07-07 17:07:04,249 - gym_custom_envs_real_ur_drivers_URBasic_realTimeClientEvent - INFO - Program send to Robot:
servoj([-0.2975910455578055, -1.6122135012409715, -1.4511458253398164, -1.5232429223704418, 1.7686795416666667, 2.8532050325190457], 0.5, 0.5, 0.0125, 0.2, 100)

2025-07-07 17:07:04,258 - gym_custom_envs_real_ur_drivers_URBasic_realTimeClientEvent - INFO - Program send to Robot:
servoj([-0.2975922605768945, -1.6122138049995403, -1.4511458253398164, -1.5232429223704418, 1.7686798453644899, 2.85320427313781], 0.5, 0.5, 0.0125, 0.2, 100)

2025-07-07 17:07:04,265 - gym_custom_envs_real_ur_drivers_URBasic_realTimeClientEvent - INFO - Program send to Robot:
servoj([-0.2975922727270854, -1.612213808037126, -1.4511458253398164, -1.5232429223704418, 1.768679848401468, 2.8532042655439978], 0.5, 0.5, 0.0125, 0.2, 100)

2025-07-07 17:07:04,282 - gym_custom_envs_real_ur_drivers_URBasic_realTimeClientEvent - INFO - Program send to Robot:
servoj([-0.3082227597086346, -1.6152510900275157, -1.4526644663198234, -1.5232429223704418, 1.768679848431838, 2.8456110605680256], 0.5, 0.5, 0.0125, 0.2, 100)

2025-07-07 17:07:04,289 - gym_custom_envs_real_ur_drivers_URBasic_realTimeClientEvent - INFO - Program send to Robot:
servoj([-0.3083290645784501, -1.6152814628474195, -1.4526796527296233, -1.5232429223704418, 1.7686798484321415, 2.845535128518266], 0.5, 0.5, 0.0125, 0.2, 100)

2025-07-07 17:07:04,298 - gym_custom_envs_real_ur_drivers_URBasic_realTimeClientEvent - INFO - Program send to Robot:
servoj([-0.30833012762714823, -1.6152817665756185, -1.4526798045937213, -1.5232429223704418, 1.7686798484321447, 2.8455343691977686], 0.5, 0.5, 0.0125, 0.2, 100)

2025-07-07 17:07:04,313 - gym_custom_envs_real_ur_drivers_URBasic_realTimeClientEvent - INFO - Program send to Robot:
servoj([-0.317441984137676, -1.6168004105929072, -1.4526798061123622, -1.5232429223704418, 1.7686798484321447, 2.8364225157245224], 0.5, 0.5, 0.0125, 0.2, 100)

2025-07-07 17:07:04,322 - gym_custom_envs_real_ur_drivers_URBasic_realTimeClientEvent - INFO - Program send to Robot:
servoj([-0.3175331027027813, -1.6168155970330802, -1.4526798061275488, -1.5232429223704418, 1.7686798484321447, 2.83633139718979], 0.5, 0.5, 0.0125, 0.2, 100)

2025-07-07 17:07:04,330 - gym_custom_envs_real_ur_drivers_URBasic_realTimeClientEvent - INFO - Program send to Robot:
servoj([-0.31753401388843233, -1.616815748897482, -1.4526798061277006, -1.5232429223704418, 1.7686798484321447, 2.8363304860044427], 0.5, 0.5, 0.0125, 0.2, 100)

2025-07-07 17:07:04,337 - gym_custom_envs_real_ur_drivers_URBasic_realTimeClientEvent - INFO - Program send to Robot:
servoj([-0.32360858692031574, -1.6198530323761398, -1.4526798061277022, -1.5232429223704418, 1.7686798484321447, 2.8272186310125487], 0.5, 0.5, 0.0125, 0.2, 100)

2025-07-07 17:07:04,354 - gym_custom_envs_real_ur_drivers_URBasic_realTimeClientEvent - INFO - Program send to Robot:
servoj([-0.3236693326506346, -1.6198834052109263, -1.4526798061277022, -1.5232429223704418, 1.7686798484321447, 2.8271275124626296], 0.5, 0.5, 0.0125, 0.2, 100)

2025-07-07 17:07:04,361 - gym_custom_envs_real_ur_drivers_URBasic_realTimeClientEvent - INFO - Program send to Robot:
servoj([-0.32366994010793776, -1.6198837089392741, -1.4526798061277022, -1.5232429223704418, 1.7686798484321447, 2.8271266012771306], 0.5, 0.5, 0.0125, 0.2, 100)

2025-07-07 17:07:04,370 - gym_custom_envs_real_ur_drivers_URBasic_realTimeClientEvent - INFO - Program send to Robot:
servoj([-0.3282258691225312, -1.622920993936571, -1.4541984471077092, -1.5232429223704418, 1.7686798484321447, 2.8180147462852347], 0.5, 0.5, 0.0125, 0.2, 100)

2025-07-07 17:07:04,379 - gym_custom_envs_real_ur_drivers_URBasic_realTimeClientEvent - INFO - Program send to Robot:
servoj([-0.32827142841267715, -1.6229513667865438, -1.454213633517509, -1.5232429223704418, 1.7686798484321447, 2.8179236277353157], 0.5, 0.5, 0.0125, 0.2, 100)

2025-07-07 17:07:04,395 - gym_custom_envs_real_ur_drivers_URBasic_realTimeClientEvent - INFO - Program send to Robot:
servoj([-0.3282718840055786, -1.6229516705150435, -1.4542137853816073, -1.5232429223704418, 1.7686798484321447, 2.817922716549816], 0.5, 0.5, 0.0125, 0.2, 100)

2025-07-07 17:07:04,403 - gym_custom_envs_real_ur_drivers_URBasic_realTimeClientEvent - INFO - Program send to Robot:
servoj([-0.33434645248153494, -1.6229516735523286, -1.4542137869002483, -1.5232429223704418, 1.7686798484321447, 2.8088108615579213], 0.5, 0.5, 0.0125, 0.2, 100)

2025-07-07 17:07:04,409 - gym_custom_envs_real_ur_drivers_URBasic_realTimeClientEvent - INFO - Program send to Robot:
servoj([-0.33440719816629455, -1.6229516735827014, -1.4542137869154346, -1.5232429223704418, 1.7686798484321447, 2.808719743008002], 0.5, 0.5, 0.0125, 0.2, 100)

2025-07-07 17:07:04,427 - gym_custom_envs_real_ur_drivers_URBasic_realTimeClientEvent - INFO - Program send to Robot:
servoj([-0.3344078056231421, -1.6229516735830052, -1.4542137869155864, -1.5232429223704418, 1.7686798484321447, 2.808718831822503], 0.5, 0.5, 0.0125, 0.2, 100)

2025-07-07 17:07:04,433 - gym_custom_envs_real_ur_drivers_URBasic_realTimeClientEvent - INFO - Program send to Robot:
servoj([-0.3404823756177375, -1.625988955543022, -1.452695145935581, -1.5232429223704418, 1.7686798484321447, 2.7996069768306073], 0.5, 0.5, 0.0125, 0.2, 100)

2025-07-07 17:07:04,442 - gym_custom_envs_real_ur_drivers_URBasic_realTimeClientEvent - INFO - Program send to Robot:
servoj([-0.34054312131768344, -1.626019328362622, -1.4526799595257809, -1.5232429223704418, 1.7686798484321447, 2.7995158582806883], 0.5, 0.5, 0.0125, 0.2, 100)

2025-07-07 17:07:04,457 - gym_custom_envs_real_ur_drivers_URBasic_realTimeClientEvent - INFO - Program send to Robot:
servoj([-0.34054372877468286, -1.626019632090818, -1.452679807661683, -1.5232429223704418, 1.7686798484321447, 2.799514947095189], 0.5, 0.5, 0.0125, 0.2, 100)

2025-07-07 17:07:04,466 - gym_custom_envs_real_ur_drivers_URBasic_realTimeClientEvent - INFO - Program send to Robot:
servoj([-0.34813693974928717, -1.6275382761081068, -1.452679806143042, -1.5232429223704418, 1.7686798484321447, 2.7919217330833], 0.5, 0.5, 0.0125, 0.2, 100)

2025-07-07 17:07:04,475 - gym_custom_envs_real_ur_drivers_URBasic_realTimeClientEvent - INFO - Program send to Robot:
servoj([-0.3482128718590332, -1.6275534625482797, -1.4526798061278556, -1.5232429223704418, 1.7686798484321447, 2.7918458009431815], 0.5, 0.5, 0.0125, 0.2, 100)

2025-07-07 17:07:04,480 - gym_custom_envs_real_ur_drivers_URBasic_realTimeClientEvent - INFO - Program send to Robot:
servoj([-0.34821363118013066, -1.6275536144126814, -1.4526798061277038, -1.5232429223704418, 1.7686798484321447, 2.79184504162178], 0.5, 0.5, 0.0125, 0.2, 100)

2025-07-07 17:07:04,500 - gym_custom_envs_real_ur_drivers_URBasic_realTimeClientEvent - INFO - Program send to Robot:
servoj([-0.35732548465338204, -1.6290722569113323, -1.4526798061277022, -1.5232429223704418, 1.7701984894121507, 2.7857704701085386], 0.5, 0.5, 0.0125, 0.2, 100)

2025-07-07 17:07:04,505 - gym_custom_envs_real_ur_drivers_URBasic_realTimeClientEvent - INFO - Program send to Robot:
servoj([-0.3574166031881145, -1.6290874433363187, -1.4526798061277022, -1.5232429223704418, 1.7702136758219509, 2.7857097243934064], 0.5, 0.5, 0.0125, 0.2, 100)

2025-07-07 17:07:04,516 - gym_custom_envs_real_ur_drivers_URBasic_realTimeClientEvent - INFO - Program send to Robot:
servoj([-0.35741751437346186, -1.6290875952005686, -1.4526798061277022, -1.5232429223704418, 1.7702138276860488, 2.785709116936255], 0.5, 0.5, 0.0125, 0.2, 100)

2025-07-07 17:07:04,529 - gym_custom_envs_real_ur_drivers_URBasic_realTimeClientEvent - INFO - Program send to Robot:
servoj([-0.36501072838534965, -1.629087596719211, -1.4541984471077092, -1.5232429223704418, 1.7702138292046898, 2.77811590596165], 0.5, 0.5, 0.0125, 0.2, 100)

2025-07-07 17:07:04,539 - gym_custom_envs_real_ur_drivers_URBasic_realTimeClientEvent - INFO - Program send to Robot:
servoj([-0.3650866605254685, -1.6290875967343974, -1.454213633517509, -1.5232429223704418, 1.7702138292198761, 2.7780399738519037], 0.5, 0.5, 0.0125, 0.2, 100)

2025-07-07 17:07:04,547 - gym_custom_envs_real_ur_drivers_URBasic_realTimeClientEvent - INFO - Program send to Robot:
servoj([-0.3650874198468697, -1.6290875967345493, -1.4542137853816073, -1.5232429223704418, 1.770213829220028, 2.778039214530806], 0.5, 0.5, 0.0125, 0.2, 100)

2025-07-07 17:07:04,562 - gym_custom_envs_real_ur_drivers_URBasic_realTimeClientEvent - INFO - Program send to Robot:
servoj([-0.3726806323401175, -1.6290875967345508, -1.4542137869002483, -1.5232429223704418, 1.7702138292200296, 2.7704460020375614], 0.5, 0.5, 0.0125, 0.2, 100)

2025-07-07 17:07:04,570 - gym_custom_envs_real_ur_drivers_URBasic_realTimeClientEvent - INFO - Program send to Robot:
servoj([-0.37275656446504996, -1.6290875967345508, -1.4542137869154346, -1.5232429223704418, 1.7702138292200296, 2.770370069912629], 0.5, 0.5, 0.0125, 0.2, 100)

2025-07-07 17:07:04,577 - gym_custom_envs_real_ur_drivers_URBasic_realTimeClientEvent - INFO - Program send to Robot:
servoj([-0.3727573237862993, -1.6290875967345508, -1.4542137869155864, -1.5232429223704418, 1.7702138292200296, 2.77036931059138], 0.5, 0.5, 0.0125, 0.2, 100)

2025-07-07 17:07:04,586 - gym_custom_envs_real_ur_drivers_URBasic_realTimeClientEvent - INFO - Program send to Robot:
servoj([-0.3727573313795118, -1.6290875967345508, -1.454213786915588, -1.5232429223704418, 1.7702138292200296, 2.770369302998167], 0.5, 0.5, 0.0125, 0.2, 100)

2025-07-07 17:07:04,601 - gym_custom_envs_real_ur_drivers_URBasic_realTimeClientEvent - INFO - Program send to Robot:
servoj([-0.3803505363554778, -1.6290875967345508, -1.454213786915588, -1.5232429223704418, 1.7702138292200296, 2.761257457042194], 0.5, 0.5, 0.0125, 0.2, 100)

2025-07-07 17:07:04,610 - gym_custom_envs_real_ur_drivers_URBasic_realTimeClientEvent - INFO - Program send to Robot:
servoj([-0.3804264684052374, -1.6290875967345508, -1.454213786915588, -1.5232429223704418, 1.7702138292200296, 2.761166338582634], 0.5, 0.5, 0.0125, 0.2, 100)

2025-07-07 17:07:04,619 - gym_custom_envs_real_ur_drivers_URBasic_realTimeClientEvent - INFO - Program send to Robot:
servoj([-0.380427227725735, -1.6290875967345508, -1.454213786915588, -1.5232429223704418, 1.7702138292200296, 2.761165427398039], 0.5, 0.5, 0.0125, 0.2, 100)

2025-07-07 17:07:04,635 - gym_custom_envs_real_ur_drivers_URBasic_realTimeClientEvent - INFO - Program send to Robot:
servoj([-0.38953908119898084, -1.6290875967345508, -1.454213786915588, -1.5232429223704418, 1.7702138292200296, 2.7520535724061523], 0.5, 0.5, 0.0125, 0.2, 100)

2025-07-07 17:07:04,644 - gym_custom_envs_real_ur_drivers_URBasic_realTimeClientEvent - INFO - Program send to Robot:
servoj([-0.38963019973371327, -1.6290875967345508, -1.454213786915588, -1.5232429223704418, 1.7702138292200296, 2.7519624538562333], 0.5, 0.5, 0.0125, 0.2, 100)

2025-07-07 17:07:04,649 - gym_custom_envs_real_ur_drivers_URBasic_realTimeClientEvent - INFO - Program send to Robot:
servoj([-0.3896311109190606, -1.6290875967345508, -1.454213786915588, -1.5232429223704418, 1.7702138292200296, 2.7519615426707342], 0.5, 0.5, 0.0125, 0.2, 100)

2025-07-07 17:07:04,665 - gym_custom_envs_real_ur_drivers_URBasic_realTimeClientEvent - INFO - Program send to Robot:
servoj([-0.3987429659109548, -1.6290875967345508, -1.454213786915588, -1.5232429223704418, 1.7717324702000365, 2.744368328658845], 0.5, 0.5, 0.0125, 0.2, 100)

2025-07-07 17:07:04,673 - gym_custom_envs_real_ur_drivers_URBasic_realTimeClientEvent - INFO - Program send to Robot:
servoj([-0.39883408446087376, -1.6290875967345508, -1.454213786915588, -1.5232429223704418, 1.7717476566098367, 2.7442923965187265], 0.5, 0.5, 0.0125, 0.2, 100)

2025-07-07 17:07:04,684 - gym_custom_envs_real_ur_drivers_URBasic_realTimeClientEvent - INFO - Program send to Robot:
servoj([-0.398834995646373, -1.6290875967345508, -1.454213786915588, -1.5232429223704418, 1.7717478084739346, 2.744291637197325], 0.5, 0.5, 0.0125, 0.2, 100)

2025-07-07 17:07:04,692 - gym_custom_envs_real_ur_drivers_URBasic_realTimeClientEvent - INFO - Program send to Robot:
servoj([-0.4079468506382683, -1.6290875967345508, -1.454213786915588, -1.5232429223704418, 1.7717478099925756, 2.738217065684084], 0.5, 0.5, 0.0125, 0.2, 100)

2025-07-07 17:07:04,709 - gym_custom_envs_real_ur_drivers_URBasic_realTimeClientEvent - INFO - Program send to Robot:
servoj([-0.40803796918818724, -1.6290875967345508, -1.454213786915588, -1.5232429223704418, 1.7717478100077622, 2.738156319968952], 0.5, 0.5, 0.0125, 0.2, 100)

2025-07-07 17:07:04,712 - gym_custom_envs_real_ur_drivers_URBasic_realTimeClientEvent - INFO - Program send to Robot:
servoj([-0.4080388803736864, -1.6290875967345508, -1.454213786915588, -1.5232429223704418, 1.771747810007914, 2.7381557125118006], 0.5, 0.5, 0.0125, 0.2, 100)

2025-07-07 17:07:04,732 - gym_custom_envs_real_ur_drivers_URBasic_realTimeClientEvent - INFO - Program send to Robot:
servoj([-0.4171507353655822, -1.6290875967345508, -1.455732427895595, -1.5232429223704418, 1.7732664509879221, 2.7320811425172016], 0.5, 0.5, 0.0125, 0.2, 100)

2025-07-07 17:07:04,737 - gym_custom_envs_real_ur_drivers_URBasic_realTimeClientEvent - INFO - Program send to Robot:
servoj([-0.4172418539155012, -1.6290875967345508, -1.4557476143053951, -1.5232429223704418, 1.7732816373977223, 2.7320203968172554], 0.5, 0.5, 0.0125, 0.2, 100)

2025-07-07 17:07:04,757 - gym_custom_envs_real_ur_drivers_URBasic_realTimeClientEvent - INFO - Program send to Robot:
servoj([-0.42483597000103424, -1.6290875967345508, -1.455747766169493, -1.5232429223704418, 1.7763190712218342, 2.728982507400243], 0.5, 0.5, 0.0125, 0.2, 100)

2025-07-07 17:07:04,761 - gym_custom_envs_real_ur_drivers_URBasic_realTimeClientEvent - INFO - Program send to Robot:
servoj([-0.4249119111618896, -1.6290875967345508, -1.455747767688134, -1.5232429223704418, 1.7763494455600755, 2.728952128506073], 0.5, 0.5, 0.0125, 0.2, 100)

2025-07-07 17:07:04,782 - gym_custom_envs_real_ur_drivers_URBasic_realTimeClientEvent - INFO - Program send to Robot:
servoj([-0.42491267057349813, -1.6290875967345508, -1.4557477677033204, -1.5232429223704418, 1.7763497493034577, 2.728951824717131], 0.5, 0.5, 0.0125, 0.2, 100)

2025-07-07 17:07:04,793 - gym_custom_envs_real_ur_drivers_URBasic_realTimeClientEvent - INFO - Program send to Robot:
servoj([-0.4309872420876415, -1.6290875967345508, -1.4557477677034723, -1.5232429223704418, 1.7839429572409253, 2.7228772577592144], 0.5, 0.5, 0.0125, 0.2, 100)

2025-07-07 17:07:04,806 - gym_custom_envs_real_ur_drivers_URBasic_realTimeClientEvent - INFO - Program send to Robot:
servoj([-0.431047987802783, -1.6290875967345508, -1.4557477677034738, -1.5232429223704418, 1.7840188893203002, 2.722816512089635], 0.5, 0.5, 0.0125, 0.2, 100)

2025-07-07 17:07:04,810 - gym_custom_envs_real_ur_drivers_URBasic_realTimeClientEvent - INFO - Program send to Robot:
servoj([-0.4310485952599344, -1.6290875967345508, -1.4557477677034738, -1.5232429223704418, 1.7840196486410937, 2.7228159046329394], 0.5, 0.5, 0.0125, 0.2, 100)

2025-07-07 17:07:04,829 - gym_custom_envs_real_ur_drivers_URBasic_realTimeClientEvent - INFO - Program send to Robot:
servoj([-0.4401604472145467, -1.6290875967345508, -1.4557477677034738, -1.5232429223704418, 1.7916128611343358, 2.716741334638345], 0.5, 0.5, 0.0125, 0.2, 100)

2025-07-07 17:07:04,833 - gym_custom_envs_real_ur_drivers_URBasic_realTimeClientEvent - INFO - Program send to Robot:
servoj([-0.44025156573409285, -1.6290875967345508, -1.4557477677034738, -1.5232429223704418, 1.7916887932592682, 2.7166805889383987], 0.5, 0.5, 0.0125, 0.2, 100)

2025-07-07 17:07:04,853 - gym_custom_envs_real_ur_drivers_URBasic_realTimeClientEvent - INFO - Program send to Robot:
servoj([-0.4493643227993291, -1.6290875967345508, -1.4557477677034738, -1.5232429223704418, 1.802320039440565, 2.7090867765813655], 0.5, 0.5, 0.0125, 0.2, 100)

2025-07-07 17:07:04,857 - gym_custom_envs_real_ur_drivers_URBasic_realTimeClientEvent - INFO - Program send to Robot:
servoj([-0.4494554503699814, -1.6290875967345508, -1.4557477677034738, -1.5232429223704418, 1.802426351902378, 2.7090108384577953], 0.5, 0.5, 0.0125, 0.2, 100)

2025-07-07 17:07:04,878 - gym_custom_envs_real_ur_drivers_URBasic_realTimeClientEvent - INFO - Program send to Robot:
servoj([-0.449456361645688, -1.6290875967345508, -1.4557477677034738, -1.5232429223704418, 1.802427415026996, 2.7090100790765597], 0.5, 0.5, 0.0125, 0.2, 100)

2025-07-07 17:07:04,890 - gym_custom_envs_real_ur_drivers_URBasic_realTimeClientEvent - INFO - Program send to Robot:
servoj([-0.45856821663848535, -1.6290875967345508, -1.4557477677034738, -1.5232429223704418, 1.8100206305582764, 2.699898225602707], 0.5, 0.5, 0.0125, 0.2, 100)

2025-07-07 17:07:04,897 - gym_custom_envs_real_ur_drivers_URBasic_realTimeClientEvent - INFO - Program send to Robot:
servoj([-0.4586593351884133, -1.6290875967345508, -1.4557477677034738, -1.5232429223704418, 1.8100965627135892, 2.699807107067968], 0.5, 0.5, 0.0125, 0.2, 100)

2025-07-07 17:07:04,905 - gym_custom_envs_real_ur_drivers_URBasic_realTimeClientEvent - INFO - Program send to Robot:
servoj([-0.4586602463739126, -1.6290875967345508, -1.4557477677034738, -1.5232429223704418, 1.8100973220351422, 2.699806195882621], 0.5, 0.5, 0.0125, 0.2, 100)

2025-07-07 17:07:04,921 - gym_custom_envs_real_ur_drivers_URBasic_realTimeClientEvent - INFO - Program send to Robot:
servoj([-0.46777210136580843, -1.6290875967345508, -1.4542291267234668, -1.5232429223704418, 1.8192091755083986, 2.690694340890727], 0.5, 0.5, 0.0125, 0.2, 100)

2025-07-07 17:07:04,929 - gym_custom_envs_real_ur_drivers_URBasic_realTimeClientEvent - INFO - Program send to Robot:
servoj([-0.4678632199157274, -1.6290875967345508, -1.4542139403136667, -1.5232429223704418, 1.819300294043131, 2.690603222340808], 0.5, 0.5, 0.0125, 0.2, 100)

2025-07-07 17:07:04,950 - gym_custom_envs_real_ur_drivers_URBasic_realTimeClientEvent - INFO - Program send to Robot:
servoj([-0.47849461796127424, -1.6290875967345508, -1.4542137884495687, -1.5232429223704418, 1.8253757691485053, 2.6830091062552746], 0.5, 0.5, 0.0125, 0.2, 100)

2025-07-07 17:07:04,961 - gym_custom_envs_real_ur_drivers_URBasic_realTimeClientEvent - INFO - Program send to Robot:
servoj([-0.4786009319417297, -1.6290875967345508, -1.4542137869309277, -1.5232429223704418, 1.825436523899559, 2.6829331650944193], 0.5, 0.5, 0.0125, 0.2, 100)

2025-07-07 17:07:04,974 - gym_custom_envs_real_ur_drivers_URBasic_realTimeClientEvent - INFO - Program send to Robot:
servoj([-0.4786019950815343, -1.6290875967345508, -1.4542137869157414, -1.5232429223704418, 1.8254371314470696, 2.6829324056828106], 0.5, 0.5, 0.0125, 0.2, 100)

2025-07-07 17:07:04,977 - gym_custom_envs_real_ur_drivers_URBasic_realTimeClientEvent - INFO - Program send to Robot:
servoj([-0.4892324925729796, -1.6306062377145578, -1.4542137869155896, -1.5232429223704418, 1.8299930604625647, 2.6768578341686675], 0.5, 0.5, 0.0125, 0.2, 100)

2025-07-07 17:07:04,999 - gym_custom_envs_real_ur_drivers_URBasic_realTimeClientEvent - INFO - Program send to Robot:
servoj([-0.48933879754789406, -1.630621424124358, -1.454213786915588, -1.5232429223704418, 1.8300386197527196, 2.676797088453526], 0.5, 0.5, 0.0125, 0.2, 100)

2025-07-07 17:07:05,008 - gym_custom_envs_real_ur_drivers_URBasic_realTimeClientEvent - INFO - Program send to Robot:
servoj([-0.498451706477684, -1.6321402169684625, -1.454213786915588, -1.5232429223704418, 1.8300390753456213, 2.673759199036361], 0.5, 0.5, 0.0125, 0.2, 100)

2025-07-07 17:07:05,023 - gym_custom_envs_real_ur_drivers_URBasic_realTimeClientEvent - INFO - Program send to Robot:
servoj([-0.49854283556698187, -1.6321554048969036, -1.454213786915588, -1.5232429223704418, 1.8300390799015502, 2.6737288201421894], 0.5, 0.5, 0.0125, 0.2, 100)

2025-07-07 17:07:05,033 - gym_custom_envs_real_ur_drivers_URBasic_realTimeClientEvent - INFO - Program send to Robot:
servoj([-0.4985437468578749, -1.6321555567761878, -1.454213786915588, -1.5232429223704418, 1.8300390799471096, 2.673728516353248], 0.5, 0.5, 0.0125, 0.2, 100)

2025-07-07 17:07:05,041 - gym_custom_envs_real_ur_drivers_URBasic_realTimeClientEvent - INFO - Program send to Robot:
servoj([-0.5030996789108042, -1.6321555582949807, -1.455732427895595, -1.5232429223704418, 1.8300390799475652, 2.6737285133153583], 0.5, 0.5, 0.0125, 0.2, 100)

2025-07-07 17:07:05,049 - gym_custom_envs_real_ur_drivers_URBasic_realTimeClientEvent - INFO - Program send to Robot:
servoj([-0.5031452382313335, -1.6321555583101688, -1.4557476143053951, -1.5232429223704418, 1.8300390799475696, 2.6737285132849795], 0.5, 0.5, 0.0125, 0.2, 100)

2025-07-07 17:07:05,065 - gym_custom_envs_real_ur_drivers_URBasic_realTimeClientEvent - INFO - Program send to Robot:
servoj([-0.5031456938245389, -1.6321555583103207, -1.455747766169493, -1.5232429223704418, 1.8300390799475696, 2.6737285132846758], 0.5, 0.5, 0.0125, 0.2, 100)

2025-07-07 17:07:05,073 - gym_custom_envs_real_ur_drivers_URBasic_realTimeClientEvent - INFO - Program send to Robot:
servoj([-0.5016270574004639, -1.6351928402703355, -1.4587850496481471, -1.5232429223704418, 1.8300390799475696, 2.6737285132846726], 0.5, 0.5, 0.0125, 0.2, 100)

2025-07-07 17:07:05,081 - gym_custom_envs_real_ur_drivers_URBasic_realTimeClientEvent - INFO - Program send to Robot:
servoj([-0.5016118710362232, -1.6352232130899358, -1.4588154224829337, -1.5232429223704418, 1.8300390799475696, 2.6737285132846726], 0.5, 0.5, 0.0125, 0.2, 100)

2025-07-07 17:07:05,097 - gym_custom_envs_real_ur_drivers_URBasic_realTimeClientEvent - INFO - Program send to Robot:
servoj([-0.5016117191725807, -1.6352235168181317, -1.4588157262112815, -1.5232429223704418, 1.8300390799475696, 2.6737285132846726], 0.5, 0.5, 0.0125, 0.2, 100)

2025-07-07 17:07:05,105 - gym_custom_envs_real_ur_drivers_URBasic_realTimeClientEvent - INFO - Program send to Robot:
servoj([-0.5016117176539443, -1.6352235198554137, -1.4618530112085788, -1.5232429223704418, 1.8285204389675627, 2.6752471542646794], 0.5, 0.5, 0.0125, 0.2, 100)

2025-07-07 17:07:05,118 - gym_custom_envs_real_ur_drivers_URBasic_realTimeClientEvent - INFO - Program send to Robot:
servoj([-0.501611717638758, -1.6352235198857865, -1.4618833840585517, -1.5232429223704418, 1.8285052525577628, 2.6752623406744793], 0.5, 0.5, 0.0125, 0.2, 100)

2025-07-07 17:07:05,129 - gym_custom_envs_real_ur_drivers_URBasic_realTimeClientEvent - INFO - Program send to Robot:
servoj([-0.5016117176386061, -1.6352235198860903, -1.4618836877870514, -1.5232429223704418, 1.8285051006936646, 2.6752624925385775], 0.5, 0.5, 0.0125, 0.2, 100)

2025-07-07 17:07:05,137 - gym_custom_envs_real_ur_drivers_URBasic_realTimeClientEvent - INFO - Program send to Robot:
servoj([-0.4985744356785911, -1.6352235198860934, -1.4618836908243364, -1.5217242813904348, 1.8285050991750236, 2.6752624940572183], 0.5, 0.5, 0.0125, 0.2, 100)

2025-07-07 17:07:05,145 - gym_custom_envs_real_ur_drivers_URBasic_realTimeClientEvent - INFO - Program send to Robot:
servoj([-0.49854406285899094, -1.6352235198860934, -1.4618836908547093, -1.5217090949806347, 1.8285050991598373, 2.675262494072405], 0.5, 0.5, 0.0125, 0.2, 100)

2025-07-07 17:07:05,160 - gym_custom_envs_real_ur_drivers_URBasic_realTimeClientEvent - INFO - Program send to Robot:
servoj([-0.49854375913079496, -1.6352235198860934, -1.461883690855013, -1.5217089431165367, 1.8285050991596854, 2.6752624940725567], 0.5, 0.5, 0.0125, 0.2, 100)

2025-07-07 17:07:05,169 - gym_custom_envs_real_ur_drivers_URBasic_realTimeClientEvent - INFO - Program send to Robot:
servoj([-0.4894319102134722, -1.6352235198860934, -1.4603650498750091, -1.5217089415978957, 1.8269864581796778, 2.675262494072558], 0.5, 0.5, 0.0125, 0.2, 100)

2025-07-07 17:07:05,177 - gym_custom_envs_real_ur_drivers_URBasic_realTimeClientEvent - INFO - Program send to Robot:
servoj([-0.489340791724299, -1.6352235198860934, -1.4603498634652092, -1.5217089415827092, 1.8269712717698776, 2.675262494072558], 0.5, 0.5, 0.0125, 0.2, 100)

2025-07-07 17:07:05,192 - gym_custom_envs_real_ur_drivers_URBasic_realTimeClientEvent - INFO - Program send to Robot:
servoj([-0.4893398805394073, -1.6352235198860934, -1.4603497116011113, -1.5217089415825573, 1.8269711199057797, 2.675262494072558], 0.5, 0.5, 0.0125, 0.2, 100)

2025-07-07 17:07:05,201 - gym_custom_envs_real_ur_drivers_URBasic_realTimeClientEvent - INFO - Program send to Robot:
servoj([-0.4695975386874703, -1.6352235198860934, -1.4603497100824703, -1.521708941582556, 1.8269711183871387, 2.6767811350525648], 0.5, 0.5, 0.0125, 0.2, 100)

2025-07-07 17:07:05,213 - gym_custom_envs_real_ur_drivers_URBasic_realTimeClientEvent - INFO - Program send to Robot:
servoj([-0.4694001152689509, -1.6352235198860934, -1.4603497100672838, -1.521708941582556, 1.8269711183719524, 2.676796321462365], 0.5, 0.5, 0.0125, 0.2, 100)

2025-07-07 17:07:05,225 - gym_custom_envs_real_ur_drivers_URBasic_realTimeClientEvent - INFO - Program send to Robot:
servoj([-0.46939814103476574, -1.6352235198860934, -1.4603497100671319, -1.521708941582556, 1.8269711183718005, 2.676796473326463], 0.5, 0.5, 0.0125, 0.2, 100)

2025-07-07 17:07:05,237 - gym_custom_envs_real_ur_drivers_URBasic_realTimeClientEvent - INFO - Program send to Robot:
servoj([-0.440543942672295, -1.6337048789060866, -1.4603497100671305, -1.521708941582556, 1.826971118371799, 2.6783151158251113], 0.5, 0.5, 0.0125, 0.2, 100)

2025-07-07 17:07:05,241 - gym_custom_envs_real_ur_drivers_URBasic_realTimeClientEvent - INFO - Program send to Robot:
servoj([-0.4402554006886703, -1.6336896924962865, -1.4603497100671303, -1.521708941582556, 1.826971118371799, 2.6783303022500977], 0.5, 0.5, 0.0125, 0.2, 100)

2025-07-07 17:07:05,262 - gym_custom_envs_real_ur_drivers_URBasic_realTimeClientEvent - INFO - Program send to Robot:
servoj([-0.4402525152688341, -1.6336895406321885, -1.4603497100671303, -1.521708941582556, 1.826971118371799, 2.6783304541143473], 0.5, 0.5, 0.0125, 0.2, 100)

2025-07-07 17:07:05,265 - gym_custom_envs_real_ur_drivers_URBasic_realTimeClientEvent - INFO - Program send to Robot:
servoj([-0.4159542307345272, -1.6306522571535342, -1.4603497100671303, -1.521708941582556, 1.826971118371799, 2.681367737593003], 0.5, 0.5, 0.0125, 0.2, 100)

2025-07-07 17:07:05,285 - gym_custom_envs_real_ur_drivers_URBasic_realTimeClientEvent - INFO - Program send to Robot:
servoj([-0.4157112478891841, -1.6306218843187477, -1.4603497100671303, -1.521708941582556, 1.826971118371799, 2.6813981104277897], 0.5, 0.5, 0.0125, 0.2, 100)

2025-07-07 17:07:05,288 - gym_custom_envs_real_ur_drivers_URBasic_realTimeClientEvent - INFO - Program send to Robot:
servoj([-0.4157088180607307, -1.6306215805903999, -1.4603497100671303, -1.521708941582556, 1.826971118371799, 2.6813984141561376], 0.5, 0.5, 0.0125, 0.2, 100)

2025-07-07 17:07:05,308 - gym_custom_envs_real_ur_drivers_URBasic_realTimeClientEvent - INFO - Program send to Robot:
servoj([-0.3944478200423511, -1.6275842955931026, -1.4603497100671303, -1.521708941582556, 1.830008400331812, 2.6859543401334416], 0.5, 0.5, 0.0125, 0.2, 100)

2025-07-07 17:07:05,313 - gym_custom_envs_real_ur_drivers_URBasic_realTimeClientEvent - INFO - Program send to Robot:
servoj([-0.3942352100621674, -1.6275539227431297, -1.4603497100671303, -1.521708941582556, 1.830038773151412, 2.685999899393215], 0.5, 0.5, 0.0125, 0.2, 100)

2025-07-07 17:07:05,321 - gym_custom_envs_real_ur_drivers_URBasic_realTimeClientEvent - INFO - Program send to Robot:
servoj([-0.3942330839623655, -1.62755361901463, -1.4603497100671303, -1.521708941582556, 1.8300390768796082, 2.6860003549858122], 0.5, 0.5, 0.0125, 0.2, 100)

2025-07-07 17:07:05,336 - gym_custom_envs_real_ur_drivers_URBasic_realTimeClientEvent - INFO - Program send to Robot:
servoj([-0.36841616604125205, -1.6260349749973382, -1.461868351047137, -1.521708941582556, 1.8315577208968972, 2.692074923461765], 0.5, 0.5, 0.0125, 0.2, 100)

2025-07-07 17:07:05,344 - gym_custom_envs_real_ur_drivers_URBasic_realTimeClientEvent - INFO - Program send to Robot:
servoj([-0.3681579968620409, -1.6260197885571652, -1.4618835374569372, -1.521708941582556, 1.83157290733707, 2.6921356691465244], 0.5, 0.5, 0.0125, 0.2, 100)

2025-07-07 17:07:05,357 - gym_custom_envs_real_ur_drivers_URBasic_realTimeClientEvent - INFO - Program send to Robot:
servoj([-0.3681554151702488, -1.6260196366927635, -1.4618836893210352, -1.521708941582556, 1.8315730592014716, 2.6921362766033723], 0.5, 0.5, 0.0125, 0.2, 100)

2025-07-07 17:07:05,370 - gym_custom_envs_real_ur_drivers_URBasic_realTimeClientEvent - INFO - Program send to Robot:
servoj([-0.33626392877318817, -1.6229823532141057, -1.4634023318196832, -1.521708941582556, 1.8315730607201157, 2.699729487577975], 0.5, 0.5, 0.0125, 0.2, 100)

2025-07-07 17:07:05,382 - gym_custom_envs_real_ur_drivers_URBasic_realTimeClientEvent - INFO - Program send to Robot:
servoj([-0.33594501390921755, -1.622951980379319, -1.4634175182446696, -1.521708941582556, 1.8315730607353022, 2.699805419687721], 0.5, 0.5, 0.0125, 0.2, 100)

2025-07-07 17:07:05,385 - gym_custom_envs_real_ur_drivers_URBasic_realTimeClientEvent - INFO - Program send to Robot:
servoj([-0.3359418247605778, -1.6229516766509713, -1.4634176701089197, -1.521708941582556, 1.8315730607354541, 2.699806179008818], 0.5, 0.5, 0.0125, 0.2, 100)

2025-07-07 17:07:05,407 - gym_custom_envs_real_ur_drivers_URBasic_realTimeClientEvent - INFO - Program send to Robot:
servoj([-0.3040503322889491, -1.6229516736136878, -1.464936312607569, -1.521708941582556, 1.8330917017154622, 2.7089180324820696], 0.5, 0.5, 0.0125, 0.2, 100)

2025-07-07 17:07:05,417 - gym_custom_envs_real_ur_drivers_URBasic_realTimeClientEvent - INFO - Program send to Robot:
servoj([-0.30373141736423287, -1.622951673583315, -1.4649514990325556, -1.521708941582556, 1.8331068881252623, 2.709009151016802], 0.5, 0.5, 0.0125, 0.2, 100)

2025-07-07 17:07:05,430 - gym_custom_envs_real_ur_drivers_URBasic_realTimeClientEvent - INFO - Program send to Robot:
servoj([-0.27639269057486376, -1.6214330326030044, -1.4664702918768115, -1.521708941582556, 1.8331070399893603, 2.718121908082191], 0.5, 0.5, 0.0125, 0.2, 100)

2025-07-07 17:07:05,433 - gym_custom_envs_real_ur_drivers_URBasic_realTimeClientEvent - INFO - Program send to Robot:
servoj([-0.27611930330697004, -1.6214178461932014, -1.466485479805254, -1.521708941582556, 1.8331070415080013, 2.7182130356528447], 0.5, 0.5, 0.0125, 0.2, 100)

2025-07-07 17:07:05,453 - gym_custom_envs_real_ur_drivers_URBasic_realTimeClientEvent - INFO - Program send to Robot:
servoj([-0.27611656943429114, -1.6214176943291034, -1.4664856316845385, -1.521708941582556, 1.8331070415231878, 2.718213946928551], 0.5, 0.5, 0.0125, 0.2, 100)

2025-07-07 17:07:05,457 - gym_custom_envs_real_ur_drivers_URBasic_realTimeClientEvent - INFO - Program send to Robot:
servoj([-0.2502996454354489, -1.619899051830456, -1.4664856332033314, -1.521708941582556, 1.8331070415233397, 2.730363083881363], 0.5, 0.5, 0.0125, 0.2, 100)

2025-07-07 17:07:05,477 - gym_custom_envs_real_ur_drivers_URBasic_realTimeClientEvent - INFO - Program send to Robot:
servoj([-0.2500414761954605, -1.6198838654054695, -1.4664856332185192, -1.521708941582556, 1.8331070415233413, 2.7304845752508906], 0.5, 0.5, 0.0125, 0.2, 100)

2025-07-07 17:07:05,481 - gym_custom_envs_real_ur_drivers_URBasic_realTimeClientEvent - INFO - Program send to Robot:
servoj([-0.2500388945030606, -1.6198837135412196, -1.466485633218671, -1.521708941582556, 1.8331070415233413, 2.730485790164586], 0.5, 0.5, 0.0125, 0.2, 100)

2025-07-07 17:07:05,502 - gym_custom_envs_real_ur_drivers_URBasic_realTimeClientEvent - INFO - Program send to Robot:
servoj([-0.2242219720260212, -1.6168464300625633, -1.4664856332186726, -1.521708941582556, 1.8331070415233413, 2.7426349301537765], 0.5, 0.5, 0.0125, 0.2, 100)

2025-07-07 17:07:05,504 - gym_custom_envs_real_ur_drivers_URBasic_realTimeClientEvent - INFO - Program send to Robot:
servoj([-0.2239638028012508, -1.6168160572277768, -1.4664856332186726, -1.521708941582556, 1.8331070415233413, 2.7427564215536684], 0.5, 0.5, 0.0125, 0.2, 100)

2025-07-07 17:07:05,525 - gym_custom_envs_real_ur_drivers_URBasic_realTimeClientEvent - INFO - Program send to Robot:
servoj([-0.19510704248887423, -1.6137784715394154, -1.4664856332186726, -1.521708941582556, 1.8331070415233413, 2.757944046267736], 0.5, 0.5, 0.0125, 0.2, 100)

2025-07-07 17:07:05,529 - gym_custom_envs_real_ur_drivers_URBasic_realTimeClientEvent - INFO - Program send to Robot:
servoj([-0.19481847488575046, -1.6137480956825316, -1.4664856332186726, -1.521708941582556, 1.8331070415233413, 2.7580959225148765], 0.5, 0.5, 0.0125, 0.2, 100)

2025-07-07 17:07:05,548 - gym_custom_envs_real_ur_drivers_URBasic_realTimeClientEvent - INFO - Program send to Robot:
servoj([-0.19481558920971923, -1.613747791923963, -1.4664856332186726, -1.521708941582556, 1.8331070415233413, 2.758097441277348], 0.5, 0.5, 0.0125, 0.2, 100)

2025-07-07 17:07:05,552 - gym_custom_envs_real_ur_drivers_URBasic_realTimeClientEvent - INFO - Program send to Robot:
servoj([-0.16748002271283655, -1.6076732249663501, -1.4664856332186726, -1.521708941582556, 1.8331070415233413, 2.774802507245047], 0.5, 0.5, 0.0125, 0.2, 100)

2025-07-07 17:07:05,561 - gym_custom_envs_real_ur_drivers_URBasic_realTimeClientEvent - INFO - Program send to Robot:
servoj([-0.16720666704786774, -1.607612479296774, -1.4664856332186726, -1.521708941582556, 1.8331070415233413, 2.774969557904724], 0.5, 0.5, 0.0125, 0.2, 100)

2025-07-07 17:07:05,580 - gym_custom_envs_real_ur_drivers_URBasic_realTimeClientEvent - INFO - Program send to Robot:
servoj([-0.16720393349121804, -1.6076118718400783, -1.4664856332186726, -1.521708941582556, 1.8331070415233413, 2.774971228411321], 0.5, 0.5, 0.0125, 0.2, 100)

2025-07-07 17:07:05,585 - gym_custom_envs_real_ur_drivers_URBasic_realTimeClientEvent - INFO - Program send to Robot:
servoj([-0.13986836851552964, -1.603055942825491, -1.4664856332186726, -1.521708941582556, 1.8331070415233413, 2.7931949368764677], 0.5, 0.5, 0.0125, 0.2, 100)

2025-07-07 17:07:05,597 - gym_custom_envs_real_ur_drivers_URBasic_realTimeClientEvent - INFO - Program send to Robot:
servoj([-0.13959501286577275, -1.6030103835353449, -1.4664856332186726, -1.521708941582556, 1.8331070415233413, 2.7933771739611193], 0.5, 0.5, 0.0125, 0.2, 100)

2025-07-07 17:07:05,609 - gym_custom_envs_real_ur_drivers_URBasic_realTimeClientEvent - INFO - Program send to Robot:
servoj([-0.13959227930927517, -1.6030099279424435, -1.4664856332186726, -1.521708941582556, 1.8331070415233413, 2.793378996331966], 0.5, 0.5, 0.0125, 0.2, 100)

2025-07-07 17:07:05,622 - gym_custom_envs_real_ur_drivers_URBasic_realTimeClientEvent - INFO - Program send to Robot:
servoj([-0.10921943237357437, -1.5984540004464942, -1.4680042741986796, -1.521708941582556, 1.8315884005433345, 2.811602706315756], 0.5, 0.5, 0.0125, 0.2, 100)

2025-07-07 17:07:05,625 - gym_custom_envs_real_ur_drivers_URBasic_realTimeClientEvent - INFO - Program send to Robot:
servoj([-0.10891570390421737, -1.5984084411715347, -1.4680194606084798, -1.521708941582556, 1.8315732141335344, 2.811784943415594], 0.5, 0.5, 0.0125, 0.2, 100)

2025-07-07 17:07:05,646 - gym_custom_envs_real_ur_drivers_URBasic_realTimeClientEvent - INFO - Program send to Robot:
servoj([-0.1089126666195238, -1.5984079855787852, -1.4680196124725777, -1.521708941582556, 1.8315730622694364, 2.811786765786592], 0.5, 0.5, 0.0125, 0.2, 100)

2025-07-07 17:07:05,649 - gym_custom_envs_real_ur_drivers_URBasic_realTimeClientEvent - INFO - Program send to Robot:
servoj([-0.07853981664654104, -1.5908147761228237, -1.4695382549712257, -1.521708941582556, 1.8315730607507954, 2.828491834790377], 0.5, 0.5, 0.0125, 0.2, 100)

2025-07-07 17:07:05,667 - gym_custom_envs_real_ur_drivers_URBasic_realTimeClientEvent - INFO - Program send to Robot:
servoj([-0.07823608814681123, -1.5907388440282642, -1.4695534413962121, -1.521708941582556, 1.8315730607356089, 2.8286588854804147], 0.5, 0.5, 0.0125, 0.2, 100)

2025-07-07 17:07:05,675 - gym_custom_envs_real_ur_drivers_URBasic_realTimeClientEvent - INFO - Program send to Robot:
servoj([-0.07823305086181392, -1.5907380847073187, -1.469553593260462, -1.521708941582556, 1.831573060735457, 2.828660555987315], 0.5, 0.5, 0.0125, 0.2, 100)

2025-07-07 17:07:05,681 - gym_custom_envs_real_ur_drivers_URBasic_realTimeClientEvent - INFO - Program send to Robot:
servoj([-0.04634155990882163, -1.5846635131940816, -1.4710722357591113, -1.521708941582556, 1.8315730607354554, 2.8423283415124456], 0.5, 0.5, 0.0125, 0.2, 100)

2025-07-07 17:07:05,699 - gym_custom_envs_real_ur_drivers_URBasic_realTimeClientEvent - INFO - Program send to Robot:
servoj([-0.04602264499929171, -1.5846027674789493, -1.4710874221840977, -1.521708941582556, 1.8315730607354554, 2.8424650193676966], 0.5, 0.5, 0.0125, 0.2, 100)

2025-07-07 17:07:05,705 - gym_custom_envs_real_ur_drivers_URBasic_realTimeClientEvent - INFO - Program send to Robot:
servoj([-0.046019455850196414, -1.584602160021798, -1.4710875740483476, -1.521708941582556, 1.8315730607354554, 2.842466386146249], 0.5, 0.5, 0.0125, 0.2, 100)

2025-07-07 17:07:05,715 - gym_custom_envs_real_ur_drivers_URBasic_realTimeClientEvent - INFO - Program send to Robot:
servoj([-0.014127963378563145, -1.575490308067186, -1.4741248575270032, -1.521708941582556, 1.8300544197554485, 2.8546155276540888], 0.5, 0.5, 0.0125, 0.2, 100)

2025-07-07 17:07:05,729 - gym_custom_envs_real_ur_drivers_URBasic_realTimeClientEvent - INFO - Program send to Robot:
servoj([-0.013809048453846812, -1.5753991895476398, -1.4741552303617897, -1.521708941582556, 1.8300392333456486, 2.854737019069167], 0.5, 0.5, 0.0125, 0.2, 100)

2025-07-07 17:07:05,740 - gym_custom_envs_real_ur_drivers_URBasic_realTimeClientEvent - INFO - Program send to Robot:
servoj([-0.01380585930459965, -1.5753982783624443, -1.4741555340901376, -1.521708941582556, 1.8300390814815506, 2.854738233983318], 0.5, 0.5, 0.0125, 0.2, 100)

2025-07-07 17:07:05,748 - gym_custom_envs_real_ur_drivers_URBasic_realTimeClientEvent - INFO - Program send to Robot:
servoj([0.01656699218702863, -1.5678050643505583, -1.475674178107428, -1.521708941582556, 1.8300390799629096, 2.866887373972514], 0.5, 0.5, 0.0125, 0.2, 100)

2025-07-07 17:07:05,753 - gym_custom_envs_real_ur_drivers_URBasic_realTimeClientEvent - INFO - Program send to Robot:
servoj([0.016870720701944914, -1.5677291322104396, -1.475689364547601, -1.521708941582556, 1.830039079947723, 2.867008865372406], 0.5, 0.5, 0.0125, 0.2, 100)

2025-07-07 17:07:05,772 - gym_custom_envs_real_ur_drivers_URBasic_realTimeClientEvent - INFO - Program send to Robot:
servoj([0.01687375798709408, -1.5677283728890383, -1.4756895164120027, -1.521708941582556, 1.8300390799475712, 2.8670100802864047], 0.5, 0.5, 0.0125, 0.2, 100)

2025-07-07 17:07:05,777 - gym_custom_envs_real_ur_drivers_URBasic_realTimeClientEvent - INFO - Program send to Robot:
servoj([0.044209326000067495, -1.563172442355804, -1.4772081589106536, -1.521708941582556, 1.8300390799475696, 2.8776405792955924], 0.5, 0.5, 0.0125, 0.2, 100)

2025-07-07 17:07:05,796 - gym_custom_envs_real_ur_drivers_URBasic_realTimeClientEvent - INFO - Program send to Robot:
servoj([0.044482681680197235, -1.5631268830504716, -1.4772233453356403, -1.521708941582556, 1.8300390799475696, 2.877746884285684], 0.5, 0.5, 0.0125, 0.2, 100)

2025-07-07 17:07:05,801 - gym_custom_envs_real_ur_drivers_URBasic_realTimeClientEvent - INFO - Program send to Robot:
servoj([0.04448541523699853, -1.5631264274574184, -1.47722349719989, -1.521708941582556, 1.8300390799475696, 2.877747947335585], 0.5, 0.5, 0.0125, 0.2, 100)

2025-07-07 17:07:05,812 - gym_custom_envs_real_ur_drivers_URBasic_realTimeClientEvent - INFO - Program send to Robot:
servoj([0.06878369825267545, -1.5570518589814608, -1.4772234987185326, -1.521708941582556, 1.8285204389675627, 2.8898970858061386], 0.5, 0.5, 0.0125, 0.2, 100)

2025-07-07 17:07:05,827 - gym_custom_envs_real_ur_drivers_URBasic_realTimeClientEvent - INFO - Program send to Robot:
servoj([0.06902668108283222, -1.5569911132967014, -1.477223498733719, -1.521708941582556, 1.8285052525577628, 2.890018577190844], 0.5, 0.5, 0.0125, 0.2, 100)

2025-07-07 17:07:05,837 - gym_custom_envs_real_ur_drivers_URBasic_realTimeClientEvent - INFO - Program send to Robot:
servoj([0.06902911091113378, -1.5569905058398537, -1.4772234987338708, -1.521708941582556, 1.8285051006936646, 2.8900197921046913], 0.5, 0.5, 0.0125, 0.2, 100)

2025-07-07 17:07:05,844 - gym_custom_envs_real_ur_drivers_URBasic_realTimeClientEvent - INFO - Program send to Robot:
servoj([0.09029010892951184, -1.5524345768252648, -1.4772234987338724, -1.521708941582556, 1.8285050991750236, 2.9006502911138767], 0.5, 0.5, 0.0125, 0.2, 100)

2025-07-07 17:07:05,861 - gym_custom_envs_real_ur_drivers_URBasic_realTimeClientEvent - INFO - Program send to Robot:
servoj([0.09050271890969562, -1.5523890175351187, -1.4772234987338724, -1.521708941582556, 1.8285050991598373, 2.9007565961039687], 0.5, 0.5, 0.0125, 0.2, 100)

2025-07-07 17:07:05,866 - gym_custom_envs_real_ur_drivers_URBasic_realTimeClientEvent - INFO - Program send to Robot:
servoj([0.09050484500949746, -1.5523885619422173, -1.4772234987338724, -1.521708941582556, 1.8285050991596854, 2.9007576591538697], 0.5, 0.5, 0.0125, 0.2, 100)

2025-07-07 17:07:05,885 - gym_custom_envs_real_ur_drivers_URBasic_realTimeClientEvent - INFO - Program send to Robot:
servoj([0.1087285580305766, -1.5493512754262748, -1.4772234987338724, -1.521708941582556, 1.8285050991596838, 2.9098695156644094], 0.5, 0.5, 0.0125, 0.2, 100)

2025-07-07 17:07:05,889 - gym_custom_envs_real_ur_drivers_URBasic_realTimeClientEvent - INFO - Program send to Robot:
servoj([0.10891079516078739, -1.5493209025611154, -1.4772234987338724, -1.521708941582556, 1.8285050991596838, 2.909960634229515], 0.5, 0.5, 0.0125, 0.2, 100)

2025-07-07 17:07:05,909 - gym_custom_envs_real_ur_drivers_URBasic_realTimeClientEvent - INFO - Program send to Robot:
servoj([0.1271363092921711, -1.547801957852457, -1.4772234987338724, -1.521708941582556, 1.8285050991596838, 2.916036109335193], 0.5, 0.5, 0.0125, 0.2, 100)

2025-07-07 17:07:05,913 - gym_custom_envs_real_ur_drivers_URBasic_realTimeClientEvent - INFO - Program send to Robot:
servoj([0.12731856443348494, -1.5477867684053705, -1.4772234987338724, -1.521708941582556, 1.8285050991596838, 2.9160968640862497], 0.5, 0.5, 0.0125, 0.2, 100)

2025-07-07 17:07:05,932 - gym_custom_envs_real_ur_drivers_URBasic_realTimeClientEvent - INFO - Program send to Robot:
servoj([0.12732038698489806, -1.5477866165108995, -1.4772234987338724, -1.521708941582556, 1.8285050991596838, 2.9160974716337607], 0.5, 0.5, 0.0125, 0.2, 100)

2025-07-07 17:07:05,940 - gym_custom_envs_real_ur_drivers_URBasic_realTimeClientEvent - INFO - Program send to Robot:
servoj([0.14098817403047334, -1.544749333031941, -1.4772234987338724, -1.521708941582556, 1.8285050991596838, 2.9221720416292625], 0.5, 0.5, 0.0125, 0.2, 100)

2025-07-07 17:07:05,945 - gym_custom_envs_real_ur_drivers_URBasic_realTimeClientEvent - INFO - Program send to Robot:
servoj([0.1411248519009291, -1.5447189601971516, -1.4772234987338724, -1.521708941582556, 1.8285050991596838, 2.9222327873292175], 0.5, 0.5, 0.0125, 0.2, 100)

2025-07-07 17:07:05,961 - gym_custom_envs_real_ur_drivers_URBasic_realTimeClientEvent - INFO - Program send to Robot:
servoj([0.14112621867963365, -1.5447186564688036, -1.4772234987338724, -1.521708941582556, 1.8285050991596838, 2.9222333947862174], 0.5, 0.5, 0.0125, 0.2, 100)

2025-07-07 17:07:05,968 - gym_custom_envs_real_ur_drivers_URBasic_realTimeClientEvent - INFO - Program send to Robot:
servoj([0.151756719207468, -1.5447186534315203, -1.4772234987338724, -1.521708941582556, 1.8285050991596838, 2.9252706828208006], 0.5, 0.5, 0.0125, 0.2, 100)

2025-07-07 17:07:05,981 - gym_custom_envs_real_ur_drivers_URBasic_realTimeClientEvent - INFO - Program send to Robot:
servoj([0.15186302421274636, -1.5447186534011474, -1.4772234987338724, -1.521708941582556, 1.8285050991596838, 2.9253010557011465], 0.5, 0.5, 0.0125, 0.2, 100)

2025-07-07 17:07:05,993 - gym_custom_envs_real_ur_drivers_URBasic_realTimeClientEvent - INFO - Program send to Robot:
servoj([0.15186408726279915, -1.5447186534008437, -1.4772234987338724, -1.521708941582556, 1.8285050991596838, 2.92530135942995], 0.5, 0.5, 0.0125, 0.2, 100)

2025-07-07 17:07:06,006 - gym_custom_envs_real_ur_drivers_URBasic_realTimeClientEvent - INFO - Program send to Robot:
servoj([0.16249458475334697, -1.5432000124208338, -1.4772234987338724, -1.521708941582556, 1.8300237401396908, 2.9283386444272517], 0.5, 0.5, 0.0125, 0.2, 100)

2025-07-07 17:07:06,009 - gym_custom_envs_real_ur_drivers_URBasic_realTimeClientEvent - INFO - Program send to Robot:
servoj([0.16260088972825246, -1.5431848260110337, -1.4772234987338724, -1.521708941582556, 1.830038926549491, 2.9283690172772245], 0.5, 0.5, 0.0125, 0.2, 100)

2025-07-07 17:07:06,029 - gym_custom_envs_real_ur_drivers_URBasic_realTimeClientEvent - INFO - Program send to Robot:
servoj([0.16260195277800152, -1.5431846741469357, -1.4772234987338724, -1.521708941582556, 1.830039078413589, 2.9283693210057242], 0.5, 0.5, 0.0125, 0.2, 100)

2025-07-07 17:07:06,033 - gym_custom_envs_real_ur_drivers_URBasic_realTimeClientEvent - INFO - Program send to Robot:
servoj([0.17019516830853326, -1.5431846726282947, -1.4787421397138794, -1.521708941582556, 1.83003907993223, 2.93292524698303], 0.5, 0.5, 0.0125, 0.2, 100)

2025-07-07 17:07:06,053 - gym_custom_envs_real_ur_drivers_URBasic_realTimeClientEvent - INFO - Program send to Robot:
servoj([0.1702711004638386, -1.5431846726131084, -1.4787573261236795, -1.521708941582556, 1.8300390799474162, 2.9329708062428033], 0.5, 0.5, 0.0125, 0.2, 100)

2025-07-07 17:07:06,057 - gym_custom_envs_real_ur_drivers_URBasic_realTimeClientEvent - INFO - Program send to Robot:
servoj([0.17027185978539164, -1.5431846726129566, -1.4787574779877775, -1.521708941582556, 1.830039079947568, 2.9329712618354007], 0.5, 0.5, 0.0125, 0.2, 100)

2025-07-07 17:07:06,077 - gym_custom_envs_real_ur_drivers_URBasic_realTimeClientEvent - INFO - Program send to Robot:
servoj([0.17482779031862758, -1.5416660316329482, -1.4802761204864254, -1.521708941582556, 1.8300390799475696, 2.934489907371333], 0.5, 0.5, 0.0125, 0.2, 100)

2025-07-07 17:07:06,081 - gym_custom_envs_real_ur_drivers_URBasic_realTimeClientEvent - INFO - Program send to Robot:
servoj([0.17487334962395992, -1.541650845223148, -1.4802913069114119, -1.521708941582556, 1.8300390799475696, 2.9345050938266923], 0.5, 0.5, 0.0125, 0.2, 100)

2025-07-07 17:07:06,102 - gym_custom_envs_real_ur_drivers_URBasic_realTimeClientEvent - INFO - Program send to Robot:
servoj([0.17639244619701974, -1.5386134113990366, -1.4818100997556685, -1.521708941582556, 1.8300390799475696, 2.936023886671253], 0.5, 0.5, 0.0125, 0.2, 100)

2025-07-07 17:07:06,105 - gym_custom_envs_real_ur_drivers_URBasic_realTimeClientEvent - INFO - Program send to Robot:
servoj([0.17640763716275035, -1.5385830370607956, -1.4818252876841111, -1.521708941582556, 1.8300390799475696, 2.9360390745996985], 0.5, 0.5, 0.0125, 0.2, 100)

2025-07-07 17:07:06,126 - gym_custom_envs_real_ur_drivers_URBasic_realTimeClientEvent - INFO - Program send to Robot:
servoj([0.17640778907240764, -1.5385827333174131, -1.4818254395633954, -1.521708941582556, 1.8300390799475696, 2.9360392264789827], 0.5, 0.5, 0.0125, 0.2, 100)

2025-07-07 17:07:06,137 - gym_custom_envs_real_ur_drivers_URBasic_realTimeClientEvent - INFO - Program send to Robot:
servoj([0.17944507255151768, -1.5355454483199658, -1.4833440820621944, -1.521708941582556, 1.8300390799475696, 2.9375578689777826], 0.5, 0.5, 0.0125, 0.2, 100)

2025-07-07 17:07:06,149 - gym_custom_envs_real_ur_drivers_URBasic_realTimeClientEvent - INFO - Program send to Robot:
servoj([0.17947544538630877, -1.5355150754699913, -1.4833592684871824, -1.521708941582556, 1.8300390799475696, 2.9375730554027704], 0.5, 0.5, 0.0125, 0.2, 100)

2025-07-07 17:07:06,152 - gym_custom_envs_real_ur_drivers_URBasic_realTimeClientEvent - INFO - Program send to Robot:
servoj([0.1794757491146567, -1.5355147717414914, -1.4833594203514324, -1.521708941582556, 1.8300390799475696, 2.9375732072670204], 0.5, 0.5, 0.0125, 0.2, 100)

2025-07-07 17:07:06,174 - gym_custom_envs_real_ur_drivers_URBasic_realTimeClientEvent - INFO - Program send to Robot:
servoj([0.17947575215194017, -1.5324774867441928, -1.4863967038300887, -1.521708941582556, 1.8300390799475696, 2.93909184976567], 0.5, 0.5, 0.0125, 0.2, 100)

2025-07-07 17:07:06,176 - gym_custom_envs_real_ur_drivers_URBasic_realTimeClientEvent - INFO - Program send to Robot:
servoj([0.179475752182313, -1.5324471138942197, -1.4864270766648753, -1.521708941582556, 1.8300390799475696, 2.9391070361906566], 0.5, 0.5, 0.0125, 0.2, 100)

2025-07-07 17:07:06,197 - gym_custom_envs_real_ur_drivers_URBasic_realTimeClientEvent - INFO - Program send to Robot:
servoj([0.18099439316262367, -1.5309281691857135, -1.4894646623532373, -1.521708941582556, 1.8300390799475696, 2.9391071880549062], 0.5, 0.5, 0.0125, 0.2, 100)

2025-07-07 17:07:06,200 - gym_custom_envs_real_ur_drivers_URBasic_realTimeClientEvent - INFO - Program send to Robot:
servoj([0.18100957957242678, -1.5309129797386285, -1.4894950382101209, -1.521708941582556, 1.8300390799475696, 2.9391071895735488], 0.5, 0.5, 0.0125, 0.2, 100)

2025-07-07 17:07:06,223 - gym_custom_envs_real_ur_drivers_URBasic_realTimeClientEvent - INFO - Program send to Robot:
servoj([0.18100973143652482, -1.5309128278441575, -1.4894953419686896, -1.521708941582556, 1.8300390799475696, 2.9391071895887353], 0.5, 0.5, 0.0125, 0.2, 100)

2025-07-07 17:07:06,234 - gym_custom_envs_real_ur_drivers_URBasic_realTimeClientEvent - INFO - Program send to Robot:
servoj([0.1810097329551658, -1.530912826325213, -1.4925326269662882, -1.521708941582556, 1.8300390799475696, 2.93758854860888], 0.5, 0.5, 0.0125, 0.2, 100)

2025-07-07 17:07:06,242 - gym_custom_envs_real_ur_drivers_URBasic_realTimeClientEvent - INFO - Program send to Robot:
servoj([0.1810097329703522, -1.5309128263100233, -1.4925629998162642, -1.521708941582556, 1.8300390799475696, 2.9375733621990814], 0.5, 0.5, 0.0125, 0.2, 100)

2025-07-07 17:07:06,249 - gym_custom_envs_real_ur_drivers_URBasic_realTimeClientEvent - INFO - Program send to Robot:
servoj([0.18100973297050407, -1.5309128263098715, -1.4925633035447639, -1.521708941582556, 1.8300390799475696, 2.937573210334983], 0.5, 0.5, 0.0125, 0.2, 100)

2025-07-07 17:07:06,265 - gym_custom_envs_real_ur_drivers_URBasic_realTimeClientEvent - INFO - Program send to Robot:
servoj([0.1810097329705056, -1.5293941853298634, -1.4971192295220699, -1.521708941582556, 1.8300390799475696, 2.9390918497963496], 0.5, 0.5, 0.0125, 0.2, 100)

2025-07-07 17:07:06,272 - gym_custom_envs_real_ur_drivers_URBasic_realTimeClientEvent - INFO - Program send to Robot:
servoj([0.1810097329705056, -1.5293789989200632, -1.497164788781843, -1.521708941582556, 1.8300390799475696, 2.9391070361909635], 0.5, 0.5, 0.0125, 0.2, 100)

2025-07-07 17:07:06,295 - gym_custom_envs_real_ur_drivers_URBasic_realTimeClientEvent - INFO - Program send to Robot:
servoj([0.1810097329705056, -1.5278602060759583, -1.5002025263344536, -1.521708941582556, 1.8300390799475696, 2.9391071880549093], 0.5, 0.5, 0.0125, 0.2, 100)

2025-07-07 17:07:06,305 - gym_custom_envs_real_ur_drivers_URBasic_realTimeClientEvent - INFO - Program send to Robot:
servoj([0.1810097329705056, -1.5278450181475172, -1.5002329037099797, -1.521708941582556, 1.8300390799475696, 2.9391071895735488], 0.5, 0.5, 0.0125, 0.2, 100)

2025-07-07 17:07:06,318 - gym_custom_envs_real_ur_drivers_URBasic_realTimeClientEvent - INFO - Program send to Robot:
servoj([0.1810097329705056, -1.5278448662682327, -1.500233207483735, -1.521708941582556, 1.8300390799475696, 2.9391071895887353], 0.5, 0.5, 0.0125, 0.2, 100)

2025-07-07 17:07:06,321 - gym_custom_envs_real_ur_drivers_URBasic_realTimeClientEvent - INFO - Program send to Robot:
servoj([0.17949109199049865, -1.5278448647494398, -1.5017518515014794, -1.521708941582556, 1.8285204389675627, 2.939107189588887], 0.5, 0.5, 0.0125, 0.2, 100)

2025-07-07 17:07:06,336 - gym_custom_envs_real_ur_drivers_URBasic_realTimeClientEvent - INFO - Program send to Robot:
servoj([0.1794759055806986, -1.527844864734252, -1.5017670379416568, -1.521708941582556, 1.8285052525577628, 2.9391071895888885], 0.5, 0.5, 0.0125, 0.2, 100)

2025-07-07 17:07:06,345 - gym_custom_envs_real_ur_drivers_URBasic_realTimeClientEvent - INFO - Program send to Robot:
servoj([0.17947575371660057, -1.5278448647341, -1.5017671898060585, -1.521708941582556, 1.8285051006936646, 2.9391071895888885], 0.5, 0.5, 0.0125, 0.2, 100)

2025-07-07 17:07:06,362 - gym_custom_envs_real_ur_drivers_URBasic_realTimeClientEvent - INFO - Program send to Robot:
servoj([0.1779571112179531, -1.5278448647340985, -1.5063231142647235, -1.521708941582556, 1.8285050991750236, 2.9391071895888885], 0.5, 0.5, 0.0125, 0.2, 100)

2025-07-07 17:07:06,369 - gym_custom_envs_real_ur_drivers_URBasic_realTimeClientEvent - INFO - Program send to Robot:
servoj([0.1779419247929666, -1.5278448647340985, -1.5063686735093103, -1.521708941582556, 1.8285050991598373, 2.9391071895888885], 0.5, 0.5, 0.0125, 0.2, 100)

2025-07-07 17:07:06,391 - gym_custom_envs_real_ur_drivers_URBasic_realTimeClientEvent - INFO - Program send to Robot:
servoj([0.17642313194870982, -1.5263262237540918, -1.506369129101756, -1.521708941582556, 1.8269864581796793, 2.9391071895888885], 0.5, 0.5, 0.0125, 0.2, 100)

2025-07-07 17:07:06,402 - gym_custom_envs_real_ur_drivers_URBasic_realTimeClientEvent - INFO - Program send to Robot:
servoj([0.17640794402026724, -1.5263110373442919, -1.5063691336576805, -1.521708941582556, 1.8269712717698778, 2.9391071895888885], 0.5, 0.5, 0.0125, 0.2, 100)

2025-07-07 17:07:06,413 - gym_custom_envs_real_ur_drivers_URBasic_realTimeClientEvent - INFO - Program send to Robot:
servoj([0.17640779214098282, -1.5263108854801937, -1.5063691337032399, -1.521708941582556, 1.8269711199057797, 2.9391071895888885], 0.5, 0.5, 0.0125, 0.2, 100)

2025-07-07 17:07:06,416 - gym_custom_envs_real_ur_drivers_URBasic_realTimeClientEvent - INFO - Program send to Robot:
servoj([0.17337050866217654, -1.5263108839615527, -1.5078877746837014, -1.521708941582556, 1.8254524774071317, 2.9375885486088813], 0.5, 0.5, 0.0125, 0.2, 100)

2025-07-07 17:07:06,437 - gym_custom_envs_real_ur_drivers_URBasic_realTimeClientEvent - INFO - Program send to Robot:
servoj([0.17334013582738847, -1.5263108839463664, -1.5079029610935062, -1.521708941582556, 1.8254372909821452, 2.9375733621990814], 0.5, 0.5, 0.0125, 0.2, 100)

2025-07-07 17:07:06,442 - gym_custom_envs_real_ur_drivers_URBasic_realTimeClientEvent - INFO - Program send to Robot:
servoj([0.17333983209904058, -1.5263108839462145, -1.5079031129576042, -1.521708941582556, 1.8254371391178954, 2.937573210334983], 0.5, 0.5, 0.0125, 0.2, 100)

2025-07-07 17:07:06,463 - gym_custom_envs_real_ur_drivers_URBasic_realTimeClientEvent - INFO - Program send to Robot:
servoj([0.16878390612173672, -1.526310883946213, -1.5079031144762451, -1.521708941582556, 1.8239184966192459, 2.9375732088163424], 0.5, 0.5, 0.0125, 0.2, 100)

2025-07-07 17:07:06,473 - gym_custom_envs_real_ur_drivers_URBasic_realTimeClientEvent - INFO - Program send to Robot:
servoj([0.16873834686196368, -1.526310883946213, -1.5079031144914314, -1.521708941582556, 1.8239033101942594, 2.937573208801156], 0.5, 0.5, 0.0125, 0.2, 100)

2025-07-07 17:07:06,486 - gym_custom_envs_real_ur_drivers_URBasic_realTimeClientEvent - INFO - Program send to Robot:
servoj([0.1565887634293117, -1.5247922429662062, -1.5079031144915833, -1.521708941582556, 1.8208658763699959, 2.937573208801004], 0.5, 0.5, 0.0125, 0.2, 100)

2025-07-07 17:07:06,490 - gym_custom_envs_real_ur_drivers_URBasic_realTimeClientEvent - INFO - Program send to Robot:
servoj([0.15646726759498517, -1.524777056556406, -1.5079031144915849, -1.521708941582556, 1.8208355020317533, 2.9375732088010027], 0.5, 0.5, 0.0125, 0.2, 100)

2025-07-07 17:07:06,509 - gym_custom_envs_real_ur_drivers_URBasic_realTimeClientEvent - INFO - Program send to Robot:
servoj([0.1564660526366419, -1.524776904692308, -1.5079031144915849, -1.521708941582556, 1.8208351982883708, 2.9375732088010027], 0.5, 0.5, 0.0125, 0.2, 100)

2025-07-07 17:07:06,513 - gym_custom_envs_real_ur_drivers_URBasic_realTimeClientEvent - INFO - Program send to Robot:
servoj([0.1367237077469704, -1.524776903173667, -1.5063844735115788, -1.521708941582556, 1.820835195250937, 2.9375732088010027], 0.5, 0.5, 0.0125, 0.2, 100)

2025-07-07 17:07:06,533 - gym_custom_envs_real_ur_drivers_URBasic_realTimeClientEvent - INFO - Program send to Robot:
servoj([0.1365262842980737, -1.5247769031584808, -1.5063692871017789, -1.521708941582556, 1.8208351952205626, 2.9375732088010027], 0.5, 0.5, 0.0125, 0.2, 100)

2025-07-07 17:07:06,537 - gym_custom_envs_real_ur_drivers_URBasic_realTimeClientEvent - INFO - Program send to Robot:
servoj([0.13652431006358473, -1.524776903158329, -1.5063691352376807, -1.521708941582556, 1.8208351952202588, 2.9375732088010027], 0.5, 0.5, 0.0125, 0.2, 100)

2025-07-07 17:07:06,558 - gym_custom_envs_real_ur_drivers_URBasic_realTimeClientEvent - INFO - Program send to Robot:
servoj([0.11070739366112442, -1.5262955441383341, -1.5048504927390327, -1.521708941582556, 1.8193165542402499, 2.9375732088010027], 0.5, 0.5, 0.0125, 0.2, 100)

2025-07-07 17:07:06,561 - gym_custom_envs_real_ur_drivers_URBasic_realTimeClientEvent - INFO - Program send to Robot:
servoj([0.11044922449709982, -1.5263107305481343, -1.5048353063140463, -1.521708941582556, 1.8193013678304497, 2.9375732088010027], 0.5, 0.5, 0.0125, 0.2, 100)

2025-07-07 17:07:06,576 - gym_custom_envs_real_ur_drivers_URBasic_realTimeClientEvent - INFO - Program send to Robot:
servoj([0.08007382320532376, -1.529348164372246, -1.5033165134697895, -1.5201903006025494, 1.8193012159663517, 2.9375732088010027], 0.5, 0.5, 0.0125, 0.2, 100)

2025-07-07 17:07:06,584 - gym_custom_envs_real_ur_drivers_URBasic_realTimeClientEvent - INFO - Program send to Robot:
servoj([0.07977006919240599, -1.529378538710487, -1.503301325541347, -1.5201751141927493, 1.8193012144477108, 2.9375732088010027], 0.5, 0.5, 0.0125, 0.2, 100)

2025-07-07 17:07:06,601 - gym_custom_envs_real_ur_drivers_URBasic_realTimeClientEvent - INFO - Program send to Robot:
servoj([0.07976703165227682, -1.5293788424538695, -1.5033011736620625, -1.5201749623286513, 1.8193012144325242, 2.9375732088010027], 0.5, 0.5, 0.0125, 0.2, 100)

2025-07-07 17:07:06,608 - gym_custom_envs_real_ur_drivers_URBasic_realTimeClientEvent - INFO - Program send to Robot:
servoj([0.049394181676739715, -1.5339347684313234, -1.5017825311632627, -1.5201749608100104, 1.8208198554123785, 2.933017285860983], 0.5, 0.5, 0.0125, 0.2, 100)

2025-07-07 17:07:06,629 - gym_custom_envs_real_ur_drivers_URBasic_realTimeClientEvent - INFO - Program send to Robot:
servoj([0.04909045317698434, -1.533980327691098, -1.5017673447382747, -1.5201749607948238, 1.820835041822177, 2.9329717266315827], 0.5, 0.5, 0.0125, 0.2, 100)

2025-07-07 17:07:06,633 - gym_custom_envs_real_ur_drivers_URBasic_realTimeClientEvent - INFO - Program send to Robot:
servoj([0.04908741589198679, -1.5339807832836956, -1.5017671928740248, -1.520174960794672, 1.820835193686275, 2.9329712710392886], 0.5, 0.5, 0.0125, 0.2, 100)

2025-07-07 17:07:06,653 - gym_custom_envs_real_ur_drivers_URBasic_realTimeClientEvent - INFO - Program send to Robot:
servoj([0.020233206899007948, -1.5400553517596491, -1.4987299093953694, -1.5186563198146636, 1.820835195204916, 2.931452625503359], 0.5, 0.5, 0.0125, 0.2, 100)

2025-07-07 17:07:06,657 - gym_custom_envs_real_ur_drivers_URBasic_realTimeClientEvent - INFO - Program send to Robot:
servoj([0.01994466480907816, -1.5401160974444086, -1.4986995365605829, -1.5186411334048637, 1.8208351952201025, 2.9314374390479996], 0.5, 0.5, 0.0125, 0.2, 100)

2025-07-07 17:07:06,678 - gym_custom_envs_real_ur_drivers_URBasic_realTimeClientEvent - INFO - Program send to Robot:
servoj([-0.0013191943319161626, -1.546191268821283, -1.495661950872221, -1.5171223405607588, 1.8208351952202542, 2.929918646203439], 0.5, 0.5, 0.0125, 0.2, 100)

2025-07-07 17:07:06,681 - gym_custom_envs_real_ur_drivers_URBasic_realTimeClientEvent - INFO - Program send to Robot:
