2025-07-07 16:51:19,897 - gym_custom_envs_real_ur_drivers_URBasic_robotModelEvent - INFO - Init done
2025-07-07 16:51:20,398 - gym_custom_envs_real_ur_drivers_URBasic_realTimeClientEvent - INFO - Connected
2025-07-07 16:51:20,398 - gym_custom_envs_real_ur_drivers_URBasic_realTimeClientEvent - INFO - RT_CLient constructor done
2025-07-07 16:51:20,399 - gym_custom_envs_real_ur_drivers_URBasic_dataLogEvent - INFO - Data logging (not event logging) is disabled
2025-07-07 16:51:20,400 - gym_custom_envs_real_ur_drivers_URBasic_dataLogEvent - INFO - DataLog constructor done
2025-07-07 16:51:20,400 - gym_custom_envs_real_ur_drivers_URBasic_dataLogEvent - INFO - DataLog is stopped
2025-07-07 16:51:20,401 - gym_custom_envs_real_ur_drivers_URBasic_rtdeEvent - INFO - RTDE constructor done
2025-07-07 16:51:20,712 - gym_custom_envs_real_ur_drivers_URBasic_rtdeEvent - INFO - Controller version: 3.3.1-60
2025-07-07 16:51:20,715 - gym_custom_envs_real_ur_drivers_URBasic_rtdeEvent - INFO - RTDE started
2025-07-07 16:51:20,903 - gym_custom_envs_real_ur_drivers_URBasic_dashboardEvent - INFO - Connected
2025-07-07 16:51:20,904 - gym_custom_envs_real_ur_drivers_URBasic_dashboardEvent - INFO - UR Dashboard respond Connected: Universal Robots Dashboard Server
2025-07-07 16:51:20,904 - gym_custom_envs_real_ur_drivers_URBasic_dashboardEvent - INFO - Dashboard server constructor done
2025-07-07 16:51:20,905 - gym_custom_envs_real_ur_drivers_URBasic_robotConnectorEvent - INFO - Init done
2025-07-07 16:51:20,905 - gym_custom_envs_real_ur_drivers_URBasic_urScriptEvent - INFO - Init done!!!
2025-07-07 16:51:20,914 - gym_custom_envs_real_ur_drivers_URBasic_urScriptExtEvent - INFO - Init done
2025-07-07 16:51:22,469 - gym_custom_envs_real_ur_interfaceEvent - INFO - [] init done
2025-07-07 16:51:22,474 - gym_custom_envs_real_ur_drivers_URBasic_realTimeClientEvent - INFO - Program send to Robot:
servoj([0.03845150172710418, -1.577770439778463, -1.4859772841082972, -1.4479454199420374, 1.5496243238449097, 3.054722547531128], 0.5, 0.5, 0.01, 0.2, 300)

2025-07-07 16:51:22,485 - gym_custom_envs_real_ur_drivers_URBasic_realTimeClientEvent - INFO - Program send to Robot:
servoj([0.03845150172710418, -1.577770439778463, -1.4859772841082972, -1.4479454199420374, 1.5496243238449097, 3.054722547531128], 0.5, 0.5, 0.01, 0.2, 300)

2025-07-07 16:51:22,497 - gym_custom_envs_real_ur_drivers_URBasic_realTimeClientEvent - INFO - Program send to Robot:
servoj([0.03845150172710418, -1.577770439778463, -1.4859772841082972, -1.4479454199420374, 1.5496243238449097, 3.054722547531128], 0.5, 0.5, 0.01, 0.2, 300)

2025-07-07 16:51:22,508 - gym_custom_envs_real_ur_drivers_URBasic_realTimeClientEvent - INFO - Program send to Robot:
servoj([0.03845150172710418, -1.577770439778463, -1.4859772841082972, -1.4479454199420374, 1.5496243238449097, 3.054722547531128], 0.5, 0.5, 0.01, 0.2, 300)

2025-07-07 16:51:22,519 - gym_custom_envs_real_ur_drivers_URBasic_realTimeClientEvent - INFO - Program send to Robot:
servoj([0.03845150172710418, -1.577770439778463, -1.4859772841082972, -1.4479454199420374, 1.5496243238449097, 3.054722547531128], 0.5, 0.5, 0.01, 0.2, 300)

2025-07-07 16:51:22,531 - gym_custom_envs_real_ur_drivers_URBasic_realTimeClientEvent - INFO - Program send to Robot:
servoj([0.03845150172710418, -1.577770439778463, -1.4859772841082972, -1.4479454199420374, 1.5496243238449097, 3.054722547531128], 0.5, 0.5, 0.01, 0.2, 300)

2025-07-07 16:51:22,542 - gym_custom_envs_real_ur_drivers_URBasic_realTimeClientEvent - INFO - Program send to Robot:
servoj([0.03845150172710418, -1.577770439778463, -1.4859772841082972, -1.4479454199420374, 1.5496243238449097, 3.054722547531128], 0.5, 0.5, 0.01, 0.2, 300)

2025-07-07 16:51:22,553 - gym_custom_envs_real_ur_drivers_URBasic_realTimeClientEvent - INFO - Program send to Robot:
servoj([0.03845150172710418, -1.577770439778463, -1.4859772841082972, -1.4479454199420374, 1.5496243238449097, 3.054722547531128], 0.5, 0.5, 0.01, 0.2, 300)

2025-07-07 16:51:22,565 - gym_custom_envs_real_ur_drivers_URBasic_realTimeClientEvent - INFO - Program send to Robot:
servoj([0.03845150172710418, -1.577770439778463, -1.4859772841082972, -1.4479454199420374, 1.5496243238449097, 3.054722547531128], 0.5, 0.5, 0.01, 0.2, 300)

2025-07-07 16:51:22,576 - gym_custom_envs_real_ur_drivers_URBasic_realTimeClientEvent - INFO - Program send to Robot:
servoj([0.03845150172710418, -1.577770439778463, -1.4859772841082972, -1.4479454199420374, 1.5496243238449097, 3.054722547531128], 0.5, 0.5, 0.01, 0.2, 300)

2025-07-07 16:51:22,587 - gym_custom_envs_real_ur_drivers_URBasic_realTimeClientEvent - INFO - Program send to Robot:
servoj([0.03845150172710418, -1.577770439778463, -1.4859772841082972, -1.4479454199420374, 1.5496243238449097, 3.054722547531128], 0.5, 0.5, 0.01, 0.2, 300)

2025-07-07 16:51:22,598 - gym_custom_envs_real_ur_drivers_URBasic_realTimeClientEvent - INFO - Program send to Robot:
servoj([0.03845150172710418, -1.577770439778463, -1.4859772841082972, -1.4479454199420374, 1.5496243238449097, 3.054722547531128], 0.5, 0.5, 0.01, 0.2, 300)

2025-07-07 16:51:22,610 - gym_custom_envs_real_ur_drivers_URBasic_realTimeClientEvent - INFO - Program send to Robot:
servoj([0.03845150172710418, -1.577770439778463, -1.4859772841082972, -1.4479454199420374, 1.5496243238449097, 3.054722547531128], 0.5, 0.5, 0.01, 0.2, 300)

2025-07-07 16:51:22,621 - gym_custom_envs_real_ur_drivers_URBasic_realTimeClientEvent - INFO - Program send to Robot:
servoj([0.03845150172710418, -1.577770439778463, -1.4859772841082972, -1.4479454199420374, 1.5496243238449097, 3.054722547531128], 0.5, 0.5, 0.01, 0.2, 300)

2025-07-07 16:51:22,632 - gym_custom_envs_real_ur_drivers_URBasic_realTimeClientEvent - INFO - Program send to Robot:
servoj([0.03845150172710418, -1.577770439778463, -1.4859772841082972, -1.4479454199420374, 1.5496243238449097, 3.054722547531128], 0.5, 0.5, 0.01, 0.2, 300)

2025-07-07 16:51:22,644 - gym_custom_envs_real_ur_drivers_URBasic_realTimeClientEvent - INFO - Program send to Robot:
servoj([0.03845150172710418, -1.577770439778463, -1.4859772841082972, -1.4479454199420374, 1.5496243238449097, 3.054722547531128], 0.5, 0.5, 0.01, 0.2, 300)

2025-07-07 16:51:22,655 - gym_custom_envs_real_ur_drivers_URBasic_realTimeClientEvent - INFO - Program send to Robot:
servoj([0.03845150172710418, -1.577770439778463, -1.4859772841082972, -1.4479454199420374, 1.5496243238449097, 3.054722547531128], 0.5, 0.5, 0.01, 0.2, 300)

2025-07-07 16:51:22,666 - gym_custom_envs_real_ur_drivers_URBasic_realTimeClientEvent - INFO - Program send to Robot:
servoj([0.03845150172710418, -1.577770439778463, -1.4859772841082972, -1.4479454199420374, 1.5496243238449097, 3.054722547531128], 0.5, 0.5, 0.01, 0.2, 300)

2025-07-07 16:51:22,678 - gym_custom_envs_real_ur_drivers_URBasic_realTimeClientEvent - INFO - Program send to Robot:
servoj([0.03845150172710418, -1.577770439778463, -1.4859772841082972, -1.4479454199420374, 1.5496243238449097, 3.054722547531128], 0.5, 0.5, 0.01, 0.2, 300)

2025-07-07 16:51:22,689 - gym_custom_envs_real_ur_drivers_URBasic_realTimeClientEvent - INFO - Program send to Robot:
servoj([0.03845150172710418, -1.577770439778463, -1.4859772841082972, -1.4479454199420374, 1.5496243238449097, 3.054722547531128], 0.5, 0.5, 0.01, 0.2, 300)

2025-07-07 16:51:22,700 - gym_custom_envs_real_ur_drivers_URBasic_realTimeClientEvent - INFO - Program send to Robot:
servoj([0.03845150172710418, -1.577770439778463, -1.4859772841082972, -1.4479454199420374, 1.5496243238449097, 3.054722547531128], 0.5, 0.5, 0.01, 0.2, 300)

2025-07-07 16:51:22,712 - gym_custom_envs_real_ur_drivers_URBasic_realTimeClientEvent - INFO - Program send to Robot:
servoj([0.03845150172710418, -1.577770439778463, -1.4859772841082972, -1.4479454199420374, 1.5496243238449097, 3.054722547531128], 0.5, 0.5, 0.01, 0.2, 300)

2025-07-07 16:51:22,723 - gym_custom_envs_real_ur_drivers_URBasic_realTimeClientEvent - INFO - Program send to Robot:
servoj([0.03845150172710418, -1.577770439778463, -1.4859772841082972, -1.4479454199420374, 1.5496243238449097, 3.054722547531128], 0.5, 0.5, 0.01, 0.2, 300)

2025-07-07 16:51:22,734 - gym_custom_envs_real_ur_drivers_URBasic_realTimeClientEvent - INFO - Program send to Robot:
servoj([0.03845150172710418, -1.577770439778463, -1.4859772841082972, -1.4479454199420374, 1.5496243238449097, 3.054722547531128], 0.5, 0.5, 0.01, 0.2, 300)

2025-07-07 16:51:22,746 - gym_custom_envs_real_ur_drivers_URBasic_realTimeClientEvent - INFO - Program send to Robot:
servoj([0.03845150172710418, -1.577770439778463, -1.4859772841082972, -1.4479454199420374, 1.5496243238449097, 3.054722547531128], 0.5, 0.5, 0.01, 0.2, 300)

2025-07-07 16:51:22,757 - gym_custom_envs_real_ur_drivers_URBasic_realTimeClientEvent - INFO - Program send to Robot:
servoj([0.03845150172710418, -1.577770439778463, -1.4859772841082972, -1.4479454199420374, 1.5496243238449097, 3.054722547531128], 0.5, 0.5, 0.01, 0.2, 300)

2025-07-07 16:51:22,768 - gym_custom_envs_real_ur_drivers_URBasic_realTimeClientEvent - INFO - Program send to Robot:
servoj([0.03845150172710418, -1.577770439778463, -1.4859772841082972, -1.4479454199420374, 1.5496243238449097, 3.054722547531128], 0.5, 0.5, 0.01, 0.2, 300)

2025-07-07 16:51:22,780 - gym_custom_envs_real_ur_drivers_URBasic_realTimeClientEvent - INFO - Program send to Robot:
servoj([0.03845150172710418, -1.577770439778463, -1.4859772841082972, -1.4479454199420374, 1.5496243238449097, 3.054722547531128], 0.5, 0.5, 0.01, 0.2, 300)

2025-07-07 16:51:22,791 - gym_custom_envs_real_ur_drivers_URBasic_realTimeClientEvent - INFO - Program send to Robot:
servoj([0.03845150172710418, -1.577770439778463, -1.4859772841082972, -1.4479454199420374, 1.5496243238449097, 3.054722547531128], 0.5, 0.5, 0.01, 0.2, 300)

2025-07-07 16:51:22,802 - gym_custom_envs_real_ur_drivers_URBasic_realTimeClientEvent - INFO - Program send to Robot:
servoj([0.03845150172710418, -1.577770439778463, -1.4859772841082972, -1.4479454199420374, 1.5496243238449097, 3.054722547531128], 0.5, 0.5, 0.01, 0.2, 300)

2025-07-07 16:51:22,813 - gym_custom_envs_real_ur_drivers_URBasic_realTimeClientEvent - INFO - Program send to Robot:
servoj([0.03845150172710418, -1.577770439778463, -1.4859772841082972, -1.4479454199420374, 1.5496243238449097, 3.054722547531128], 0.5, 0.5, 0.01, 0.2, 300)

2025-07-07 16:51:22,825 - gym_custom_envs_real_ur_drivers_URBasic_realTimeClientEvent - INFO - Program send to Robot:
servoj([0.03845150172710418, -1.577770439778463, -1.4859772841082972, -1.4479454199420374, 1.5496243238449097, 3.054722547531128], 0.5, 0.5, 0.01, 0.2, 300)

2025-07-07 16:51:22,836 - gym_custom_envs_real_ur_drivers_URBasic_realTimeClientEvent - INFO - Program send to Robot:
servoj([0.03845150172710418, -1.577770439778463, -1.4859772841082972, -1.4479454199420374, 1.5496243238449097, 3.054722547531128], 0.5, 0.5, 0.01, 0.2, 300)

2025-07-07 16:51:22,847 - gym_custom_envs_real_ur_drivers_URBasic_realTimeClientEvent - INFO - Program send to Robot:
servoj([0.03845150172710418, -1.577770439778463, -1.4859772841082972, -1.4479454199420374, 1.5496243238449097, 3.054722547531128], 0.5, 0.5, 0.01, 0.2, 300)

2025-07-07 16:51:22,858 - gym_custom_envs_real_ur_drivers_URBasic_realTimeClientEvent - INFO - Program send to Robot:
servoj([0.03845150172710418, -1.577770439778463, -1.4859772841082972, -1.4479454199420374, 1.5496243238449097, 3.054722547531128], 0.5, 0.5, 0.01, 0.2, 300)

2025-07-07 16:51:22,869 - gym_custom_envs_real_ur_drivers_URBasic_realTimeClientEvent - INFO - Program send to Robot:
servoj([0.03845150172710418, -1.577770439778463, -1.4859772841082972, -1.4479454199420374, 1.5496243238449097, 3.054722547531128], 0.5, 0.5, 0.01, 0.2, 300)

2025-07-07 16:51:22,881 - gym_custom_envs_real_ur_drivers_URBasic_realTimeClientEvent - INFO - Program send to Robot:
servoj([0.03845150172710418, -1.577770439778463, -1.4859772841082972, -1.4479454199420374, 1.5496243238449097, 3.054722547531128], 0.5, 0.5, 0.01, 0.2, 300)

2025-07-07 16:51:22,892 - gym_custom_envs_real_ur_drivers_URBasic_realTimeClientEvent - INFO - Program send to Robot:
servoj([0.03845150172710418, -1.577770439778463, -1.4859772841082972, -1.4479454199420374, 1.5496243238449097, 3.054722547531128], 0.5, 0.5, 0.01, 0.2, 300)

2025-07-07 16:51:22,903 - gym_custom_envs_real_ur_drivers_URBasic_realTimeClientEvent - INFO - Program send to Robot:
servoj([0.03845150172710418, -1.577770439778463, -1.4859772841082972, -1.4479454199420374, 1.5496243238449097, 3.054722547531128], 0.5, 0.5, 0.01, 0.2, 300)

2025-07-07 16:51:22,914 - gym_custom_envs_real_ur_drivers_URBasic_realTimeClientEvent - INFO - Program send to Robot:
servoj([0.03845150172710418, -1.577770439778463, -1.4859772841082972, -1.4479454199420374, 1.5496243238449097, 3.054722547531128], 0.5, 0.5, 0.01, 0.2, 300)

2025-07-07 16:51:22,926 - gym_custom_envs_real_ur_drivers_URBasic_realTimeClientEvent - INFO - Program send to Robot:
servoj([0.03845150172710418, -1.577770439778463, -1.4859772841082972, -1.4479454199420374, 1.5496243238449097, 3.054722547531128], 0.5, 0.5, 0.01, 0.2, 300)

2025-07-07 16:51:22,937 - gym_custom_envs_real_ur_drivers_URBasic_realTimeClientEvent - INFO - Program send to Robot:
servoj([0.03845150172710418, -1.577770439778463, -1.4859772841082972, -1.4479454199420374, 1.5496243238449097, 3.054722547531128], 0.5, 0.5, 0.01, 0.2, 300)

2025-07-07 16:51:22,948 - gym_custom_envs_real_ur_drivers_URBasic_realTimeClientEvent - INFO - Program send to Robot:
servoj([0.03845150172710418, -1.577770439778463, -1.4859772841082972, -1.4479454199420374, 1.5496243238449097, 3.054722547531128], 0.5, 0.5, 0.01, 0.2, 300)

2025-07-07 16:51:22,959 - gym_custom_envs_real_ur_drivers_URBasic_realTimeClientEvent - INFO - Program send to Robot:
servoj([0.03845150172710418, -1.577770439778463, -1.4859772841082972, -1.4479454199420374, 1.5496243238449097, 3.054722547531128], 0.5, 0.5, 0.01, 0.2, 300)

2025-07-07 16:51:22,971 - gym_custom_envs_real_ur_drivers_URBasic_realTimeClientEvent - INFO - Program send to Robot:
servoj([0.03845150172710418, -1.577770439778463, -1.4859772841082972, -1.4479454199420374, 1.5496243238449097, 3.054722547531128], 0.5, 0.5, 0.01, 0.2, 300)

2025-07-07 16:51:22,982 - gym_custom_envs_real_ur_drivers_URBasic_realTimeClientEvent - INFO - Program send to Robot:
servoj([0.03845150172710418, -1.577770439778463, -1.4859772841082972, -1.4479454199420374, 1.5496243238449097, 3.054722547531128], 0.5, 0.5, 0.01, 0.2, 300)

2025-07-07 16:51:22,993 - gym_custom_envs_real_ur_drivers_URBasic_realTimeClientEvent - INFO - Program send to Robot:
servoj([0.03845150172710418, -1.577770439778463, -1.4859772841082972, -1.4479454199420374, 1.5496243238449097, 3.054722547531128], 0.5, 0.5, 0.01, 0.2, 300)

2025-07-07 16:51:23,004 - gym_custom_envs_real_ur_drivers_URBasic_realTimeClientEvent - INFO - Program send to Robot:
servoj([0.03845150172710418, -1.577770439778463, -1.4859772841082972, -1.4479454199420374, 1.5496243238449097, 3.054722547531128], 0.5, 0.5, 0.01, 0.2, 300)

2025-07-07 16:51:23,016 - gym_custom_envs_real_ur_drivers_URBasic_realTimeClientEvent - INFO - Program send to Robot:
servoj([0.03845150172710418, -1.577770439778463, -1.4859772841082972, -1.4479454199420374, 1.5496243238449097, 3.054722547531128], 0.5, 0.5, 0.01, 0.2, 300)

2025-07-07 16:51:23,027 - gym_custom_envs_real_ur_drivers_URBasic_realTimeClientEvent - INFO - Program send to Robot:
servoj([0.03845150172710418, -1.577770439778463, -1.4859772841082972, -1.4479454199420374, 1.5496243238449097, 3.054722547531128], 0.5, 0.5, 0.01, 0.2, 300)

2025-07-07 16:51:23,038 - gym_custom_envs_real_ur_drivers_URBasic_realTimeClientEvent - INFO - Program send to Robot:
servoj([0.03845150172710418, -1.577770439778463, -1.4859772841082972, -1.4479454199420374, 1.5496243238449097, 3.054722547531128], 0.5, 0.5, 0.01, 0.2, 300)

2025-07-07 16:51:23,050 - gym_custom_envs_real_ur_drivers_URBasic_realTimeClientEvent - INFO - Program send to Robot:
servoj([0.03845150172710418, -1.577770439778463, -1.4859772841082972, -1.4479454199420374, 1.5496243238449097, 3.054722547531128], 0.5, 0.5, 0.01, 0.2, 300)

2025-07-07 16:51:23,061 - gym_custom_envs_real_ur_drivers_URBasic_realTimeClientEvent - INFO - Program send to Robot:
servoj([0.03845150172710418, -1.577770439778463, -1.4859772841082972, -1.4479454199420374, 1.5496243238449097, 3.054722547531128], 0.5, 0.5, 0.01, 0.2, 300)

2025-07-07 16:51:23,072 - gym_custom_envs_real_ur_drivers_URBasic_realTimeClientEvent - INFO - Program send to Robot:
servoj([0.03845150172710418, -1.577770439778463, -1.4859772841082972, -1.4479454199420374, 1.5496243238449097, 3.054722547531128], 0.5, 0.5, 0.01, 0.2, 300)

2025-07-07 16:51:23,083 - gym_custom_envs_real_ur_drivers_URBasic_realTimeClientEvent - INFO - Program send to Robot:
servoj([0.03845150172710418, -1.577770439778463, -1.4859772841082972, -1.4479454199420374, 1.5496243238449097, 3.054722547531128], 0.5, 0.5, 0.01, 0.2, 300)

2025-07-07 16:51:23,095 - gym_custom_envs_real_ur_drivers_URBasic_realTimeClientEvent - INFO - Program send to Robot:
servoj([0.03845150172710418, -1.577770439778463, -1.4859772841082972, -1.4479454199420374, 1.5496243238449097, 3.054722547531128], 0.5, 0.5, 0.01, 0.2, 300)

2025-07-07 16:51:23,106 - gym_custom_envs_real_ur_drivers_URBasic_realTimeClientEvent - INFO - Program send to Robot:
servoj([0.03845150172710418, -1.577770439778463, -1.4859772841082972, -1.4479454199420374, 1.5496243238449097, 3.054722547531128], 0.5, 0.5, 0.01, 0.2, 300)

2025-07-07 16:51:23,117 - gym_custom_envs_real_ur_drivers_URBasic_realTimeClientEvent - INFO - Program send to Robot:
servoj([0.03845150172710418, -1.577770439778463, -1.4859772841082972, -1.4479454199420374, 1.5496243238449097, 3.054722547531128], 0.5, 0.5, 0.01, 0.2, 300)

2025-07-07 16:51:23,128 - gym_custom_envs_real_ur_drivers_URBasic_realTimeClientEvent - INFO - Program send to Robot:
servoj([0.03845150172710418, -1.577770439778463, -1.4859772841082972, -1.4479454199420374, 1.5496243238449097, 3.054722547531128], 0.5, 0.5, 0.01, 0.2, 300)

2025-07-07 16:51:23,140 - gym_custom_envs_real_ur_drivers_URBasic_realTimeClientEvent - INFO - Program send to Robot:
servoj([0.03845150172710418, -1.577770439778463, -1.4859772841082972, -1.4479454199420374, 1.5496243238449097, 3.054722547531128], 0.5, 0.5, 0.01, 0.2, 300)

2025-07-07 16:51:23,151 - gym_custom_envs_real_ur_drivers_URBasic_realTimeClientEvent - INFO - Program send to Robot:
servoj([0.03845150172710418, -1.577770439778463, -1.4859772841082972, -1.4479454199420374, 1.5496243238449097, 3.054722547531128], 0.5, 0.5, 0.01, 0.2, 300)

2025-07-07 16:51:23,162 - gym_custom_envs_real_ur_drivers_URBasic_realTimeClientEvent - INFO - Program send to Robot:
servoj([0.03845150172710418, -1.577770439778463, -1.4859772841082972, -1.4479454199420374, 1.5496243238449097, 3.054722547531128], 0.5, 0.5, 0.01, 0.2, 300)

2025-07-07 16:51:23,174 - gym_custom_envs_real_ur_drivers_URBasic_realTimeClientEvent - INFO - Program send to Robot:
servoj([0.03845150172710418, -1.577770439778463, -1.4859772841082972, -1.4479454199420374, 1.5496243238449097, 3.054722547531128], 0.5, 0.5, 0.01, 0.2, 300)

2025-07-07 16:51:23,185 - gym_custom_envs_real_ur_drivers_URBasic_realTimeClientEvent - INFO - Program send to Robot:
servoj([0.03845150172710418, -1.577770439778463, -1.4859772841082972, -1.4479454199420374, 1.5496243238449097, 3.054722547531128], 0.5, 0.5, 0.01, 0.2, 300)

2025-07-07 16:51:23,196 - gym_custom_envs_real_ur_drivers_URBasic_realTimeClientEvent - INFO - Program send to Robot:
servoj([0.03845150172710418, -1.577770439778463, -1.4859772841082972, -1.4479454199420374, 1.5496243238449097, 3.054722547531128], 0.5, 0.5, 0.01, 0.2, 300)

2025-07-07 16:51:23,208 - gym_custom_envs_real_ur_drivers_URBasic_realTimeClientEvent - INFO - Program send to Robot:
servoj([0.03845150172710418, -1.577770439778463, -1.4859772841082972, -1.4479454199420374, 1.5496243238449097, 3.054722547531128], 0.5, 0.5, 0.01, 0.2, 300)

2025-07-07 16:51:23,219 - gym_custom_envs_real_ur_drivers_URBasic_realTimeClientEvent - INFO - Program send to Robot:
servoj([0.03845150172710418, -1.577770439778463, -1.4859772841082972, -1.4479454199420374, 1.5496243238449097, 3.054722547531128], 0.5, 0.5, 0.01, 0.2, 300)

2025-07-07 16:51:23,230 - gym_custom_envs_real_ur_drivers_URBasic_realTimeClientEvent - INFO - Program send to Robot:
servoj([0.03845150172710418, -1.577770439778463, -1.4859772841082972, -1.4479454199420374, 1.5496243238449097, 3.054722547531128], 0.5, 0.5, 0.01, 0.2, 300)

2025-07-07 16:51:23,242 - gym_custom_envs_real_ur_drivers_URBasic_realTimeClientEvent - INFO - Program send to Robot:
servoj([0.03845150172710418, -1.577770439778463, -1.4859772841082972, -1.4479454199420374, 1.5496243238449097, 3.054722547531128], 0.5, 0.5, 0.01, 0.2, 300)

2025-07-07 16:51:23,253 - gym_custom_envs_real_ur_drivers_URBasic_realTimeClientEvent - INFO - Program send to Robot:
servoj([0.03845150172710418, -1.577770439778463, -1.4859772841082972, -1.4479454199420374, 1.5496243238449097, 3.054722547531128], 0.5, 0.5, 0.01, 0.2, 300)

2025-07-07 16:51:23,264 - gym_custom_envs_real_ur_drivers_URBasic_realTimeClientEvent - INFO - Program send to Robot:
servoj([0.03845150172710418, -1.577770439778463, -1.4859772841082972, -1.4479454199420374, 1.5496243238449097, 3.054722547531128], 0.5, 0.5, 0.01, 0.2, 300)

2025-07-07 16:51:23,276 - gym_custom_envs_real_ur_drivers_URBasic_realTimeClientEvent - INFO - Program send to Robot:
servoj([0.03845150172710418, -1.577770439778463, -1.4859772841082972, -1.4479454199420374, 1.5496243238449097, 3.054722547531128], 0.5, 0.5, 0.01, 0.2, 300)

2025-07-07 16:51:23,287 - gym_custom_envs_real_ur_drivers_URBasic_realTimeClientEvent - INFO - Program send to Robot:
servoj([0.03845150172710418, -1.577770439778463, -1.4859772841082972, -1.4479454199420374, 1.5496243238449097, 3.054722547531128], 0.5, 0.5, 0.01, 0.2, 300)

2025-07-07 16:51:23,298 - gym_custom_envs_real_ur_drivers_URBasic_realTimeClientEvent - INFO - Program send to Robot:
servoj([0.03845150172710418, -1.577770439778463, -1.4859772841082972, -1.4479454199420374, 1.5496243238449097, 3.054722547531128], 0.5, 0.5, 0.01, 0.2, 300)

2025-07-07 16:51:23,310 - gym_custom_envs_real_ur_drivers_URBasic_realTimeClientEvent - INFO - Program send to Robot:
servoj([0.03845150172710418, -1.577770439778463, -1.4859772841082972, -1.4479454199420374, 1.5496243238449097, 3.054722547531128], 0.5, 0.5, 0.01, 0.2, 300)

2025-07-07 16:51:23,321 - gym_custom_envs_real_ur_drivers_URBasic_realTimeClientEvent - INFO - Program send to Robot:
servoj([0.03845150172710418, -1.577770439778463, -1.4859772841082972, -1.4479454199420374, 1.5496243238449097, 3.054722547531128], 0.5, 0.5, 0.01, 0.2, 300)

2025-07-07 16:51:23,332 - gym_custom_envs_real_ur_drivers_URBasic_realTimeClientEvent - INFO - Program send to Robot:
servoj([0.03845150172710418, -1.577770439778463, -1.4859772841082972, -1.4479454199420374, 1.5496243238449097, 3.054722547531128], 0.5, 0.5, 0.01, 0.2, 300)

2025-07-07 16:51:23,344 - gym_custom_envs_real_ur_drivers_URBasic_realTimeClientEvent - INFO - Program send to Robot:
servoj([0.03845150172710418, -1.577770439778463, -1.4859772841082972, -1.4479454199420374, 1.5496243238449097, 3.054722547531128], 0.5, 0.5, 0.01, 0.2, 300)

2025-07-07 16:51:23,355 - gym_custom_envs_real_ur_drivers_URBasic_realTimeClientEvent - INFO - Program send to Robot:
servoj([0.03845150172710418, -1.577770439778463, -1.4859772841082972, -1.4479454199420374, 1.5496243238449097, 3.054722547531128], 0.5, 0.5, 0.01, 0.2, 300)

2025-07-07 16:51:23,366 - gym_custom_envs_real_ur_drivers_URBasic_realTimeClientEvent - INFO - Program send to Robot:
servoj([0.03845150172710418, -1.577770439778463, -1.4859772841082972, -1.4479454199420374, 1.5496243238449097, 3.054722547531128], 0.5, 0.5, 0.01, 0.2, 300)

2025-07-07 16:51:23,378 - gym_custom_envs_real_ur_drivers_URBasic_realTimeClientEvent - INFO - Program send to Robot:
servoj([0.03845150172710418, -1.577770439778463, -1.4859772841082972, -1.4479454199420374, 1.5496243238449097, 3.054722547531128], 0.5, 0.5, 0.01, 0.2, 300)

2025-07-07 16:51:23,389 - gym_custom_envs_real_ur_drivers_URBasic_realTimeClientEvent - INFO - Program send to Robot:
servoj([0.03845150172710418, -1.577770439778463, -1.4859772841082972, -1.4479454199420374, 1.5496243238449097, 3.054722547531128], 0.5, 0.5, 0.01, 0.2, 300)

2025-07-07 16:51:23,400 - gym_custom_envs_real_ur_drivers_URBasic_realTimeClientEvent - INFO - Program send to Robot:
servoj([0.03845150172710418, -1.577770439778463, -1.4859772841082972, -1.4479454199420374, 1.5496243238449097, 3.054722547531128], 0.5, 0.5, 0.01, 0.2, 300)

2025-07-07 16:51:23,412 - gym_custom_envs_real_ur_drivers_URBasic_realTimeClientEvent - INFO - Program send to Robot:
servoj([0.03845150172710418, -1.577770439778463, -1.4859772841082972, -1.4479454199420374, 1.5496243238449097, 3.054722547531128], 0.5, 0.5, 0.01, 0.2, 300)

2025-07-07 16:51:23,423 - gym_custom_envs_real_ur_drivers_URBasic_realTimeClientEvent - INFO - Program send to Robot:
servoj([0.03845150172710418, -1.577770439778463, -1.4859772841082972, -1.4479454199420374, 1.5496243238449097, 3.054722547531128], 0.5, 0.5, 0.01, 0.2, 300)

2025-07-07 16:51:23,434 - gym_custom_envs_real_ur_drivers_URBasic_realTimeClientEvent - INFO - Program send to Robot:
servoj([0.03845150172710418, -1.577770439778463, -1.4859772841082972, -1.4479454199420374, 1.5496243238449097, 3.054722547531128], 0.5, 0.5, 0.01, 0.2, 300)

2025-07-07 16:51:23,445 - gym_custom_envs_real_ur_drivers_URBasic_realTimeClientEvent - INFO - Program send to Robot:
servoj([0.03845150172710418, -1.577770439778463, -1.4859772841082972, -1.4479454199420374, 1.5496243238449097, 3.054722547531128], 0.5, 0.5, 0.01, 0.2, 300)

2025-07-07 16:51:23,457 - gym_custom_envs_real_ur_drivers_URBasic_realTimeClientEvent - INFO - Program send to Robot:
servoj([0.03845150172710418, -1.577770439778463, -1.4859772841082972, -1.4479454199420374, 1.5496243238449097, 3.054722547531128], 0.5, 0.5, 0.01, 0.2, 300)

2025-07-07 16:51:23,468 - gym_custom_envs_real_ur_drivers_URBasic_realTimeClientEvent - INFO - Program send to Robot:
servoj([0.03845150172710418, -1.577770439778463, -1.4859772841082972, -1.4479454199420374, 1.5496243238449097, 3.054722547531128], 0.5, 0.5, 0.01, 0.2, 300)

2025-07-07 16:51:23,479 - gym_custom_envs_real_ur_drivers_URBasic_realTimeClientEvent - INFO - Program send to Robot:
servoj([0.03845150172710418, -1.577770439778463, -1.4859772841082972, -1.4479454199420374, 1.5496243238449097, 3.054722547531128], 0.5, 0.5, 0.01, 0.2, 300)

2025-07-07 16:51:23,491 - gym_custom_envs_real_ur_drivers_URBasic_realTimeClientEvent - INFO - Program send to Robot:
servoj([0.03845150172710418, -1.577770439778463, -1.4859772841082972, -1.4479454199420374, 1.5496243238449097, 3.054722547531128], 0.5, 0.5, 0.01, 0.2, 300)

2025-07-07 16:51:23,502 - gym_custom_envs_real_ur_drivers_URBasic_realTimeClientEvent - INFO - Program send to Robot:
servoj([0.03845150172710418, -1.577770439778463, -1.4859772841082972, -1.4479454199420374, 1.5496243238449097, 3.054722547531128], 0.5, 0.5, 0.01, 0.2, 300)

2025-07-07 16:51:23,513 - gym_custom_envs_real_ur_drivers_URBasic_realTimeClientEvent - INFO - Program send to Robot:
servoj([0.03845150172710418, -1.577770439778463, -1.4859772841082972, -1.4479454199420374, 1.5496243238449097, 3.054722547531128], 0.5, 0.5, 0.01, 0.2, 300)

2025-07-07 16:51:23,525 - gym_custom_envs_real_ur_drivers_URBasic_realTimeClientEvent - INFO - Program send to Robot:
servoj([0.03845150172710418, -1.577770439778463, -1.4859772841082972, -1.4479454199420374, 1.5496243238449097, 3.054722547531128], 0.5, 0.5, 0.01, 0.2, 300)

2025-07-07 16:51:23,536 - gym_custom_envs_real_ur_drivers_URBasic_realTimeClientEvent - INFO - Program send to Robot:
servoj([0.03845150172710418, -1.577770439778463, -1.4859772841082972, -1.4479454199420374, 1.5496243238449097, 3.054722547531128], 0.5, 0.5, 0.01, 0.2, 300)

2025-07-07 16:51:23,547 - gym_custom_envs_real_ur_drivers_URBasic_realTimeClientEvent - INFO - Program send to Robot:
servoj([0.03845150172710418, -1.577770439778463, -1.4859772841082972, -1.4479454199420374, 1.5496243238449097, 3.054722547531128], 0.5, 0.5, 0.01, 0.2, 300)

2025-07-07 16:51:23,559 - gym_custom_envs_real_ur_drivers_URBasic_realTimeClientEvent - INFO - Program send to Robot:
servoj([0.03845150172710418, -1.577770439778463, -1.4859772841082972, -1.4479454199420374, 1.5496243238449097, 3.054722547531128], 0.5, 0.5, 0.01, 0.2, 300)

2025-07-07 16:51:23,570 - gym_custom_envs_real_ur_drivers_URBasic_realTimeClientEvent - INFO - Program send to Robot:
servoj([0.03845150172710418, -1.577770439778463, -1.4859772841082972, -1.4479454199420374, 1.5496243238449097, 3.054722547531128], 0.5, 0.5, 0.01, 0.2, 300)

2025-07-07 16:51:23,582 - gym_custom_envs_real_ur_drivers_URBasic_realTimeClientEvent - INFO - Program send to Robot:
servoj([0.03845150172710418, -1.577770439778463, -1.4859772841082972, -1.4479454199420374, 1.5496243238449097, 3.054722547531128], 0.5, 0.5, 0.01, 0.2, 300)

2025-07-07 16:51:23,594 - gym_custom_envs_real_ur_drivers_URBasic_realTimeClientEvent - INFO - Program send to Robot:
servoj([0.03845150172710418, -1.577770439778463, -1.4859772841082972, -1.4479454199420374, 1.5496243238449097, 3.054722547531128], 0.5, 0.5, 0.01, 0.2, 300)

2025-07-07 16:51:23,605 - gym_custom_envs_real_ur_drivers_URBasic_realTimeClientEvent - INFO - Program send to Robot:
servoj([0.03845150172710418, -1.577770439778463, -1.4859772841082972, -1.4479454199420374, 1.5496243238449097, 3.054722547531128], 0.5, 0.5, 0.01, 0.2, 300)

2025-07-07 16:51:23,617 - gym_custom_envs_real_ur_drivers_URBasic_realTimeClientEvent - INFO - Program send to Robot:
servoj([0.03845150172710418, -1.577770439778463, -1.4859772841082972, -1.4479454199420374, 1.5496243238449097, 3.054722547531128], 0.5, 0.5, 0.01, 0.2, 300)

2025-07-07 16:51:23,629 - gym_custom_envs_real_ur_drivers_URBasic_realTimeClientEvent - INFO - Program send to Robot:
servoj([0.03845150172710418, -1.577770439778463, -1.4859772841082972, -1.4479454199420374, 1.5496243238449097, 3.054722547531128], 0.5, 0.5, 0.01, 0.2, 300)

2025-07-07 16:51:23,640 - gym_custom_envs_real_ur_drivers_URBasic_realTimeClientEvent - INFO - Program send to Robot:
servoj([0.03845150172710418, -1.577770439778463, -1.4859772841082972, -1.4479454199420374, 1.5496243238449097, 3.054722547531128], 0.5, 0.5, 0.01, 0.2, 300)

2025-07-07 16:51:23,652 - gym_custom_envs_real_ur_drivers_URBasic_realTimeClientEvent - INFO - Program send to Robot:
servoj([0.03845150172710418, -1.577770439778463, -1.4859772841082972, -1.4479454199420374, 1.5496243238449097, 3.054722547531128], 0.5, 0.5, 0.01, 0.2, 300)

2025-07-07 16:51:23,663 - gym_custom_envs_real_ur_drivers_URBasic_realTimeClientEvent - INFO - Program send to Robot:
servoj([0.03845150172710418, -1.577770439778463, -1.4859772841082972, -1.4479454199420374, 1.5496243238449097, 3.054722547531128], 0.5, 0.5, 0.01, 0.2, 300)

2025-07-07 16:51:23,675 - gym_custom_envs_real_ur_drivers_URBasic_realTimeClientEvent - INFO - Program send to Robot:
servoj([0.03845150172710418, -1.577770439778463, -1.4859772841082972, -1.4479454199420374, 1.5496243238449097, 3.054722547531128], 0.5, 0.5, 0.01, 0.2, 300)

2025-07-07 16:51:23,686 - gym_custom_envs_real_ur_drivers_URBasic_realTimeClientEvent - INFO - Program send to Robot:
servoj([0.03845150172710418, -1.577770439778463, -1.4859772841082972, -1.4479454199420374, 1.5496243238449097, 3.054722547531128], 0.5, 0.5, 0.01, 0.2, 300)

2025-07-07 16:51:23,698 - gym_custom_envs_real_ur_drivers_URBasic_realTimeClientEvent - INFO - Program send to Robot:
servoj([0.03845150172710418, -1.577770439778463, -1.4859772841082972, -1.4479454199420374, 1.5496243238449097, 3.054722547531128], 0.5, 0.5, 0.01, 0.2, 300)

2025-07-07 16:51:23,709 - gym_custom_envs_real_ur_drivers_URBasic_realTimeClientEvent - INFO - Program send to Robot:
servoj([0.03845150172710418, -1.577770439778463, -1.4859772841082972, -1.4479454199420374, 1.5496243238449097, 3.054722547531128], 0.5, 0.5, 0.01, 0.2, 300)

2025-07-07 16:51:23,721 - gym_custom_envs_real_ur_drivers_URBasic_realTimeClientEvent - INFO - Program send to Robot:
servoj([0.03845150172710418, -1.577770439778463, -1.4859772841082972, -1.4479454199420374, 1.5496243238449097, 3.054722547531128], 0.5, 0.5, 0.01, 0.2, 300)

2025-07-07 16:51:23,732 - gym_custom_envs_real_ur_drivers_URBasic_realTimeClientEvent - INFO - Program send to Robot:
servoj([0.03845150172710418, -1.577770439778463, -1.4859772841082972, -1.4479454199420374, 1.5496243238449097, 3.054722547531128], 0.5, 0.5, 0.01, 0.2, 300)

2025-07-07 16:51:23,744 - gym_custom_envs_real_ur_drivers_URBasic_realTimeClientEvent - INFO - Program send to Robot:
servoj([0.03845150172710418, -1.577770439778463, -1.4859772841082972, -1.4479454199420374, 1.5496243238449097, 3.054722547531128], 0.5, 0.5, 0.01, 0.2, 300)

2025-07-07 16:51:23,756 - gym_custom_envs_real_ur_drivers_URBasic_realTimeClientEvent - INFO - Program send to Robot:
servoj([0.03845150172710418, -1.577770439778463, -1.4859772841082972, -1.4479454199420374, 1.5496243238449097, 3.054722547531128], 0.5, 0.5, 0.01, 0.2, 300)

2025-07-07 16:51:23,767 - gym_custom_envs_real_ur_drivers_URBasic_realTimeClientEvent - INFO - Program send to Robot:
servoj([0.03845150172710418, -1.577770439778463, -1.4859772841082972, -1.4479454199420374, 1.5496243238449097, 3.054722547531128], 0.5, 0.5, 0.01, 0.2, 300)

2025-07-07 16:51:23,779 - gym_custom_envs_real_ur_drivers_URBasic_realTimeClientEvent - INFO - Program send to Robot:
servoj([0.03845150172710418, -1.577770439778463, -1.4859772841082972, -1.4479454199420374, 1.5496243238449097, 3.054722547531128], 0.5, 0.5, 0.01, 0.2, 300)

2025-07-07 16:51:23,790 - gym_custom_envs_real_ur_drivers_URBasic_realTimeClientEvent - INFO - Program send to Robot:
servoj([0.03845150172710418, -1.577770439778463, -1.4859772841082972, -1.4479454199420374, 1.5496243238449097, 3.054722547531128], 0.5, 0.5, 0.01, 0.2, 300)

2025-07-07 16:51:23,802 - gym_custom_envs_real_ur_drivers_URBasic_realTimeClientEvent - INFO - Program send to Robot:
servoj([0.03845150172710418, -1.577770439778463, -1.4859772841082972, -1.4479454199420374, 1.5496243238449097, 3.054722547531128], 0.5, 0.5, 0.01, 0.2, 300)

2025-07-07 16:51:23,814 - gym_custom_envs_real_ur_drivers_URBasic_realTimeClientEvent - INFO - Program send to Robot:
servoj([0.03845150172710418, -1.577770439778463, -1.4859772841082972, -1.4479454199420374, 1.5496243238449097, 3.054722547531128], 0.5, 0.5, 0.01, 0.2, 300)

2025-07-07 16:51:23,825 - gym_custom_envs_real_ur_drivers_URBasic_realTimeClientEvent - INFO - Program send to Robot:
servoj([0.03845150172710418, -1.577770439778463, -1.4859772841082972, -1.4479454199420374, 1.5496243238449097, 3.054722547531128], 0.5, 0.5, 0.01, 0.2, 300)

2025-07-07 16:51:23,836 - gym_custom_envs_real_ur_drivers_URBasic_realTimeClientEvent - INFO - Program send to Robot:
servoj([0.03845150172710418, -1.577770439778463, -1.4859772841082972, -1.4479454199420374, 1.5496243238449097, 3.054722547531128], 0.5, 0.5, 0.01, 0.2, 300)

2025-07-07 16:51:23,848 - gym_custom_envs_real_ur_drivers_URBasic_realTimeClientEvent - INFO - Program send to Robot:
servoj([0.03845150172710418, -1.577770439778463, -1.4859772841082972, -1.4479454199420374, 1.5496243238449097, 3.054722547531128], 0.5, 0.5, 0.01, 0.2, 300)

2025-07-07 16:51:23,859 - gym_custom_envs_real_ur_drivers_URBasic_realTimeClientEvent - INFO - Program send to Robot:
servoj([0.03845150172710418, -1.577770439778463, -1.4859772841082972, -1.4479454199420374, 1.5496243238449097, 3.054722547531128], 0.5, 0.5, 0.01, 0.2, 300)

2025-07-07 16:51:23,870 - gym_custom_envs_real_ur_drivers_URBasic_realTimeClientEvent - INFO - Program send to Robot:
servoj([0.03845150172710418, -1.577770439778463, -1.4859772841082972, -1.4479454199420374, 1.5496243238449097, 3.054722547531128], 0.5, 0.5, 0.01, 0.2, 300)

2025-07-07 16:51:23,882 - gym_custom_envs_real_ur_drivers_URBasic_realTimeClientEvent - INFO - Program send to Robot:
servoj([0.03845150172710418, -1.577770439778463, -1.4859772841082972, -1.4479454199420374, 1.5496243238449097, 3.054722547531128], 0.5, 0.5, 0.01, 0.2, 300)

2025-07-07 16:51:23,893 - gym_custom_envs_real_ur_drivers_URBasic_realTimeClientEvent - INFO - Program send to Robot:
servoj([0.03845150172710418, -1.577770439778463, -1.4859772841082972, -1.4479454199420374, 1.5496243238449097, 3.054722547531128], 0.5, 0.5, 0.01, 0.2, 300)

2025-07-07 16:51:23,905 - gym_custom_envs_real_ur_drivers_URBasic_realTimeClientEvent - INFO - Program send to Robot:
servoj([0.03845150172710418, -1.577770439778463, -1.4859772841082972, -1.4479454199420374, 1.5496243238449097, 3.054722547531128], 0.5, 0.5, 0.01, 0.2, 300)

2025-07-07 16:51:23,916 - gym_custom_envs_real_ur_drivers_URBasic_realTimeClientEvent - INFO - Program send to Robot:
servoj([0.03845150172710418, -1.577770439778463, -1.4859772841082972, -1.4479454199420374, 1.5496243238449097, 3.054722547531128], 0.5, 0.5, 0.01, 0.2, 300)

2025-07-07 16:51:23,928 - gym_custom_envs_real_ur_drivers_URBasic_realTimeClientEvent - INFO - Program send to Robot:
servoj([0.03845150172710418, -1.577770439778463, -1.4859772841082972, -1.4479454199420374, 1.5496243238449097, 3.054722547531128], 0.5, 0.5, 0.01, 0.2, 300)

2025-07-07 16:51:23,939 - gym_custom_envs_real_ur_drivers_URBasic_realTimeClientEvent - INFO - Program send to Robot:
servoj([0.03845150172710418, -1.577770439778463, -1.4859772841082972, -1.4479454199420374, 1.5496243238449097, 3.054722547531128], 0.5, 0.5, 0.01, 0.2, 300)

2025-07-07 16:51:23,950 - gym_custom_envs_real_ur_drivers_URBasic_realTimeClientEvent - INFO - Program send to Robot:
servoj([0.03845150172710418, -1.577770439778463, -1.4859772841082972, -1.4479454199420374, 1.5496243238449097, 3.054722547531128], 0.5, 0.5, 0.01, 0.2, 300)

2025-07-07 16:51:23,962 - gym_custom_envs_real_ur_drivers_URBasic_realTimeClientEvent - INFO - Program send to Robot:
servoj([0.03845150172710418, -1.577770439778463, -1.4859772841082972, -1.4479454199420374, 1.5496243238449097, 3.054722547531128], 0.5, 0.5, 0.01, 0.2, 300)

2025-07-07 16:51:23,973 - gym_custom_envs_real_ur_drivers_URBasic_realTimeClientEvent - INFO - Program send to Robot:
servoj([0.03845150172710418, -1.577770439778463, -1.4859772841082972, -1.4479454199420374, 1.5496243238449097, 3.054722547531128], 0.5, 0.5, 0.01, 0.2, 300)

2025-07-07 16:51:23,985 - gym_custom_envs_real_ur_drivers_URBasic_realTimeClientEvent - INFO - Program send to Robot:
servoj([0.03845150172710418, -1.577770439778463, -1.4859772841082972, -1.4479454199420374, 1.5496243238449097, 3.054722547531128], 0.5, 0.5, 0.01, 0.2, 300)

2025-07-07 16:51:23,996 - gym_custom_envs_real_ur_drivers_URBasic_realTimeClientEvent - INFO - Program send to Robot:
servoj([0.03845150172710418, -1.577770439778463, -1.4859772841082972, -1.4479454199420374, 1.5496243238449097, 3.054722547531128], 0.5, 0.5, 0.01, 0.2, 300)

2025-07-07 16:51:24,008 - gym_custom_envs_real_ur_drivers_URBasic_realTimeClientEvent - INFO - Program send to Robot:
servoj([0.03845150172710418, -1.577770439778463, -1.4859772841082972, -1.4479454199420374, 1.5496243238449097, 3.054722547531128], 0.5, 0.5, 0.01, 0.2, 300)

2025-07-07 16:51:24,019 - gym_custom_envs_real_ur_drivers_URBasic_realTimeClientEvent - INFO - Program send to Robot:
servoj([0.03845150172710418, -1.577770439778463, -1.4859772841082972, -1.4479454199420374, 1.5496243238449097, 3.054722547531128], 0.5, 0.5, 0.01, 0.2, 300)

2025-07-07 16:51:24,030 - gym_custom_envs_real_ur_drivers_URBasic_realTimeClientEvent - INFO - Program send to Robot:
servoj([0.03845150172710418, -1.577770439778463, -1.4859772841082972, -1.4479454199420374, 1.5496243238449097, 3.054722547531128], 0.5, 0.5, 0.01, 0.2, 300)

2025-07-07 16:51:24,042 - gym_custom_envs_real_ur_drivers_URBasic_realTimeClientEvent - INFO - Program send to Robot:
servoj([0.03845150172710418, -1.577770439778463, -1.4859772841082972, -1.4479454199420374, 1.5496243238449097, 3.054722547531128], 0.5, 0.5, 0.01, 0.2, 300)

2025-07-07 16:51:24,053 - gym_custom_envs_real_ur_drivers_URBasic_realTimeClientEvent - INFO - Program send to Robot:
servoj([0.03845150172710418, -1.577770439778463, -1.4859772841082972, -1.4479454199420374, 1.5496243238449097, 3.054722547531128], 0.5, 0.5, 0.01, 0.2, 300)

2025-07-07 16:51:24,065 - gym_custom_envs_real_ur_drivers_URBasic_realTimeClientEvent - INFO - Program send to Robot:
servoj([0.03845150172710418, -1.577770439778463, -1.4859772841082972, -1.4479454199420374, 1.5496243238449097, 3.054722547531128], 0.5, 0.5, 0.01, 0.2, 300)

2025-07-07 16:51:24,076 - gym_custom_envs_real_ur_drivers_URBasic_realTimeClientEvent - INFO - Program send to Robot:
servoj([0.03845150172710418, -1.577770439778463, -1.4859772841082972, -1.4479454199420374, 1.5496243238449097, 3.054722547531128], 0.5, 0.5, 0.01, 0.2, 300)

2025-07-07 16:51:24,087 - gym_custom_envs_real_ur_drivers_URBasic_realTimeClientEvent - INFO - Program send to Robot:
servoj([0.03845150172710418, -1.577770439778463, -1.4859772841082972, -1.4479454199420374, 1.5496243238449097, 3.054722547531128], 0.5, 0.5, 0.01, 0.2, 300)

2025-07-07 16:51:24,099 - gym_custom_envs_real_ur_drivers_URBasic_realTimeClientEvent - INFO - Program send to Robot:
servoj([0.03845150172710418, -1.577770439778463, -1.4859772841082972, -1.4479454199420374, 1.5496243238449097, 3.054722547531128], 0.5, 0.5, 0.01, 0.2, 300)

2025-07-07 16:51:24,110 - gym_custom_envs_real_ur_drivers_URBasic_realTimeClientEvent - INFO - Program send to Robot:
servoj([0.03845150172710418, -1.577770439778463, -1.4859772841082972, -1.4479454199420374, 1.5496243238449097, 3.054722547531128], 0.5, 0.5, 0.01, 0.2, 300)

2025-07-07 16:51:24,122 - gym_custom_envs_real_ur_drivers_URBasic_realTimeClientEvent - INFO - Program send to Robot:
servoj([0.03845150172710418, -1.577770439778463, -1.4859772841082972, -1.4479454199420374, 1.5496243238449097, 3.054722547531128], 0.5, 0.5, 0.01, 0.2, 300)

2025-07-07 16:51:24,133 - gym_custom_envs_real_ur_drivers_URBasic_realTimeClientEvent - INFO - Program send to Robot:
servoj([0.03845150172710418, -1.577770439778463, -1.4859772841082972, -1.4479454199420374, 1.5496243238449097, 3.054722547531128], 0.5, 0.5, 0.01, 0.2, 300)

2025-07-07 16:51:24,144 - gym_custom_envs_real_ur_drivers_URBasic_realTimeClientEvent - INFO - Program send to Robot:
servoj([0.03845150172710418, -1.577770439778463, -1.4859772841082972, -1.4479454199420374, 1.5496243238449097, 3.054722547531128], 0.5, 0.5, 0.01, 0.2, 300)

2025-07-07 16:51:24,156 - gym_custom_envs_real_ur_drivers_URBasic_realTimeClientEvent - INFO - Program send to Robot:
servoj([0.03845150172710418, -1.577770439778463, -1.4859772841082972, -1.4479454199420374, 1.5496243238449097, 3.054722547531128], 0.5, 0.5, 0.01, 0.2, 300)

2025-07-07 16:51:24,167 - gym_custom_envs_real_ur_drivers_URBasic_realTimeClientEvent - INFO - Program send to Robot:
servoj([0.03845150172710418, -1.577770439778463, -1.4859772841082972, -1.4479454199420374, 1.5496243238449097, 3.054722547531128], 0.5, 0.5, 0.01, 0.2, 300)

2025-07-07 16:51:24,179 - gym_custom_envs_real_ur_drivers_URBasic_realTimeClientEvent - INFO - Program send to Robot:
servoj([0.03845150172710418, -1.577770439778463, -1.4859772841082972, -1.4479454199420374, 1.5496243238449097, 3.054722547531128], 0.5, 0.5, 0.01, 0.2, 300)

2025-07-07 16:51:24,190 - gym_custom_envs_real_ur_drivers_URBasic_realTimeClientEvent - INFO - Program send to Robot:
servoj([0.03845150172710418, -1.577770439778463, -1.4859772841082972, -1.4479454199420374, 1.5496243238449097, 3.054722547531128], 0.5, 0.5, 0.01, 0.2, 300)

2025-07-07 16:51:24,202 - gym_custom_envs_real_ur_drivers_URBasic_realTimeClientEvent - INFO - Program send to Robot:
servoj([0.03845150172710418, -1.577770439778463, -1.4859772841082972, -1.4479454199420374, 1.5496243238449097, 3.054722547531128], 0.5, 0.5, 0.01, 0.2, 300)

2025-07-07 16:51:24,213 - gym_custom_envs_real_ur_drivers_URBasic_realTimeClientEvent - INFO - Program send to Robot:
servoj([0.03845150172710418, -1.577770439778463, -1.4859772841082972, -1.4479454199420374, 1.5496243238449097, 3.054722547531128], 0.5, 0.5, 0.01, 0.2, 300)

2025-07-07 16:51:24,225 - gym_custom_envs_real_ur_drivers_URBasic_realTimeClientEvent - INFO - Program send to Robot:
servoj([0.03845150172710418, -1.577770439778463, -1.4859772841082972, -1.4479454199420374, 1.5496243238449097, 3.054722547531128], 0.5, 0.5, 0.01, 0.2, 300)

2025-07-07 16:51:24,236 - gym_custom_envs_real_ur_drivers_URBasic_realTimeClientEvent - INFO - Program send to Robot:
servoj([0.03845150172710418, -1.577770439778463, -1.4859772841082972, -1.4479454199420374, 1.5496243238449097, 3.054722547531128], 0.5, 0.5, 0.01, 0.2, 300)

2025-07-07 16:51:24,248 - gym_custom_envs_real_ur_drivers_URBasic_realTimeClientEvent - INFO - Program send to Robot:
servoj([0.03845150172710418, -1.577770439778463, -1.4859772841082972, -1.4479454199420374, 1.5496243238449097, 3.054722547531128], 0.5, 0.5, 0.01, 0.2, 300)

2025-07-07 16:51:24,260 - gym_custom_envs_real_ur_drivers_URBasic_realTimeClientEvent - INFO - Program send to Robot:
servoj([0.03845150172710418, -1.577770439778463, -1.4859772841082972, -1.4479454199420374, 1.5496243238449097, 3.054722547531128], 0.5, 0.5, 0.01, 0.2, 300)

2025-07-07 16:51:24,272 - gym_custom_envs_real_ur_drivers_URBasic_realTimeClientEvent - INFO - Program send to Robot:
servoj([0.03845150172710418, -1.577770439778463, -1.4859772841082972, -1.4479454199420374, 1.5496243238449097, 3.054722547531128], 0.5, 0.5, 0.01, 0.2, 300)

2025-07-07 16:51:24,283 - gym_custom_envs_real_ur_drivers_URBasic_realTimeClientEvent - INFO - Program send to Robot:
servoj([0.03845150172710418, -1.577770439778463, -1.4859772841082972, -1.4479454199420374, 1.5496243238449097, 3.054722547531128], 0.5, 0.5, 0.01, 0.2, 300)

2025-07-07 16:51:24,295 - gym_custom_envs_real_ur_drivers_URBasic_realTimeClientEvent - INFO - Program send to Robot:
servoj([0.03845150172710418, -1.577770439778463, -1.4859772841082972, -1.4479454199420374, 1.5496243238449097, 3.054722547531128], 0.5, 0.5, 0.01, 0.2, 300)

2025-07-07 16:51:24,306 - gym_custom_envs_real_ur_drivers_URBasic_realTimeClientEvent - INFO - Program send to Robot:
servoj([0.03845150172710418, -1.577770439778463, -1.4859772841082972, -1.4479454199420374, 1.5496243238449097, 3.054722547531128], 0.5, 0.5, 0.01, 0.2, 300)

2025-07-07 16:51:24,318 - gym_custom_envs_real_ur_drivers_URBasic_realTimeClientEvent - INFO - Program send to Robot:
servoj([0.03845150172710418, -1.577770439778463, -1.4859772841082972, -1.4479454199420374, 1.5496243238449097, 3.054722547531128], 0.5, 0.5, 0.01, 0.2, 300)

2025-07-07 16:51:24,329 - gym_custom_envs_real_ur_drivers_URBasic_realTimeClientEvent - INFO - Program send to Robot:
servoj([0.03845150172710418, -1.577770439778463, -1.4859772841082972, -1.4479454199420374, 1.5496243238449097, 3.054722547531128], 0.5, 0.5, 0.01, 0.2, 300)

2025-07-07 16:51:24,341 - gym_custom_envs_real_ur_drivers_URBasic_realTimeClientEvent - INFO - Program send to Robot:
servoj([0.03845150172710418, -1.577770439778463, -1.4859772841082972, -1.4479454199420374, 1.5496243238449097, 3.054722547531128], 0.5, 0.5, 0.01, 0.2, 300)

2025-07-07 16:51:24,352 - gym_custom_envs_real_ur_drivers_URBasic_realTimeClientEvent - INFO - Program send to Robot:
servoj([0.03845150172710418, -1.577770439778463, -1.4859772841082972, -1.4479454199420374, 1.5496243238449097, 3.054722547531128], 0.5, 0.5, 0.01, 0.2, 300)

2025-07-07 16:51:24,364 - gym_custom_envs_real_ur_drivers_URBasic_realTimeClientEvent - INFO - Program send to Robot:
servoj([0.03845150172710418, -1.577770439778463, -1.4859772841082972, -1.4479454199420374, 1.5496243238449097, 3.054722547531128], 0.5, 0.5, 0.01, 0.2, 300)

2025-07-07 16:51:24,375 - gym_custom_envs_real_ur_drivers_URBasic_realTimeClientEvent - INFO - Program send to Robot:
servoj([0.03845150172710418, -1.577770439778463, -1.4859772841082972, -1.4479454199420374, 1.5496243238449097, 3.054722547531128], 0.5, 0.5, 0.01, 0.2, 300)

2025-07-07 16:51:24,387 - gym_custom_envs_real_ur_drivers_URBasic_realTimeClientEvent - INFO - Program send to Robot:
servoj([0.03845150172710418, -1.577770439778463, -1.4859772841082972, -1.4479454199420374, 1.5496243238449097, 3.054722547531128], 0.5, 0.5, 0.01, 0.2, 300)

2025-07-07 16:51:24,398 - gym_custom_envs_real_ur_drivers_URBasic_realTimeClientEvent - INFO - Program send to Robot:
servoj([0.03845150172710418, -1.577770439778463, -1.4859772841082972, -1.4479454199420374, 1.5496243238449097, 3.054722547531128], 0.5, 0.5, 0.01, 0.2, 300)

2025-07-07 16:51:24,409 - gym_custom_envs_real_ur_drivers_URBasic_realTimeClientEvent - INFO - Program send to Robot:
servoj([0.03845150172710418, -1.577770439778463, -1.4859772841082972, -1.4479454199420374, 1.5496243238449097, 3.054722547531128], 0.5, 0.5, 0.01, 0.2, 300)

2025-07-07 16:51:24,421 - gym_custom_envs_real_ur_drivers_URBasic_realTimeClientEvent - INFO - Program send to Robot:
servoj([0.03845150172710418, -1.577770439778463, -1.4859772841082972, -1.4479454199420374, 1.5496243238449097, 3.054722547531128], 0.5, 0.5, 0.01, 0.2, 300)

2025-07-07 16:51:24,432 - gym_custom_envs_real_ur_drivers_URBasic_realTimeClientEvent - INFO - Program send to Robot:
servoj([0.03845150172710418, -1.577770439778463, -1.4859772841082972, -1.4479454199420374, 1.5496243238449097, 3.054722547531128], 0.5, 0.5, 0.01, 0.2, 300)

2025-07-07 16:51:24,443 - gym_custom_envs_real_ur_drivers_URBasic_realTimeClientEvent - INFO - Program send to Robot:
servoj([0.03845150172710418, -1.577770439778463, -1.4859772841082972, -1.4479454199420374, 1.5496243238449097, 3.054722547531128], 0.5, 0.5, 0.01, 0.2, 300)

2025-07-07 16:51:24,454 - gym_custom_envs_real_ur_drivers_URBasic_realTimeClientEvent - INFO - Program send to Robot:
servoj([0.03845150172710418, -1.577770439778463, -1.4859772841082972, -1.4479454199420374, 1.5496243238449097, 3.054722547531128], 0.5, 0.5, 0.01, 0.2, 300)

2025-07-07 16:51:24,466 - gym_custom_envs_real_ur_drivers_URBasic_realTimeClientEvent - INFO - Program send to Robot:
servoj([0.03845150172710418, -1.577770439778463, -1.4859772841082972, -1.4479454199420374, 1.5496243238449097, 3.054722547531128], 0.5, 0.5, 0.01, 0.2, 300)

2025-07-07 16:51:24,477 - gym_custom_envs_real_ur_drivers_URBasic_realTimeClientEvent - INFO - Program send to Robot:
servoj([0.03845150172710418, -1.577770439778463, -1.4859772841082972, -1.4479454199420374, 1.5496243238449097, 3.054722547531128], 0.5, 0.5, 0.01, 0.2, 300)

2025-07-07 16:51:24,488 - gym_custom_envs_real_ur_drivers_URBasic_realTimeClientEvent - INFO - Program send to Robot:
servoj([0.03845150172710418, -1.577770439778463, -1.4859772841082972, -1.4479454199420374, 1.5496243238449097, 3.054722547531128], 0.5, 0.5, 0.01, 0.2, 300)

2025-07-07 16:51:24,499 - gym_custom_envs_real_ur_drivers_URBasic_realTimeClientEvent - INFO - Program send to Robot:
servoj([0.03845150172710418, -1.577770439778463, -1.4859772841082972, -1.4479454199420374, 1.5496243238449097, 3.054722547531128], 0.5, 0.5, 0.01, 0.2, 300)

2025-07-07 16:51:24,511 - gym_custom_envs_real_ur_drivers_URBasic_realTimeClientEvent - INFO - Program send to Robot:
servoj([0.03845150172710418, -1.577770439778463, -1.4859772841082972, -1.4479454199420374, 1.5496243238449097, 3.054722547531128], 0.5, 0.5, 0.01, 0.2, 300)

2025-07-07 16:51:24,522 - gym_custom_envs_real_ur_drivers_URBasic_realTimeClientEvent - INFO - Program send to Robot:
servoj([0.03845150172710418, -1.577770439778463, -1.4859772841082972, -1.4479454199420374, 1.5496243238449097, 3.054722547531128], 0.5, 0.5, 0.01, 0.2, 300)

2025-07-07 16:51:24,533 - gym_custom_envs_real_ur_drivers_URBasic_realTimeClientEvent - INFO - Program send to Robot:
servoj([0.03845150172710418, -1.577770439778463, -1.4859772841082972, -1.4479454199420374, 1.5496243238449097, 3.054722547531128], 0.5, 0.5, 0.01, 0.2, 300)

2025-07-07 16:51:24,544 - gym_custom_envs_real_ur_drivers_URBasic_realTimeClientEvent - INFO - Program send to Robot:
servoj([0.03845150172710418, -1.577770439778463, -1.4859772841082972, -1.4479454199420374, 1.5496243238449097, 3.054722547531128], 0.5, 0.5, 0.01, 0.2, 300)

2025-07-07 16:51:24,555 - gym_custom_envs_real_ur_drivers_URBasic_realTimeClientEvent - INFO - Program send to Robot:
servoj([0.03845150172710418, -1.577770439778463, -1.4859772841082972, -1.4479454199420374, 1.5496243238449097, 3.054722547531128], 0.5, 0.5, 0.01, 0.2, 300)

2025-07-07 16:51:24,567 - gym_custom_envs_real_ur_drivers_URBasic_realTimeClientEvent - INFO - Program send to Robot:
servoj([0.03845150172710418, -1.577770439778463, -1.4859772841082972, -1.4479454199420374, 1.5496243238449097, 3.054722547531128], 0.5, 0.5, 0.01, 0.2, 300)

2025-07-07 16:51:24,578 - gym_custom_envs_real_ur_drivers_URBasic_realTimeClientEvent - INFO - Program send to Robot:
servoj([0.03845150172710418, -1.577770439778463, -1.4859772841082972, -1.4479454199420374, 1.5496243238449097, 3.054722547531128], 0.5, 0.5, 0.01, 0.2, 300)

2025-07-07 16:51:24,589 - gym_custom_envs_real_ur_drivers_URBasic_realTimeClientEvent - INFO - Program send to Robot:
servoj([0.03845150172710418, -1.577770439778463, -1.4859772841082972, -1.4479454199420374, 1.5496243238449097, 3.054722547531128], 0.5, 0.5, 0.01, 0.2, 300)

2025-07-07 16:51:24,600 - gym_custom_envs_real_ur_drivers_URBasic_realTimeClientEvent - INFO - Program send to Robot:
servoj([0.03845150172710418, -1.577770439778463, -1.4859772841082972, -1.4479454199420374, 1.5496243238449097, 3.054722547531128], 0.5, 0.5, 0.01, 0.2, 300)

2025-07-07 16:51:24,612 - gym_custom_envs_real_ur_drivers_URBasic_realTimeClientEvent - INFO - Program send to Robot:
servoj([0.03845150172710418, -1.577770439778463, -1.4859772841082972, -1.4479454199420374, 1.5496243238449097, 3.054722547531128], 0.5, 0.5, 0.01, 0.2, 300)

2025-07-07 16:51:24,623 - gym_custom_envs_real_ur_drivers_URBasic_realTimeClientEvent - INFO - Program send to Robot:
servoj([0.03845150172710418, -1.577770439778463, -1.4859772841082972, -1.4479454199420374, 1.5496243238449097, 3.054722547531128], 0.5, 0.5, 0.01, 0.2, 300)

2025-07-07 16:51:24,634 - gym_custom_envs_real_ur_drivers_URBasic_realTimeClientEvent - INFO - Program send to Robot:
servoj([0.03845150172710418, -1.577770439778463, -1.4859772841082972, -1.4479454199420374, 1.5496243238449097, 3.054722547531128], 0.5, 0.5, 0.01, 0.2, 300)

2025-07-07 16:51:24,646 - gym_custom_envs_real_ur_drivers_URBasic_realTimeClientEvent - INFO - Program send to Robot:
servoj([0.03845150172710418, -1.577770439778463, -1.4859772841082972, -1.4479454199420374, 1.5496243238449097, 3.054722547531128], 0.5, 0.5, 0.01, 0.2, 300)

2025-07-07 16:51:24,657 - gym_custom_envs_real_ur_drivers_URBasic_realTimeClientEvent - INFO - Program send to Robot:
servoj([0.03845150172710418, -1.577770439778463, -1.4859772841082972, -1.4479454199420374, 1.5496243238449097, 3.054722547531128], 0.5, 0.5, 0.01, 0.2, 300)

2025-07-07 16:51:24,668 - gym_custom_envs_real_ur_drivers_URBasic_realTimeClientEvent - INFO - Program send to Robot:
servoj([0.03845150172710418, -1.577770439778463, -1.4859772841082972, -1.4479454199420374, 1.5496243238449097, 3.054722547531128], 0.5, 0.5, 0.01, 0.2, 300)

2025-07-07 16:51:24,679 - gym_custom_envs_real_ur_drivers_URBasic_realTimeClientEvent - INFO - Program send to Robot:
servoj([0.03845150172710418, -1.577770439778463, -1.4859772841082972, -1.4479454199420374, 1.5496243238449097, 3.054722547531128], 0.5, 0.5, 0.01, 0.2, 300)

2025-07-07 16:51:24,691 - gym_custom_envs_real_ur_drivers_URBasic_realTimeClientEvent - INFO - Program send to Robot:
servoj([0.03845150172710418, -1.577770439778463, -1.4859772841082972, -1.4479454199420374, 1.5496243238449097, 3.054722547531128], 0.5, 0.5, 0.01, 0.2, 300)

2025-07-07 16:51:24,702 - gym_custom_envs_real_ur_drivers_URBasic_realTimeClientEvent - INFO - Program send to Robot:
servoj([0.03845150172710418, -1.577770439778463, -1.4859772841082972, -1.4479454199420374, 1.5496243238449097, 3.054722547531128], 0.5, 0.5, 0.01, 0.2, 300)

2025-07-07 16:51:24,713 - gym_custom_envs_real_ur_drivers_URBasic_realTimeClientEvent - INFO - Program send to Robot:
servoj([0.03845150172710418, -1.577770439778463, -1.4859772841082972, -1.4479454199420374, 1.5496243238449097, 3.054722547531128], 0.5, 0.5, 0.01, 0.2, 300)

2025-07-07 16:51:24,724 - gym_custom_envs_real_ur_drivers_URBasic_realTimeClientEvent - INFO - Program send to Robot:
servoj([0.03845150172710418, -1.577770439778463, -1.4859772841082972, -1.4479454199420374, 1.5496243238449097, 3.054722547531128], 0.5, 0.5, 0.01, 0.2, 300)

2025-07-07 16:51:24,735 - gym_custom_envs_real_ur_drivers_URBasic_realTimeClientEvent - INFO - Program send to Robot:
servoj([0.03845150172710418, -1.577770439778463, -1.4859772841082972, -1.4479454199420374, 1.5496243238449097, 3.054722547531128], 0.5, 0.5, 0.01, 0.2, 300)

2025-07-07 16:51:24,777 - gym_custom_envs_real_ur_drivers_URBasic_rtdeEvent - INFO - RTDE interface is stopped
2025-07-07 16:51:24,777 - gym_custom_envs_real_ur_drivers_URBasic_realTimeClientEvent - INFO - Disconnected
2025-07-07 16:51:24,907 - gym_custom_envs_real_ur_drivers_URBasic_dashboardEvent - INFO - Dashboard server interface is stopped
