2025-07-07 16:32:27,962 - gym_custom_envs_real_ur_drivers_URBasic_robotModelEvent - INFO - Init done
2025-07-07 16:32:28,463 - gym_custom_envs_real_ur_drivers_URBasic_realTimeClientEvent - INFO - Connected
2025-07-07 16:32:28,464 - gym_custom_envs_real_ur_drivers_URBasic_realTimeClientEvent - INFO - RT_CLient constructor done
2025-07-07 16:32:28,465 - gym_custom_envs_real_ur_drivers_URBasic_dataLogEvent - INFO - Data logging (not event logging) is disabled
2025-07-07 16:32:28,465 - gym_custom_envs_real_ur_drivers_URBasic_dataLogEvent - INFO - DataLog constructor done
2025-07-07 16:32:28,465 - gym_custom_envs_real_ur_drivers_URBasic_dataLogEvent - INFO - DataLog is stopped
2025-07-07 16:32:28,466 - gym_custom_envs_real_ur_drivers_URBasic_rtdeEvent - INFO - RTDE constructor done
2025-07-07 16:32:28,968 - gym_custom_envs_real_ur_drivers_URBasic_dashboardEvent - INFO - Connected
2025-07-07 16:32:28,969 - gym_custom_envs_real_ur_drivers_URBasic_dashboardEvent - INFO - UR Dashboard respond Connected: Universal Robots Dashboard Server
2025-07-07 16:32:28,969 - gym_custom_envs_real_ur_drivers_URBasic_dashboardEvent - INFO - Dashboard server constructor done
2025-07-07 16:32:28,969 - gym_custom_envs_real_ur_drivers_URBasic_robotConnectorEvent - INFO - Init done
2025-07-07 16:32:29,082 - gym_custom_envs_real_ur_drivers_URBasic_rtdeEvent - INFO - Controller version: 3.3.1-60
2025-07-07 16:32:29,083 - gym_custom_envs_real_ur_drivers_URBasic_rtdeEvent - INFO - RTDE started
2025-07-07 16:32:29,970 - gym_custom_envs_real_ur_drivers_URBasic_urScriptEvent - INFO - Init done!!!
2025-07-07 16:32:29,981 - gym_custom_envs_real_ur_drivers_URBasic_urScriptExtEvent - INFO - Init done
2025-07-07 16:32:31,567 - gym_custom_envs_real_ur_interfaceEvent - INFO - [] init done
2025-07-07 16:32:31,567 - gym_custom_envs_real_ur_drivers_URBasic_realTimeClientEvent - INFO - Program send to Robot:
end_freedrive_mode()

2025-07-07 16:32:31,760 - gym_custom_envs_real_ur_drivers_URBasic_realTimeClientEvent - INFO - Program send to Robot:
servoj([-0.003026095329585834, -1.6051388282738654, -1.5344005743609828, -1.5747480891718382, 1.518243441803757, 3.1652126981954742], 0.5, 0.5, 0.002, 0.2, 100)

2025-07-07 16:32:31,773 - gym_custom_envs_real_ur_drivers_URBasic_realTimeClientEvent - INFO - Program send to Robot:
servoj([-0.003053320592052884, -1.6045394869507787, -1.534424416218893, -1.5747555964835054, 1.517692642268749, 3.1652191944707635], 0.5, 0.5, 0.002, 0.2, 100)

2025-07-07 16:32:31,793 - gym_custom_envs_real_ur_drivers_URBasic_realTimeClientEvent - INFO - Program send to Robot:
servoj([-0.003051142804375108, -1.6045213133834493, -1.534448258076803, -1.5747557864778081, 1.5176791397481648, 3.1652255424352456], 0.5, 0.5, 0.002, 0.2, 100)

2025-07-07 16:32:31,807 - gym_custom_envs_real_ur_drivers_URBasic_realTimeClientEvent - INFO - Program send to Robot:
servoj([-0.003018743663263282, -1.6045458586997245, -1.5344005743609828, -1.5747630073184822, 1.5176575656620888, 3.165205385378492], 0.5, 0.5, 0.002, 0.2, 100)

2025-07-07 16:32:31,821 - gym_custom_envs_real_ur_drivers_URBasic_realTimeClientEvent - INFO - Program send to Robot:
servoj([-0.003055501994876055, -1.6045604837466487, -1.5344005743609828, -1.5747706126481438, 1.5176430856974232, 3.165242241976083], 0.5, 0.5, 0.002, 0.2, 100)

2025-07-07 16:32:31,839 - gym_custom_envs_real_ur_drivers_URBasic_realTimeClientEvent - INFO - Program send to Robot:
servoj([-0.0030360327433635037, -1.6051523950952176, -1.5344124952899378, -1.5747443849623364, 1.5182481914485626, 3.165249071730993], 0.5, 0.5, 0.002, 0.2, 100)

2025-07-07 16:32:31,855 - gym_custom_envs_real_ur_drivers_URBasic_realTimeClientEvent - INFO - Program send to Robot:
servoj([-0.0030481503285534964, -1.605153394610814, -1.5344005743609828, -1.5747706126481438, 1.5182798734634826, 3.1652201572687964], 0.5, 0.5, 0.002, 0.2, 100)

2025-07-07 16:32:31,869 - gym_custom_envs_real_ur_drivers_URBasic_realTimeClientEvent - INFO - Program send to Robot:
servoj([-0.0030364428885904654, -1.604549118712572, -1.534448258076803, -1.5747481829155245, 1.5177070181884633, 3.1652107739777335], 0.5, 0.5, 0.002, 0.2, 100)

2025-07-07 16:32:31,888 - gym_custom_envs_real_ur_drivers_URBasic_realTimeClientEvent - INFO - Program send to Robot:
servoj([-0.003030861725025903, -1.6045557249359457, -1.5343886534320277, -1.5747444794569894, 1.5176469993552981, 3.1652352650179987], 0.5, 0.5, 0.002, 0.2, 100)

2025-07-07 16:32:31,904 - gym_custom_envs_real_ur_drivers_URBasic_realTimeClientEvent - INFO - Program send to Robot:
servoj([-0.0030490721690630447, -1.6045307833360023, -1.5344725767718714, -1.5747110848474497, 1.5182736584670529, 3.165231869036318], 0.5, 0.5, 0.002, 0.2, 100)

2025-07-07 16:32:31,917 - gym_custom_envs_real_ur_drivers_URBasic_realTimeClientEvent - INFO - Program send to Robot:
servoj([-0.0030485560536368424, -1.6045456839901113, -1.534436337147848, -1.574751890041235, 1.5182467604397332, 3.1652039436226627], 0.5, 0.5, 0.002, 0.2, 100)

2025-07-07 16:32:31,935 - gym_custom_envs_real_ur_drivers_URBasic_realTimeClientEvent - INFO - Program send to Robot:
servoj([-0.003051142804375108, -1.6051158221393094, -1.534448258076803, -1.5747186460005007, 1.5176923228421866, 3.1652182313176653], 0.5, 0.5, 0.002, 0.2, 100)

2025-07-07 16:32:31,950 - gym_custom_envs_real_ur_drivers_URBasic_realTimeClientEvent - INFO - Program send to Robot:
servoj([-0.0030580864613627967, -1.6051290164718957, -1.5344124952899378, -1.5747297601778378, 1.5176685416878368, 3.1652269883064], 0.5, 0.5, 0.002, 0.2, 100)

2025-07-07 16:32:31,965 - gym_custom_envs_real_ur_drivers_URBasic_realTimeClientEvent - INFO - Program send to Robot:
servoj([-0.003050735222029699, -1.605143699965851, -1.5344124952899378, -1.5747669071304642, 1.5176466189314244, 3.1652269883064], 0.5, 0.5, 0.002, 0.2, 100)

2025-07-07 16:32:31,982 - gym_custom_envs_real_ur_drivers_URBasic_realTimeClientEvent - INFO - Program send to Robot:
servoj([-0.003028681504030406, -1.6051437005529456, -1.5344124952899378, -1.5747443849623364, 1.5176610968810422, 3.1652269883064], 0.5, 0.5, 0.002, 0.2, 100)

2025-07-07 16:32:31,998 - gym_custom_envs_real_ur_drivers_URBasic_realTimeClientEvent - INFO - Program send to Robot:
servoj([-0.0030455659114925343, -1.605148581172952, -1.5343886534320277, -1.5747444794569894, 1.5182484066556377, 3.165257351007743], 0.5, 0.5, 0.002, 0.2, 100)

2025-07-07 16:32:32,013 - gym_custom_envs_real_ur_drivers_URBasic_realTimeClientEvent - INFO - Program send to Robot:
servoj([-0.003053320592052884, -1.605119323674657, -1.534424416218893, -1.5747406800699322, 1.5182576495104552, 3.1652117362639767], 0.5, 0.5, 0.002, 0.2, 100)

2025-07-07 16:32:32,031 - gym_custom_envs_real_ur_drivers_URBasic_realTimeClientEvent - INFO - Program send to Robot:
servoj([-0.0030428786229888434, -1.6045568745821028, -1.5343762556659144, -1.5747483299592717, 1.5176562901973003, 3.1652284526403998], 0.5, 0.5, 0.002, 0.2, 100)

2025-07-07 16:32:32,046 - gym_custom_envs_real_ur_drivers_URBasic_realTimeClientEvent - INFO - Program send to Robot:
servoj([-0.003038618967523044, -1.6045482393987416, -1.534424416218893, -1.5747333681024942, 1.517694082743343, 3.165248588579864], 0.5, 0.5, 0.002, 0.2, 100)

2025-07-07 16:32:32,061 - gym_custom_envs_real_ur_drivers_URBasic_realTimeClientEvent - INFO - Program send to Robot:
servoj([-0.0030455659114925343, -1.604555666243238, -1.5343886534320277, -1.5747667117115662, 1.5176687341226098, 3.1652279517763615], 0.5, 0.5, 0.002, 0.2, 100)

2025-07-07 16:32:32,077 - gym_custom_envs_real_ur_drivers_URBasic_realTimeClientEvent - INFO - Program send to Robot:
servoj([-0.003061079562722526, -1.6045480010885054, -1.5344601790057582, -1.5747295612934162, 1.5176681392462463, 3.1652250603004393], 0.5, 0.5, 0.002, 0.2, 100)

2025-07-07 16:32:32,092 - gym_custom_envs_real_ur_drivers_URBasic_realTimeClientEvent - INFO - Program send to Robot:
servoj([-0.0030459697797879624, -1.604518639742403, -1.534424416218893, -1.5747406800699322, 1.518273860165263, 3.1652191944707635], 0.5, 0.5, 0.002, 0.2, 100)

2025-07-07 16:32:32,108 - gym_custom_envs_real_ur_drivers_URBasic_realTimeClientEvent - INFO - Program send to Robot:
servoj([-0.0030407986622309445, -1.6045604837407195, -1.5344005743609828, -1.5747556945015, 1.5182651747013483, 3.1652126981954742], 0.5, 0.5, 0.002, 0.2, 100)

2025-07-07 16:32:32,125 - gym_custom_envs_real_ur_drivers_URBasic_realTimeClientEvent - INFO - Program send to Robot:
servoj([-0.0030580864613627967, -1.6051450827029092, -1.5344124952899378, -1.5747519898502755, 1.5182688190121154, 3.1652269883064], 0.5, 0.5, 0.002, 0.2, 100)

2025-07-07 16:32:32,141 - gym_custom_envs_real_ur_drivers_URBasic_realTimeClientEvent - INFO - Program send to Robot:
servoj([-0.0030529180047258464, -1.605148521881459, -1.5343886534320277, -1.5747444794569894, 1.5182543358048761, 3.1652279517763615], 0.5, 0.5, 0.002, 0.2, 100)

2025-07-07 16:32:32,158 - gym_custom_envs_real_ur_drivers_URBasic_realTimeClientEvent - INFO - Program send to Robot:
servoj([-0.04755340442445499, -1.5631264228401285, -1.6137477888556946, -1.5109710760673565, 1.580000211522209, 3.1569324614686494], 0.5, 0.5, 0.002, 0.2, 100)

2025-07-07 16:32:32,174 - gym_custom_envs_real_ur_drivers_URBasic_realTimeClientEvent - INFO - Program send to Robot:
servoj([-0.04755340442445499, -1.563126422855315, -1.6137477888556946, -1.5109710760673565, 1.5800002115222105, 3.1569324614686494], 0.5, 0.5, 0.002, 0.2, 100)

2025-07-07 16:32:32,181 - gym_custom_envs_real_ur_drivers_URBasic_realTimeClientEvent - INFO - Program send to Robot:
servoj([-0.04755340442445499, -1.5631264228554669, -1.6137477888556946, -1.5109710760673565, 1.5800002115222105, 3.1569324614686494], 0.5, 0.5, 0.002, 0.2, 100)

2025-07-07 16:32:32,189 - gym_custom_envs_real_ur_drivers_URBasic_realTimeClientEvent - INFO - Program send to Robot:
servoj([-0.04755340442445499, -1.5616077818754615, -1.6137477888556946, -1.5109710760673565, 1.5784815705422035, 3.1569324614686494], 0.5, 0.5, 0.002, 0.2, 100)

2025-07-07 16:32:32,197 - gym_custom_envs_real_ur_drivers_URBasic_realTimeClientEvent - INFO - Program send to Robot:
servoj([-0.04755340442445499, -1.5615925954656613, -1.6137477888556946, -1.5109710760673565, 1.5784663841324036, 3.1569324614686494], 0.5, 0.5, 0.002, 0.2, 100)

2025-07-07 16:32:32,213 - gym_custom_envs_real_ur_drivers_URBasic_realTimeClientEvent - INFO - Program send to Robot:
servoj([-0.04755340442445499, -1.5615924436015634, -1.6137477888556946, -1.5109710760673565, 1.5784662322683056, 3.1569324614686494], 0.5, 0.5, 0.002, 0.2, 100)

2025-07-07 16:32:32,221 - gym_custom_envs_real_ur_drivers_URBasic_realTimeClientEvent - INFO - Program send to Robot:
servoj([-0.04755340442445499, -1.5615924420829224, -1.6137477888556946, -1.5109710760673565, 1.5799848717296716, 3.1569324614686494], 0.5, 0.5, 0.002, 0.2, 100)

2025-07-07 16:32:32,229 - gym_custom_envs_real_ur_drivers_URBasic_realTimeClientEvent - INFO - Program send to Robot:
servoj([-0.04755340442445499, -1.5615924420677358, -1.6137477888556946, -1.5109710760673565, 1.5800000581242852, 3.1569324614686494], 0.5, 0.5, 0.002, 0.2, 100)

2025-07-07 16:32:32,245 - gym_custom_envs_real_ur_drivers_URBasic_realTimeClientEvent - INFO - Program send to Robot:
servoj([-0.04755340442445499, -1.561592442067584, -1.6137477888556946, -1.5109710760673565, 1.5800002099882313, 3.1569324614686494], 0.5, 0.5, 0.002, 0.2, 100)

2025-07-07 16:32:32,253 - gym_custom_envs_real_ur_drivers_URBasic_realTimeClientEvent - INFO - Program send to Robot:
servoj([-0.04755340442445499, -1.5631110830475896, -1.6137477888556946, -1.5109710760673565, 1.5800002115068708, 3.1569324614686494], 0.5, 0.5, 0.002, 0.2, 100)

2025-07-07 16:32:32,261 - gym_custom_envs_real_ur_drivers_URBasic_realTimeClientEvent - INFO - Program send to Robot:
servoj([-0.04755340442445499, -1.5631262694573895, -1.6137477888556946, -1.5109710760673565, 1.5800002115220573, 3.1569324614686494], 0.5, 0.5, 0.002, 0.2, 100)

2025-07-07 16:32:32,278 - gym_custom_envs_real_ur_drivers_URBasic_realTimeClientEvent - INFO - Program send to Robot:
servoj([-0.04755340442445499, -1.5631264213214875, -1.6137477888556946, -1.5109710760673565, 1.580000211522209, 3.1569324614686494], 0.5, 0.5, 0.002, 0.2, 100)

2025-07-07 16:32:32,286 - gym_custom_envs_real_ur_drivers_URBasic_realTimeClientEvent - INFO - Program send to Robot:
servoj([-0.04755340442445499, -1.5616077818601215, -1.6137477888556946, -1.5109710760673565, 1.5784815705422035, 3.1569324614686494], 0.5, 0.5, 0.002, 0.2, 100)

2025-07-07 16:32:32,301 - gym_custom_envs_real_ur_drivers_URBasic_realTimeClientEvent - INFO - Program send to Robot:
servoj([-0.04755340442445499, -1.5615925954655079, -1.6137477888556946, -1.5109710760673565, 1.5784663841324036, 3.1569324614686494], 0.5, 0.5, 0.002, 0.2, 100)

2025-07-07 16:32:32,309 - gym_custom_envs_real_ur_drivers_URBasic_realTimeClientEvent - INFO - Program send to Robot:
servoj([-0.04755340442445499, -1.5615924436015618, -1.6137477888556946, -1.5109710760673565, 1.5784662322683056, 3.1569324614686494], 0.5, 0.5, 0.002, 0.2, 100)

2025-07-07 16:32:32,317 - gym_custom_envs_real_ur_drivers_URBasic_realTimeClientEvent - INFO - Program send to Robot:
servoj([-0.04755340442445499, -1.5631110830629293, -1.6137477888556946, -1.5109710760673565, 1.5784662307496646, 3.1569324614686494], 0.5, 0.5, 0.002, 0.2, 100)

2025-07-07 16:32:32,326 - gym_custom_envs_real_ur_drivers_URBasic_realTimeClientEvent - INFO - Program send to Robot:
servoj([-0.04755340442445499, -1.563126269457543, -1.6137477888556946, -1.5109710760673565, 1.5784662307344781, 3.1569324614686494], 0.5, 0.5, 0.002, 0.2, 100)

2025-07-07 16:32:32,342 - gym_custom_envs_real_ur_drivers_URBasic_realTimeClientEvent - INFO - Program send to Robot:
servoj([-0.04755340442445499, -1.563126421321489, -1.6137477888556946, -1.5109710760673565, 1.5784662307343262, 3.1569324614686494], 0.5, 0.5, 0.002, 0.2, 100)

2025-07-07 16:32:32,349 - gym_custom_envs_real_ur_drivers_URBasic_realTimeClientEvent - INFO - Program send to Robot:
servoj([-0.04755340442445499, -1.5616077818601215, -1.6137477888556946, -1.5109710760673565, 1.5799848717143317, 3.1569324614686494], 0.5, 0.5, 0.002, 0.2, 100)

2025-07-07 16:32:32,357 - gym_custom_envs_real_ur_drivers_URBasic_realTimeClientEvent - INFO - Program send to Robot:
servoj([-0.04755340442445499, -1.5615925954655079, -1.6137477888556946, -1.5109710760673565, 1.5800000581241318, 3.1569324614686494], 0.5, 0.5, 0.002, 0.2, 100)

2025-07-07 16:32:32,373 - gym_custom_envs_real_ur_drivers_URBasic_realTimeClientEvent - INFO - Program send to Robot:
servoj([-0.04755340442445499, -1.5615924436015618, -1.6137477888556946, -1.5109710760673565, 1.5800002099882298, 3.1569324614686494], 0.5, 0.5, 0.002, 0.2, 100)

2025-07-07 16:32:32,390 - gym_custom_envs_real_ur_drivers_URBasic_realTimeClientEvent - INFO - Program send to Robot:
servoj([-0.04755340442445499, -1.5615924420829224, -1.6137477888556946, -1.5109710760673565, 1.5800002115068708, 3.1569324614686494], 0.5, 0.5, 0.002, 0.2, 100)

2025-07-07 16:32:32,397 - gym_custom_envs_real_ur_drivers_URBasic_realTimeClientEvent - INFO - Program send to Robot:
servoj([-0.04755340442445499, -1.5615924420677358, -1.6137477888556946, -1.5109710760673565, 1.5800002115220573, 3.1569324614686494], 0.5, 0.5, 0.002, 0.2, 100)

2025-07-07 16:32:32,405 - gym_custom_envs_real_ur_drivers_URBasic_realTimeClientEvent - INFO - Program send to Robot:
servoj([-0.04755340442445499, -1.561592442067584, -1.6137477888556946, -1.5109710760673565, 1.580000211522209, 3.1569324614686494], 0.5, 0.5, 0.002, 0.2, 100)

2025-07-07 16:32:32,414 - gym_custom_envs_real_ur_drivers_URBasic_realTimeClientEvent - INFO - Program send to Robot:
servoj([-0.04755340442445499, -1.5615924420675826, -1.6137477888556946, -1.5109710760673565, 1.5784815705422035, 3.1569324614686494], 0.5, 0.5, 0.002, 0.2, 100)

2025-07-07 16:32:32,430 - gym_custom_envs_real_ur_drivers_URBasic_realTimeClientEvent - INFO - Program send to Robot:
servoj([-0.04755340442445499, -1.5615924420675826, -1.6137477888556946, -1.5109710760673565, 1.5784663841324036, 3.1569324614686494], 0.5, 0.5, 0.002, 0.2, 100)

2025-07-07 16:32:32,438 - gym_custom_envs_real_ur_drivers_URBasic_realTimeClientEvent - INFO - Program send to Robot:
servoj([-0.04755340442445499, -1.5615924420675826, -1.6137477888556946, -1.5109710760673565, 1.5784662322683056, 3.1569324614686494], 0.5, 0.5, 0.002, 0.2, 100)

2025-07-07 16:32:32,444 - gym_custom_envs_real_ur_drivers_URBasic_realTimeClientEvent - INFO - Program send to Robot:
servoj([-0.04755340442445499, -1.5615924420675826, -1.6137477888556946, -1.5109710760673565, 1.5799848717296716, 3.1569324614686494], 0.5, 0.5, 0.002, 0.2, 100)

2025-07-07 16:32:32,462 - gym_custom_envs_real_ur_drivers_URBasic_realTimeClientEvent - INFO - Program send to Robot:
servoj([-0.04755340442445499, -1.5615924420675826, -1.6137477888556946, -1.5109710760673565, 1.5800000581242852, 3.1569324614686494], 0.5, 0.5, 0.002, 0.2, 100)

2025-07-07 16:32:32,469 - gym_custom_envs_real_ur_drivers_URBasic_realTimeClientEvent - INFO - Program send to Robot:
servoj([-0.04755340442445499, -1.5615924420675826, -1.6137477888556946, -1.5109710760673565, 1.5800002099882313, 3.1569324614686494], 0.5, 0.5, 0.002, 0.2, 100)

2025-07-07 16:32:32,477 - gym_custom_envs_real_ur_drivers_URBasic_realTimeClientEvent - INFO - Program send to Robot:
servoj([-0.04755340442445499, -1.5615924420675826, -1.6137477888556946, -1.5109710760673565, 1.5784815705268638, 3.1569324614686494], 0.5, 0.5, 0.002, 0.2, 100)

2025-07-07 16:32:32,485 - gym_custom_envs_real_ur_drivers_URBasic_realTimeClientEvent - INFO - Program send to Robot:
servoj([-0.04755340442445499, -1.5615924420675826, -1.6137477888556946, -1.5109710760673565, 1.5784663841322502, 3.1569324614686494], 0.5, 0.5, 0.002, 0.2, 100)

2025-07-07 16:32:32,501 - gym_custom_envs_real_ur_drivers_URBasic_realTimeClientEvent - INFO - Program send to Robot:
servoj([-0.04755340442445499, -1.5615924420675826, -1.6137477888556946, -1.5109710760673565, 1.578466232268304, 3.1569324614686494], 0.5, 0.5, 0.002, 0.2, 100)

2025-07-07 16:32:32,509 - gym_custom_envs_real_ur_drivers_URBasic_realTimeClientEvent - INFO - Program send to Robot:
servoj([-0.04755340442445499, -1.5631110830475896, -1.6137477888556946, -1.5109710760673565, 1.5799848717296716, 3.1569324614686494], 0.5, 0.5, 0.002, 0.2, 100)

2025-07-07 16:32:32,517 - gym_custom_envs_real_ur_drivers_URBasic_realTimeClientEvent - INFO - Program send to Robot:
servoj([-0.04755340442445499, -1.5631262694573895, -1.6137477888556946, -1.5109710760673565, 1.5800000581242852, 3.1569324614686494], 0.5, 0.5, 0.002, 0.2, 100)

2025-07-07 16:32:32,525 - gym_custom_envs_real_ur_drivers_URBasic_realTimeClientEvent - INFO - Program send to Robot:
servoj([-0.04755340442445499, -1.5631264213214875, -1.6137477888556946, -1.5109710760673565, 1.5800002099882313, 3.1569324614686494], 0.5, 0.5, 0.002, 0.2, 100)

2025-07-07 16:32:32,540 - gym_custom_envs_real_ur_drivers_URBasic_realTimeClientEvent - INFO - Program send to Robot:
servoj([-0.04755340442445499, -1.5631264228401285, -1.6137477888556946, -1.5109710760673565, 1.5784815705268638, 3.1569324614686494], 0.5, 0.5, 0.002, 0.2, 100)

2025-07-07 16:32:32,550 - gym_custom_envs_real_ur_drivers_URBasic_realTimeClientEvent - INFO - Program send to Robot:
servoj([-0.04755340442445499, -1.563126422855315, -1.6137477888556946, -1.5109710760673565, 1.5784663841322502, 3.1569324614686494], 0.5, 0.5, 0.002, 0.2, 100)

2025-07-07 16:32:32,560 - gym_custom_envs_real_ur_drivers_URBasic_realTimeClientEvent - INFO - Program send to Robot:
servoj([-0.04755340442445499, -1.5631264228554669, -1.6137477888556946, -1.5109710760673565, 1.578466232268304, 3.1569324614686494], 0.5, 0.5, 0.002, 0.2, 100)

2025-07-07 16:32:32,576 - gym_custom_envs_real_ur_drivers_URBasic_realTimeClientEvent - INFO - Program send to Robot:
servoj([-0.04755340442445499, -1.5631264228554684, -1.6137477888556946, -1.5109710760673565, 1.5799848717296716, 3.1569324614686494], 0.5, 0.5, 0.002, 0.2, 100)

2025-07-07 16:32:32,580 - gym_custom_envs_real_ur_drivers_URBasic_realTimeClientEvent - INFO - Program send to Robot:
servoj([-0.04755340442445499, -1.5631264228554684, -1.6137477888556946, -1.5109710760673565, 1.5800000581242852, 3.1569324614686494], 0.5, 0.5, 0.002, 0.2, 100)

2025-07-07 16:32:32,589 - gym_custom_envs_real_ur_drivers_URBasic_realTimeClientEvent - INFO - Program send to Robot:
servoj([-0.04755340442445499, -1.5631264228554684, -1.6137477888556946, -1.5109710760673565, 1.5800002099882313, 3.1569324614686494], 0.5, 0.5, 0.002, 0.2, 100)

2025-07-07 16:32:32,607 - gym_custom_envs_real_ur_drivers_URBasic_realTimeClientEvent - INFO - Program send to Robot:
servoj([-0.04755340442445499, -1.5631264228554684, -1.6137477888556946, -1.5109710760673565, 1.5800002115068708, 3.1569324614686494], 0.5, 0.5, 0.002, 0.2, 100)

2025-07-07 16:32:32,613 - gym_custom_envs_real_ur_drivers_URBasic_realTimeClientEvent - INFO - Program send to Robot:
servoj([-0.04755340442445499, -1.5631264228554684, -1.6137477888556946, -1.5109710760673565, 1.5800002115220573, 3.1569324614686494], 0.5, 0.5, 0.002, 0.2, 100)

2025-07-07 16:32:32,622 - gym_custom_envs_real_ur_drivers_URBasic_realTimeClientEvent - INFO - Program send to Robot:
servoj([-0.04755340442445499, -1.5631264228554684, -1.6137477888556946, -1.5109710760673565, 1.580000211522209, 3.1569324614686494], 0.5, 0.5, 0.002, 0.2, 100)

2025-07-07 16:32:32,636 - gym_custom_envs_real_ur_drivers_URBasic_realTimeClientEvent - INFO - Program send to Robot:
servoj([-0.04755340442445499, -1.5631264228554684, -1.6137477888556946, -1.5109710760673565, 1.5800002115222105, 3.1569324614686494], 0.5, 0.5, 0.002, 0.2, 100)

2025-07-07 16:32:32,647 - gym_custom_envs_real_ur_drivers_URBasic_realTimeClientEvent - INFO - Program send to Robot:
servoj([-0.04755340442445499, -1.5631264228554684, -1.6137477888556946, -1.5109710760673565, 1.5800002115222105, 3.1569324614686494], 0.5, 0.5, 0.002, 0.2, 100)

2025-07-07 16:32:32,655 - gym_custom_envs_real_ur_drivers_URBasic_realTimeClientEvent - INFO - Program send to Robot:
servoj([-0.04755340442445499, -1.5631264228554684, -1.6137477888556946, -1.5109710760673565, 1.5800002115222105, 3.1569324614686494], 0.5, 0.5, 0.002, 0.2, 100)

2025-07-07 16:32:32,661 - gym_custom_envs_real_ur_drivers_URBasic_realTimeClientEvent - INFO - Program send to Robot:
servoj([-0.04755340442445499, -1.5631264228554684, -1.6137477888556946, -1.5109710760673565, 1.5800002115222105, 3.1569324614686494], 0.5, 0.5, 0.002, 0.2, 100)

2025-07-07 16:32:32,680 - gym_custom_envs_real_ur_drivers_URBasic_realTimeClientEvent - INFO - Program send to Robot:
servoj([-0.04755340442445499, -1.5616077818754615, -1.6137477888556946, -1.5109710760673565, 1.5800002115222105, 3.1569324614686494], 0.5, 0.5, 0.002, 0.2, 100)

2025-07-07 16:32:32,685 - gym_custom_envs_real_ur_drivers_URBasic_realTimeClientEvent - INFO - Program send to Robot:
servoj([-0.04755340442445499, -1.5615925954656613, -1.6137477888556946, -1.5109710760673565, 1.5800002115222105, 3.1569324614686494], 0.5, 0.5, 0.002, 0.2, 100)

2025-07-07 16:32:32,696 - gym_custom_envs_real_ur_drivers_URBasic_realTimeClientEvent - INFO - Program send to Robot:
servoj([-0.04755340442445499, -1.5631110845815703, -1.6137477888556946, -1.5109710760673565, 1.5800002115222105, 3.1569324614686494], 0.5, 0.5, 0.002, 0.2, 100)

2025-07-07 16:32:32,709 - gym_custom_envs_real_ur_drivers_URBasic_realTimeClientEvent - INFO - Program send to Robot:
servoj([-0.04755340442445499, -1.5631262694727295, -1.6137477888556946, -1.5109710760673565, 1.5800002115222105, 3.1569324614686494], 0.5, 0.5, 0.002, 0.2, 100)

2025-07-07 16:32:32,720 - gym_custom_envs_real_ur_drivers_URBasic_realTimeClientEvent - INFO - Program send to Robot:
servoj([-0.04755340442445499, -1.563126421321641, -1.6137477888556946, -1.5109710760673565, 1.5800002115222105, 3.1569324614686494], 0.5, 0.5, 0.002, 0.2, 100)

2025-07-07 16:32:32,728 - gym_custom_envs_real_ur_drivers_URBasic_realTimeClientEvent - INFO - Program send to Robot:
servoj([-0.04755340442445499, -1.56312642284013, -1.6137477888556946, -1.5109710760673565, 1.5800002115222105, 3.1569324614686494], 0.5, 0.5, 0.002, 0.2, 100)

2025-07-07 16:32:32,733 - gym_custom_envs_real_ur_drivers_URBasic_realTimeClientEvent - INFO - Program send to Robot:
servoj([-0.04755340442445499, -1.563126422855315, -1.6137477888556946, -1.5109710760673565, 1.5800002115222105, 3.1569324614686494], 0.5, 0.5, 0.002, 0.2, 100)

2025-07-07 16:32:32,751 - gym_custom_envs_real_ur_drivers_URBasic_realTimeClientEvent - INFO - Program send to Robot:
servoj([-0.04755340442445499, -1.5631264228554669, -1.6137477888556946, -1.5109710760673565, 1.5800002115222105, 3.1569324614686494], 0.5, 0.5, 0.002, 0.2, 100)

2025-07-07 16:32:32,757 - gym_custom_envs_real_ur_drivers_URBasic_realTimeClientEvent - INFO - Program send to Robot:
servoj([-0.04755340442445499, -1.5631264228554684, -1.6137477888556946, -1.5109710760673565, 1.5800002115222105, 3.1569324614686494], 0.5, 0.5, 0.002, 0.2, 100)

2025-07-07 16:32:32,767 - gym_custom_envs_real_ur_drivers_URBasic_realTimeClientEvent - INFO - Program send to Robot:
servoj([-0.04755340442445499, -1.5616077818754615, -1.6137477888556946, -1.5109710760673565, 1.5784815705422035, 3.1569324614686494], 0.5, 0.5, 0.002, 0.2, 100)

2025-07-07 16:32:32,781 - gym_custom_envs_real_ur_drivers_URBasic_realTimeClientEvent - INFO - Program send to Robot:
servoj([-0.04755340442445499, -1.5615925954656613, -1.6137477888556946, -1.5109710760673565, 1.5784663841324036, 3.1569324614686494], 0.5, 0.5, 0.002, 0.2, 100)

2025-07-07 16:32:32,791 - gym_custom_envs_real_ur_drivers_URBasic_realTimeClientEvent - INFO - Program send to Robot:
servoj([-0.04755340442445499, -1.5615924436015634, -1.6137477888556946, -1.5109710760673565, 1.5784662322683056, 3.1569324614686494], 0.5, 0.5, 0.002, 0.2, 100)

2025-07-07 16:32:32,800 - gym_custom_envs_real_ur_drivers_URBasic_realTimeClientEvent - INFO - Program send to Robot:
servoj([-0.04755340442445499, -1.5631110830629293, -1.6137477888556946, -1.5109710760673565, 1.5784662307496646, 3.1569324614686494], 0.5, 0.5, 0.002, 0.2, 100)

2025-07-07 16:32:32,805 - gym_custom_envs_real_ur_drivers_URBasic_realTimeClientEvent - INFO - Program send to Robot:
servoj([-0.04755340442445499, -1.563126269457543, -1.6137477888556946, -1.5109710760673565, 1.5784662307344781, 3.1569324614686494], 0.5, 0.5, 0.002, 0.2, 100)

2025-07-07 16:32:32,825 - gym_custom_envs_real_ur_drivers_URBasic_realTimeClientEvent - INFO - Program send to Robot:
servoj([-0.04755340442445499, -1.561607780341482, -1.6137477888556946, -1.5109710760673565, 1.5799848717143332, 3.1569324614686494], 0.5, 0.5, 0.002, 0.2, 100)

2025-07-07 16:32:32,828 - gym_custom_envs_real_ur_drivers_URBasic_realTimeClientEvent - INFO - Program send to Robot:
servoj([-0.04755340442445499, -1.5615925954503216, -1.6137477888556946, -1.5109710760673565, 1.5800000581241318, 3.1569324614686494], 0.5, 0.5, 0.002, 0.2, 100)

2025-07-07 16:32:32,848 - gym_custom_envs_real_ur_drivers_URBasic_realTimeClientEvent - INFO - Program send to Robot:
servoj([-0.04755340442445499, -1.56159244360141, -1.6137477888556946, -1.5109710760673565, 1.5800002099882298, 3.1569324614686494], 0.5, 0.5, 0.002, 0.2, 100)

2025-07-07 16:32:32,854 - gym_custom_envs_real_ur_drivers_URBasic_realTimeClientEvent - INFO - Program send to Robot:
servoj([-0.04755340442445499, -1.5615924420829208, -1.6137477888556946, -1.5109710760673565, 1.5800002115068708, 3.1569324614686494], 0.5, 0.5, 0.002, 0.2, 100)

2025-07-07 16:32:32,865 - gym_custom_envs_real_ur_drivers_URBasic_realTimeClientEvent - INFO - Program send to Robot:
servoj([-0.04755340442445499, -1.5631110830477428, -1.6137477888556946, -1.5109710760673565, 1.5784815705420503, 3.1569324614686494], 0.5, 0.5, 0.002, 0.2, 100)

2025-07-07 16:32:32,878 - gym_custom_envs_real_ur_drivers_URBasic_realTimeClientEvent - INFO - Program send to Robot:
servoj([-0.04755340442445499, -1.563126269457391, -1.6137477888556946, -1.5109710760673565, 1.578466384132402, 3.1569324614686494], 0.5, 0.5, 0.002, 0.2, 100)

2025-07-07 16:32:32,888 - gym_custom_envs_real_ur_drivers_URBasic_realTimeClientEvent - INFO - Program send to Robot:
servoj([-0.04755340442445499, -1.5616077803414805, -1.6137477888556946, -1.5109710760673565, 1.5799848732483124, 3.1569324614686494], 0.5, 0.5, 0.002, 0.2, 100)

2025-07-07 16:32:32,896 - gym_custom_envs_real_ur_drivers_URBasic_realTimeClientEvent - INFO - Program send to Robot:
servoj([-0.04755340442445499, -1.5615925954503216, -1.6137477888556946, -1.5109710760673565, 1.5800000581394715, 3.1569324614686494], 0.5, 0.5, 0.002, 0.2, 100)

2025-07-07 16:32:32,901 - gym_custom_envs_real_ur_drivers_URBasic_realTimeClientEvent - INFO - Program send to Robot:
servoj([-0.04755340442445499, -1.56159244360141, -1.6137477888556946, -1.5109710760673565, 1.5800002099883832, 3.1569324614686494], 0.5, 0.5, 0.002, 0.2, 100)

2025-07-07 16:32:32,916 - gym_custom_envs_real_ur_drivers_URBasic_realTimeClientEvent - INFO - Program send to Robot:
servoj([-0.04755340442445499, -1.5615924420829208, -1.6137477888556946, -1.5109710760673565, 1.5800002115068723, 3.1569324614686494], 0.5, 0.5, 0.002, 0.2, 100)

2025-07-07 16:32:32,925 - gym_custom_envs_real_ur_drivers_URBasic_realTimeClientEvent - INFO - Program send to Robot:
servoj([-0.04755340442445499, -1.5615924420677358, -1.6137477888556946, -1.5109710760673565, 1.5784815705420503, 3.1569324614686494], 0.5, 0.5, 0.002, 0.2, 100)

2025-07-07 16:32:32,937 - gym_custom_envs_real_ur_drivers_URBasic_realTimeClientEvent - INFO - Program send to Robot:
servoj([-0.04755340442445499, -1.561592442067584, -1.6137477888556946, -1.5109710760673565, 1.578466384132402, 3.1569324614686494], 0.5, 0.5, 0.002, 0.2, 100)

2025-07-07 16:32:32,949 - gym_custom_envs_real_ur_drivers_URBasic_realTimeClientEvent - INFO - Program send to Robot:
servoj([-0.04755340442445499, -1.5615924420675826, -1.6137477888556946, -1.5109710760673565, 1.5784662322683054, 3.1569324614686494], 0.5, 0.5, 0.002, 0.2, 100)

2025-07-07 16:32:32,962 - gym_custom_envs_real_ur_drivers_URBasic_realTimeClientEvent - INFO - Program send to Robot:
servoj([-0.04755340442445499, -1.5615924420675826, -1.6137477888556946, -1.5109710760673565, 1.5784662307496646, 3.1569324614686494], 0.5, 0.5, 0.002, 0.2, 100)

2025-07-07 16:32:32,974 - gym_custom_envs_real_ur_drivers_URBasic_realTimeClientEvent - INFO - Program send to Robot:
servoj([-0.04755340442445499, -1.5615924420675826, -1.6137477888556946, -1.5109710760673565, 1.5784662307344781, 3.1569324614686494], 0.5, 0.5, 0.002, 0.2, 100)

2025-07-07 16:32:32,985 - gym_custom_envs_real_ur_drivers_URBasic_realTimeClientEvent - INFO - Program send to Robot:
servoj([-0.04755340442445499, -1.5615924420675826, -1.6137477888556946, -1.5109710760673565, 1.5784662307343262, 3.1569324614686494], 0.5, 0.5, 0.002, 0.2, 100)

2025-07-07 16:32:32,989 - gym_custom_envs_real_ur_drivers_URBasic_realTimeClientEvent - INFO - Program send to Robot:
servoj([-0.04755340442445499, -1.5615924420675826, -1.6137477888556946, -1.5109710760673565, 1.5784662307343247, 3.1569324614686494], 0.5, 0.5, 0.002, 0.2, 100)

2025-07-07 16:32:33,008 - gym_custom_envs_real_ur_drivers_URBasic_realTimeClientEvent - INFO - Program send to Robot:
servoj([-0.04755340442445499, -1.5615924420675826, -1.6137477888556946, -1.5109710760673565, 1.5784662307343247, 3.1569324614686494], 0.5, 0.5, 0.002, 0.2, 100)

2025-07-07 16:32:33,013 - gym_custom_envs_real_ur_drivers_URBasic_realTimeClientEvent - INFO - Program send to Robot:
servoj([-0.04755340442445499, -1.5615924420675826, -1.6137477888556946, -1.5109710760673565, 1.5784662307343247, 3.1569324614686494], 0.5, 0.5, 0.002, 0.2, 100)

2025-07-07 16:32:33,032 - gym_custom_envs_real_ur_drivers_URBasic_realTimeClientEvent - INFO - Program send to Robot:
servoj([-0.04755340442445499, -1.5631110830475896, -1.6137477888556946, -1.5109710760673565, 1.5784662307343247, 3.1569324614686494], 0.5, 0.5, 0.002, 0.2, 100)

2025-07-07 16:32:33,040 - gym_custom_envs_real_ur_drivers_URBasic_realTimeClientEvent - INFO - Program send to Robot:
servoj([-0.04755340442445499, -1.5631262694573895, -1.6137477888556946, -1.5109710760673565, 1.5784662307343247, 3.1569324614686494], 0.5, 0.5, 0.002, 0.2, 100)

2025-07-07 16:32:33,045 - gym_custom_envs_real_ur_drivers_URBasic_realTimeClientEvent - INFO - Program send to Robot:
servoj([-0.04755340442445499, -1.5631264213214875, -1.6137477888556946, -1.5109710760673565, 1.5784662307343247, 3.1569324614686494], 0.5, 0.5, 0.002, 0.2, 100)

2025-07-07 16:32:33,061 - gym_custom_envs_real_ur_drivers_URBasic_realTimeClientEvent - INFO - Program send to Robot:
servoj([-0.04755340442445499, -1.5616077818601215, -1.6137477888556946, -1.5109710760673565, 1.5784662307343247, 3.1569324614686494], 0.5, 0.5, 0.002, 0.2, 100)

2025-07-07 16:32:33,069 - gym_custom_envs_real_ur_drivers_URBasic_realTimeClientEvent - INFO - Program send to Robot:
servoj([-0.04755340442445499, -1.5615925954655079, -1.6137477888556946, -1.5109710760673565, 1.5784662307343247, 3.1569324614686494], 0.5, 0.5, 0.002, 0.2, 100)

2025-07-07 16:32:33,081 - gym_custom_envs_real_ur_drivers_URBasic_realTimeClientEvent - INFO - Program send to Robot:
servoj([-0.04755340442445499, -1.5615924436015618, -1.6137477888556946, -1.5109710760673565, 1.5784662307343247, 3.1569324614686494], 0.5, 0.5, 0.002, 0.2, 100)

2025-07-07 16:32:33,092 - gym_custom_envs_real_ur_drivers_URBasic_realTimeClientEvent - INFO - Program send to Robot:
servoj([-0.04755340442445499, -1.5615924420829224, -1.6137477888556946, -1.5109710760673565, 1.5784662307343247, 3.1569324614686494], 0.5, 0.5, 0.002, 0.2, 100)

2025-07-07 16:32:33,105 - gym_custom_envs_real_ur_drivers_URBasic_realTimeClientEvent - INFO - Program send to Robot:
servoj([-0.04755340442445499, -1.5615924420677358, -1.6137477888556946, -1.5109710760673565, 1.5784662307343247, 3.1569324614686494], 0.5, 0.5, 0.002, 0.2, 100)

2025-07-07 16:32:33,108 - gym_custom_envs_real_ur_drivers_URBasic_realTimeClientEvent - INFO - Program send to Robot:
servoj([-0.04755340442445499, -1.561592442067584, -1.6137477888556946, -1.5109710760673565, 1.5784662307343247, 3.1569324614686494], 0.5, 0.5, 0.002, 0.2, 100)

2025-07-07 16:32:33,128 - gym_custom_envs_real_ur_drivers_URBasic_realTimeClientEvent - INFO - Program send to Robot:
servoj([-0.04755340442445499, -1.5631110830475896, -1.6137477888556946, -1.5109710760673565, 1.5799848717143317, 3.1569324614686494], 0.5, 0.5, 0.002, 0.2, 100)

2025-07-07 16:32:33,136 - gym_custom_envs_real_ur_drivers_URBasic_realTimeClientEvent - INFO - Program send to Robot:
servoj([-0.04755340442445499, -1.5631262694573895, -1.6137477888556946, -1.5109710760673565, 1.5800000581241318, 3.1569324614686494], 0.5, 0.5, 0.002, 0.2, 100)

2025-07-07 16:32:33,141 - gym_custom_envs_real_ur_drivers_URBasic_realTimeClientEvent - INFO - Program send to Robot:
servoj([-0.04755340442445499, -1.5631264213214875, -1.6137477888556946, -1.5109710760673565, 1.5800002099882298, 3.1569324614686494], 0.5, 0.5, 0.002, 0.2, 100)

2025-07-07 16:32:33,156 - gym_custom_envs_real_ur_drivers_URBasic_realTimeClientEvent - INFO - Program send to Robot:
servoj([-0.04755340442445499, -1.5616077818601215, -1.6137477888556946, -1.5109710760673565, 1.5800002115068708, 3.1569324614686494], 0.5, 0.5, 0.002, 0.2, 100)

2025-07-07 16:32:33,164 - gym_custom_envs_real_ur_drivers_URBasic_realTimeClientEvent - INFO - Program send to Robot:
servoj([-0.04755340442445499, -1.5615925954655079, -1.6137477888556946, -1.5109710760673565, 1.5800002115220573, 3.1569324614686494], 0.5, 0.5, 0.002, 0.2, 100)

2025-07-07 16:32:33,176 - gym_custom_envs_real_ur_drivers_URBasic_realTimeClientEvent - INFO - Program send to Robot:
servoj([-0.04755340442445499, -1.5615924436015618, -1.6137477888556946, -1.5109710760673565, 1.578481570542202, 3.1569324614686494], 0.5, 0.5, 0.002, 0.2, 100)

2025-07-07 16:32:33,189 - gym_custom_envs_real_ur_drivers_URBasic_realTimeClientEvent - INFO - Program send to Robot:
servoj([-0.04755340442445499, -1.5615924420829224, -1.6137477888556946, -1.5109710760673565, 1.5784663841324036, 3.1569324614686494], 0.5, 0.5, 0.002, 0.2, 100)

2025-07-07 16:32:33,200 - gym_custom_envs_real_ur_drivers_URBasic_realTimeClientEvent - INFO - Program send to Robot:
servoj([-0.04755340442445499, -1.5615924420677358, -1.6137477888556946, -1.5109710760673565, 1.5784662322683056, 3.1569324614686494], 0.5, 0.5, 0.002, 0.2, 100)

2025-07-07 16:32:33,205 - gym_custom_envs_real_ur_drivers_URBasic_realTimeClientEvent - INFO - Program send to Robot:
servoj([-0.04755340442445499, -1.561592442067584, -1.6137477888556946, -1.5109710760673565, 1.5784662307496646, 3.1569324614686494], 0.5, 0.5, 0.002, 0.2, 100)

2025-07-07 16:32:33,213 - gym_custom_envs_real_ur_drivers_URBasic_realTimeClientEvent - INFO - Program send to Robot:
servoj([-0.04755340442445499, -1.5615924420675826, -1.6137477888556946, -1.5109710760673565, 1.5784662307344781, 3.1569324614686494], 0.5, 0.5, 0.002, 0.2, 100)

2025-07-07 16:32:33,229 - gym_custom_envs_real_ur_drivers_URBasic_realTimeClientEvent - INFO - Program send to Robot:
servoj([-0.04755340442445499, -1.5615924420675826, -1.6137477888556946, -1.5109710760673565, 1.5784662307343262, 3.1569324614686494], 0.5, 0.5, 0.002, 0.2, 100)

2025-07-07 16:32:33,237 - gym_custom_envs_real_ur_drivers_URBasic_realTimeClientEvent - INFO - Program send to Robot:
servoj([-0.04755340442445499, -1.5615924420675826, -1.6137477888556946, -1.5109710760673565, 1.5784662307343247, 3.1569324614686494], 0.5, 0.5, 0.002, 0.2, 100)

2025-07-07 16:32:33,248 - gym_custom_envs_real_ur_drivers_URBasic_realTimeClientEvent - INFO - Program send to Robot:
servoj([-0.04755340442445499, -1.5631110830475896, -1.6137477888556946, -1.5109710760673565, 1.5784662307343247, 3.1569324614686494], 0.5, 0.5, 0.002, 0.2, 100)

2025-07-07 16:32:33,261 - gym_custom_envs_real_ur_drivers_URBasic_realTimeClientEvent - INFO - Program send to Robot:
servoj([-0.04755340442445499, -1.5631262694573895, -1.6137477888556946, -1.5109710760673565, 1.5784662307343247, 3.1569324614686494], 0.5, 0.5, 0.002, 0.2, 100)

2025-07-07 16:32:33,271 - gym_custom_envs_real_ur_drivers_URBasic_realTimeClientEvent - INFO - Program send to Robot:
servoj([-0.04755340442445499, -1.5631264213214875, -1.6137477888556946, -1.5109710760673565, 1.5784662307343247, 3.1569324614686494], 0.5, 0.5, 0.002, 0.2, 100)

2025-07-07 16:32:33,279 - gym_custom_envs_real_ur_drivers_URBasic_realTimeClientEvent - INFO - Program send to Robot:
servoj([-0.04755340442445499, -1.5631264228401285, -1.6137477888556946, -1.5109710760673565, 1.5784662307343247, 3.1569324614686494], 0.5, 0.5, 0.002, 0.2, 100)

2025-07-07 16:32:33,285 - gym_custom_envs_real_ur_drivers_URBasic_realTimeClientEvent - INFO - Program send to Robot:
servoj([-0.04755340442445499, -1.563126422855315, -1.6137477888556946, -1.5109710760673565, 1.5784662307343247, 3.1569324614686494], 0.5, 0.5, 0.002, 0.2, 100)

2025-07-07 16:32:33,303 - gym_custom_envs_real_ur_drivers_URBasic_realTimeClientEvent - INFO - Program send to Robot:
servoj([-0.04755340442445499, -1.5631264228554669, -1.6137477888556946, -1.5109710760673565, 1.5784662307343247, 3.1569324614686494], 0.5, 0.5, 0.002, 0.2, 100)

2025-07-07 16:32:33,309 - gym_custom_envs_real_ur_drivers_URBasic_realTimeClientEvent - INFO - Program send to Robot:
servoj([-0.04755340442445499, -1.5616077818754615, -1.6137477888556946, -1.5109710760673565, 1.5784662307343247, 3.1569324614686494], 0.5, 0.5, 0.002, 0.2, 100)

2025-07-07 16:32:33,319 - gym_custom_envs_real_ur_drivers_URBasic_realTimeClientEvent - INFO - Program send to Robot:
servoj([-0.04755340442445499, -1.5615925954656613, -1.6137477888556946, -1.5109710760673565, 1.5784662307343247, 3.1569324614686494], 0.5, 0.5, 0.002, 0.2, 100)

2025-07-07 16:32:33,332 - gym_custom_envs_real_ur_drivers_URBasic_realTimeClientEvent - INFO - Program send to Robot:
servoj([-0.04755340442445499, -1.5615924436015634, -1.6137477888556946, -1.5109710760673565, 1.5784662307343247, 3.1569324614686494], 0.5, 0.5, 0.002, 0.2, 100)

2025-07-07 16:32:33,344 - gym_custom_envs_real_ur_drivers_URBasic_realTimeClientEvent - INFO - Program send to Robot:
servoj([-0.04755340442445499, -1.5615924420829224, -1.6137477888556946, -1.5109710760673565, 1.5784662307343247, 3.1569324614686494], 0.5, 0.5, 0.002, 0.2, 100)

2025-07-07 16:32:33,348 - gym_custom_envs_real_ur_drivers_URBasic_realTimeClientEvent - INFO - Program send to Robot:
servoj([-0.04755340442445499, -1.5615924420677358, -1.6137477888556946, -1.5109710760673565, 1.5784662307343247, 3.1569324614686494], 0.5, 0.5, 0.002, 0.2, 100)

2025-07-07 16:32:33,356 - gym_custom_envs_real_ur_drivers_URBasic_realTimeClientEvent - INFO - Program send to Robot:
servoj([-0.04755340442445499, -1.561592442067584, -1.6137477888556946, -1.5109710760673565, 1.5784662307343247, 3.1569324614686494], 0.5, 0.5, 0.002, 0.2, 100)

2025-07-07 16:32:33,376 - gym_custom_envs_real_ur_drivers_URBasic_realTimeClientEvent - INFO - Program send to Robot:
servoj([-0.04755340442445499, -1.5615924420675826, -1.6137477888556946, -1.5109710760673565, 1.5784662307343247, 3.1569324614686494], 0.5, 0.5, 0.002, 0.2, 100)

2025-07-07 16:32:33,381 - gym_custom_envs_real_ur_drivers_URBasic_realTimeClientEvent - INFO - Program send to Robot:
servoj([-0.04755340442445499, -1.5615924420675826, -1.6137477888556946, -1.5109710760673565, 1.5784662307343247, 3.1569324614686494], 0.5, 0.5, 0.002, 0.2, 100)

2025-07-07 16:32:33,391 - gym_custom_envs_real_ur_drivers_URBasic_realTimeClientEvent - INFO - Program send to Robot:
servoj([-0.04755340442445499, -1.5615924420675826, -1.6137477888556946, -1.5109710760673565, 1.5784662307343247, 3.1569324614686494], 0.5, 0.5, 0.002, 0.2, 100)

2025-07-07 16:32:33,404 - gym_custom_envs_real_ur_drivers_URBasic_realTimeClientEvent - INFO - Program send to Robot:
servoj([-0.04755340442445499, -1.5615924420675826, -1.6137477888556946, -1.5109710760673565, 1.5784662307343247, 3.1569324614686494], 0.5, 0.5, 0.002, 0.2, 100)

2025-07-07 16:32:33,415 - gym_custom_envs_real_ur_drivers_URBasic_realTimeClientEvent - INFO - Program send to Robot:
servoj([-0.04755340442445499, -1.5615924420675826, -1.6137477888556946, -1.5109710760673565, 1.5784662307343247, 3.1569324614686494], 0.5, 0.5, 0.002, 0.2, 100)

2025-07-07 16:32:33,423 - gym_custom_envs_real_ur_drivers_URBasic_realTimeClientEvent - INFO - Program send to Robot:
servoj([-0.04755340442445499, -1.5615924420675826, -1.6137477888556946, -1.5109710760673565, 1.5784662307343247, 3.1569324614686494], 0.5, 0.5, 0.002, 0.2, 100)

2025-07-07 16:32:33,439 - gym_custom_envs_real_ur_drivers_URBasic_realTimeClientEvent - INFO - Program send to Robot:
servoj([-0.04755340442445499, -1.5615924420675826, -1.6137477888556946, -1.5109710760673565, 1.5784662307343247, 3.1569324614686494], 0.5, 0.5, 0.002, 0.2, 100)

2025-07-07 16:32:33,446 - gym_custom_envs_real_ur_drivers_URBasic_realTimeClientEvent - INFO - Program send to Robot:
servoj([-0.04755340442445499, -1.5615924420675826, -1.6137477888556946, -1.5109710760673565, 1.5784662307343247, 3.1569324614686494], 0.5, 0.5, 0.002, 0.2, 100)

2025-07-07 16:32:33,452 - gym_custom_envs_real_ur_drivers_URBasic_realTimeClientEvent - INFO - Program send to Robot:
servoj([-0.04755340442445499, -1.5615924420675826, -1.6137477888556946, -1.5109710760673565, 1.5784662307343247, 3.1569324614686494], 0.5, 0.5, 0.002, 0.2, 100)

2025-07-07 16:32:33,472 - gym_custom_envs_real_ur_drivers_URBasic_realTimeClientEvent - INFO - Program send to Robot:
servoj([-0.04755340442445499, -1.5615924420675826, -1.6137477888556946, -1.5109710760673565, 1.5784662307343247, 3.1569324614686494], 0.5, 0.5, 0.002, 0.2, 100)

2025-07-07 16:32:33,476 - gym_custom_envs_real_ur_drivers_URBasic_realTimeClientEvent - INFO - Program send to Robot:
servoj([-0.04755340442445499, -1.5615924420675826, -1.6137477888556946, -1.5109710760673565, 1.5784662307343247, 3.1569324614686494], 0.5, 0.5, 0.002, 0.2, 100)

2025-07-07 16:32:33,488 - gym_custom_envs_real_ur_drivers_URBasic_realTimeClientEvent - INFO - Program send to Robot:
servoj([-0.04755340442445499, -1.5615924420675826, -1.6137477888556946, -1.5109710760673565, 1.5784662307343247, 3.1569324614686494], 0.5, 0.5, 0.002, 0.2, 100)

2025-07-07 16:32:33,501 - gym_custom_envs_real_ur_drivers_URBasic_realTimeClientEvent - INFO - Program send to Robot:
servoj([-0.04755340442445499, -1.5615924420675826, -1.6137477888556946, -1.5109710760673565, 1.5784662307343247, 3.1569324614686494], 0.5, 0.5, 0.002, 0.2, 100)

2025-07-07 16:32:33,510 - gym_custom_envs_real_ur_drivers_URBasic_realTimeClientEvent - INFO - Program send to Robot:
servoj([-0.04755340442445499, -1.5615924420675826, -1.6137477888556946, -1.5109710760673565, 1.5784662307343247, 3.1569324614686494], 0.5, 0.5, 0.002, 0.2, 100)

2025-07-07 16:32:33,519 - gym_custom_envs_real_ur_drivers_URBasic_realTimeClientEvent - INFO - Program send to Robot:
servoj([-0.04755340442445499, -1.5615924420675826, -1.6137477888556946, -1.5109710760673565, 1.5784662307343247, 3.1569324614686494], 0.5, 0.5, 0.002, 0.2, 100)

2025-07-07 16:32:33,525 - gym_custom_envs_real_ur_drivers_URBasic_realTimeClientEvent - INFO - Program send to Robot:
servoj([-0.04755340442445499, -1.5615924420675826, -1.6137477888556946, -1.5109710760673565, 1.5784662307343247, 3.1569324614686494], 0.5, 0.5, 0.002, 0.2, 100)

2025-07-07 16:32:33,542 - gym_custom_envs_real_ur_drivers_URBasic_realTimeClientEvent - INFO - Program send to Robot:
servoj([-0.04755340442445499, -1.5631110830475896, -1.6137477888556946, -1.5109710760673565, 1.5784662307343247, 3.1569324614686494], 0.5, 0.5, 0.002, 0.2, 100)

2025-07-07 16:32:33,548 - gym_custom_envs_real_ur_drivers_URBasic_realTimeClientEvent - INFO - Program send to Robot:
servoj([-0.04755340442445499, -1.5631262694573895, -1.6137477888556946, -1.5109710760673565, 1.5784662307343247, 3.1569324614686494], 0.5, 0.5, 0.002, 0.2, 100)

2025-07-07 16:32:33,558 - gym_custom_envs_real_ur_drivers_URBasic_realTimeClientEvent - INFO - Program send to Robot:
servoj([-0.04755340442445499, -1.5631264213214875, -1.6137477888556946, -1.5109710760673565, 1.5784662307343247, 3.1569324614686494], 0.5, 0.5, 0.002, 0.2, 100)

2025-07-07 16:32:33,573 - gym_custom_envs_real_ur_drivers_URBasic_realTimeClientEvent - INFO - Program send to Robot:
servoj([-0.04755340442445499, -1.5631264228401285, -1.6137477888556946, -1.5109710760673565, 1.5799848717143317, 3.1569324614686494], 0.5, 0.5, 0.002, 0.2, 100)

2025-07-07 16:32:33,582 - gym_custom_envs_real_ur_drivers_URBasic_realTimeClientEvent - INFO - Program send to Robot:
servoj([-0.04755340442445499, -1.563126422855315, -1.6137477888556946, -1.5109710760673565, 1.5800000581241318, 3.1569324614686494], 0.5, 0.5, 0.002, 0.2, 100)

2025-07-07 16:32:33,591 - gym_custom_envs_real_ur_drivers_URBasic_realTimeClientEvent - INFO - Program send to Robot:
servoj([-0.04755340442445499, -1.5631264228554669, -1.6137477888556946, -1.5109710760673565, 1.5800002099882298, 3.1569324614686494], 0.5, 0.5, 0.002, 0.2, 100)

2025-07-07 16:32:33,596 - gym_custom_envs_real_ur_drivers_URBasic_realTimeClientEvent - INFO - Program send to Robot:
servoj([-0.04755340442445499, -1.5616077818754615, -1.6137477888556946, -1.5109710760673565, 1.5784815705268638, 3.1569324614686494], 0.5, 0.5, 0.002, 0.2, 100)

2025-07-07 16:32:33,615 - gym_custom_envs_real_ur_drivers_URBasic_realTimeClientEvent - INFO - Program send to Robot:
servoj([-0.04755340442445499, -1.5615925954656613, -1.6137477888556946, -1.5109710760673565, 1.5784663841322502, 3.1569324614686494], 0.5, 0.5, 0.002, 0.2, 100)

2025-07-07 16:32:33,621 - gym_custom_envs_real_ur_drivers_URBasic_realTimeClientEvent - INFO - Program send to Robot:
servoj([-0.04755340442445499, -1.5615924436015634, -1.6137477888556946, -1.5109710760673565, 1.578466232268304, 3.1569324614686494], 0.5, 0.5, 0.002, 0.2, 100)

2025-07-07 16:32:33,632 - gym_custom_envs_real_ur_drivers_URBasic_realTimeClientEvent - INFO - Program send to Robot:
servoj([-0.04755340442445499, -1.5615924420829224, -1.6137477888556946, -1.5109710760673565, 1.5784662307496646, 3.1569324614686494], 0.5, 0.5, 0.002, 0.2, 100)

2025-07-07 16:32:33,652 - gym_custom_envs_real_ur_drivers_URBasic_realTimeClientEvent - INFO - Program send to Robot:
servoj([-0.04755340442445499, -1.5615924420677358, -1.6137477888556946, -1.5109710760673565, 1.5784662307344781, 3.1569324614686494], 0.5, 0.5, 0.002, 0.2, 100)

2025-07-07 16:32:33,662 - gym_custom_envs_real_ur_drivers_URBasic_realTimeClientEvent - INFO - Program send to Robot:
servoj([-0.04755340442445499, -1.561592442067584, -1.6137477888556946, -1.5109710760673565, 1.5784662307343262, 3.1569324614686494], 0.5, 0.5, 0.002, 0.2, 100)

2025-07-07 16:32:33,669 - gym_custom_envs_real_ur_drivers_URBasic_realTimeClientEvent - INFO - Program send to Robot:
servoj([-0.04755340442445499, -1.5615924420675826, -1.6137477888556946, -1.5109710760673565, 1.5784662307343247, 3.1569324614686494], 0.5, 0.5, 0.002, 0.2, 100)

2025-07-07 16:32:33,678 - gym_custom_envs_real_ur_drivers_URBasic_realTimeClientEvent - INFO - Program send to Robot:
servoj([-0.04755340442445499, -1.5615924420675826, -1.6137477888556946, -1.5109710760673565, 1.5784662307343247, 3.1569324614686494], 0.5, 0.5, 0.002, 0.2, 100)

2025-07-07 16:32:33,693 - gym_custom_envs_real_ur_drivers_URBasic_realTimeClientEvent - INFO - Program send to Robot:
servoj([-0.04755340442445499, -1.5615924420675826, -1.6137477888556946, -1.5109710760673565, 1.5799848717143317, 3.1569324614686494], 0.5, 0.5, 0.002, 0.2, 100)

2025-07-07 16:32:33,702 - gym_custom_envs_real_ur_drivers_URBasic_realTimeClientEvent - INFO - Program send to Robot:
servoj([-0.04755340442445499, -1.5615924420675826, -1.6137477888556946, -1.5109710760673565, 1.5800000581241318, 3.1569324614686494], 0.5, 0.5, 0.002, 0.2, 100)

2025-07-07 16:32:33,710 - gym_custom_envs_real_ur_drivers_URBasic_realTimeClientEvent - INFO - Program send to Robot:
servoj([-0.04755340442445499, -1.5615924420675826, -1.6137477888556946, -1.5109710760673565, 1.5800002099882298, 3.1569324614686494], 0.5, 0.5, 0.002, 0.2, 100)

2025-07-07 16:32:33,717 - gym_custom_envs_real_ur_drivers_URBasic_realTimeClientEvent - INFO - Program send to Robot:
servoj([-0.04755340442445499, -1.5615924420675826, -1.6137477888556946, -1.5109710760673565, 1.5800002115068708, 3.1569324614686494], 0.5, 0.5, 0.002, 0.2, 100)

2025-07-07 16:32:33,735 - gym_custom_envs_real_ur_drivers_URBasic_realTimeClientEvent - INFO - Program send to Robot:
servoj([-0.04755340442445499, -1.5615924420675826, -1.6137477888556946, -1.5109710760673565, 1.5800002115220573, 3.155413820488642], 0.5, 0.5, 0.002, 0.2, 100)

2025-07-07 16:32:33,741 - gym_custom_envs_real_ur_drivers_URBasic_realTimeClientEvent - INFO - Program send to Robot:
servoj([-0.04755340442445499, -1.5615924420675826, -1.6137477888556946, -1.5109710760673565, 1.580000211522209, 3.1553986340788422], 0.5, 0.5, 0.002, 0.2, 100)

2025-07-07 16:32:33,750 - gym_custom_envs_real_ur_drivers_URBasic_realTimeClientEvent - INFO - Program send to Robot:
servoj([-0.04755340442445499, -1.5615924420675826, -1.6137477888556946, -1.5109710760673565, 1.5800002115222105, 3.155398482214744], 0.5, 0.5, 0.002, 0.2, 100)

2025-07-07 16:32:33,765 - gym_custom_envs_real_ur_drivers_URBasic_realTimeClientEvent - INFO - Program send to Robot:
servoj([-0.04755340442445499, -1.5631110830475896, -1.6137477888556946, -1.5109710760673565, 1.5800002115222105, 3.1553984806961033], 0.5, 0.5, 0.002, 0.2, 100)

2025-07-07 16:32:33,773 - gym_custom_envs_real_ur_drivers_URBasic_realTimeClientEvent - INFO - Program send to Robot:
servoj([-0.04755340442445499, -1.5631262694573895, -1.6137477888556946, -1.5109710760673565, 1.5800002115222105, 3.1553984806809168], 0.5, 0.5, 0.002, 0.2, 100)

2025-07-07 16:32:33,781 - gym_custom_envs_real_ur_drivers_URBasic_realTimeClientEvent - INFO - Program send to Robot:
servoj([-0.04755340442445499, -1.5631264213214875, -1.6137477888556946, -1.5109710760673565, 1.5800002115222105, 3.155398480680765], 0.5, 0.5, 0.002, 0.2, 100)

2025-07-07 16:32:33,789 - gym_custom_envs_real_ur_drivers_URBasic_realTimeClientEvent - INFO - Program send to Robot:
servoj([-0.04755340442445499, -1.5616077818601215, -1.6137477888556946, -1.5109710760673565, 1.5800002115222105, 3.1553984806807636], 0.5, 0.5, 0.002, 0.2, 100)

2025-07-07 16:32:33,804 - gym_custom_envs_real_ur_drivers_URBasic_realTimeClientEvent - INFO - Program send to Robot:
servoj([-0.04755340442445499, -1.5615925954655079, -1.6137477888556946, -1.5109710760673565, 1.5800002115222105, 3.1553984806807636], 0.5, 0.5, 0.002, 0.2, 100)

2025-07-07 16:32:33,812 - gym_custom_envs_real_ur_drivers_URBasic_realTimeClientEvent - INFO - Program send to Robot:
servoj([-0.04755340442445499, -1.5615924436015618, -1.6137477888556946, -1.5109710760673565, 1.5800002115222105, 3.1553984806807636], 0.5, 0.5, 0.002, 0.2, 100)

2025-07-07 16:32:33,821 - gym_custom_envs_real_ur_drivers_URBasic_realTimeClientEvent - INFO - Program send to Robot:
servoj([-0.04755340442445499, -1.5631110830629293, -1.6137477888556946, -1.5109710760673565, 1.5800002115222105, 3.1569171216607708], 0.5, 0.5, 0.002, 0.2, 100)

2025-07-07 16:32:33,836 - gym_custom_envs_real_ur_drivers_URBasic_realTimeClientEvent - INFO - Program send to Robot:
servoj([-0.04755340442445499, -1.563126269457543, -1.6137477888556946, -1.5109710760673565, 1.5800002115222105, 3.1569323080705707], 0.5, 0.5, 0.002, 0.2, 100)

2025-07-07 16:32:33,845 - gym_custom_envs_real_ur_drivers_URBasic_realTimeClientEvent - INFO - Program send to Robot:
servoj([-0.04755340442445499, -1.563126421321489, -1.6137477888556946, -1.5109710760673565, 1.5800002115222105, 3.156932459934669], 0.5, 0.5, 0.002, 0.2, 100)

2025-07-07 16:32:33,860 - gym_custom_envs_real_ur_drivers_URBasic_realTimeClientEvent - INFO - Program send to Robot:
servoj([-0.04755340442445499, -1.5616077818601215, -1.6137477888556946, -1.5109710760673565, 1.5800002115222105, 3.1569324614533096], 0.5, 0.5, 0.002, 0.2, 100)

2025-07-07 16:32:33,869 - gym_custom_envs_real_ur_drivers_URBasic_realTimeClientEvent - INFO - Program send to Robot:
servoj([-0.04755340442445499, -1.5615925954655079, -1.6137477888556946, -1.5109710760673565, 1.5800002115222105, 3.156932461468496], 0.5, 0.5, 0.002, 0.2, 100)

2025-07-07 16:32:33,884 - gym_custom_envs_real_ur_drivers_URBasic_realTimeClientEvent - INFO - Program send to Robot:
servoj([-0.04755340442445499, -1.5615924436015618, -1.6137477888556946, -1.5109710760673565, 1.5800002115222105, 3.156932461468648], 0.5, 0.5, 0.002, 0.2, 100)

2025-07-07 16:32:33,892 - gym_custom_envs_real_ur_drivers_URBasic_realTimeClientEvent - INFO - Program send to Robot:
servoj([-0.04755340442445499, -1.5615924420829224, -1.6137477888556946, -1.5109710760673565, 1.5800002115222105, 3.1569324614686494], 0.5, 0.5, 0.002, 0.2, 100)

2025-07-07 16:32:33,900 - gym_custom_envs_real_ur_drivers_URBasic_realTimeClientEvent - INFO - Program send to Robot:
servoj([-0.04755340442445499, -1.5615924420677358, -1.6137477888556946, -1.5109710760673565, 1.5800002115222105, 3.1569324614686494], 0.5, 0.5, 0.002, 0.2, 100)

2025-07-07 16:32:33,913 - gym_custom_envs_real_ur_drivers_URBasic_realTimeClientEvent - INFO - Program send to Robot:
servoj([-0.04755340442445499, -1.561592442067584, -1.6137477888556946, -1.5109710760673565, 1.5800002115222105, 3.1569324614686494], 0.5, 0.5, 0.002, 0.2, 100)

2025-07-07 16:32:33,925 - gym_custom_envs_real_ur_drivers_URBasic_realTimeClientEvent - INFO - Program send to Robot:
servoj([-0.04755340442445499, -1.5615924420675826, -1.6137477888556946, -1.5109710760673565, 1.5800002115222105, 3.1569324614686494], 0.5, 0.5, 0.002, 0.2, 100)

2025-07-07 16:32:33,937 - gym_custom_envs_real_ur_drivers_URBasic_realTimeClientEvent - INFO - Program send to Robot:
servoj([-0.04755340442445499, -1.5615924420675826, -1.6137477888556946, -1.5109710760673565, 1.5800002115222105, 3.1569324614686494], 0.5, 0.5, 0.002, 0.2, 100)

2025-07-07 16:32:33,940 - gym_custom_envs_real_ur_drivers_URBasic_realTimeClientEvent - INFO - Program send to Robot:
servoj([-0.04755340442445499, -1.5615924420675826, -1.6137477888556946, -1.5109710760673565, 1.5800002115222105, 3.1569324614686494], 0.5, 0.5, 0.002, 0.2, 100)

2025-07-07 16:32:33,961 - gym_custom_envs_real_ur_drivers_URBasic_realTimeClientEvent - INFO - Program send to Robot:
servoj([-0.04755340442445499, -1.5615924420675826, -1.6137477888556946, -1.5109710760673565, 1.5800002115222105, 3.1569324614686494], 0.5, 0.5, 0.002, 0.2, 100)

2025-07-07 16:32:33,965 - gym_custom_envs_real_ur_drivers_URBasic_realTimeClientEvent - INFO - Program send to Robot:
servoj([-0.04755340442445499, -1.5615924420675826, -1.6137477888556946, -1.5109710760673565, 1.5800002115222105, 3.1569324614686494], 0.5, 0.5, 0.002, 0.2, 100)

2025-07-07 16:32:33,986 - gym_custom_envs_real_ur_drivers_URBasic_realTimeClientEvent - INFO - Program send to Robot:
servoj([-0.04755340442445499, -1.5615924420675826, -1.6137477888556946, -1.5109710760673565, 1.5800002115222105, 3.1569324614686494], 0.5, 0.5, 0.002, 0.2, 100)

2025-07-07 16:32:33,989 - gym_custom_envs_real_ur_drivers_URBasic_realTimeClientEvent - INFO - Program send to Robot:
servoj([-0.04755340442445499, -1.5615924420675826, -1.6137477888556946, -1.5109710760673565, 1.5800002115222105, 3.1569324614686494], 0.5, 0.5, 0.002, 0.2, 100)

2025-07-07 16:32:34,013 - gym_custom_envs_real_ur_drivers_URBasic_realTimeClientEvent - INFO - Program send to Robot:
servoj([-0.0490720454044615, -1.5615924420675826, -1.6137477888556946, -1.5109710760673565, 1.5800002115222105, 3.1569324614686494], 0.5, 0.5, 0.002, 0.2, 100)

2025-07-07 16:32:34,020 - gym_custom_envs_real_ur_drivers_URBasic_realTimeClientEvent - INFO - Program send to Robot:
servoj([-0.04908723181426156, -1.5615924420675826, -1.6137477888556946, -1.5109710760673565, 1.5800002115222105, 3.1569324614686494], 0.5, 0.5, 0.002, 0.2, 100)

2025-07-07 16:32:34,029 - gym_custom_envs_real_ur_drivers_URBasic_realTimeClientEvent - INFO - Program send to Robot:
servoj([-0.04908738367835956, -1.5615924420675826, -1.6137477888556946, -1.5109710760673565, 1.5800002115222105, 3.1569324614686494], 0.5, 0.5, 0.002, 0.2, 100)

2025-07-07 16:32:34,037 - gym_custom_envs_real_ur_drivers_URBasic_realTimeClientEvent - INFO - Program send to Robot:
servoj([-0.049087385197000545, -1.5615924420675826, -1.6137477888556946, -1.5109710760673565, 1.5800002115222105, 3.1569324614686494], 0.5, 0.5, 0.002, 0.2, 100)

2025-07-07 16:32:34,058 - gym_custom_envs_real_ur_drivers_URBasic_realTimeClientEvent - INFO - Program send to Robot:
servoj([-0.047568744232180445, -1.5615924420675826, -1.6137477888556946, -1.5109710760673565, 1.5800002115222105, 3.1569324614686494], 0.5, 0.5, 0.002, 0.2, 100)

2025-07-07 16:32:34,061 - gym_custom_envs_real_ur_drivers_URBasic_realTimeClientEvent - INFO - Program send to Robot:
servoj([-0.04755355782253225, -1.5615924420675826, -1.6137477888556946, -1.5109710760673565, 1.5800002115222105, 3.1569324614686494], 0.5, 0.5, 0.002, 0.2, 100)

2025-07-07 16:32:34,082 - gym_custom_envs_real_ur_drivers_URBasic_realTimeClientEvent - INFO - Program send to Robot:
servoj([-0.04907204693844227, -1.5615924420675826, -1.6137477888556946, -1.5109710760673565, 1.5800002115222105, 3.1569324614686494], 0.5, 0.5, 0.002, 0.2, 100)

2025-07-07 16:32:34,093 - gym_custom_envs_real_ur_drivers_URBasic_realTimeClientEvent - INFO - Program send to Robot:
servoj([-0.04908723182960137, -1.5615924420675826, -1.6137477888556946, -1.5109710760673565, 1.5800002115222105, 3.1569324614686494], 0.5, 0.5, 0.002, 0.2, 100)

2025-07-07 16:32:34,106 - gym_custom_envs_real_ur_drivers_URBasic_realTimeClientEvent - INFO - Program send to Robot:
servoj([-0.04756874269850645, -1.5631110830475896, -1.6137477888556946, -1.5109710760673565, 1.5800002115222105, 3.1569324614686494], 0.5, 0.5, 0.002, 0.2, 100)

2025-07-07 16:32:34,109 - gym_custom_envs_real_ur_drivers_URBasic_realTimeClientEvent - INFO - Program send to Robot:
servoj([-0.04755355780719551, -1.5631262694573895, -1.6137477888556946, -1.5109710760673565, 1.5800002115222105, 3.1569324614686494], 0.5, 0.5, 0.002, 0.2, 100)

2025-07-07 16:32:34,125 - gym_custom_envs_real_ur_drivers_URBasic_realTimeClientEvent - INFO - Program send to Robot:
servoj([-0.0475534059582824, -1.5631264213214875, -1.6137477888556946, -1.5109710760673565, 1.5800002115222105, 3.1569324614686494], 0.5, 0.5, 0.002, 0.2, 100)

2025-07-07 16:32:34,133 - gym_custom_envs_real_ur_drivers_URBasic_realTimeClientEvent - INFO - Program send to Robot:
servoj([-0.047553404439793265, -1.5631264228401285, -1.6137477888556946, -1.5109710760673565, 1.5800002115222105, 3.1569324614686494], 0.5, 0.5, 0.002, 0.2, 100)

2025-07-07 16:32:34,149 - gym_custom_envs_real_ur_drivers_URBasic_realTimeClientEvent - INFO - Program send to Robot:
servoj([-0.04755340442460838, -1.561607781875308, -1.6137477888556946, -1.5109710760673565, 1.5800002115222105, 3.1569324614686494], 0.5, 0.5, 0.002, 0.2, 100)

2025-07-07 16:32:34,158 - gym_custom_envs_real_ur_drivers_URBasic_realTimeClientEvent - INFO - Program send to Robot:
servoj([-0.047553404424456526, -1.5615925954656598, -1.6137477888556946, -1.5109710760673565, 1.5800002115222105, 3.1569324614686494], 0.5, 0.5, 0.002, 0.2, 100)

2025-07-07 16:32:34,173 - gym_custom_envs_real_ur_drivers_URBasic_realTimeClientEvent - INFO - Program send to Robot:
servoj([-0.047553404424455006, -1.5631110845815703, -1.6137477888556946, -1.5109710760673565, 1.5800002115222105, 3.1569324614686494], 0.5, 0.5, 0.002, 0.2, 100)

2025-07-07 16:32:34,180 - gym_custom_envs_real_ur_drivers_URBasic_realTimeClientEvent - INFO - Program send to Robot:
servoj([-0.04755340442445499, -1.5631262694727295, -1.6137477888556946, -1.5109710760673565, 1.5800002115222105, 3.1569324614686494], 0.5, 0.5, 0.002, 0.2, 100)

2025-07-07 16:32:34,189 - gym_custom_envs_real_ur_drivers_URBasic_realTimeClientEvent - INFO - Program send to Robot:
servoj([-0.04755340442445499, -1.563126421321641, -1.6137477888556946, -1.5109710760673565, 1.5800002115222105, 3.1569324614686494], 0.5, 0.5, 0.002, 0.2, 100)

2025-07-07 16:32:34,204 - gym_custom_envs_real_ur_drivers_URBasic_realTimeClientEvent - INFO - Program send to Robot:
servoj([-0.0490720454044615, -1.56312642284013, -1.6137477888556946, -1.5109710760673565, 1.5800002115222105, 3.1569324614686494], 0.5, 0.5, 0.002, 0.2, 100)

2025-07-07 16:32:34,212 - gym_custom_envs_real_ur_drivers_URBasic_realTimeClientEvent - INFO - Program send to Robot:
servoj([-0.04908723181426156, -1.563126422855315, -1.6137477888556946, -1.5109710760673565, 1.5800002115222105, 3.1569324614686494], 0.5, 0.5, 0.002, 0.2, 100)

2025-07-07 16:32:34,226 - gym_custom_envs_real_ur_drivers_URBasic_realTimeClientEvent - INFO - Program send to Robot:
servoj([-0.04908738367835956, -1.5631264228554669, -1.6137477888556946, -1.5109710760673565, 1.5800002115222105, 3.1569324614686494], 0.5, 0.5, 0.002, 0.2, 100)

2025-07-07 16:32:34,237 - gym_custom_envs_real_ur_drivers_URBasic_realTimeClientEvent - INFO - Program send to Robot:
servoj([-0.049087385197000545, -1.5616077818754615, -1.6137477888556946, -1.5109710760673565, 1.5800002115222105, 3.1569324614686494], 0.5, 0.5, 0.002, 0.2, 100)

2025-07-07 16:32:34,244 - gym_custom_envs_real_ur_drivers_URBasic_realTimeClientEvent - INFO - Program send to Robot:
servoj([-0.04908738521218695, -1.5615925954656613, -1.6137477888556946, -1.5109710760673565, 1.5800002115222105, 3.1569324614686494], 0.5, 0.5, 0.002, 0.2, 100)

2025-07-07 16:32:34,253 - gym_custom_envs_real_ur_drivers_URBasic_realTimeClientEvent - INFO - Program send to Robot:
servoj([-0.04908738521233882, -1.5615924436015634, -1.6137477888556946, -1.5109710760673565, 1.5800002115222105, 3.1569324614686494], 0.5, 0.5, 0.002, 0.2, 100)

2025-07-07 16:32:34,268 - gym_custom_envs_real_ur_drivers_URBasic_realTimeClientEvent - INFO - Program send to Robot:
servoj([-0.04908738521234034, -1.5631110830629293, -1.6137477888556946, -1.5124897170473632, 1.5800002115222105, 3.1569324614686494], 0.5, 0.5, 0.002, 0.2, 100)

2025-07-07 16:32:34,277 - gym_custom_envs_real_ur_drivers_URBasic_realTimeClientEvent - INFO - Program send to Robot:
servoj([-0.04908738521234035, -1.563126269457543, -1.6137477888556946, -1.5125049034571634, 1.5800002115222105, 3.1569324614686494], 0.5, 0.5, 0.002, 0.2, 100)

2025-07-07 16:32:34,293 - gym_custom_envs_real_ur_drivers_URBasic_realTimeClientEvent - INFO - Program send to Robot:
servoj([-0.04908738521234035, -1.563126421321489, -1.6137477888556946, -1.5125050553212613, 1.5800002115222105, 3.1569324614686494], 0.5, 0.5, 0.002, 0.2, 100)

2025-07-07 16:32:34,301 - gym_custom_envs_real_ur_drivers_URBasic_realTimeClientEvent - INFO - Program send to Robot:
servoj([-0.04756874423233384, -1.5631264228401285, -1.6137477888556946, -1.5155423387999158, 1.5800002115222105, 3.1569324614686494], 0.5, 0.5, 0.002, 0.2, 100)

2025-07-07 16:32:34,322 - gym_custom_envs_real_ur_drivers_URBasic_realTimeClientEvent - INFO - Program send to Robot:
servoj([-0.04755355782253378, -1.563126422855315, -1.6137477888556946, -1.5155727116347024, 1.5800002115222105, 3.1569324614686494], 0.5, 0.5, 0.002, 0.2, 100)

2025-07-07 16:32:34,325 - gym_custom_envs_real_ur_drivers_URBasic_realTimeClientEvent - INFO - Program send to Robot:
servoj([-0.047553405958435775, -1.5631264228554669, -1.6137477888556946, -1.5155730153630502, 1.5800002115222105, 3.1569324614686494], 0.5, 0.5, 0.002, 0.2, 100)

2025-07-07 16:32:34,346 - gym_custom_envs_real_ur_drivers_URBasic_realTimeClientEvent - INFO - Program send to Robot:
servoj([-0.0475534044397948, -1.5631264228554684, -1.6137477888556946, -1.5231662233003678, 1.5784815705422035, 3.1569324614686494], 0.5, 0.5, 0.002, 0.2, 100)

2025-07-07 16:32:34,349 - gym_custom_envs_real_ur_drivers_URBasic_realTimeClientEvent - INFO - Program send to Robot:
servoj([-0.04755340442460839, -1.5631264228554684, -1.6137477888556946, -1.523242155379741, 1.5784663841324036, 3.1569324614686494], 0.5, 0.5, 0.002, 0.2, 100)

2025-07-07 16:32:34,364 - gym_custom_envs_real_ur_drivers_URBasic_realTimeClientEvent - INFO - Program send to Robot:
servoj([-0.049072045404463034, -1.5616077818754615, -1.6137477888556946, -1.5262801966605481, 1.5784662322683056, 3.158451102448656], 0.5, 0.5, 0.002, 0.2, 100)

2025-07-07 16:32:34,373 - gym_custom_envs_real_ur_drivers_URBasic_realTimeClientEvent - INFO - Program send to Robot:
servoj([-0.04908723181426158, -1.5615925954656613, -1.6137477888556946, -1.5263105770733563, 1.5784662307496646, 3.1584662888584565], 0.5, 0.5, 0.002, 0.2, 100)

2025-07-07 16:32:34,388 - gym_custom_envs_real_ur_drivers_URBasic_realTimeClientEvent - INFO - Program send to Robot:
servoj([-0.04908738367835956, -1.5615924436015634, -1.6137477888556946, -1.5263108808774843, 1.5784662307344781, 3.1584664407225542], 0.5, 0.5, 0.002, 0.2, 100)

2025-07-07 16:32:34,397 - gym_custom_envs_real_ur_drivers_URBasic_realTimeClientEvent - INFO - Program send to Robot:
servoj([-0.04756874421699404, -1.5615924420829224, -1.6137477888556946, -1.5293481658755395, 1.5784662307343262, 3.1569478012611887], 0.5, 0.5, 0.002, 0.2, 100)

2025-07-07 16:32:34,412 - gym_custom_envs_real_ur_drivers_URBasic_realTimeClientEvent - INFO - Program send to Robot:
servoj([-0.04755355782238038, -1.5615924420677358, -1.6137477888556946, -1.5293785387255199, 1.5784662307343247, 3.156932614866575], 0.5, 0.5, 0.002, 0.2, 100)

2025-07-07 16:32:34,421 - gym_custom_envs_real_ur_drivers_URBasic_realTimeClientEvent - INFO - Program send to Robot:
servoj([-0.04755340595843424, -1.561592442067584, -1.6137477888556946, -1.5293788424540198, 1.5784662307343247, 3.1569324630026285], 0.5, 0.5, 0.002, 0.2, 100)

2025-07-07 16:32:34,436 - gym_custom_envs_real_ur_drivers_URBasic_realTimeClientEvent - INFO - Program send to Robot:
servoj([-0.04907204541980129, -1.5615924420675826, -1.6137477888556946, -1.5293788454913049, 1.5784662307343247, 3.156932461483989], 0.5, 0.5, 0.002, 0.2, 100)

2025-07-07 16:32:34,445 - gym_custom_envs_real_ur_drivers_URBasic_realTimeClientEvent - INFO - Program send to Robot:
servoj([-0.04908723181441496, -1.5615924420675826, -1.6137477888556946, -1.5293788455216777, 1.5784662307343247, 3.156932461468803], 0.5, 0.5, 0.002, 0.2, 100)

2025-07-07 16:32:34,453 - gym_custom_envs_real_ur_drivers_URBasic_realTimeClientEvent - INFO - Program send to Robot:
servoj([-0.0490873836783611, -1.5615924420675826, -1.6137477888556946, -1.5293788455219814, 1.5784662307343247, 3.156932461468651], 0.5, 0.5, 0.002, 0.2, 100)

2025-07-07 16:32:34,468 - gym_custom_envs_real_ur_drivers_URBasic_realTimeClientEvent - INFO - Program send to Robot:
servoj([-0.04908738519700056, -1.5631110830475896, -1.6137477888556946, -1.5293788455219843, 1.5784662307343247, 3.1569324614686494], 0.5, 0.5, 0.002, 0.2, 100)

2025-07-07 16:32:34,476 - gym_custom_envs_real_ur_drivers_URBasic_realTimeClientEvent - INFO - Program send to Robot:
servoj([-0.04908738521218695, -1.5631262694573895, -1.6137477888556946, -1.5293788455219843, 1.5784662307343247, 3.1569324614686494], 0.5, 0.5, 0.002, 0.2, 100)

2025-07-07 16:32:34,490 - gym_custom_envs_real_ur_drivers_URBasic_realTimeClientEvent - INFO - Program send to Robot:
servoj([-0.04908738521233882, -1.5631264213214875, -1.6137477888556946, -1.5293788455219843, 1.5784662307343247, 3.1569324614686494], 0.5, 0.5, 0.002, 0.2, 100)

2025-07-07 16:32:34,501 - gym_custom_envs_real_ur_drivers_URBasic_realTimeClientEvent - INFO - Program send to Robot:
servoj([-0.04908738521234034, -1.5631264228401285, -1.6137477888556946, -1.5293788455219843, 1.5784662307343247, 3.1569324614686494], 0.5, 0.5, 0.002, 0.2, 100)

2025-07-07 16:32:34,509 - gym_custom_envs_real_ur_drivers_URBasic_realTimeClientEvent - INFO - Program send to Robot:
servoj([-0.04908738521234035, -1.563126422855315, -1.6137477888556946, -1.5293788455219843, 1.5784662307343247, 3.1569324614686494], 0.5, 0.5, 0.002, 0.2, 100)

2025-07-07 16:32:34,517 - gym_custom_envs_real_ur_drivers_URBasic_realTimeClientEvent - INFO - Program send to Robot:
servoj([-0.04908738521234035, -1.5631264228554669, -1.6137477888556946, -1.5293788455219843, 1.5784662307343247, 3.1569324614686494], 0.5, 0.5, 0.002, 0.2, 100)

2025-07-07 16:32:34,532 - gym_custom_envs_real_ur_drivers_URBasic_realTimeClientEvent - INFO - Program send to Robot:
servoj([-0.04908738521234035, -1.5631264228554684, -1.6137477888556946, -1.5293788455219843, 1.5784662307343247, 3.1569324614686494], 0.5, 0.5, 0.002, 0.2, 100)

2025-07-07 16:32:34,541 - gym_custom_envs_real_ur_drivers_URBasic_realTimeClientEvent - INFO - Program send to Robot:
servoj([-0.04908738521234035, -1.5631264228554684, -1.6137477888556946, -1.5293788455219843, 1.5784662307343247, 3.1569324614686494], 0.5, 0.5, 0.002, 0.2, 100)

2025-07-07 16:32:34,556 - gym_custom_envs_real_ur_drivers_URBasic_realTimeClientEvent - INFO - Program send to Robot:
servoj([-0.04908738521234035, -1.5631264228554684, -1.6137477888556946, -1.5293788455219843, 1.5784662307343247, 3.1569324614686494], 0.5, 0.5, 0.002, 0.2, 100)

2025-07-07 16:32:34,565 - gym_custom_envs_real_ur_drivers_URBasic_realTimeClientEvent - INFO - Program send to Robot:
servoj([-0.04908738521234035, -1.5631264228554684, -1.6137477888556946, -1.5293788455219843, 1.5784662307343247, 3.1569324614686494], 0.5, 0.5, 0.002, 0.2, 100)

2025-07-07 16:32:34,580 - gym_custom_envs_real_ur_drivers_URBasic_realTimeClientEvent - INFO - Program send to Robot:
servoj([-0.04908738521234035, -1.5631264228554684, -1.6137477888556946, -1.5293788455219843, 1.5784662307343247, 3.1569324614686494], 0.5, 0.5, 0.002, 0.2, 100)

2025-07-07 16:32:34,589 - gym_custom_envs_real_ur_drivers_URBasic_realTimeClientEvent - INFO - Program send to Robot:
servoj([-0.04908738521234035, -1.5631264228554684, -1.6137477888556946, -1.5293788455219843, 1.5784662307343247, 3.1569324614686494], 0.5, 0.5, 0.002, 0.2, 100)

2025-07-07 16:32:34,604 - gym_custom_envs_real_ur_drivers_URBasic_realTimeClientEvent - INFO - Program send to Robot:
servoj([-0.04908738521234035, -1.5631264228554684, -1.6137477888556946, -1.5293788455219843, 1.5784662307343247, 3.1569324614686494], 0.5, 0.5, 0.002, 0.2, 100)

2025-07-07 16:32:34,613 - gym_custom_envs_real_ur_drivers_URBasic_realTimeClientEvent - INFO - Program send to Robot:
servoj([-0.04908738521234035, -1.5631264228554684, -1.6137477888556946, -1.5293788455219843, 1.5784662307343247, 3.1569324614686494], 0.5, 0.5, 0.002, 0.2, 100)

2025-07-07 16:32:34,629 - gym_custom_envs_real_ur_drivers_URBasic_realTimeClientEvent - INFO - Program send to Robot:
servoj([-0.04908738521234035, -1.5631264228554684, -1.6137477888556946, -1.5293788455219843, 1.5784662307343247, 3.1569324614686494], 0.5, 0.5, 0.002, 0.2, 100)

2025-07-07 16:32:34,637 - gym_custom_envs_real_ur_drivers_URBasic_realTimeClientEvent - INFO - Program send to Robot:
servoj([-0.04908738521234035, -1.5631264228554684, -1.6137477888556946, -1.5293788455219843, 1.5784662307343247, 3.1569324614686494], 0.5, 0.5, 0.002, 0.2, 100)

2025-07-07 16:32:34,652 - gym_custom_envs_real_ur_drivers_URBasic_realTimeClientEvent - INFO - Program send to Robot:
servoj([-0.04908738521234035, -1.5631264228554684, -1.6137477888556946, -1.5293788455219843, 1.5784662307343247, 3.1569324614686494], 0.5, 0.5, 0.002, 0.2, 100)

2025-07-07 16:32:34,660 - gym_custom_envs_real_ur_drivers_URBasic_realTimeClientEvent - INFO - Program send to Robot:
servoj([-0.04908738521234035, -1.5631264228554684, -1.6137477888556946, -1.5293788455219843, 1.5784662307343247, 3.1569324614686494], 0.5, 0.5, 0.002, 0.2, 100)

2025-07-07 16:32:34,668 - gym_custom_envs_real_ur_drivers_URBasic_realTimeClientEvent - INFO - Program send to Robot:
servoj([-0.04908738521234035, -1.5631264228554684, -1.6137477888556946, -1.5293788455219843, 1.5784662307343247, 3.1569324614686494], 0.5, 0.5, 0.002, 0.2, 100)

2025-07-07 16:32:34,677 - gym_custom_envs_real_ur_drivers_URBasic_realTimeClientEvent - INFO - Program send to Robot:
servoj([-0.04908738521234035, -1.5631264228554684, -1.6137477888556946, -1.5293788455219843, 1.5784662307343247, 3.1569324614686494], 0.5, 0.5, 0.002, 0.2, 100)

2025-07-07 16:32:34,692 - gym_custom_envs_real_ur_drivers_URBasic_realTimeClientEvent - INFO - Program send to Robot:
servoj([-0.04908738521234035, -1.5631264228554684, -1.6137477888556946, -1.5293788455219843, 1.5784662307343247, 3.1569324614686494], 0.5, 0.5, 0.002, 0.2, 100)

2025-07-07 16:32:34,700 - gym_custom_envs_real_ur_drivers_URBasic_realTimeClientEvent - INFO - Program send to Robot:
servoj([-0.04908738521234035, -1.5631264228554684, -1.6137477888556946, -1.5293788455219843, 1.5784662307343247, 3.1569324614686494], 0.5, 0.5, 0.002, 0.2, 100)

2025-07-07 16:32:34,709 - gym_custom_envs_real_ur_drivers_URBasic_realTimeClientEvent - INFO - Program send to Robot:
servoj([-0.04908738521234035, -1.5631264228554684, -1.6137477888556946, -1.5293788455219843, 1.5784662307343247, 3.1569324614686494], 0.5, 0.5, 0.002, 0.2, 100)

2025-07-07 16:32:34,730 - gym_custom_envs_real_ur_drivers_URBasic_realTimeClientEvent - INFO - Program send to Robot:
servoj([-0.04908738521234035, -1.5631264228554684, -1.6137477888556946, -1.5293788455219843, 1.5784662307343247, 3.1569324614686494], 0.5, 0.5, 0.002, 0.2, 100)

2025-07-07 16:32:34,742 - gym_custom_envs_real_ur_drivers_URBasic_realTimeClientEvent - INFO - Program send to Robot:
servoj([-0.04908738521234035, -1.5631264228554684, -1.6137477888556946, -1.5293788455219843, 1.5784662307343247, 3.1569324614686494], 0.5, 0.5, 0.002, 0.2, 100)

2025-07-07 16:32:34,749 - gym_custom_envs_real_ur_drivers_URBasic_realTimeClientEvent - INFO - Program send to Robot:
servoj([-0.04908738521234035, -1.5631264228554684, -1.6137477888556946, -1.5293788455219843, 1.5784662307343247, 3.1569324614686494], 0.5, 0.5, 0.002, 0.2, 100)

2025-07-07 16:32:34,757 - gym_custom_envs_real_ur_drivers_URBasic_realTimeClientEvent - INFO - Program send to Robot:
servoj([-0.04908738521234035, -1.5631264228554684, -1.6137477888556946, -1.5293788455219843, 1.5784662307343247, 3.1569324614686494], 0.5, 0.5, 0.002, 0.2, 100)

2025-07-07 16:32:34,773 - gym_custom_envs_real_ur_drivers_URBasic_realTimeClientEvent - INFO - Program send to Robot:
servoj([-0.04908738521234035, -1.5631264228554684, -1.6137477888556946, -1.5293788455219843, 1.5784662307343247, 3.1569324614686494], 0.5, 0.5, 0.002, 0.2, 100)

2025-07-07 16:32:34,789 - gym_custom_envs_real_ur_drivers_URBasic_realTimeClientEvent - INFO - Program send to Robot:
servoj([-0.04908738521234035, -1.5631264228554684, -1.6137477888556946, -1.5293788455219843, 1.5784662307343247, 3.1569324614686494], 0.5, 0.5, 0.002, 0.2, 100)

2025-07-07 16:32:34,797 - gym_custom_envs_real_ur_drivers_URBasic_realTimeClientEvent - INFO - Program send to Robot:
servoj([-0.04908738521234035, -1.5631264228554684, -1.6137477888556946, -1.5293788455219843, 1.5784662307343247, 3.1569324614686494], 0.5, 0.5, 0.002, 0.2, 100)

2025-07-07 16:32:34,804 - gym_custom_envs_real_ur_drivers_URBasic_realTimeClientEvent - INFO - Program send to Robot:
servoj([-0.04908738521234035, -1.5631264228554684, -1.6137477888556946, -1.5293788455219843, 1.5784662307343247, 3.1569324614686494], 0.5, 0.5, 0.002, 0.2, 100)

2025-07-07 16:32:34,821 - gym_custom_envs_real_ur_drivers_URBasic_realTimeClientEvent - INFO - Program send to Robot:
servoj([-0.04756874423233384, -1.5631264228554684, -1.6137477888556946, -1.5293788455219843, 1.5784662307343247, 3.1569324614686494], 0.5, 0.5, 0.002, 0.2, 100)

2025-07-07 16:32:34,828 - gym_custom_envs_real_ur_drivers_URBasic_realTimeClientEvent - INFO - Program send to Robot:
servoj([-0.04755355782253378, -1.5631264228554684, -1.6137477888556946, -1.5293788455219843, 1.5784662307343247, 3.1569324614686494], 0.5, 0.5, 0.002, 0.2, 100)

2025-07-07 16:32:34,845 - gym_custom_envs_real_ur_drivers_URBasic_realTimeClientEvent - INFO - Program send to Robot:
servoj([-0.04907204693844228, -1.5631264228554684, -1.6137477888556946, -1.5293788455219843, 1.5784662307343247, 3.155413820488642], 0.5, 0.5, 0.002, 0.2, 100)

2025-07-07 16:32:34,853 - gym_custom_envs_real_ur_drivers_URBasic_realTimeClientEvent - INFO - Program send to Robot:
servoj([-0.04908723182960137, -1.5631264228554684, -1.6137477888556946, -1.5293788455219843, 1.5784662307343247, 3.1553986340788422], 0.5, 0.5, 0.002, 0.2, 100)

2025-07-07 16:32:34,869 - gym_custom_envs_real_ur_drivers_URBasic_realTimeClientEvent - INFO - Program send to Robot:
servoj([-0.04908738367851296, -1.5631264228554684, -1.6137477888556946, -1.5293788455219843, 1.5784662307343247, 3.155398482214744], 0.5, 0.5, 0.002, 0.2, 100)

2025-07-07 16:32:34,877 - gym_custom_envs_real_ur_drivers_URBasic_realTimeClientEvent - INFO - Program send to Robot:
servoj([-0.04908738519700208, -1.5631264228554684, -1.6137477888556946, -1.5293788455219843, 1.5784662307343247, 3.1553984806961033], 0.5, 0.5, 0.002, 0.2, 100)

2025-07-07 16:32:34,892 - gym_custom_envs_real_ur_drivers_URBasic_realTimeClientEvent - INFO - Program send to Robot:
servoj([-0.04908738521218697, -1.5631264228554684, -1.6137477888556946, -1.5293788455219843, 1.5784662307343247, 3.1553984806809168], 0.5, 0.5, 0.002, 0.2, 100)

2025-07-07 16:32:34,901 - gym_custom_envs_real_ur_drivers_URBasic_realTimeClientEvent - INFO - Program send to Robot:
servoj([-0.04908738521233882, -1.5631264228554684, -1.6137477888556946, -1.5293788455219843, 1.5784662307343247, 3.155398480680765], 0.5, 0.5, 0.002, 0.2, 100)

2025-07-07 16:32:34,917 - gym_custom_envs_real_ur_drivers_URBasic_realTimeClientEvent - INFO - Program send to Robot:
servoj([-0.04908738521234034, -1.5631264228554684, -1.6137477888556946, -1.5293788455219843, 1.5784662307343247, 3.1553984806807636], 0.5, 0.5, 0.002, 0.2, 100)

2025-07-07 16:32:34,925 - gym_custom_envs_real_ur_drivers_URBasic_realTimeClientEvent - INFO - Program send to Robot:
servoj([-0.04908738521234035, -1.5631264228554684, -1.6137477888556946, -1.5293788455219843, 1.5784662307343247, 3.1553984806807636], 0.5, 0.5, 0.002, 0.2, 100)

2025-07-07 16:32:34,941 - gym_custom_envs_real_ur_drivers_URBasic_realTimeClientEvent - INFO - Program send to Robot:
servoj([-0.04908738521234035, -1.5631264228554684, -1.6137477888556946, -1.5293788455219843, 1.5784662307343247, 3.1553984806807636], 0.5, 0.5, 0.002, 0.2, 100)

2025-07-07 16:32:34,949 - gym_custom_envs_real_ur_drivers_URBasic_realTimeClientEvent - INFO - Program send to Robot:
servoj([-0.04908738521234035, -1.5631264228554684, -1.6137477888556946, -1.5293788455219843, 1.5784662307343247, 3.1553984806807636], 0.5, 0.5, 0.002, 0.2, 100)

2025-07-07 16:32:34,970 - gym_custom_envs_real_ur_drivers_URBasic_realTimeClientEvent - INFO - Program send to Robot:
servoj([-0.04908738521234035, -1.5616077818754615, -1.6137477888556946, -1.5293788455219843, 1.5784662307343247, 3.1553984806807636], 0.5, 0.5, 0.002, 0.2, 100)

2025-07-07 16:32:34,973 - gym_custom_envs_real_ur_drivers_URBasic_realTimeClientEvent - INFO - Program send to Robot:
servoj([-0.04908738521234035, -1.5615925954656613, -1.6137477888556946, -1.5293788455219843, 1.5784662307343247, 3.1553984806807636], 0.5, 0.5, 0.002, 0.2, 100)

2025-07-07 16:32:34,994 - gym_custom_envs_real_ur_drivers_URBasic_realTimeClientEvent - INFO - Program send to Robot:
servoj([-0.04908738521234035, -1.5615924436015634, -1.6137477888556946, -1.5293788455219843, 1.5784662307343247, 3.1553984806807636], 0.5, 0.5, 0.002, 0.2, 100)

2025-07-07 16:32:35,005 - gym_custom_envs_real_ur_drivers_URBasic_realTimeClientEvent - INFO - Program send to Robot:
servoj([-0.04908738521234035, -1.5631110830629293, -1.6137477888556946, -1.5293788455219843, 1.5784662307343247, 3.1553984806807636], 0.5, 0.5, 0.002, 0.2, 100)

2025-07-07 16:32:35,012 - gym_custom_envs_real_ur_drivers_URBasic_realTimeClientEvent - INFO - Program send to Robot:
servoj([-0.04908738521234035, -1.563126269457543, -1.6137477888556946, -1.5293788455219843, 1.5784662307343247, 3.1553984806807636], 0.5, 0.5, 0.002, 0.2, 100)

2025-07-07 16:32:35,020 - gym_custom_envs_real_ur_drivers_URBasic_realTimeClientEvent - INFO - Program send to Robot:
servoj([-0.04908738521234035, -1.563126421321489, -1.6137477888556946, -1.5293788455219843, 1.5784662307343247, 3.1553984806807636], 0.5, 0.5, 0.002, 0.2, 100)

2025-07-07 16:32:35,037 - gym_custom_envs_real_ur_drivers_URBasic_realTimeClientEvent - INFO - Program send to Robot:
servoj([-0.04908738521234035, -1.5631264228401285, -1.6137477888556946, -1.5293788455219843, 1.5784662307343247, 3.1553984806807636], 0.5, 0.5, 0.002, 0.2, 100)

2025-07-07 16:32:35,053 - gym_custom_envs_real_ur_drivers_URBasic_realTimeClientEvent - INFO - Program send to Robot:
servoj([-0.04908738521234035, -1.563126422855315, -1.6137477888556946, -1.5293788455219843, 1.5784662307343247, 3.1553984806807636], 0.5, 0.5, 0.002, 0.2, 100)

2025-07-07 16:32:35,060 - gym_custom_envs_real_ur_drivers_URBasic_realTimeClientEvent - INFO - Program send to Robot:
servoj([-0.04908738521234035, -1.5631264228554669, -1.6137477888556946, -1.5293788455219843, 1.5784662307343247, 3.1553984806807636], 0.5, 0.5, 0.002, 0.2, 100)

2025-07-07 16:32:35,068 - gym_custom_envs_real_ur_drivers_URBasic_realTimeClientEvent - INFO - Program send to Robot:
servoj([-0.04908738521234035, -1.5631264228554684, -1.6137477888556946, -1.5293788455219843, 1.5784662307343247, 3.1553984806807636], 0.5, 0.5, 0.002, 0.2, 100)

2025-07-07 16:32:35,076 - gym_custom_envs_real_ur_drivers_URBasic_realTimeClientEvent - INFO - Program send to Robot:
servoj([-0.04908738521234035, -1.5631264228554684, -1.6137477888556946, -1.5293788455219843, 1.5784662307343247, 3.1553984806807636], 0.5, 0.5, 0.002, 0.2, 100)

2025-07-07 16:32:35,093 - gym_custom_envs_real_ur_drivers_URBasic_realTimeClientEvent - INFO - Program send to Robot:
servoj([-0.04908738521234035, -1.5631264228554684, -1.6137477888556946, -1.5293788455219843, 1.5784662307343247, 3.1553984806807636], 0.5, 0.5, 0.002, 0.2, 100)

2025-07-07 16:32:35,101 - gym_custom_envs_real_ur_drivers_URBasic_realTimeClientEvent - INFO - Program send to Robot:
servoj([-0.04908738521234035, -1.5631264228554684, -1.6137477888556946, -1.5293788455219843, 1.5784662307343247, 3.1553984806807636], 0.5, 0.5, 0.002, 0.2, 100)

2025-07-07 16:32:35,108 - gym_custom_envs_real_ur_drivers_URBasic_realTimeClientEvent - INFO - Program send to Robot:
servoj([-0.04908738521234035, -1.5631264228554684, -1.6137477888556946, -1.5293788455219843, 1.5784662307343247, 3.1553984806807636], 0.5, 0.5, 0.002, 0.2, 100)

2025-07-07 16:32:35,125 - gym_custom_envs_real_ur_drivers_URBasic_realTimeClientEvent - INFO - Program send to Robot:
servoj([-0.04908738521234035, -1.5631264228554684, -1.6137477888556946, -1.5293788455219843, 1.5784662307343247, 3.1553984806807636], 0.5, 0.5, 0.002, 0.2, 100)

2025-07-07 16:32:35,133 - gym_custom_envs_real_ur_drivers_URBasic_realTimeClientEvent - INFO - Program send to Robot:
servoj([-0.04908738521234035, -1.5631264228554684, -1.6137477888556946, -1.5293788455219843, 1.5784662307343247, 3.1553984806807636], 0.5, 0.5, 0.002, 0.2, 100)

2025-07-07 16:32:35,142 - gym_custom_envs_real_ur_drivers_URBasic_realTimeClientEvent - INFO - Program send to Robot:
servoj([-0.04908738521234035, -1.5631264228554684, -1.6137477888556946, -1.5293788455219843, 1.5784662307343247, 3.1553984806807636], 0.5, 0.5, 0.002, 0.2, 100)

2025-07-07 16:32:35,150 - gym_custom_envs_real_ur_drivers_URBasic_realTimeClientEvent - INFO - Program send to Robot:
servoj([-0.04908738521234035, -1.5631264228554684, -1.6137477888556946, -1.5293788455219843, 1.5784662307343247, 3.1553984806807636], 0.5, 0.5, 0.002, 0.2, 100)

2025-07-07 16:32:35,166 - gym_custom_envs_real_ur_drivers_URBasic_realTimeClientEvent - INFO - Program send to Robot:
servoj([-0.04908738521234035, -1.5631264228554684, -1.6137477888556946, -1.5293788455219843, 1.5784662307343247, 3.1553984806807636], 0.5, 0.5, 0.002, 0.2, 100)

2025-07-07 16:32:35,174 - gym_custom_envs_real_ur_drivers_URBasic_realTimeClientEvent - INFO - Program send to Robot:
servoj([-0.04908738521234035, -1.5631264228554684, -1.6137477888556946, -1.5293788455219843, 1.5784662307343247, 3.1553984806807636], 0.5, 0.5, 0.002, 0.2, 100)

2025-07-07 16:32:35,181 - gym_custom_envs_real_ur_drivers_URBasic_realTimeClientEvent - INFO - Program send to Robot:
servoj([-0.04908738521234035, -1.5631264228554684, -1.6137477888556946, -1.5293788455219843, 1.5784662307343247, 3.1553984806807636], 0.5, 0.5, 0.002, 0.2, 100)

2025-07-07 16:32:35,190 - gym_custom_envs_real_ur_drivers_URBasic_realTimeClientEvent - INFO - Program send to Robot:
servoj([-0.04908738521234035, -1.5631264228554684, -1.6137477888556946, -1.5293788455219843, 1.5784662307343247, 3.1553984806807636], 0.5, 0.5, 0.002, 0.2, 100)

2025-07-07 16:32:35,205 - gym_custom_envs_real_ur_drivers_URBasic_realTimeClientEvent - INFO - Program send to Robot:
servoj([-0.04908738521234035, -1.5631264228554684, -1.6137477888556946, -1.5293788455219843, 1.5784662307343247, 3.1538798397007572], 0.5, 0.5, 0.002, 0.2, 100)

2025-07-07 16:32:35,214 - gym_custom_envs_real_ur_drivers_URBasic_realTimeClientEvent - INFO - Program send to Robot:
servoj([-0.04908738521234035, -1.5631264228554684, -1.6137477888556946, -1.5293788455219843, 1.5784662307343247, 3.153864653290957], 0.5, 0.5, 0.002, 0.2, 100)

2025-07-07 16:32:35,223 - gym_custom_envs_real_ur_drivers_URBasic_realTimeClientEvent - INFO - Program send to Robot:
servoj([-0.04908738521234035, -1.5631264228554684, -1.6137477888556946, -1.5293788455219843, 1.5784662307343247, 3.153864501426859], 0.5, 0.5, 0.002, 0.2, 100)

2025-07-07 16:32:35,238 - gym_custom_envs_real_ur_drivers_URBasic_realTimeClientEvent - INFO - Program send to Robot:
servoj([-0.04908738521234035, -1.5631264228554684, -1.6137477888556946, -1.5293788455219843, 1.5784662307343247, 3.153864499908218], 0.5, 0.5, 0.002, 0.2, 100)

2025-07-07 16:32:35,246 - gym_custom_envs_real_ur_drivers_URBasic_realTimeClientEvent - INFO - Program send to Robot:
servoj([-0.04908738521234035, -1.5631264228554684, -1.6137477888556946, -1.5293788455219843, 1.5784662307343247, 3.1538644998930314], 0.5, 0.5, 0.002, 0.2, 100)

2025-07-07 16:32:35,252 - gym_custom_envs_real_ur_drivers_URBasic_realTimeClientEvent - INFO - Program send to Robot:
servoj([-0.04908738521234035, -1.5631264228554684, -1.6137477888556946, -1.5293788455219843, 1.5784662307343247, 3.15386449989288], 0.5, 0.5, 0.002, 0.2, 100)

2025-07-07 16:32:35,271 - gym_custom_envs_real_ur_drivers_URBasic_realTimeClientEvent - INFO - Program send to Robot:
servoj([-0.04908738521234035, -1.5631264228554684, -1.6137477888556946, -1.5293788455219843, 1.5784662307343247, 3.1553831408728845], 0.5, 0.5, 0.002, 0.2, 100)

2025-07-07 16:32:35,276 - gym_custom_envs_real_ur_drivers_URBasic_realTimeClientEvent - INFO - Program send to Robot:
servoj([-0.04908738521234035, -1.5631264228554684, -1.6137477888556946, -1.5293788455219843, 1.5784662307343247, 3.1553983272826844], 0.5, 0.5, 0.002, 0.2, 100)

2025-07-07 16:32:35,287 - gym_custom_envs_real_ur_drivers_URBasic_realTimeClientEvent - INFO - Program send to Robot:
servoj([-0.04908738521234035, -1.5631264228554684, -1.6137477888556946, -1.5293788455219843, 1.5784662307343247, 3.1553984791467826], 0.5, 0.5, 0.002, 0.2, 100)

2025-07-07 16:32:35,300 - gym_custom_envs_real_ur_drivers_URBasic_realTimeClientEvent - INFO - Program send to Robot:
servoj([-0.04908738521234035, -1.5631264228554684, -1.6137477888556946, -1.5293788455219843, 1.5784662307343247, 3.153879839685417], 0.5, 0.5, 0.002, 0.2, 100)

2025-07-07 16:32:35,310 - gym_custom_envs_real_ur_drivers_URBasic_realTimeClientEvent - INFO - Program send to Robot:
servoj([-0.04908738521234035, -1.5631264228554684, -1.6137477888556946, -1.5293788455219843, 1.5784662307343247, 3.1538646532908037], 0.5, 0.5, 0.002, 0.2, 100)

2025-07-07 16:32:35,318 - gym_custom_envs_real_ur_drivers_URBasic_realTimeClientEvent - INFO - Program send to Robot:
servoj([-0.04908738521234035, -1.5631264228554684, -1.6137477888556946, -1.5293788455219843, 1.5784662307343247, 3.1538645014268574], 0.5, 0.5, 0.002, 0.2, 100)

2025-07-07 16:32:35,333 - gym_custom_envs_real_ur_drivers_URBasic_realTimeClientEvent - INFO - Program send to Robot:
servoj([-0.04908738521234035, -1.5631264228554684, -1.6137477888556946, -1.5293788455219843, 1.5784662307343247, 3.1553831408882242], 0.5, 0.5, 0.002, 0.2, 100)

2025-07-07 16:32:35,341 - gym_custom_envs_real_ur_drivers_URBasic_realTimeClientEvent - INFO - Program send to Robot:
servoj([-0.04908738521234035, -1.5631264228554684, -1.6137477888556946, -1.5293788455219843, 1.5784662307343247, 3.155398327282838], 0.5, 0.5, 0.002, 0.2, 100)

2025-07-07 16:32:35,348 - gym_custom_envs_real_ur_drivers_URBasic_realTimeClientEvent - INFO - Program send to Robot:
servoj([-0.04908738521234035, -1.5631264228554684, -1.6137477888556946, -1.5293788455219843, 1.5784662307343247, 3.155398479146784], 0.5, 0.5, 0.002, 0.2, 100)

2025-07-07 16:32:35,357 - gym_custom_envs_real_ur_drivers_URBasic_realTimeClientEvent - INFO - Program send to Robot:
servoj([-0.04908738521234035, -1.5631264228554684, -1.6137477888556946, -1.5293788455219843, 1.5784662307343247, 3.155398480665424], 0.5, 0.5, 0.002, 0.2, 100)

2025-07-07 16:32:35,373 - gym_custom_envs_real_ur_drivers_URBasic_realTimeClientEvent - INFO - Program send to Robot:
servoj([-0.04908738521234035, -1.5631264228554684, -1.6137477888556946, -1.5293788455219843, 1.5784662307343247, 3.15539848068061], 0.5, 0.5, 0.002, 0.2, 100)

2025-07-07 16:32:35,381 - gym_custom_envs_real_ur_drivers_URBasic_realTimeClientEvent - INFO - Program send to Robot:
servoj([-0.04908738521234035, -1.5631264228554684, -1.6137477888556946, -1.5293788455219843, 1.5784662307343247, 3.155398480680762], 0.5, 0.5, 0.002, 0.2, 100)

2025-07-07 16:32:35,390 - gym_custom_envs_real_ur_drivers_URBasic_realTimeClientEvent - INFO - Program send to Robot:
servoj([-0.04908738521234035, -1.5631264228554684, -1.6137477888556946, -1.5293788455219843, 1.5784662307343247, 3.1553984806807636], 0.5, 0.5, 0.002, 0.2, 100)

2025-07-07 16:32:35,396 - gym_custom_envs_real_ur_drivers_URBasic_realTimeClientEvent - INFO - Program send to Robot:
servoj([-0.04908738521234035, -1.5631264228554684, -1.6137477888556946, -1.5293788455219843, 1.5784662307343247, 3.1553984806807636], 0.5, 0.5, 0.002, 0.2, 100)

2025-07-07 16:32:35,414 - gym_custom_envs_real_ur_drivers_URBasic_realTimeClientEvent - INFO - Program send to Robot:
servoj([-0.04908738521234035, -1.5631264228554684, -1.6137477888556946, -1.5293788455219843, 1.5784662307343247, 3.1553984806807636], 0.5, 0.5, 0.002, 0.2, 100)

2025-07-07 16:32:35,420 - gym_custom_envs_real_ur_drivers_URBasic_realTimeClientEvent - INFO - Program send to Robot:
servoj([-0.04908738521234035, -1.5631264228554684, -1.6137477888556946, -1.5293788455219843, 1.5784662307343247, 3.1538798397007572], 0.5, 0.5, 0.002, 0.2, 100)

2025-07-07 16:32:35,430 - gym_custom_envs_real_ur_drivers_URBasic_realTimeClientEvent - INFO - Program send to Robot:
servoj([-0.04908738521234035, -1.5631264228554684, -1.6137477888556946, -1.5293788455219843, 1.5784662307343247, 3.153864653290957], 0.5, 0.5, 0.002, 0.2, 100)

2025-07-07 16:32:35,445 - gym_custom_envs_real_ur_drivers_URBasic_realTimeClientEvent - INFO - Program send to Robot:
servoj([-0.04908738521234035, -1.5631264228554684, -1.6137477888556946, -1.5293788455219843, 1.5784662307343247, 3.153864501426859], 0.5, 0.5, 0.002, 0.2, 100)

2025-07-07 16:32:35,453 - gym_custom_envs_real_ur_drivers_URBasic_realTimeClientEvent - INFO - Program send to Robot:
servoj([-0.04908738521234035, -1.5631264228554684, -1.6137477888556946, -1.5293788455219843, 1.5784662307343247, 3.1553831408882242], 0.5, 0.5, 0.002, 0.2, 100)

2025-07-07 16:32:35,461 - gym_custom_envs_real_ur_drivers_URBasic_realTimeClientEvent - INFO - Program send to Robot:
servoj([-0.04908738521234035, -1.5631264228554684, -1.6137477888556946, -1.5293788455219843, 1.5784662307343247, 3.155398327282838], 0.5, 0.5, 0.002, 0.2, 100)

2025-07-07 16:32:35,469 - gym_custom_envs_real_ur_drivers_URBasic_realTimeClientEvent - INFO - Program send to Robot:
servoj([-0.04908738521234035, -1.5631264228554684, -1.6137477888556946, -1.5293788455219843, 1.5784662307343247, 3.155398479146784], 0.5, 0.5, 0.002, 0.2, 100)

2025-07-07 16:32:35,485 - gym_custom_envs_real_ur_drivers_URBasic_realTimeClientEvent - INFO - Program send to Robot:
servoj([-0.04908738521234035, -1.5631264228554684, -1.6137477888556946, -1.5293788455219843, 1.5784662307343247, 3.155398480665424], 0.5, 0.5, 0.002, 0.2, 100)

2025-07-07 16:32:35,493 - gym_custom_envs_real_ur_drivers_URBasic_realTimeClientEvent - INFO - Program send to Robot:
servoj([-0.04908738521234035, -1.5631264228554684, -1.6137477888556946, -1.5293788455219843, 1.5784662307343247, 3.15539848068061], 0.5, 0.5, 0.002, 0.2, 100)

2025-07-07 16:32:35,501 - gym_custom_envs_real_ur_drivers_URBasic_realTimeClientEvent - INFO - Program send to Robot:
servoj([-0.04908738521234035, -1.5631264228554684, -1.6137477888556946, -1.5293788455219843, 1.5784662307343247, 3.155398480680762], 0.5, 0.5, 0.002, 0.2, 100)

2025-07-07 16:32:35,510 - gym_custom_envs_real_ur_drivers_URBasic_realTimeClientEvent - INFO - Program send to Robot:
servoj([-0.04908738521234035, -1.5631264228554684, -1.6137477888556946, -1.5293788455219843, 1.5784662307343247, 3.1553984806807636], 0.5, 0.5, 0.002, 0.2, 100)

2025-07-07 16:32:35,526 - gym_custom_envs_real_ur_drivers_URBasic_realTimeClientEvent - INFO - Program send to Robot:
servoj([-0.04908738521234035, -1.5631264228554684, -1.6137477888556946, -1.5293788455219843, 1.5784662307343247, 3.1553984806807636], 0.5, 0.5, 0.002, 0.2, 100)

2025-07-07 16:32:35,535 - gym_custom_envs_real_ur_drivers_URBasic_realTimeClientEvent - INFO - Program send to Robot:
servoj([-0.04908738521234035, -1.5631264228554684, -1.6137477888556946, -1.5293788455219843, 1.5784662307343247, 3.1553984806807636], 0.5, 0.5, 0.002, 0.2, 100)

2025-07-07 16:32:35,541 - gym_custom_envs_real_ur_drivers_URBasic_realTimeClientEvent - INFO - Program send to Robot:
servoj([-0.04908738521234035, -1.5631264228554684, -1.6137477888556946, -1.5293788455219843, 1.5784662307343247, 3.1553984806807636], 0.5, 0.5, 0.002, 0.2, 100)

2025-07-07 16:32:35,551 - gym_custom_envs_real_ur_drivers_URBasic_realTimeClientEvent - INFO - Program send to Robot:
servoj([-0.04908738521234035, -1.5631264228554684, -1.6137477888556946, -1.5293788455219843, 1.5784662307343247, 3.1553984806807636], 0.5, 0.5, 0.002, 0.2, 100)

2025-07-07 16:32:35,564 - gym_custom_envs_real_ur_drivers_URBasic_realTimeClientEvent - INFO - Program send to Robot:
servoj([-0.04908738521234035, -1.5631264228554684, -1.6137477888556946, -1.5293788455219843, 1.5784662307343247, 3.1553984806807636], 0.5, 0.5, 0.002, 0.2, 100)

2025-07-07 16:32:35,574 - gym_custom_envs_real_ur_drivers_URBasic_realTimeClientEvent - INFO - Program send to Robot:
servoj([-0.04908738521234035, -1.5631264228554684, -1.6137477888556946, -1.5293788455219843, 1.5784662307343247, 3.1553984806807636], 0.5, 0.5, 0.002, 0.2, 100)

2025-07-07 16:32:35,582 - gym_custom_envs_real_ur_drivers_URBasic_realTimeClientEvent - INFO - Program send to Robot:
servoj([-0.04908738521234035, -1.5631264228554684, -1.6137477888556946, -1.5293788455219843, 1.5784662307343247, 3.1553984806807636], 0.5, 0.5, 0.002, 0.2, 100)

2025-07-07 16:32:35,598 - gym_custom_envs_real_ur_drivers_URBasic_realTimeClientEvent - INFO - Program send to Robot:
servoj([-0.04908738521234035, -1.5631264228554684, -1.6137477888556946, -1.5293788455219843, 1.5784662307343247, 3.1553984806807636], 0.5, 0.5, 0.002, 0.2, 100)

2025-07-07 16:32:35,606 - gym_custom_envs_real_ur_drivers_URBasic_realTimeClientEvent - INFO - Program send to Robot:
servoj([-0.04908738521234035, -1.5631264228554684, -1.6137477888556946, -1.5293788455219843, 1.5784662307343247, 3.1553984806807636], 0.5, 0.5, 0.002, 0.2, 100)

2025-07-07 16:32:35,612 - gym_custom_envs_real_ur_drivers_URBasic_realTimeClientEvent - INFO - Program send to Robot:
servoj([-0.04908738521234035, -1.5631264228554684, -1.6137477888556946, -1.5293788455219843, 1.5784662307343247, 3.1553984806807636], 0.5, 0.5, 0.002, 0.2, 100)

2025-07-07 16:32:35,630 - gym_custom_envs_real_ur_drivers_URBasic_realTimeClientEvent - INFO - Program send to Robot:
servoj([-0.04908738521234035, -1.5631264228554684, -1.6137477888556946, -1.5293788455219843, 1.5784662307343247, 3.1553984806807636], 0.5, 0.5, 0.002, 0.2, 100)

2025-07-07 16:32:35,636 - gym_custom_envs_real_ur_drivers_URBasic_realTimeClientEvent - INFO - Program send to Robot:
servoj([-0.04908738521234035, -1.5631264228554684, -1.6137477888556946, -1.5293788455219843, 1.5784662307343247, 3.1553984806807636], 0.5, 0.5, 0.002, 0.2, 100)

2025-07-07 16:32:35,646 - gym_custom_envs_real_ur_drivers_URBasic_realTimeClientEvent - INFO - Program send to Robot:
servoj([-0.04908738521234035, -1.5631264228554684, -1.6137477888556946, -1.5293788455219843, 1.5784662307343247, 3.1569171216607708], 0.5, 0.5, 0.002, 0.2, 100)

2025-07-07 16:32:35,662 - gym_custom_envs_real_ur_drivers_URBasic_realTimeClientEvent - INFO - Program send to Robot:
servoj([-0.04908738521234035, -1.5631264228554684, -1.6137477888556946, -1.5293788455219843, 1.5784662307343247, 3.1569323080705707], 0.5, 0.5, 0.002, 0.2, 100)

2025-07-07 16:32:35,671 - gym_custom_envs_real_ur_drivers_URBasic_realTimeClientEvent - INFO - Program send to Robot:
servoj([-0.04908738521234035, -1.5631264228554684, -1.6137477888556946, -1.5293788455219843, 1.5784662307343247, 3.156932459934669], 0.5, 0.5, 0.002, 0.2, 100)

2025-07-07 16:32:35,679 - gym_custom_envs_real_ur_drivers_URBasic_realTimeClientEvent - INFO - Program send to Robot:
