2025-07-07 17:22:17,149 - gym_custom_envs_real_ur_drivers_URBasic_robotModelEvent - INFO - Init done
2025-07-07 17:22:17,650 - gym_custom_envs_real_ur_drivers_URBasic_realTimeClientEvent - INFO - Connected
2025-07-07 17:22:17,651 - gym_custom_envs_real_ur_drivers_URBasic_realTimeClientEvent - INFO - RT_CLient constructor done
2025-07-07 17:22:17,652 - gym_custom_envs_real_ur_drivers_URBasic_dataLogEvent - INFO - Data logging (not event logging) is disabled
2025-07-07 17:22:17,652 - gym_custom_envs_real_ur_drivers_URBasic_dataLogEvent - INFO - DataLog constructor done
2025-07-07 17:22:17,653 - gym_custom_envs_real_ur_drivers_URBasic_dataLogEvent - INFO - DataLog is stopped
2025-07-07 17:22:17,654 - gym_custom_envs_real_ur_drivers_URBasic_rtdeEvent - INFO - RTDE constructor done
2025-07-07 17:22:18,156 - gym_custom_envs_real_ur_drivers_URBasic_dashboardEvent - INFO - Connected
2025-07-07 17:22:18,157 - gym_custom_envs_real_ur_drivers_URBasic_dashboardEvent - INFO - UR Dashboard respond Connected: Universal Robots Dashboard Server
2025-07-07 17:22:18,157 - gym_custom_envs_real_ur_drivers_URBasic_dashboardEvent - INFO - Dashboard server constructor done
2025-07-07 17:22:18,158 - gym_custom_envs_real_ur_drivers_URBasic_robotConnectorEvent - INFO - Init done
2025-07-07 17:22:18,262 - gym_custom_envs_real_ur_drivers_URBasic_rtdeEvent - INFO - Controller version: 3.3.1-60
2025-07-07 17:22:18,266 - gym_custom_envs_real_ur_drivers_URBasic_rtdeEvent - INFO - RTDE started
2025-07-07 17:22:19,159 - gym_custom_envs_real_ur_drivers_URBasic_urScriptEvent - INFO - Init done!!!
2025-07-07 17:22:19,169 - gym_custom_envs_real_ur_drivers_URBasic_urScriptExtEvent - INFO - Init done
2025-07-07 17:22:20,787 - gym_custom_envs_real_ur_interfaceEvent - INFO - [] init done
2025-07-07 17:22:20,787 - gym_custom_envs_real_ur_drivers_URBasic_realTimeClientEvent - INFO - Program send to Robot:
end_freedrive_mode()

2025-07-07 17:22:20,954 - gym_custom_envs_real_ur_drivers_URBasic_realTimeClientEvent - INFO - Program send to Robot:
servoj([-0.08106280962099248, -1.6007731261780918, -1.551989371642106, -1.5183436513320987, 1.6619679193138133, 3.0212512409992085], 0.5, 0.5, 0.04, 0.05, 300)

2025-07-07 17:22:20,970 - gym_custom_envs_real_ur_drivers_URBasic_realTimeClientEvent - INFO - Program send to Robot:
servoj([-0.0810508886920374, -1.6007464410331327, -1.5520250154526143, -1.518378182830599, 1.661960602278102, 3.021288733222322], 0.5, 0.5, 0.04, 0.05, 300)

2025-07-07 17:22:20,986 - gym_custom_envs_real_ur_drivers_URBasic_realTimeClientEvent - INFO - Program send to Robot:
servoj([-0.08111049333681279, -1.600756689058918, -1.551978769616873, -1.5183565028786716, 1.6619708835474682, 3.0213046969737203], 0.5, 0.5, 0.04, 0.05, 300)

2025-07-07 17:22:21,001 - gym_custom_envs_real_ur_drivers_URBasic_realTimeClientEvent - INFO - Program send to Robot:
servoj([-0.08106280962099248, -1.6007555293042488, -1.5519981700790275, -1.5183879954541828, 1.6623657024379213, 3.0212866107156326], 0.5, 0.5, 0.04, 0.05, 300)

2025-07-07 17:22:21,018 - gym_custom_envs_real_ur_drivers_URBasic_realTimeClientEvent - INFO - Program send to Robot:
servoj([-0.08103849092592412, -1.600763735645309, -1.5519902914212975, -1.5183503819032997, 1.6623993233940153, 3.021299914910388], 0.5, 0.5, 0.04, 0.05, 300)

2025-07-07 17:22:21,033 - gym_custom_envs_real_ur_drivers_URBasic_realTimeClientEvent - INFO - Program send to Robot:
servoj([-0.08106280962099248, -1.6007643277411703, -1.5519717747682633, -1.5183524497690202, 1.6623609216105533, 3.0212778122787114], 0.5, 0.5, 0.04, 0.05, 300)

2025-07-07 17:22:21,049 - gym_custom_envs_real_ur_drivers_URBasic_realTimeClientEvent - INFO - Program send to Robot:
servoj([-0.08101464906801396, -1.600780750310531, -1.5519735980953155, -1.5183838965740113, 1.6623846926790105, 3.021347973164555], 0.5, 0.5, 0.04, 0.05, 300)

2025-07-07 17:22:21,065 - gym_custom_envs_real_ur_drivers_URBasic_realTimeClientEvent - INFO - Program send to Robot:
servoj([-0.08096696535219365, -1.600735250832318, -1.5519842011448435, -1.5183087575419365, 1.662443766382911, 3.0214095974705635], 0.5, 0.5, 0.04, 0.05, 300)

2025-07-07 17:22:21,082 - gym_custom_envs_real_ur_drivers_URBasic_realTimeClientEvent - INFO - Program send to Robot:
servoj([-0.08073951402773076, -1.6007209197158376, -1.5520283496231424, -1.5182362813422132, 1.6625695300908794, 3.0216006751014763], 0.5, 0.5, 0.04, 0.05, 300)

2025-07-07 17:22:21,098 - gym_custom_envs_real_ur_drivers_URBasic_realTimeClientEvent - INFO - Program send to Robot:
servoj([-0.08022500673402959, -1.6006732133835742, -1.5520563332580095, -1.5180335284718958, 1.6628376203613877, 3.0219308300559757], 0.5, 0.5, 0.04, 0.05, 300)

2025-07-07 17:22:21,114 - gym_custom_envs_real_ur_drivers_URBasic_realTimeClientEvent - INFO - Program send to Robot:
servoj([-0.07947065034975224, -1.6005487456709242, -1.5521557058578812, -1.5177573348193711, 1.6631975987423468, 3.0224270443808723], 0.5, 0.5, 0.04, 0.05, 300)

2025-07-07 17:22:21,129 - gym_custom_envs_real_ur_drivers_URBasic_realTimeClientEvent - INFO - Program send to Robot:
servoj([-0.07814170518984014, -1.6004194632703646, -1.5527690682274895, -1.5177471571889276, 1.6638682880711075, 3.0233524688742164], 0.5, 0.5, 0.04, 0.05, 300)

2025-07-07 17:22:21,146 - gym_custom_envs_real_ur_drivers_URBasic_realTimeClientEvent - INFO - Program send to Robot:
servoj([-0.07608272234071904, -1.6002190934193667, -1.553102821800385, -1.5169975522384207, 1.664851841298081, 3.0247528792136387], 0.5, 0.5, 0.04, 0.05, 300)

2025-07-07 17:22:21,162 - gym_custom_envs_real_ur_drivers_URBasic_realTimeClientEvent - INFO - Program send to Robot:
servoj([-0.07341338792909795, -1.5999340968986924, -1.5535012171158267, -1.51615810153851, 1.6661591124913253, 3.0266316449716943], 0.5, 0.5, 0.04, 0.05, 300)

2025-07-07 17:22:21,177 - gym_custom_envs_real_ur_drivers_URBasic_realTimeClientEvent - INFO - Program send to Robot:
servoj([-0.07033635774721318, -1.5996649844263455, -1.5540120595083673, -1.5151609646563102, 1.667633448456477, 3.0287164529934225], 0.5, 0.5, 0.04, 0.05, 300)

2025-07-07 17:22:21,193 - gym_custom_envs_real_ur_drivers_URBasic_realTimeClientEvent - INFO - Program send to Robot:
servoj([-0.0669365088092249, -1.5994437826146466, -1.5549147283499782, -1.514226884390652, 1.6691180440813826, 3.0307629194081533], 0.5, 0.5, 0.04, 0.05, 300)

2025-07-07 17:22:21,210 - gym_custom_envs_real_ur_drivers_URBasic_realTimeClientEvent - INFO - Program send to Robot:
servoj([-0.06335689226259404, -1.5990938568930693, -1.5554235720717624, -1.5130521968924733, 1.6708764404589558, 3.0332695551814552], 0.5, 0.5, 0.04, 0.05, 300)

2025-07-07 17:22:21,225 - gym_custom_envs_real_ur_drivers_URBasic_realTimeClientEvent - INFO - Program send to Robot:
servoj([-0.05961038271059209, -1.5987559801773619, -1.5559968698852298, -1.5119385526341869, 1.672617124937935, 3.035843800593688], 0.5, 0.5, 0.04, 0.05, 300)

2025-07-07 17:22:21,242 - gym_custom_envs_real_ur_drivers_URBasic_realTimeClientEvent - INFO - Program send to Robot:
servoj([-0.05575515428651982, -1.5983729137494467, -1.5566350000722666, -1.5107127856253797, 1.6744833904494372, 3.038489455929995], 0.5, 0.5, 0.04, 0.05, 300)

2025-07-07 17:22:21,257 - gym_custom_envs_real_ur_drivers_URBasic_realTimeClientEvent - INFO - Program send to Robot:
servoj([-0.05166103044618779, -1.5980006307575194, -1.557309250350731, -1.5093895542638678, 1.6764167627082351, 3.0411409107967056], 0.5, 0.5, 0.04, 0.05, 300)

2025-07-07 17:22:21,274 - gym_custom_envs_real_ur_drivers_URBasic_realTimeClientEvent - INFO - Program send to Robot:
servoj([-0.047626988087789354, -1.5976382044743396, -1.5579882340128015, -1.508081408817272, 1.6783913167163678, 3.043889198993692], 0.5, 0.5, 0.04, 0.05, 300)

2025-07-07 17:22:21,289 - gym_custom_envs_real_ur_drivers_URBasic_realTimeClientEvent - INFO - Program send to Robot:
servoj([-0.04353238741029912, -1.5972738385158214, -1.5591026097027547, -1.50679325899872, 1.6803734936185222, 3.0466656573365682], 0.5, 0.5, 0.04, 0.05, 300)

2025-07-07 17:22:21,305 - gym_custom_envs_real_ur_drivers_URBasic_realTimeClientEvent - INFO - Program send to Robot:
servoj([-0.03949786821474248, -1.5969110354864051, -1.5597753206706495, -1.5055432142840457, 1.6823216441529747, 3.049428038137599], 0.5, 0.5, 0.04, 0.05, 300)

2025-07-07 17:22:21,322 - gym_custom_envs_real_ur_drivers_URBasic_realTimeClientEvent - INFO - Program send to Robot:
servoj([-0.03522397676576787, -1.5965166879137187, -1.5599703476395037, -1.5042914877324896, 1.6843236221092928, 3.0522671761375615], 0.5, 0.5, 0.04, 0.05, 300)

2025-07-07 17:22:21,337 - gym_custom_envs_real_ur_drivers_URBasic_realTimeClientEvent - INFO - Program send to Robot:
servoj([-0.0309868017779749, -1.5961783610238613, -1.560575753317276, -1.5029327800702876, 1.6863283486524743, 3.055044189215704], 0.5, 0.5, 0.04, 0.05, 300)

2025-07-07 17:22:21,354 - gym_custom_envs_real_ur_drivers_URBasic_realTimeClientEvent - INFO - Program send to Robot:
servoj([0.06135923151542544, -1.5876701154616386, -1.5769320965636984, -1.4741555371581012, 1.7303303287350031, 3.117048960983623], 0.5, 0.5, 0.04, 0.05, 300)

2025-07-07 17:22:21,361 - gym_custom_envs_real_ur_drivers_URBasic_realTimeClientEvent - INFO - Program send to Robot:
servoj([0.06135923151542544, -1.5876701154616386, -1.5769322484126116, -1.4741555371581012, 1.7303303287350031, 3.117048960983623], 0.5, 0.5, 0.04, 0.05, 300)

2025-07-07 17:22:21,370 - gym_custom_envs_real_ur_drivers_URBasic_realTimeClientEvent - INFO - Program send to Robot:
servoj([0.06135923151542544, -1.5876701154616386, -1.5769322499311007, -1.4741555371581012, 1.7303303287350031, 3.117048960983623], 0.5, 0.5, 0.04, 0.05, 300)

2025-07-07 17:22:21,386 - gym_custom_envs_real_ur_drivers_URBasic_realTimeClientEvent - INFO - Program send to Robot:
servoj([0.06135923151542544, -1.5876701154616386, -1.5769322499462854, -1.4741555371581012, 1.7303303287350031, 3.117048960983623], 0.5, 0.5, 0.04, 0.05, 300)

2025-07-07 17:22:21,393 - gym_custom_envs_real_ur_drivers_URBasic_realTimeClientEvent - INFO - Program send to Robot:
servoj([0.06135923151542544, -1.5876701154616386, -1.5769322499464373, -1.4741555371581012, 1.7303303287350031, 3.117048960983623], 0.5, 0.5, 0.04, 0.05, 300)

2025-07-07 17:22:21,409 - gym_custom_envs_real_ur_drivers_URBasic_realTimeClientEvent - INFO - Program send to Robot:
servoj([0.06135923151542544, -1.5876701154616386, -1.5769322499464389, -1.4741555371581012, 1.7303303287350031, 3.117048960983623], 0.5, 0.5, 0.04, 0.05, 300)

2025-07-07 17:22:21,417 - gym_custom_envs_real_ur_drivers_URBasic_realTimeClientEvent - INFO - Program send to Robot:
servoj([0.06135923151542544, -1.5876701154616386, -1.5769322499464389, -1.4741555371581012, 1.7303303287350031, 3.117048960983623], 0.5, 0.5, 0.04, 0.05, 300)

2025-07-07 17:22:21,425 - gym_custom_envs_real_ur_drivers_URBasic_realTimeClientEvent - INFO - Program send to Robot:
servoj([0.06135923151542544, -1.5876701154616386, -1.5769322499464389, -1.4741555371581012, 1.7303303287350031, 3.117048960983623], 0.5, 0.5, 0.04, 0.05, 300)

2025-07-07 17:22:21,442 - gym_custom_envs_real_ur_drivers_URBasic_realTimeClientEvent - INFO - Program send to Robot:
servoj([0.06135923151542544, -1.5876701154616386, -1.5769322499464389, -1.4741555371581012, 1.7303303287350031, 3.117048960983623], 0.5, 0.5, 0.04, 0.05, 300)

2025-07-07 17:22:21,448 - gym_custom_envs_real_ur_drivers_URBasic_realTimeClientEvent - INFO - Program send to Robot:
servoj([0.06135923151542544, -1.5876701154616386, -1.5769322499464389, -1.4741555371581012, 1.7303303287350031, 3.117048960983623], 0.5, 0.5, 0.04, 0.05, 300)

2025-07-07 17:22:21,457 - gym_custom_envs_real_ur_drivers_URBasic_realTimeClientEvent - INFO - Program send to Robot:
servoj([0.06135923151542544, -1.5876701154616386, -1.5769322499464389, -1.4741555371581012, 1.7303303287350031, 3.117048960983623], 0.5, 0.5, 0.04, 0.05, 300)

2025-07-07 17:22:21,474 - gym_custom_envs_real_ur_drivers_URBasic_realTimeClientEvent - INFO - Program send to Robot:
servoj([0.06135923151542544, -1.5876701154616386, -1.575413608966432, -1.4741555371581012, 1.7303303287350031, 3.117048960983623], 0.5, 0.5, 0.04, 0.05, 300)

2025-07-07 17:22:21,481 - gym_custom_envs_real_ur_drivers_URBasic_realTimeClientEvent - INFO - Program send to Robot:
servoj([0.06135923151542544, -1.5876701154616386, -1.5753984225566318, -1.4741555371581012, 1.7303303287350031, 3.117048960983623], 0.5, 0.5, 0.04, 0.05, 300)

2025-07-07 17:22:21,489 - gym_custom_envs_real_ur_drivers_URBasic_realTimeClientEvent - INFO - Program send to Robot:
servoj([0.06135923151542544, -1.5876701154616386, -1.5753982706925338, -1.4741555371581012, 1.7303303287350031, 3.117048960983623], 0.5, 0.5, 0.04, 0.05, 300)

2025-07-07 17:22:21,506 - gym_custom_envs_real_ur_drivers_URBasic_realTimeClientEvent - INFO - Program send to Robot:
servoj([0.06135923151542544, -1.5876701154616386, -1.5769169101538998, -1.4741555371581012, 1.7303303287350031, 3.117048960983623], 0.5, 0.5, 0.04, 0.05, 300)

2025-07-07 17:22:21,513 - gym_custom_envs_real_ur_drivers_URBasic_realTimeClientEvent - INFO - Program send to Robot:
servoj([0.06135923151542544, -1.5876701154616386, -1.5769320965485134, -1.4741555371581012, 1.7303303287350031, 3.117048960983623], 0.5, 0.5, 0.04, 0.05, 300)

2025-07-07 17:22:21,521 - gym_custom_envs_real_ur_drivers_URBasic_realTimeClientEvent - INFO - Program send to Robot:
servoj([0.06135923151542544, -1.5876701154616386, -1.5769322484124597, -1.4741555371581012, 1.7303303287350031, 3.117048960983623], 0.5, 0.5, 0.04, 0.05, 300)

2025-07-07 17:22:21,538 - gym_custom_envs_real_ur_drivers_URBasic_realTimeClientEvent - INFO - Program send to Robot:
servoj([0.06135923151542544, -1.5876701154616386, -1.5769322499310992, -1.4741555371581012, 1.7303303287350031, 3.117048960983623], 0.5, 0.5, 0.04, 0.05, 300)

2025-07-07 17:22:21,545 - gym_custom_envs_real_ur_drivers_URBasic_realTimeClientEvent - INFO - Program send to Robot:
servoj([0.06135923151542544, -1.5876701154616386, -1.5769322499462854, -1.4741555371581012, 1.7303303287350031, 3.117048960983623], 0.5, 0.5, 0.04, 0.05, 300)

2025-07-07 17:22:21,553 - gym_custom_envs_real_ur_drivers_URBasic_realTimeClientEvent - INFO - Program send to Robot:
servoj([0.06135923151542544, -1.5876701154616386, -1.5769322499464373, -1.4741555371581012, 1.7303303287350031, 3.117048960983623], 0.5, 0.5, 0.04, 0.05, 300)

2025-07-07 17:22:21,570 - gym_custom_envs_real_ur_drivers_URBasic_realTimeClientEvent - INFO - Program send to Robot:
servoj([0.06135923151542544, -1.5876701154616386, -1.5769322499464389, -1.4741555371581012, 1.7303303287350031, 3.117048960983623], 0.5, 0.5, 0.04, 0.05, 300)

2025-07-07 17:22:21,577 - gym_custom_envs_real_ur_drivers_URBasic_realTimeClientEvent - INFO - Program send to Robot:
servoj([0.06135923151542544, -1.5876701154616386, -1.5769322499464389, -1.4741555371581012, 1.7303303287350031, 3.117048960983623], 0.5, 0.5, 0.04, 0.05, 300)

2025-07-07 17:22:21,585 - gym_custom_envs_real_ur_drivers_URBasic_realTimeClientEvent - INFO - Program send to Robot:
servoj([0.06135923151542544, -1.5876701154616386, -1.5769322499464389, -1.4741555371581012, 1.7303303287350031, 3.117048960983623], 0.5, 0.5, 0.04, 0.05, 300)

2025-07-07 17:22:21,593 - gym_custom_envs_real_ur_drivers_URBasic_realTimeClientEvent - INFO - Program send to Robot:
servoj([0.06135923151542544, -1.5876701154616386, -1.5769322499464389, -1.4741555371581012, 1.7303303287350031, 3.117048960983623], 0.5, 0.5, 0.04, 0.05, 300)

2025-07-07 17:22:21,609 - gym_custom_envs_real_ur_drivers_URBasic_realTimeClientEvent - INFO - Program send to Robot:
servoj([0.06135923151542544, -1.5876701154616386, -1.5784508909264459, -1.4741555371581012, 1.7303303287350031, 3.117048960983623], 0.5, 0.5, 0.04, 0.05, 300)

2025-07-07 17:22:21,617 - gym_custom_envs_real_ur_drivers_URBasic_realTimeClientEvent - INFO - Program send to Robot:
servoj([0.06135923151542544, -1.5876701154616386, -1.578466077336246, -1.4741555371581012, 1.7303303287350031, 3.117048960983623], 0.5, 0.5, 0.04, 0.05, 300)

2025-07-07 17:22:21,633 - gym_custom_envs_real_ur_drivers_URBasic_realTimeClientEvent - INFO - Program send to Robot:
servoj([0.06135923151542544, -1.5876701154616386, -1.578466229200344, -1.4741555371581012, 1.7303303287350031, 3.117048960983623], 0.5, 0.5, 0.04, 0.05, 300)

2025-07-07 17:22:21,641 - gym_custom_envs_real_ur_drivers_URBasic_realTimeClientEvent - INFO - Program send to Robot:
servoj([0.06135923151542544, -1.5876701154616386, -1.578466230718985, -1.4741555371581012, 1.7303303287350031, 3.117048960983623], 0.5, 0.5, 0.04, 0.05, 300)

2025-07-07 17:22:21,649 - gym_custom_envs_real_ur_drivers_URBasic_realTimeClientEvent - INFO - Program send to Robot:
servoj([0.06135923151542544, -1.5876701154616386, -1.5784662307341712, -1.4741555371581012, 1.7303303287350031, 3.117048960983623], 0.5, 0.5, 0.04, 0.05, 300)

2025-07-07 17:22:21,665 - gym_custom_envs_real_ur_drivers_URBasic_realTimeClientEvent - INFO - Program send to Robot:
servoj([0.06135923151542544, -1.5876701154616386, -1.5784662307343231, -1.4741555371581012, 1.7303303287350031, 3.117048960983623], 0.5, 0.5, 0.04, 0.05, 300)

2025-07-07 17:22:21,673 - gym_custom_envs_real_ur_drivers_URBasic_realTimeClientEvent - INFO - Program send to Robot:
servoj([0.06135923151542544, -1.5876701154616386, -1.5784662307343247, -1.4741555371581012, 1.7303303287350031, 3.117048960983623], 0.5, 0.5, 0.04, 0.05, 300)

2025-07-07 17:22:21,681 - gym_custom_envs_real_ur_drivers_URBasic_realTimeClientEvent - INFO - Program send to Robot:
servoj([0.06135923151542544, -1.5876701154616386, -1.5784662307343247, -1.4741555371581012, 1.7303303287350031, 3.117048960983623], 0.5, 0.5, 0.04, 0.05, 300)

2025-07-07 17:22:21,689 - gym_custom_envs_real_ur_drivers_URBasic_realTimeClientEvent - INFO - Program send to Robot:
servoj([0.06135923151542544, -1.5876701154616386, -1.5784662307343247, -1.4741555371581012, 1.7303303287350031, 3.117048960983623], 0.5, 0.5, 0.04, 0.05, 300)

2025-07-07 17:22:21,705 - gym_custom_envs_real_ur_drivers_URBasic_realTimeClientEvent - INFO - Program send to Robot:
servoj([0.06135923151542544, -1.5876701154616386, -1.5784662307343247, -1.4741555371581012, 1.7303303287350031, 3.117048960983623], 0.5, 0.5, 0.04, 0.05, 300)

2025-07-07 17:22:21,713 - gym_custom_envs_real_ur_drivers_URBasic_realTimeClientEvent - INFO - Program send to Robot:
servoj([0.06135923151542544, -1.5876701154616386, -1.5784662307343247, -1.4741555371581012, 1.7303303287350031, 3.117048960983623], 0.5, 0.5, 0.04, 0.05, 300)

2025-07-07 17:22:21,721 - gym_custom_envs_real_ur_drivers_URBasic_realTimeClientEvent - INFO - Program send to Robot:
servoj([0.06135923151542544, -1.5876701154616386, -1.5784662307343247, -1.4741555371581012, 1.7303303287350031, 3.117048960983623], 0.5, 0.5, 0.04, 0.05, 300)

2025-07-07 17:22:21,738 - gym_custom_envs_real_ur_drivers_URBasic_realTimeClientEvent - INFO - Program send to Robot:
servoj([0.06135923151542544, -1.5876701154616386, -1.5784662307343247, -1.4726368961780942, 1.7303303287350031, 3.117048960983623], 0.5, 0.5, 0.04, 0.05, 300)

2025-07-07 17:22:21,745 - gym_custom_envs_real_ur_drivers_URBasic_realTimeClientEvent - INFO - Program send to Robot:
servoj([0.06135923151542544, -1.5876701154616386, -1.5784662307343247, -1.472621709768294, 1.7303303287350031, 3.117048960983623], 0.5, 0.5, 0.04, 0.05, 300)

2025-07-07 17:22:21,753 - gym_custom_envs_real_ur_drivers_URBasic_realTimeClientEvent - INFO - Program send to Robot:
servoj([0.06135923151542544, -1.5876701154616386, -1.5784662307343247, -1.4726215579041961, 1.7303303287350031, 3.117048960983623], 0.5, 0.5, 0.04, 0.05, 300)

2025-07-07 17:22:21,761 - gym_custom_envs_real_ur_drivers_URBasic_realTimeClientEvent - INFO - Program send to Robot:
servoj([0.06135923151542544, -1.5876701154616386, -1.5784662307343247, -1.4741401973655621, 1.7303303287350031, 3.117048960983623], 0.5, 0.5, 0.04, 0.05, 300)

2025-07-07 17:22:21,777 - gym_custom_envs_real_ur_drivers_URBasic_realTimeClientEvent - INFO - Program send to Robot:
servoj([0.06135923151542544, -1.5876701154616386, -1.5784662307343247, -1.4741553837601757, 1.7303303287350031, 3.117048960983623], 0.5, 0.5, 0.04, 0.05, 300)

2025-07-07 17:22:21,785 - gym_custom_envs_real_ur_drivers_URBasic_realTimeClientEvent - INFO - Program send to Robot:
servoj([0.06135923151542544, -1.5876701154616386, -1.5784662307343247, -1.4741555356241218, 1.7303303287350031, 3.117048960983623], 0.5, 0.5, 0.04, 0.05, 300)

2025-07-07 17:22:21,793 - gym_custom_envs_real_ur_drivers_URBasic_realTimeClientEvent - INFO - Program send to Robot:
servoj([0.06135923151542544, -1.5876701154616386, -1.5784662307343247, -1.4741555371427615, 1.7303303287350031, 3.117048960983623], 0.5, 0.5, 0.04, 0.05, 300)

2025-07-07 17:22:21,809 - gym_custom_envs_real_ur_drivers_URBasic_realTimeClientEvent - INFO - Program send to Robot:
servoj([0.06135923151542544, -1.5876701154616386, -1.5784662307343247, -1.4741555371579478, 1.7303303287350031, 3.117048960983623], 0.5, 0.5, 0.04, 0.05, 300)

2025-07-07 17:22:21,817 - gym_custom_envs_real_ur_drivers_URBasic_realTimeClientEvent - INFO - Program send to Robot:
servoj([0.06135923151542544, -1.5876701154616386, -1.5784662307343247, -1.4741555371580997, 1.7303303287350031, 3.117048960983623], 0.5, 0.5, 0.04, 0.05, 300)

2025-07-07 17:22:21,825 - gym_custom_envs_real_ur_drivers_URBasic_realTimeClientEvent - INFO - Program send to Robot:
servoj([0.06287787249543239, -1.5876701154616386, -1.5784662307343247, -1.4726368961780942, 1.7303303287350031, 3.117048960983623], 0.5, 0.5, 0.04, 0.05, 300)

2025-07-07 17:22:21,833 - gym_custom_envs_real_ur_drivers_URBasic_realTimeClientEvent - INFO - Program send to Robot:
servoj([0.06289305890523246, -1.5876701154616386, -1.5784662307343247, -1.472621709768294, 1.7303303287350031, 3.117048960983623], 0.5, 0.5, 0.04, 0.05, 300)

2025-07-07 17:22:21,849 - gym_custom_envs_real_ur_drivers_URBasic_realTimeClientEvent - INFO - Program send to Robot:
servoj([0.06289321076933045, -1.5876701154616386, -1.5784662307343247, -1.4726215579041961, 1.7303303287350031, 3.117048960983623], 0.5, 0.5, 0.04, 0.05, 300)

2025-07-07 17:22:21,857 - gym_custom_envs_real_ur_drivers_URBasic_realTimeClientEvent - INFO - Program send to Robot:
servoj([0.06441185326797838, -1.5876701154616386, -1.5784662307343247, -1.4726215563855551, 1.7303303287350031, 3.117048960983623], 0.5, 0.5, 0.04, 0.05, 300)

2025-07-07 17:22:21,865 - gym_custom_envs_real_ur_drivers_URBasic_realTimeClientEvent - INFO - Program send to Robot:
servoj([0.06442703969296486, -1.5876701154616386, -1.5784662307343247, -1.4726215563703688, 1.7303303287350031, 3.117048960983623], 0.5, 0.5, 0.04, 0.05, 300)

2025-07-07 17:22:21,880 - gym_custom_envs_real_ur_drivers_URBasic_realTimeClientEvent - INFO - Program send to Robot:
servoj([0.06442719155721471, -1.5876701154616386, -1.5784662307343247, -1.472621556370217, 1.7303303287350031, 3.117048960983623], 0.5, 0.5, 0.04, 0.05, 300)

2025-07-07 17:22:21,889 - gym_custom_envs_real_ur_drivers_URBasic_realTimeClientEvent - INFO - Program send to Robot:
servoj([0.06442719307585722, -1.5876701154616386, -1.5784662307343247, -1.4741401973502224, 1.7303303287350031, 3.117048960983623], 0.5, 0.5, 0.04, 0.05, 300)

2025-07-07 17:22:21,897 - gym_custom_envs_real_ur_drivers_URBasic_realTimeClientEvent - INFO - Program send to Robot:
servoj([0.06442719309104364, -1.5876701154616386, -1.5784662307343247, -1.4741553837600223, 1.7303303287350031, 3.117048960983623], 0.5, 0.5, 0.04, 0.05, 300)

2025-07-07 17:22:21,905 - gym_custom_envs_real_ur_drivers_URBasic_realTimeClientEvent - INFO - Program send to Robot:
servoj([0.0644271930911955, -1.5876701154616386, -1.5784662307343247, -1.4741555356241205, 1.7303303287350031, 3.117048960983623], 0.5, 0.5, 0.04, 0.05, 300)

2025-07-07 17:22:21,921 - gym_custom_envs_real_ur_drivers_URBasic_realTimeClientEvent - INFO - Program send to Robot:
servoj([0.06442719309119703, -1.5876701154616386, -1.5784662307343247, -1.4726368961627543, 1.7303303287350031, 3.117048960983623], 0.5, 0.5, 0.04, 0.05, 300)

2025-07-07 17:22:21,929 - gym_custom_envs_real_ur_drivers_URBasic_realTimeClientEvent - INFO - Program send to Robot:
servoj([0.06442719309119704, -1.5876701154616386, -1.5784662307343247, -1.4726217097681407, 1.7303303287350031, 3.117048960983623], 0.5, 0.5, 0.04, 0.05, 300)

2025-07-07 17:22:21,937 - gym_custom_envs_real_ur_drivers_URBasic_realTimeClientEvent - INFO - Program send to Robot:
servoj([0.06442719309119704, -1.5876701154616386, -1.5784662307343247, -1.4726215579041946, 1.7303303287350031, 3.117048960983623], 0.5, 0.5, 0.04, 0.05, 300)

2025-07-07 17:22:21,948 - gym_custom_envs_real_ur_drivers_URBasic_realTimeClientEvent - INFO - Program send to Robot:
servoj([0.06442719309119704, -1.5876701154616386, -1.5784662307343247, -1.4726215563855551, 1.7303303287350031, 3.117048960983623], 0.5, 0.5, 0.04, 0.05, 300)

2025-07-07 17:22:21,961 - gym_custom_envs_real_ur_drivers_URBasic_realTimeClientEvent - INFO - Program send to Robot:
servoj([0.06442719309119704, -1.5876701154616386, -1.5784662307343247, -1.4726215563703688, 1.7303303287350031, 3.117048960983623], 0.5, 0.5, 0.04, 0.05, 300)

2025-07-07 17:22:21,969 - gym_custom_envs_real_ur_drivers_URBasic_realTimeClientEvent - INFO - Program send to Robot:
servoj([0.06442719309119704, -1.5876701154616386, -1.5784662307343247, -1.472621556370217, 1.7303303287350031, 3.117048960983623], 0.5, 0.5, 0.04, 0.05, 300)

2025-07-07 17:22:21,977 - gym_custom_envs_real_ur_drivers_URBasic_realTimeClientEvent - INFO - Program send to Robot:
servoj([0.06442719309119704, -1.5876701154616386, -1.5784662307343247, -1.4726215563702154, 1.7303303287350031, 3.117048960983623], 0.5, 0.5, 0.04, 0.05, 300)

2025-07-07 17:22:21,993 - gym_custom_envs_real_ur_drivers_URBasic_realTimeClientEvent - INFO - Program send to Robot:
servoj([0.06442719309119704, -1.5861514744816319, -1.5769475897543177, -1.4741401973502224, 1.7303303287350031, 3.117048960983623], 0.5, 0.5, 0.04, 0.05, 300)

2025-07-07 17:22:22,000 - gym_custom_envs_real_ur_drivers_URBasic_realTimeClientEvent - INFO - Program send to Robot:
servoj([0.06442719309119704, -1.5861362880718317, -1.5769324033445178, -1.4741553837600223, 1.7303303287350031, 3.117048960983623], 0.5, 0.5, 0.04, 0.05, 300)

2025-07-07 17:22:22,017 - gym_custom_envs_real_ur_drivers_URBasic_realTimeClientEvent - INFO - Program send to Robot:
servoj([0.06442719309119704, -1.5846174952277268, -1.5738949695204065, -1.4726368946441135, 1.7303303287350031, 3.117048960983623], 0.5, 0.5, 0.04, 0.05, 300)

2025-07-07 17:22:22,025 - gym_custom_envs_real_ur_drivers_URBasic_realTimeClientEvent - INFO - Program send to Robot:
servoj([0.06442719309119704, -1.5846023072992859, -1.5738645951821655, -1.4726217097529544, 1.7303303287350031, 3.117048960983623], 0.5, 0.5, 0.04, 0.05, 300)

2025-07-07 17:22:22,033 - gym_custom_envs_real_ur_drivers_URBasic_realTimeClientEvent - INFO - Program send to Robot:
servoj([0.06442719309119704, -1.5846021554200014, -1.573864291438783, -1.4726215579040427, 1.7303303287350031, 3.117048960983623], 0.5, 0.5, 0.04, 0.05, 300)

2025-07-07 17:22:22,041 - gym_custom_envs_real_ur_drivers_URBasic_realTimeClientEvent - INFO - Program send to Robot:
servoj([0.06442719309119704, -1.5846021539012085, -1.5738642884013492, -1.4726215563855536, 1.7303303287350031, 3.117048960983623], 0.5, 0.5, 0.04, 0.05, 300)

2025-07-07 17:22:22,057 - gym_custom_envs_real_ur_drivers_URBasic_realTimeClientEvent - INFO - Program send to Robot:
servoj([0.0629085521111901, -1.5815648719260071, -1.5708270064109613, -1.4726215563703686, 1.7303303287350031, 3.1155303200036157], 0.5, 0.5, 0.04, 0.05, 300)

2025-07-07 17:22:22,065 - gym_custom_envs_real_ur_drivers_URBasic_realTimeClientEvent - INFO - Program send to Robot:
servoj([0.06289336570139004, -1.581534499106255, -1.5707966335910573, -1.472621556370217, 1.7303303287350031, 3.115515133593816], 0.5, 0.5, 0.04, 0.05, 300)

2025-07-07 17:22:22,081 - gym_custom_envs_real_ur_drivers_URBasic_realTimeClientEvent - INFO - Program send to Robot:
servoj([0.06289321383729203, -1.578496913418044, -1.5662404069228382, -1.4726215563702154, 1.7303303287350031, 3.1155149817297176], 0.5, 0.5, 0.04, 0.05, 300)

2025-07-07 17:22:22,089 - gym_custom_envs_real_ur_drivers_URBasic_realTimeClientEvent - INFO - Program send to Robot:
servoj([0.06289321231865105, -1.578466537561162, -1.566194844656156, -1.4726215563702154, 1.7303303287350031, 3.115514980211077], 0.5, 0.5, 0.04, 0.05, 300)

2025-07-07 17:22:22,105 - gym_custom_envs_real_ur_drivers_URBasic_realTimeClientEvent - INFO - Program send to Robot:
servoj([0.06289321230346465, -1.5784662338025932, -1.5661943890334893, -1.4726215563702154, 1.7303303287350031, 3.1155149801958903], 0.5, 0.5, 0.04, 0.05, 300)

2025-07-07 17:22:22,113 - gym_custom_envs_real_ur_drivers_URBasic_realTimeClientEvent - INFO - Program send to Robot:
servoj([0.06137457132330583, -1.5769475897850007, -1.5586011795772279, -1.4726215563702154, 1.7303303287350031, 3.1155149801957385], 0.5, 0.5, 0.04, 0.05, 300)

2025-07-07 17:22:22,121 - gym_custom_envs_real_ur_drivers_URBasic_realTimeClientEvent - INFO - Program send to Robot:
servoj([0.06135938491350425, -1.5769324033448247, -1.5585252474826652, -1.4726215563702154, 1.7303303287350031, 3.115514980195737], 0.5, 0.5, 0.04, 0.05, 300)

2025-07-07 17:22:22,129 - gym_custom_envs_real_ur_drivers_URBasic_realTimeClientEvent - INFO - Program send to Robot:
servoj([0.06135923304940623, -1.576932251480423, -1.5585244881617195, -1.4726215563702154, 1.7303303287350031, 3.115514980195737], 0.5, 0.5, 0.04, 0.05, 300)

2025-07-07 17:22:22,145 - gym_custom_envs_real_ur_drivers_URBasic_realTimeClientEvent - INFO - Program send to Robot:
servoj([0.06135923153076525, -1.5754136089817723, -1.5509312756684763, -1.4726215563702154, 1.7303303287350031, 3.115514980195737], 0.5, 0.5, 0.04, 0.05, 300)

2025-07-07 17:22:22,154 - gym_custom_envs_real_ur_drivers_URBasic_realTimeClientEvent - INFO - Program send to Robot:
servoj([0.06135923151557884, -1.5753984225567856, -1.550855343543544, -1.4726215563702154, 1.7303303287350031, 3.115514980195737], 0.5, 0.5, 0.04, 0.05, 300)

2025-07-07 17:22:22,170 - gym_custom_envs_real_ur_drivers_URBasic_realTimeClientEvent - INFO - Program send to Robot:
servoj([0.06135923151542697, -1.5753982706925358, -1.5508545842222947, -1.4726215563702154, 1.7303303287350031, 3.115514980195737], 0.5, 0.5, 0.04, 0.05, 300)

2025-07-07 17:22:22,177 - gym_custom_envs_real_ur_drivers_URBasic_realTimeClientEvent - INFO - Program send to Robot:
servoj([0.059840590535418944, -1.5753982691738933, -1.5447800127090552, -1.4726215563702154, 1.7303303287350031, 3.1139963392157304], 0.5, 0.5, 0.04, 0.05, 300)

2025-07-07 17:22:22,185 - gym_custom_envs_real_ur_drivers_URBasic_realTimeClientEvent - INFO - Program send to Robot:
servoj([0.05982540412561887, -1.575398269158707, -1.5447192669939227, -1.4726215563702154, 1.7303303287350031, 3.11398115280593], 0.5, 0.5, 0.04, 0.05, 300)

2025-07-07 17:22:22,201 - gym_custom_envs_real_ur_drivers_URBasic_realTimeClientEvent - INFO - Program send to Robot:
servoj([0.05982525226152087, -1.575398269158555, -1.5447186595367715, -1.4726215563702154, 1.7303303287350031, 3.1139810009418323], 0.5, 0.5, 0.04, 0.05, 300)

2025-07-07 17:22:22,209 - gym_custom_envs_real_ur_drivers_URBasic_realTimeClientEvent - INFO - Program send to Robot:
servoj([0.05830660976287294, -1.5753982691585535, -1.5386440895421731, -1.4726215563702154, 1.7303303287350031, 3.1124623584431843], 0.5, 0.5, 0.04, 0.05, 300)

2025-07-07 17:22:22,225 - gym_custom_envs_real_ur_drivers_URBasic_realTimeClientEvent - INFO - Program send to Robot:
servoj([0.058291423337886464, -1.5753982691585535, -1.5385833438422272, -1.4726215563702154, 1.7303303287350031, 3.112447172018198], 0.5, 0.5, 0.04, 0.05, 300)

2025-07-07 17:22:22,233 - gym_custom_envs_real_ur_drivers_URBasic_realTimeClientEvent - INFO - Program send to Robot:
servoj([0.058291271473636594, -1.5753982691585535, -1.5385827363852276, -1.4726215563702154, 1.7303303287350031, 3.1124470201539483], 0.5, 0.5, 0.04, 0.05, 300)

2025-07-07 17:22:22,249 - gym_custom_envs_real_ur_drivers_URBasic_realTimeClientEvent - INFO - Program send to Robot:
servoj([0.0582912699549941, -1.5753982691585535, -1.5355454483506437, -1.4726215563702154, 1.7303303287350031, 3.1124470186353057], 0.5, 0.5, 0.04, 0.05, 300)

2025-07-07 17:22:22,265 - gym_custom_envs_real_ur_drivers_URBasic_realTimeClientEvent - INFO - Program send to Robot:
servoj([0.058291269939807676, -1.5753982691585535, -1.5355150754702978, -1.4726215563702154, 1.7303303287350031, 3.112447018620119], 0.5, 0.5, 0.04, 0.05, 300)

2025-07-07 17:22:22,273 - gym_custom_envs_real_ur_drivers_URBasic_realTimeClientEvent - INFO - Program send to Robot:
servoj([0.05677262895964931, -1.5753982691585535, -1.5324774897814812, -1.4726215563702154, 1.7303303287350031, 3.110928377639961], 0.5, 0.5, 0.04, 0.05, 300)

2025-07-07 17:22:22,281 - gym_custom_envs_real_ur_drivers_URBasic_realTimeClientEvent - INFO - Program send to Robot:
servoj([0.05675744254984773, -1.5753982691585535, -1.5324471139245932, -1.4726215563702154, 1.7303303287350031, 3.1109131912301593], 0.5, 0.5, 0.04, 0.05, 300)

2025-07-07 17:22:22,289 - gym_custom_envs_real_ur_drivers_URBasic_realTimeClientEvent - INFO - Program send to Robot:
servoj([0.05675729068574971, -1.5753982691585535, -1.5324468101660242, -1.4726215563702154, 1.7303303287350031, 3.1109130393660616], 0.5, 0.5, 0.04, 0.05, 300)

2025-07-07 17:22:22,304 - gym_custom_envs_real_ur_drivers_URBasic_realTimeClientEvent - INFO - Program send to Robot:
servoj([0.05675728916710873, -1.5753982691585535, -1.5294095251684248, -1.4726215563702154, 1.73184896971501, 3.1093943968674136], 0.5, 0.5, 0.04, 0.05, 300)

2025-07-07 17:22:22,313 - gym_custom_envs_real_ur_drivers_URBasic_realTimeClientEvent - INFO - Program send to Robot:
servoj([0.05675728915192232, -1.5753982691585535, -1.5293791523184488, -1.4726215563702154, 1.73186415612481, 3.109379210442427], 0.5, 0.5, 0.04, 0.05, 300)

2025-07-07 17:22:22,321 - gym_custom_envs_real_ur_drivers_URBasic_realTimeClientEvent - INFO - Program send to Robot:
servoj([0.05675728915177045, -1.5753982691585535, -1.529378848589949, -1.4726215563702154, 1.731864307988908, 3.109379058578177], 0.5, 0.5, 0.04, 0.05, 300)

2025-07-07 17:22:22,329 - gym_custom_envs_real_ur_drivers_URBasic_realTimeClientEvent - INFO - Program send to Robot:
servoj([0.05675728915176893, -1.5753982691585535, -1.529378845552664, -1.4726215563702154, 1.731864309507549, 3.109379057059535], 0.5, 0.5, 0.04, 0.05, 300)

2025-07-07 17:22:22,345 - gym_custom_envs_real_ur_drivers_URBasic_realTimeClientEvent - INFO - Program send to Robot:
servoj([0.05372000719175503, -1.5738796281785468, -1.5263415635622772, -1.4726215563702154, 1.7318643095227355, 3.1078604160643413], 0.5, 0.5, 0.04, 0.05, 300)

2025-07-07 17:22:22,353 - gym_custom_envs_real_ur_drivers_URBasic_realTimeClientEvent - INFO - Program send to Robot:
servoj([0.05368963437215489, -1.5738644417687466, -1.5263111907423734, -1.4726215563702154, 1.7318643095228874, 3.107845229654389], 0.5, 0.5, 0.04, 0.05, 300)

2025-07-07 17:22:22,369 - gym_custom_envs_real_ur_drivers_URBasic_realTimeClientEvent - INFO - Program send to Robot:
servoj([0.04761476672393199, -1.5723456489246417, -1.5247922460341674, -1.4726215563702154, 1.7318643095228887, 3.1048077958302756], 0.5, 0.5, 0.04, 0.05, 300)

2025-07-07 17:22:22,386 - gym_custom_envs_real_ur_drivers_URBasic_realTimeClientEvent - INFO - Program send to Robot:
servoj([0.04755401804744976, -1.5723304609962006, -1.5247770565870853, -1.4726215563702154, 1.731864309522889, 3.1047774214920345], 0.5, 0.5, 0.04, 0.05, 300)

2025-07-07 17:22:22,393 - gym_custom_envs_real_ur_drivers_URBasic_realTimeClientEvent - INFO - Program send to Robot:
servoj([0.04755341056068494, -1.5723303091169163, -1.5247769046926145, -1.4726215563702154, 1.731864309522889, 3.104777117748652], 0.5, 0.5, 0.04, 0.05, 300)

2025-07-07 17:22:22,401 - gym_custom_envs_real_ur_drivers_URBasic_realTimeClientEvent - INFO - Program send to Robot:
servoj([0.0429974815457969, -1.5677743846581031, -1.5232582621936637, -1.4711029153902087, 1.733382950502896, 3.1002211917711984], 0.5, 0.5, 0.04, 0.05, 300)

2025-07-07 17:22:22,409 - gym_custom_envs_real_ur_drivers_URBasic_realTimeClientEvent - INFO - Program send to Robot:
servoj([0.04295192225564802, -1.5677288254135149, -1.5232430757686741, -1.4710877289804085, 1.7333981369126958, 3.100175632511424], 0.5, 0.5, 0.04, 0.05, 300)

2025-07-07 17:22:22,424 - gym_custom_envs_real_ur_drivers_URBasic_realTimeClientEvent - INFO - Program send to Robot:
servoj([0.04295146666274653, -1.5677283698210691, -1.5232429239044243, -1.4710875771163106, 1.7333982887767938, 3.1001751769188264], 0.5, 0.5, 0.04, 0.05, 300)

2025-07-07 17:22:22,433 - gym_custom_envs_real_ur_drivers_URBasic_realTimeClientEvent - INFO - Program send to Robot:
servoj([0.038395539166797124, -1.564691083305131, -1.5217242814057748, -1.4710875755976696, 1.7333982902954348, 3.09561924942288], 0.5, 0.5, 0.04, 0.05, 300)

2025-07-07 17:22:22,441 - gym_custom_envs_real_ur_drivers_URBasic_realTimeClientEvent - INFO - Program send to Robot:
servoj([0.03834997989183763, -1.5646607104399717, -1.5217090949807883, -1.471087575582483, 1.7333982903106213, 3.0955736901479205], 0.5, 0.5, 0.04, 0.05, 300)

2025-07-07 17:22:22,457 - gym_custom_envs_real_ur_drivers_URBasic_realTimeClientEvent - INFO - Program send to Robot:
servoj([0.038349524299088035, -1.5646604067113201, -1.5217089431165385, -1.4710875755823312, 1.7333982903107732, 3.0955732345551707], 0.5, 0.5, 0.04, 0.05, 300)

2025-07-07 17:22:22,465 - gym_custom_envs_real_ur_drivers_URBasic_realTimeClientEvent - INFO - Program send to Robot:
servoj([0.0322749558231332, -1.563141762694027, -1.5186716596378822, -1.4695689346023233, 1.7333982903107747, 3.0910173070592233], 0.5, 0.5, 0.04, 0.05, 300)

2025-07-07 17:22:22,481 - gym_custom_envs_real_ur_drivers_URBasic_realTimeClientEvent - INFO - Program send to Robot:
servoj([0.03221421013837365, -1.563126576253854, -1.5186412868030956, -1.4695537481925232, 1.7333982903107747, 3.0909717477842635], 0.5, 0.5, 0.04, 0.05, 300)

2025-07-07 17:22:22,489 - gym_custom_envs_real_ur_drivers_URBasic_realTimeClientEvent - INFO - Program send to Robot:
servoj([0.03221360268152606, -1.5631264243894523, -1.5186409830747478, -1.4695535963284252, 1.7333982903107747, 3.0909712921915142], 0.5, 0.5, 0.04, 0.05, 300)

2025-07-07 17:22:22,497 - gym_custom_envs_real_ur_drivers_URBasic_realTimeClientEvent - INFO - Program send to Robot:
servoj([0.026139032686930682, -1.5600891409107946, -1.5186409800374643, -1.463479030889757, 1.7333982903107747, 3.0848967237155596], 0.5, 0.5, 0.04, 0.05, 300)

2025-07-07 17:22:22,505 - gym_custom_envs_real_ur_drivers_URBasic_realTimeClientEvent - INFO - Program send to Robot:
servoj([0.026078286986984726, -1.560058768076008, -1.5186409800070915, -1.4634182852353703, 1.7333982903107747, 3.0848359780308], 0.5, 0.5, 0.04, 0.05, 300)

2025-07-07 17:22:22,521 - gym_custom_envs_real_ur_drivers_URBasic_realTimeClientEvent - INFO - Program send to Robot:
servoj([0.026077679529985267, -1.5600584643476603, -1.5186409800067877, -1.4634176777788264, 1.7333982903107747, 3.0848353705739524], 0.5, 0.5, 0.04, 0.05, 300)

2025-07-07 17:22:22,528 - gym_custom_envs_real_ur_drivers_URBasic_realTimeClientEvent - INFO - Program send to Robot:
servoj([0.015447186595367538, -1.5600584613103767, -1.5186409800067846, -1.4558244668042268, 1.7333982903107747, 3.07724215959935], 0.5, 0.5, 0.04, 0.05, 300)

2025-07-07 17:22:22,537 - gym_custom_envs_real_ur_drivers_URBasic_realTimeClientEvent - INFO - Program send to Robot:
servoj([0.01534088166602136, -1.560058461280004, -1.5186409800067846, -1.455748534694481, 1.7333982903107747, 3.077166227489604], 0.5, 0.5, 0.04, 0.05, 300)

2025-07-07 17:22:22,545 - gym_custom_envs_real_ur_drivers_URBasic_realTimeClientEvent - INFO - Program send to Robot:
servoj([0.0153398186167279, -1.5600584612797002, -1.5186409800067846, -1.4557477753733834, 1.7333982903107747, 3.0771654681685066], 0.5, 0.5, 0.04, 0.05, 300)

2025-07-07 17:22:22,561 - gym_custom_envs_real_ur_drivers_URBasic_realTimeClientEvent - INFO - Program send to Robot:
servoj([0.004709321126187673, -1.5600584612796973, -1.5186409800067846, -1.4451172809201251, 1.7318796493307678, 3.066534973715248], 0.5, 0.5, 0.04, 0.05, 300)

2025-07-07 17:22:22,569 - gym_custom_envs_real_ur_drivers_URBasic_realTimeClientEvent - INFO - Program send to Robot:
servoj([0.00460301615128227, -1.560058461279697, -1.5186409800067846, -1.4450109759755925, 1.7318644629209676, 3.0664286687707154], 0.5, 0.5, 0.04, 0.05, 300)

2025-07-07 17:22:22,576 - gym_custom_envs_real_ur_drivers_URBasic_realTimeClientEvent - INFO - Program send to Robot:
servoj([0.0046019531015332165, -1.560058461279697, -1.5186409800067846, -1.4450099129261473, 1.7318643110568697, 3.06642760572127], 0.5, 0.5, 0.04, 0.05, 300)

2025-07-07 17:22:22,585 - gym_custom_envs_real_ur_drivers_URBasic_realTimeClientEvent - INFO - Program send to Robot:
servoj([0.0046019424710357255, -1.560058461279697, -1.5186409800067846, -1.4450099022956528, 1.7318643095382287, 3.066427595090776], 0.5, 0.5, 0.04, 0.05, 300)

2025-07-07 17:22:22,601 - gym_custom_envs_real_ur_drivers_URBasic_realTimeClientEvent - INFO - Program send to Robot:
servoj([-0.00602854449531698, -1.560058461279697, -1.5186409800067846, -1.4313421333692866, 1.7318643095230422, 3.0542784671444156], 0.5, 0.5, 0.04, 0.05, 300)

2025-07-07 17:22:22,609 - gym_custom_envs_real_ur_drivers_URBasic_realTimeClientEvent - INFO - Program send to Robot:
servoj([-0.006134849364980508, -1.560058461279697, -1.5186409800067846, -1.4312054556800229, 1.7318643095228903, 3.0541569758649523], 0.5, 0.5, 0.04, 0.05, 300)

2025-07-07 17:22:22,617 - gym_custom_envs_real_ur_drivers_URBasic_realTimeClientEvent - INFO - Program send to Robot:
servoj([-0.006135912413677143, -1.560058461279697, -1.5186409800067846, -1.4312040889031303, 1.731864309522889, 3.0541557609521575], 0.5, 0.5, 0.04, 0.05, 300)

2025-07-07 17:22:22,625 - gym_custom_envs_real_ur_drivers_URBasic_realTimeClientEvent - INFO - Program send to Robot:
servoj([-0.0167664099042114, -1.560058461279697, -1.5186409800067846, -1.4175363064153006, 1.731864309522889, 3.040487979982969], 0.5, 0.5, 0.04, 0.05, 300)

2025-07-07 17:22:22,642 - gym_custom_envs_real_ur_drivers_URBasic_realTimeClientEvent - INFO - Program send to Robot:
servoj([-0.01687271487911674, -1.560058461279697, -1.5186409800067846, -1.4173996285904222, 1.731864309522889, 3.0403513021732773], 0.5, 0.5, 0.04, 0.05, 300)

2025-07-07 17:22:22,649 - gym_custom_envs_real_ur_drivers_URBasic_realTimeClientEvent - INFO - Program send to Robot:
servoj([-0.016873777928865796, -1.560058461279697, -1.5186409800067846, -1.4173982618121734, 1.731864309522889, 3.0403499353951804], 0.5, 0.5, 0.04, 0.05, 300)

2025-07-07 17:22:22,657 - gym_custom_envs_real_ur_drivers_URBasic_realTimeClientEvent - INFO - Program send to Robot:
servoj([-0.030541557379424468, -1.560058461279697, -1.5186409800067846, -1.4052491203043365, 1.7303456685428822, 3.0297194348673515], 0.5, 0.5, 0.04, 0.05, 300)

2025-07-07 17:22:22,665 - gym_custom_envs_real_ur_drivers_URBasic_realTimeClientEvent - INFO - Program send to Robot:
servoj([-0.030678235173930056, -1.560058461279697, -1.5186409800067846, -1.405127628889258, 1.730330482133082, 3.0296131298620734], 0.5, 0.5, 0.04, 0.05, 300)

2025-07-07 17:22:22,681 - gym_custom_envs_real_ur_drivers_URBasic_realTimeClientEvent - INFO - Program send to Robot:
servoj([-0.03067960195187511, -1.560058461279697, -1.5186409800067846, -1.4051264139751074, 1.730330330268984, 3.0296120668120206], 0.5, 0.5, 0.04, 0.05, 300)

2025-07-07 17:22:22,689 - gym_custom_envs_real_ur_drivers_URBasic_realTimeClientEvent - INFO - Program send to Robot:
servoj([-0.04434738443971531, -1.5615771022597036, -1.5216782619667983, -1.3884213510458912, 1.730330328750343, 3.0250561332415], 0.5, 0.5, 0.04, 0.05, 300)

2025-07-07 17:22:22,697 - gym_custom_envs_real_ur_drivers_URBasic_realTimeClientEvent - INFO - Program send to Robot:
servoj([-0.04448406226459371, -1.5615922886695037, -1.5217086347863986, -1.388254300416599, 1.7303303287351566, 3.0250105739057944], 0.5, 0.5, 0.04, 0.05, 300)

2025-07-07 17:22:22,714 - gym_custom_envs_real_ur_drivers_URBasic_realTimeClientEvent - INFO - Program send to Robot:
servoj([-0.04448542904284249, -1.5615924405336017, -1.5217089385145945, -1.3882526299103062, 1.7303303287350047, 3.0250101183124376], 0.5, 0.5, 0.04, 0.05, 300)

2025-07-07 17:22:22,721 - gym_custom_envs_real_ur_drivers_URBasic_realTimeClientEvent - INFO - Program send to Robot:
servoj([-0.05663457055067966, -1.5646297240122564, -1.5247462235118896, -1.3685102804651552, 1.73184896971501, 3.0250101137565037], 0.5, 0.5, 0.04, 0.05, 300)

2025-07-07 17:22:22,729 - gym_custom_envs_real_ur_drivers_URBasic_realTimeClientEvent - INFO - Program send to Robot:
servoj([-0.056756061965758026, -1.564660096847043, -1.5247765963618625, -1.3683128569707037, 1.73186415612481, 3.0250101137109446], 0.5, 0.5, 0.04, 0.05, 300)

2025-07-07 17:22:22,737 - gym_custom_envs_real_ur_drivers_URBasic_realTimeClientEvent - INFO - Program send to Robot:
servoj([-0.056757276879908815, -1.5646604005753908, -1.5247769000903622, -1.368310882735759, 1.731864307988908, 3.025010113710489], 0.5, 0.5, 0.04, 0.05, 300)

2025-07-07 17:22:22,754 - gym_custom_envs_real_ur_drivers_URBasic_realTimeClientEvent - INFO - Program send to Robot:
servoj([-0.0673877758890976, -1.5676976855726878, -1.5262955441076542, -1.3424939663332942, 1.733382950487556, 3.0250101137104846], 0.5, 0.5, 0.04, 0.05, 300)

2025-07-07 17:22:22,762 - gym_custom_envs_real_ur_drivers_URBasic_realTimeClientEvent - INFO - Program send to Robot:
servoj([-0.0674940808791895, -1.567728058422661, -1.5263107305478272, -1.3422357971692696, 1.7333981369125424, 3.0250101137104846], 0.5, 0.5, 0.04, 0.05, 300)

2025-07-07 17:22:22,769 - gym_custom_envs_real_ur_drivers_URBasic_realTimeClientEvent - INFO - Program send to Robot:
servoj([-0.06749514392909041, -1.5677283621511606, -1.526310882412229, -1.3422332154776293, 1.7333982887767923, 3.0250101137104846], 0.5, 0.5, 0.04, 0.05, 300)

2025-07-07 17:22:22,777 - gym_custom_envs_real_ur_drivers_URBasic_realTimeClientEvent - INFO - Program send to Robot:
servoj([-0.06749515455958942, -1.5677283651884455, -1.526310883930873, -1.342233189660713, 1.7333982902954348, 3.0250101137104846], 0.5, 0.5, 0.04, 0.05, 300)

2025-07-07 17:22:22,793 - gym_custom_envs_real_ur_drivers_URBasic_realTimeClientEvent - INFO - Program send to Robot:
servoj([-0.07508835956592826, -1.5738029291388456, -1.5293481659060733, -1.3088230878423945, 1.7333982903106213, 3.0265287546904913], 0.5, 0.5, 0.04, 0.05, 300)

2025-07-07 17:22:22,801 - gym_custom_envs_real_ur_drivers_URBasic_realTimeClientEvent - INFO - Program send to Robot:
servoj([-0.07516429161599164, -1.5738636747783497, -1.5293785387258252, -1.3084889868242113, 1.7333982903107732, 3.0265439411002912], 0.5, 0.5, 0.04, 0.05, 300)

2025-07-07 17:22:22,809 - gym_custom_envs_real_ur_drivers_URBasic_realTimeClientEvent - INFO - Program send to Robot:
servoj([-0.07516505093649228, -1.5738642822347446, -1.529378842454023, -1.3084856458140295, 1.7333982903107747, 3.0265440929643894], 0.5, 0.5, 0.04, 0.05, 300)

2025-07-07 17:22:22,817 - gym_custom_envs_real_ur_drivers_URBasic_realTimeClientEvent - INFO - Program send to Robot:
servoj([-0.08427690440973808, -1.5844947751693559, -1.5293788454913049, -1.2705195879037579, 1.7349169312907817, 3.028062735463037], 0.5, 0.5, 0.04, 0.05, 300)

2025-07-07 17:22:22,833 - gym_custom_envs_real_ur_drivers_URBasic_realTimeClientEvent - INFO - Program send to Robot:
servoj([-0.08436802294447054, -1.584601080098702, -1.5293788455216777, -1.2701399273246552, 1.7349321177005816, 3.0280779218880234], 0.5, 0.5, 0.04, 0.05, 300)

2025-07-07 17:22:22,841 - gym_custom_envs_real_ur_drivers_URBasic_realTimeClientEvent - INFO - Program send to Robot:
servoj([-0.08436893412981787, -1.5846021431479955, -1.5293788455219814, -1.270136130718864, 1.7349322695646798, 3.0280780737522734], 0.5, 0.5, 0.04, 0.05, 300)

2025-07-07 17:22:22,848 - gym_custom_envs_real_ur_drivers_URBasic_realTimeClientEvent - INFO - Program send to Robot:
servoj([-0.09348078912171212, -1.595232640638536, -1.5293788455219843, -1.2291327862926233, 1.7364509120633267, 3.028078075270916], 0.5, 0.5, 0.04, 0.05, 300)

2025-07-07 17:22:22,865 - gym_custom_envs_real_ur_drivers_URBasic_realTimeClientEvent - INFO - Program send to Robot:
servoj([-0.09357190767163107, -1.5953389456134415, -1.5293788455219843, -1.2287227528483609, 1.7364660984883133, 3.028078075286102], 0.5, 0.5, 0.04, 0.05, 300)

2025-07-07 17:22:22,873 - gym_custom_envs_real_ur_drivers_URBasic_realTimeClientEvent - INFO - Program send to Robot:
servoj([-0.09357281885713026, -1.5953400086631904, -1.5293788455219843, -1.2287186525139182, 1.7364662503525632, 3.028078075286254], 0.5, 0.5, 0.04, 0.05, 300)

2025-07-07 17:22:22,881 - gym_custom_envs_real_ur_drivers_URBasic_realTimeClientEvent - INFO - Program send to Robot:
servoj([-0.10268467384902603, -1.6074891471337425, -1.5278602045419774, -1.1937898689704178, 1.7379848928512127, 3.0280780752862557], 0.5, 0.5, 0.04, 0.05, 300)

2025-07-07 17:22:22,889 - gym_custom_envs_real_ur_drivers_URBasic_realTimeClientEvent - INFO - Program send to Robot:
servoj([-0.10277579239894499, -1.6076106385184479, -1.5278450181321774, -1.1934405811349829, 1.7380000792761992, 3.0280780752862557], 0.5, 0.5, 0.04, 0.05, 300)

2025-07-07 17:22:22,905 - gym_custom_envs_real_ur_drivers_URBasic_realTimeClientEvent - INFO - Program send to Robot:
servoj([-0.10277670358444417, -1.607611853432295, -1.5278448662680792, -1.1934370882566283, 1.738000231140449, 3.0280780752862557], 0.5, 0.5, 0.04, 0.05, 300)

2025-07-07 17:22:22,913 - gym_custom_envs_real_ur_drivers_URBasic_realTimeClientEvent - INFO - Program send to Robot:
servoj([-0.11188855857633952, -1.6197609934214878, -1.5248075827894245, -1.1661015156877228, 1.7410375146191055, 3.0280780752862557], 0.5, 0.5, 0.04, 0.05, 300)

2025-07-07 17:22:22,920 - gym_custom_envs_real_ur_drivers_URBasic_realTimeClientEvent - INFO - Program send to Robot:
servoj([-0.11197967712625848, -1.6198824848213798, -1.524777209954638, -1.1658281599620337, 1.741067887453892, 3.0280780752862557], 0.5, 0.5, 0.04, 0.05, 300)

2025-07-07 17:22:22,929 - gym_custom_envs_real_ur_drivers_URBasic_realTimeClientEvent - INFO - Program send to Robot:
servoj([-0.11198058831175767, -1.6198836997353787, -1.52477690622629, -1.165825426404777, 1.7410681911822399, 3.0280780752862557], 0.5, 0.5, 0.04, 0.05, 300)

2025-07-07 17:22:22,945 - gym_custom_envs_real_ur_drivers_URBasic_realTimeClientEvent - INFO - Program send to Robot:
servoj([-0.11805516134364, -1.6320328397245727, -1.5217396212289935, -1.147601707309123, 1.7501800400995642, 3.0280780752862557], 0.5, 0.5, 0.04, 0.05, 300)

2025-07-07 17:22:22,953 - gym_custom_envs_real_ur_drivers_URBasic_realTimeClientEvent - INFO - Program send to Robot:
servoj([-0.11811590707395882, -1.6321543311244646, -1.5217092483790204, -1.1474194701181664, 1.7502711585887374, 3.0280780752862557], 0.5, 0.5, 0.04, 0.05, 300)

2025-07-07 17:22:22,961 - gym_custom_envs_real_ur_drivers_URBasic_realTimeClientEvent - INFO - Program send to Robot:
servoj([-0.11811651453126201, -1.6321555460384636, -1.5217089446505208, -1.1474176477462568, 1.7502720697736291, 3.0280780752862557], 0.5, 0.5, 0.04, 0.05, 300)

2025-07-07 17:22:22,969 - gym_custom_envs_real_ur_drivers_URBasic_realTimeClientEvent - INFO - Program send to Robot:
servoj([-0.11811652060583504, -1.6321555581876035, -1.5217089416132357, -1.1474176295225378, 1.750272078885478, 3.0280780752862557], 0.5, 0.5, 0.04, 0.05, 300)

2025-07-07 17:22:22,985 - gym_custom_envs_real_ur_drivers_URBasic_realTimeClientEvent - INFO - Program send to Robot:
servoj([-0.1241910845866081, -1.6443046861491493, -1.520190300602856, -1.1383057834602595, 1.763939847796657, 3.0280780752862557], 0.5, 0.5, 0.04, 0.05, 300)

2025-07-07 17:22:22,993 - gym_custom_envs_real_ur_drivers_URBasic_realTimeClientEvent - INFO - Program send to Robot:
servoj([-0.12425183022641584, -1.6444261774287647, -1.5201751141927524, -1.1382146649996367, 1.7640765254857689, 3.0280780752862557], 0.5, 0.5, 0.04, 0.05, 300)

2025-07-07 17:22:23,009 - gym_custom_envs_real_ur_drivers_URBasic_realTimeClientEvent - INFO - Program send to Robot:
servoj([-0.1303270016028408, -1.6520205972415947, -1.5186563213486444, -1.1321391898950035, 1.7807829430427349, 3.0280780752862557], 0.5, 0.5, 0.04, 0.05, 300)

2025-07-07 17:22:23,017 - gym_custom_envs_real_ur_drivers_URBasic_realTimeClientEvent - INFO - Program send to Robot:
servoj([-0.13038775331660504, -1.6520965414397228, -1.5186411334202032, -1.1320784351439572, 1.7809500072183044, 3.0280780752862557], 0.5, 0.5, 0.04, 0.05, 300)

2025-07-07 17:22:23,025 - gym_custom_envs_real_ur_drivers_URBasic_realTimeClientEvent - INFO - Program send to Robot:
servoj([-0.1303883608337427, -1.6520973008817041, -1.5186409815409188, -1.1320778275964467, 1.78095167786006, 3.0280780752862557], 0.5, 0.5, 0.04, 0.05, 300)

2025-07-07 17:22:23,033 - gym_custom_envs_real_ur_drivers_URBasic_realTimeClientEvent - INFO - Program send to Robot:
servoj([-0.1303883669089141, -1.6520973084761241, -1.518640980022126, -1.1320778215209717, 1.7809516945664776, 3.0280780752862557], 0.5, 0.5, 0.04, 0.05, 300)

2025-07-07 17:22:23,049 - gym_custom_envs_real_ur_drivers_URBasic_realTimeClientEvent - INFO - Program send to Robot:
servoj([-0.13798157186969964, -1.6581718724720957, -1.518640980006938, -1.13055918048021, 1.7946194635536024, 3.0280780752862557], 0.5, 0.5, 0.04, 0.05, 300)

2025-07-07 17:22:23,056 - gym_custom_envs_real_ur_drivers_URBasic_realTimeClientEvent - INFO - Program send to Robot:
servoj([-0.1380575039193075, -1.6582326181120555, -1.5186409800067862, -1.1305439940698023, 1.7947561412434738, 3.0280780752862557], 0.5, 0.5, 0.04, 0.05, 300)

2025-07-07 17:22:23,065 - gym_custom_envs_real_ur_drivers_URBasic_realTimeClientEvent - INFO - Program send to Robot:
servoj([-0.13805826323980358, -1.658233225568455, -1.5186409800067846, -1.1305438422056981, 1.7947575080203724, 3.0280780752862557], 0.5, 0.5, 0.04, 0.05, 300)

2025-07-07 17:22:23,073 - gym_custom_envs_real_ur_drivers_URBasic_realTimeClientEvent - INFO - Program send to Robot:
servoj([-0.14261419377302892, -1.6597518726230258, -1.5186409800067846, -1.1290251997070508, 1.8023507265881762, 3.0280780752862557], 0.5, 0.5, 0.04, 0.05, 300)

2025-07-07 17:22:23,089 - gym_custom_envs_real_ur_drivers_URBasic_realTimeClientEvent - INFO - Program send to Robot:
servoj([-0.14265975307836118, -1.6597670590935714, -1.5186409800067846, -1.1290100132820644, 1.8024266587738542, 3.0280780752862557], 0.5, 0.5, 0.04, 0.05, 300)

2025-07-07 17:22:23,097 - gym_custom_envs_real_ur_drivers_URBasic_realTimeClientEvent - INFO - Program send to Robot:
servoj([-0.1426602086714145, -1.6597672109582768, -1.5186409800067846, -1.1290098614178146, 1.802427418095711, 3.0280780752862557], 0.5, 0.5, 0.04, 0.05, 300)

2025-07-07 17:22:23,113 - gym_custom_envs_real_ur_drivers_URBasic_realTimeClientEvent - INFO - Program send to Robot:
servoj([-0.14569749518735847, -1.6612858534569308, -1.5171223390267776, -1.127491218919165, 1.8024274256889294, 3.0280780752862557], 0.5, 0.5, 0.04, 0.05, 300)

2025-07-07 17:22:23,121 - gym_custom_envs_real_ur_drivers_URBasic_realTimeClientEvent - INFO - Program send to Robot:
servoj([-0.14572786805251792, -1.6613010398819172, -1.5171071526169777, -1.1274760324941786, 1.8024274257648616, 3.0280780752862557], 0.5, 0.5, 0.04, 0.05, 300)

2025-07-07 17:22:23,137 - gym_custom_envs_real_ur_drivers_URBasic_realTimeClientEvent - INFO - Program send to Robot:
servoj([-0.1457281717811695, -1.6643384737061806, -1.5140697187928664, -1.1198826757298947, 1.802427425765621, 3.0280780752862557], 0.5, 0.5, 0.04, 0.05, 300)

2025-07-07 17:22:23,145 - gym_custom_envs_real_ur_drivers_URBasic_realTimeClientEvent - INFO - Program send to Robot:
servoj([-0.14572817481845604, -1.6643688480444232, -1.5140393444546254, -1.1198067421622517, 1.8024274257656285, 3.0280780752862557], 0.5, 0.5, 0.04, 0.05, 300)

2025-07-07 17:22:23,153 - gym_custom_envs_real_ur_drivers_URBasic_realTimeClientEvent - INFO - Program send to Robot:
servoj([-0.1457281748488289, -1.6643691517878056, -1.514039040711243, -1.1198059828265754, 1.8024274257656288, 3.0280780752862557], 0.5, 0.5, 0.04, 0.05, 300)

2025-07-07 17:22:23,161 - gym_custom_envs_real_ur_drivers_URBasic_realTimeClientEvent - INFO - Program send to Robot:
servoj([-0.14572817484913264, -1.6643691548252395, -1.514039037673809, -1.1198059752332186, 1.8024274257656288, 3.0280780752862557], 0.5, 0.5, 0.04, 0.05, 300)

2025-07-07 17:22:23,177 - gym_custom_envs_real_ur_drivers_URBasic_realTimeClientEvent - INFO - Program send to Robot:
servoj([-0.14572817484913567, -1.6658877958356206, -1.5094831147034142, -1.1137314112372578, 1.8024274257656288, 3.0280780752862557], 0.5, 0.5, 0.04, 0.05, 300)

2025-07-07 17:22:23,185 - gym_custom_envs_real_ur_drivers_URBasic_realTimeClientEvent - INFO - Program send to Robot:
servoj([-0.1457281748491357, -1.6659029822457245, -1.5094375554737103, -1.113670665597298, 1.8024274257656288, 3.0280780752862557], 0.5, 0.5, 0.04, 0.05, 300)

2025-07-07 17:22:23,193 - gym_custom_envs_real_ur_drivers_URBasic_realTimeClientEvent - INFO - Program send to Robot:
servoj([-0.1457281748491357, -1.6659031341098256, -1.509437099881413, -1.1136700581408985, 1.8024274257656288, 3.0280780752862557], 0.5, 0.5, 0.04, 0.05, 300)

2025-07-07 17:22:23,201 - gym_custom_envs_real_ur_drivers_URBasic_realTimeClientEvent - INFO - Program send to Robot:
servoj([-0.1457281748491357, -1.6659031356284666, -1.50488117238547, -1.110632770106321, 1.800908784785622, 3.0280780752862557], 0.5, 0.5, 0.04, 0.05, 300)

2025-07-07 17:22:23,217 - gym_custom_envs_real_ur_drivers_URBasic_realTimeClientEvent - INFO - Program send to Robot:
servoj([-0.1457281748491357, -1.6659031356436529, -1.5048356131105107, -1.1106023972259753, 1.8008935983758219, 3.0280780752862557], 0.5, 0.5, 0.04, 0.05, 300)

2025-07-07 17:22:23,225 - gym_custom_envs_real_ur_drivers_URBasic_realTimeClientEvent - INFO - Program send to Robot:
servoj([-0.1457281748491357, -1.6659031356438048, -1.5048351575177612, -1.1106020934971719, 1.800893446511724, 3.0280780752862557], 0.5, 0.5, 0.04, 0.05, 300)

2025-07-07 17:22:23,232 - gym_custom_envs_real_ur_drivers_URBasic_realTimeClientEvent - INFO - Program send to Robot:
servoj([-0.1457281748491357, -1.6659031356438063, -1.5017978710018196, -1.110602090459884, 1.799374804013076, 3.0280780752862557], 0.5, 0.5, 0.04, 0.05, 300)

2025-07-07 17:22:23,249 - gym_custom_envs_real_ur_drivers_URBasic_realTimeClientEvent - INFO - Program send to Robot:
servoj([-0.1457281748491357, -1.6659031356438063, -1.5017674981366602, -1.1106020904295109, 1.7993596175880895, 3.0280780752862557], 0.5, 0.5, 0.04, 0.05, 300)

2025-07-07 17:22:23,257 - gym_custom_envs_real_ur_drivers_URBasic_realTimeClientEvent - INFO - Program send to Robot:
servoj([-0.1457281748491357, -1.6659031356438063, -1.5017671944080087, -1.110602090429207, 1.7993594657238394, 3.0280780752862557], 0.5, 0.5, 0.04, 0.05, 300)

2025-07-07 17:22:23,265 - gym_custom_envs_real_ur_drivers_URBasic_realTimeClientEvent - INFO - Program send to Robot:
servoj([-0.1457281748491357, -1.6659031356438063, -1.4987299094107092, -1.1106020904292042, 1.799359464205197, 3.0280780752862557], 0.5, 0.5, 0.04, 0.05, 300)

2025-07-07 17:22:23,281 - gym_custom_envs_real_ur_drivers_URBasic_realTimeClientEvent - INFO - Program send to Robot:
servoj([-0.1457281748491357, -1.6659031356438063, -1.4986995365607363, -1.1106020904292042, 1.7993594641900106, 3.0280780752862557], 0.5, 0.5, 0.04, 0.05, 300)

2025-07-07 17:22:23,297 - gym_custom_envs_real_ur_drivers_URBasic_realTimeClientEvent - INFO - Program send to Robot:
servoj([-0.1457281748491357, -1.6659031356438063, -1.4971805918522296, -1.1106020904292042, 1.8008781051698657, 3.0280780752862557], 0.5, 0.5, 0.04, 0.05, 300)

2025-07-07 17:22:23,305 - gym_custom_envs_real_ur_drivers_URBasic_realTimeClientEvent - INFO - Program send to Robot:
servoj([-0.1457281748491357, -1.6659031356438063, -1.4971654024051444, -1.1106020904292042, 1.8008932915796643, 3.0280780752862557], 0.5, 0.5, 0.04, 0.05, 300)

2025-07-07 17:22:23,321 - gym_custom_envs_real_ur_drivers_URBasic_realTimeClientEvent - INFO - Program send to Robot:
servoj([-0.1457281748491357, -1.6659031356438063, -1.4971652505106736, -1.1106020904292042, 1.8008934434437622, 3.0280780752862557], 0.5, 0.5, 0.04, 0.05, 300)

2025-07-07 17:22:23,329 - gym_custom_envs_real_ur_drivers_URBasic_realTimeClientEvent - INFO - Program send to Robot:
servoj([-0.1442095338691292, -1.6659031356438063, -1.4971652489917289, -1.1106020904292042, 1.80241208594241, 3.0280780752862557], 0.5, 0.5, 0.04, 0.05, 300)

2025-07-07 17:22:23,337 - gym_custom_envs_real_ur_drivers_URBasic_realTimeClientEvent - INFO - Program send to Robot:
servoj([-0.14419434745932913, -1.6659031356438063, -1.4971652489765395, -1.1106020904292042, 1.8024272723673964, 3.0280780752862557], 0.5, 0.5, 0.04, 0.05, 300)

2025-07-07 17:22:23,345 - gym_custom_envs_real_ur_drivers_URBasic_realTimeClientEvent - INFO - Program send to Robot:
servoj([-0.1441941955952311, -1.6659031356438063, -1.4971652489763876, -1.1106020904292042, 1.8024274242316463, 3.0280780752862557], 0.5, 0.5, 0.04, 0.05, 300)

2025-07-07 17:22:23,361 - gym_custom_envs_real_ur_drivers_URBasic_realTimeClientEvent - INFO - Program send to Robot:
servoj([-0.14419419407659015, -1.6659031356438063, -1.497165248976386, -1.1121207314092112, 1.8054647077103019, 3.0280780752862557], 0.5, 0.5, 0.04, 0.05, 300)

2025-07-07 17:22:23,369 - gym_custom_envs_real_ur_drivers_URBasic_realTimeClientEvent - INFO - Program send to Robot:
servoj([-0.14419419406140374, -1.6659031356438063, -1.497165248976386, -1.112135917819011, 1.8054950805450884, 3.0280780752862557], 0.5, 0.5, 0.04, 0.05, 300)

2025-07-07 17:22:23,377 - gym_custom_envs_real_ur_drivers_URBasic_realTimeClientEvent - INFO - Program send to Robot:
servoj([-0.14419419406125186, -1.6659031356438063, -1.497165248976386, -1.112136069683109, 1.8054953842734363, 3.0280780752862557], 0.5, 0.5, 0.04, 0.05, 300)

2025-07-07 17:22:23,385 - gym_custom_envs_real_ur_drivers_URBasic_realTimeClientEvent - INFO - Program send to Robot:
servoj([-0.14419419406125034, -1.6659031356438063, -1.497165248976386, -1.11213607120175, 1.8054953873107198, 3.0280780752862557], 0.5, 0.5, 0.04, 0.05, 300)

2025-07-07 17:22:23,400 - gym_custom_envs_real_ur_drivers_URBasic_realTimeClientEvent - INFO - Program send to Robot:
servoj([-0.14419419406125034, -1.6659031356438063, -1.498683889956393, -1.1136547121969431, 1.8054953873410926, 3.026559434306249], 0.5, 0.5, 0.04, 0.05, 300)

2025-07-07 17:22:23,409 - gym_custom_envs_real_ur_drivers_URBasic_realTimeClientEvent - INFO - Program send to Robot:
servoj([-0.14419419406125034, -1.6659031356438063, -1.4986990763661932, -1.1136698986068951, 1.8054953873413964, 3.0265442478964486], 0.5, 0.5, 0.04, 0.05, 300)

2025-07-07 17:22:23,417 - gym_custom_envs_real_ur_drivers_URBasic_realTimeClientEvent - INFO - Program send to Robot:
servoj([-0.14419419406125034, -1.6659031356438063, -1.4986992282302911, -1.1136700504709947, 1.8054953873413995, 3.026544096032351], 0.5, 0.5, 0.04, 0.05, 300)

2025-07-07 17:22:23,433 - gym_custom_envs_real_ur_drivers_URBasic_realTimeClientEvent - INFO - Program send to Robot:
servoj([-0.14267555308124338, -1.6659031356438063, -1.501736511708945, -1.1136700519896356, 1.8070140283214065, 3.0265440945137096], 0.5, 0.5, 0.04, 0.05, 300)

2025-07-07 17:22:23,441 - gym_custom_envs_real_ur_drivers_URBasic_realTimeClientEvent - INFO - Program send to Robot:
servoj([-0.1426603666714433, -1.6659031356438063, -1.5017668845437315, -1.113670052004822, 1.8070292147312066, 3.0265440944985236], 0.5, 0.5, 0.04, 0.05, 300)

2025-07-07 17:22:23,449 - gym_custom_envs_real_ur_drivers_URBasic_realTimeClientEvent - INFO - Program send to Robot:
servoj([-0.1426602148073453, -1.6659031356438063, -1.5017671882720793, -1.1136700520049738, 1.8070293665953046, 3.0265440944983717], 0.5, 0.5, 0.04, 0.05, 300)

2025-07-07 17:22:23,457 - gym_custom_envs_real_ur_drivers_URBasic_realTimeClientEvent - INFO - Program send to Robot:
servoj([-0.14266021328870432, -1.6643844946637996, -1.5048044732693768, -1.1136700520049754, 1.8085480090939525, 3.02654409449837], 0.5, 0.5, 0.04, 0.05, 300)

2025-07-07 17:22:23,479 - gym_custom_envs_real_ur_drivers_URBasic_realTimeClientEvent - INFO - Program send to Robot:
servoj([-0.1426602132735179, -1.6643693082539994, -1.5048348461193497, -1.1136700520049754, 1.808563195518939, 3.02654409449837], 0.5, 0.5, 0.04, 0.05, 300)

2025-07-07 17:22:23,490 - gym_custom_envs_real_ur_drivers_URBasic_realTimeClientEvent - INFO - Program send to Robot:
servoj([-0.14266021327336606, -1.6643691563899015, -1.5124283547478832, -1.1136700520049754, 1.8161565522832226, 3.02654409449837], 0.5, 0.5, 0.04, 0.05, 300)

2025-07-07 17:22:23,497 - gym_custom_envs_real_ur_drivers_URBasic_realTimeClientEvent - INFO - Program send to Robot:
servoj([-0.14266021327336453, -1.6643691548712605, -1.5125042898341685, -1.1136700520049754, 1.8162324858508654, 3.02654409449837], 0.5, 0.5, 0.04, 0.05, 300)

2025-07-07 17:22:23,505 - gym_custom_envs_real_ur_drivers_URBasic_realTimeClientEvent - INFO - Program send to Robot:
servoj([-0.14266021327336453, -1.6643691548560742, -1.5125050491850314, -1.1136700520049754, 1.816233245186542, 3.02654409449837], 0.5, 0.5, 0.04, 0.05, 300)

2025-07-07 17:22:23,521 - gym_custom_envs_real_ur_drivers_URBasic_realTimeClientEvent - INFO - Program send to Robot:
servoj([-0.14114157229335803, -1.6643691548559223, -1.5216169026585808, -1.1121514110249688, 1.8314196625799664, 3.02654409449837], 0.5, 0.5, 0.04, 0.05, 300)

2025-07-07 17:22:23,529 - gym_custom_envs_real_ur_drivers_URBasic_realTimeClientEvent - INFO - Program send to Robot:
servoj([-0.14112638588355794, -1.6643691548559207, -1.5217080211933163, -1.1121362246151687, 1.8315715267539006, 3.02654409449837], 0.5, 0.5, 0.04, 0.05, 300)

2025-07-07 17:22:23,545 - gym_custom_envs_real_ur_drivers_URBasic_realTimeClientEvent - INFO - Program send to Robot:
servoj([-0.14112623401945995, -1.6643691548559207, -1.5217089323786637, -1.1121360727510707, 1.83157304539564, 3.02654409449837], 0.5, 0.5, 0.04, 0.05, 300)

2025-07-07 17:22:23,555 - gym_custom_envs_real_ur_drivers_URBasic_realTimeClientEvent - INFO - Program send to Robot:
servoj([-0.13657030956079858, -1.6643691548559207, -1.5293021463905512, -1.1106174302524228, 1.849796752342139, 3.0280627354783767], 0.5, 0.5, 0.04, 0.05, 300)

2025-07-07 17:22:23,570 - gym_custom_envs_real_ur_drivers_URBasic_realTimeClientEvent - INFO - Program send to Robot:
servoj([-0.13652475031621197, -1.6643691548559207, -1.52937807853067, -1.1106022438274363, 1.8499789894116039, 3.028077921888177], 0.5, 0.5, 0.04, 0.05, 300)

2025-07-07 17:22:23,577 - gym_custom_envs_real_ur_drivers_URBasic_realTimeClientEvent - INFO - Program send to Robot:
servoj([-0.1365242947237661, -1.6643691548559207, -1.5293788378520712, -1.1106020919631865, 1.8499808117822987, 3.028078073752275], 0.5, 0.5, 0.04, 0.05, 300)

2025-07-07 17:22:23,585 - gym_custom_envs_real_ur_drivers_URBasic_realTimeClientEvent - INFO - Program send to Robot:
servoj([-0.12741244428780088, -1.6643691548559207, -1.533934768385305, -1.1090834494645372, 1.8712418037261, 3.0295967162509227], 0.5, 0.5, 0.04, 0.05, 300)

2025-07-07 17:22:23,600 - gym_custom_envs_real_ur_drivers_URBasic_realTimeClientEvent - INFO - Program send to Robot:
servoj([-0.1273213257834412, -1.6643691548559207, -1.5339803276906374, -1.1090682630395508, 1.8714544136455382, 3.029611902675909], 0.5, 0.5, 0.04, 0.05, 300)

2025-07-07 17:22:23,609 - gym_custom_envs_real_ur_drivers_URBasic_realTimeClientEvent - INFO - Program send to Robot:
servoj([-0.12732041459839763, -1.6643691548559207, -1.5339807832836907, -1.109068111175301, 1.8714565397447325, 3.029612054540159], 0.5, 0.5, 0.04, 0.05, 300)

2025-07-07 17:22:23,617 - gym_custom_envs_real_ur_drivers_URBasic_realTimeClientEvent - INFO - Program send to Robot:
servoj([-0.11517127764649294, -1.6643691548559207, -1.5339807878396212, -1.1090681096566584, 1.885124329825786, 3.0296120560588014], 0.5, 0.5, 0.04, 0.05, 300)

2025-07-07 17:22:23,625 - gym_custom_envs_real_ur_drivers_URBasic_realTimeClientEvent - INFO - Program send to Robot:
servoj([-0.1150497862769739, -1.6643691548559207, -1.5339807878851806, -1.1090681096414718, 1.8852610077265965, 3.029612056073988], 0.5, 0.5, 0.04, 0.05, 300)

2025-07-07 17:22:23,641 - gym_custom_envs_real_ur_drivers_URBasic_realTimeClientEvent - INFO - Program send to Robot:
servoj([-0.11504857136327871, -1.6643691548559207, -1.5339807878856362, -1.10906810964132, 1.8852623745056045, 3.0296120560741397], 0.5, 0.5, 0.04, 0.05, 300)

2025-07-07 17:22:23,649 - gym_custom_envs_real_ur_drivers_URBasic_realTimeClientEvent - INFO - Program send to Robot:
servoj([-0.09834350843406711, -1.6658877958359275, -1.5339807878856409, -1.1090681096413186, 1.8913369520934218, 3.031130697054148], 0.5, 0.5, 0.04, 0.05, 300)

2025-07-07 17:22:23,665 - gym_custom_envs_real_ur_drivers_URBasic_realTimeClientEvent - INFO - Program send to Robot:
servoj([-0.098176457804775, -1.6659029822457274, -1.5339807878856409, -1.1090681096413184, 1.8913976978693, 3.031145883463948], 0.5, 0.5, 0.04, 0.05, 300)

2025-07-07 17:22:23,673 - gym_custom_envs_real_ur_drivers_URBasic_realTimeClientEvent - INFO - Program send to Robot:
servoj([-0.09817478729848207, -1.6659031341098256, -1.5339807878856409, -1.1090681096413184, 1.8913983053270587, 3.031146035328046], 0.5, 0.5, 0.04, 0.05, 300)

2025-07-07 17:22:23,698 - gym_custom_envs_real_ur_drivers_URBasic_realTimeClientEvent - INFO - Program send to Robot:
servoj([-0.07843243785333064, -1.6643844946484598, -1.5339807878856409, -1.1090681096413184, 1.8913983114016362, 3.031146036846687], 0.5, 0.5, 0.04, 0.05, 300)

2025-07-07 17:22:23,706 - gym_custom_envs_real_ur_drivers_URBasic_realTimeClientEvent - INFO - Program send to Robot:
servoj([-0.07823501435887911, -1.664369308253846, -1.5339807878856409, -1.1090681096413184, 1.891398311462382, 3.0311460368618737], 0.5, 0.5, 0.04, 0.05, 300)

2025-07-07 17:22:23,722 - gym_custom_envs_real_ur_drivers_URBasic_realTimeClientEvent - INFO - Program send to Robot:
servoj([-0.06000934836385347, -1.6643691563899, -1.5339807878856409, -1.1090681096413184, 1.8913983114629895, 3.029627395882019], 0.5, 0.5, 0.04, 0.05, 300)

2025-07-07 17:22:23,729 - gym_custom_envs_real_ur_drivers_URBasic_realTimeClientEvent - INFO - Program send to Robot:
servoj([-0.05982709170390321, -1.6643691548712605, -1.5339807878856409, -1.1090681096413184, 1.8913983114629955, 3.02961220947222], 0.5, 0.5, 0.04, 0.05, 300)

2025-07-07 17:22:23,737 - gym_custom_envs_real_ur_drivers_URBasic_realTimeClientEvent - INFO - Program send to Robot:
servoj([-0.05982526913730371, -1.6643691548560742, -1.5339807878856409, -1.1090681096413184, 1.8913983114629955, 3.029612057608122], 0.5, 0.5, 0.04, 0.05, 300)

2025-07-07 17:22:23,745 - gym_custom_envs_real_ur_drivers_URBasic_realTimeClientEvent - INFO - Program send to Robot:
servoj([-0.043120200131563084, -1.6643691548559223, -1.5339807878856409, -1.1090681096413184, 1.8898796704829885, 3.031130697069488], 0.5, 0.5, 0.04, 0.05, 300)

2025-07-07 17:22:23,762 - gym_custom_envs_real_ur_drivers_URBasic_realTimeClientEvent - INFO - Program send to Robot:
servoj([-0.04295314944150568, -1.6643691548559207, -1.5339807878856409, -1.1090681096413184, 1.8898644840731886, 3.0311458834641014], 0.5, 0.5, 0.04, 0.05, 300)

2025-07-07 17:22:23,769 - gym_custom_envs_real_ur_drivers_URBasic_realTimeClientEvent - INFO - Program send to Robot:
servoj([-0.0429514789346051, -1.6643691548559207, -1.5339807878856409, -1.1090681096413184, 1.8898643322090907, 3.0311460353280477], 0.5, 0.5, 0.04, 0.05, 300)

2025-07-07 17:22:23,786 - gym_custom_envs_real_ur_drivers_URBasic_realTimeClientEvent - INFO - Program send to Robot:
servoj([-0.026246411449461472, -1.6643691548559207, -1.5339807878856409, -1.1105867506213252, 1.8898643306904497, 3.031146036846687], 0.5, 0.5, 0.04, 0.05, 300)

2025-07-07 17:22:23,801 - gym_custom_envs_real_ur_drivers_URBasic_realTimeClientEvent - INFO - Program send to Robot:
servoj([-0.026079360774610035, -1.6643691548559207, -1.5339807878856409, -1.1106019370311253, 1.8898643306752632, 3.0311460368618737], 0.5, 0.5, 0.04, 0.05, 300)

2025-07-07 17:22:23,808 - gym_custom_envs_real_ur_drivers_URBasic_realTimeClientEvent - INFO - Program send to Robot:
servoj([-0.009372639487786888, -1.6643691548559207, -1.5339807878856409, -1.1106020888952233, 1.8898643306751113, 3.0311460368620256], 0.5, 0.5, 0.04, 0.05, 300)

2025-07-07 17:22:23,817 - gym_custom_envs_real_ur_drivers_URBasic_realTimeClientEvent - INFO - Program send to Robot:
servoj([-0.009205572274918656, -1.6643691548559207, -1.5339807878856409, -1.1106020904138643, 1.8898643306751097, 3.031146036862027], 0.5, 0.5, 0.04, 0.05, 300)

2025-07-07 17:22:23,825 - gym_custom_envs_real_ur_drivers_URBasic_realTimeClientEvent - INFO - Program send to Robot:
servoj([-0.009203901602789975, -1.6643691548559207, -1.5339807878856409, -1.1106020904290508, 1.8898643306751097, 3.031146036862027], 0.5, 0.5, 0.04, 0.05, 300)

2025-07-07 17:22:23,841 - gym_custom_envs_real_ur_drivers_URBasic_realTimeClientEvent - INFO - Program send to Robot:
servoj([0.0029452429439855493, -1.6628505138759138, -1.5339807878856409, -1.1106020904292027, 1.8898643306751097, 3.031146036862027], 0.5, 0.5, 0.04, 0.05, 300)

2025-07-07 17:22:23,849 - gym_custom_envs_real_ur_drivers_URBasic_realTimeClientEvent - INFO - Program send to Robot:
servoj([0.0030667343894533045, -1.6628353274661136, -1.5339807878856409, -1.1106020904292042, 1.8898643306751097, 3.031146036862027], 0.5, 0.5, 0.04, 0.05, 300)

2025-07-07 17:22:23,857 - gym_custom_envs_real_ur_drivers_URBasic_realTimeClientEvent - INFO - Program send to Robot:
servoj([0.003067949303907982, -1.6628351756020157, -1.5339807878856409, -1.1106020904292042, 1.8898643306751097, 3.031146036862027], 0.5, 0.5, 0.04, 0.05, 300)

2025-07-07 17:22:23,865 - gym_custom_envs_real_ur_drivers_URBasic_realTimeClientEvent - INFO - Program send to Robot:
servoj([0.0030679614530525288, -1.6628351740833747, -1.5339807878856409, -1.1106020904292042, 1.8898643306751097, 3.031146036862027], 0.5, 0.5, 0.04, 0.05, 300)

2025-07-07 17:22:23,882 - gym_custom_envs_real_ur_drivers_URBasic_realTimeClientEvent - INFO - Program send to Robot:
servoj([0.013698448434591707, -1.6613165330881816, -1.5339807878856409, -1.1106020904292042, 1.8898643306751097, 3.031146036862027], 0.5, 0.5, 0.04, 0.05, 300)

2025-07-07 17:22:23,889 - gym_custom_envs_real_ur_drivers_URBasic_realTimeClientEvent - INFO - Program send to Robot:
servoj([0.013804753304407098, -1.6613013466782298, -1.5339807878856409, -1.1106020904292042, 1.8898643306751097, 3.031146036862027], 0.5, 0.5, 0.04, 0.05, 300)

2025-07-07 17:22:23,906 - gym_custom_envs_real_ur_drivers_URBasic_realTimeClientEvent - INFO - Program send to Robot:
servoj([0.02291766223314604, -1.6597825538341235, -1.5324621469056348, -1.1121207314092112, 1.8913829716551167, 3.031146036862027], 0.5, 0.5, 0.04, 0.05, 300)

2025-07-07 17:22:23,922 - gym_custom_envs_real_ur_drivers_URBasic_realTimeClientEvent - INFO - Program send to Robot:
servoj([0.02300879132243343, -1.6597673659056824, -1.5324469604958346, -1.112135917819011, 1.8913981580649168, 3.031146036862027], 0.5, 0.5, 0.04, 0.05, 300)

2025-07-07 17:22:23,929 - gym_custom_envs_real_ur_drivers_URBasic_realTimeClientEvent - INFO - Program send to Robot:
servoj([0.023009702613326303, -1.659767214026398, -1.5324468086317367, -1.112136069683109, 1.8913983099290148, 3.031146036862027], 0.5, 0.5, 0.04, 0.05, 300)

2025-07-07 17:22:23,937 - gym_custom_envs_real_ur_drivers_URBasic_realTimeClientEvent - INFO - Program send to Robot:
servoj([0.03364019858628252, -1.6567299305475915, -1.5324468071130957, -1.1136547121817566, 1.8929169524276626, 3.031146036862027], 0.5, 0.5, 0.04, 0.05, 300)

2025-07-07 17:22:23,962 - gym_custom_envs_real_ur_drivers_URBasic_realTimeClientEvent - INFO - Program send to Robot:
servoj([0.03374650354601208, -1.6566995577128034, -1.5324468070979091, -1.1136698986067433, 1.892932138852649, 3.031146036862027], 0.5, 0.5, 0.04, 0.05, 300)

2025-07-07 17:22:23,978 - gym_custom_envs_real_ur_drivers_URBasic_realTimeClientEvent - INFO - Program send to Robot:
servoj([0.04741533541567056, -1.653661972024442, -1.5324468070977575, -1.115188691451, 1.8929322907168988, 3.031146036862027], 0.5, 0.5, 0.04, 0.05, 300)

2025-07-07 17:22:23,993 - gym_custom_envs_real_ur_drivers_URBasic_realTimeClientEvent - INFO - Program send to Robot:
servoj([0.04755202373436715, -1.6536315961675583, -1.532446807097756, -1.1152038793794425, 1.8929322922355414, 3.031146036862027], 0.5, 0.5, 0.04, 0.05, 300)

2025-07-07 17:22:24,001 - gym_custom_envs_real_ur_drivers_URBasic_realTimeClientEvent - INFO - Program send to Robot:
servoj([0.0627398004176218, -1.6536312924089895, -1.533965448077762, -1.1182413132187405, 1.892932292250728, 3.031146036862027], 0.5, 0.5, 0.04, 0.05, 300)

2025-07-07 17:22:24,009 - gym_custom_envs_real_ur_drivers_URBasic_realTimeClientEvent - INFO - Program send to Robot:
servoj([0.06289167818445435, -1.6536312893714038, -1.533980634487562, -1.1182716875571335, 1.8929322922508798, 3.031146036862027], 0.5, 0.5, 0.04, 0.05, 300)

2025-07-07 17:22:24,025 - gym_custom_envs_real_ur_drivers_URBasic_realTimeClientEvent - INFO - Program send to Robot:
servoj([0.06289319696212267, -1.653631289341028, -1.53398078635166, -1.1182719913005175, 1.892932292250881, 3.031146036862027], 0.5, 0.5, 0.04, 0.05, 300)

2025-07-07 17:22:24,041 - gym_custom_envs_real_ur_drivers_URBasic_realTimeClientEvent - INFO - Program send to Robot:
servoj([0.07656098096996054, -1.6505940073807108, -1.533980787870301, -1.1213092762979646, 1.8929322922508813, 3.031146036862027], 0.5, 0.5, 0.04, 0.05, 300)

2025-07-07 17:22:24,049 - gym_custom_envs_real_ur_drivers_URBasic_realTimeClientEvent - INFO - Program send to Robot:
servoj([0.07669765881003891, -1.6505636345611077, -1.5339807878854874, -1.121339649147939, 1.8929322922508813, 3.031146036862027], 0.5, 0.5, 0.04, 0.05, 300)

2025-07-07 17:22:24,057 - gym_custom_envs_real_ur_drivers_URBasic_realTimeClientEvent - INFO - Program send to Robot:
servoj([0.0766990255884397, -1.6505633308329115, -1.5339807878856393, -1.1213399528764387, 1.8929322922508813, 3.031146036862027], 0.5, 0.5, 0.04, 0.05, 300)

2025-07-07 17:22:24,065 - gym_custom_envs_real_ur_drivers_URBasic_realTimeClientEvent - INFO - Program send to Robot:
servoj([0.09036680807628489, -1.647526045835616, -1.5339807878856409, -1.1274145198337513, 1.8929322922508813, 3.031146036862027], 0.5, 0.5, 0.04, 0.05, 300)

2025-07-07 17:22:24,081 - gym_custom_envs_real_ur_drivers_URBasic_realTimeClientEvent - INFO - Program send to Robot:
servoj([0.09050348590116335, -1.6474956729856431, -1.5339807878856409, -1.1274752655033244, 1.8929322922508813, 3.031146036862027], 0.5, 0.5, 0.04, 0.05, 300)

2025-07-07 17:22:24,089 - gym_custom_envs_real_ur_drivers_URBasic_realTimeClientEvent - INFO - Program send to Robot:
servoj([0.09050485267941213, -1.6474953692571435, -1.5339807878856409, -1.12747587296002, 1.8929322922508813, 3.031146036862027], 0.5, 0.5, 0.04, 0.05, 300)

2025-07-07 17:22:24,097 - gym_custom_envs_real_ur_drivers_URBasic_realTimeClientEvent - INFO - Program send to Robot:
servoj([0.10720991712726925, -1.6414208022998313, -1.5354994288656478, -1.135069083934621, 1.8929322922508813, 3.02962739588202], 0.5, 0.5, 0.04, 0.05, 300)

2025-07-07 17:22:24,105 - gym_custom_envs_real_ur_drivers_URBasic_realTimeClientEvent - INFO - Program send to Robot:
servoj([0.10737696777174782, -1.6413600566302582, -1.5355146152754477, -1.1351450160443668, 1.8929322922508813, 3.02961220947222], 0.5, 0.5, 0.04, 0.05, 300)

2025-07-07 17:22:24,121 - gym_custom_envs_real_ur_drivers_URBasic_realTimeClientEvent - INFO - Program send to Robot:
servoj([0.1073786382781926, -1.6413594491735626, -1.535514767139546, -1.1351457753654643, 1.8929322922508813, 3.029612057608122], 0.5, 0.5, 0.04, 0.05, 300)

2025-07-07 17:22:24,129 - gym_custom_envs_real_ur_drivers_URBasic_realTimeClientEvent - INFO - Program send to Robot:
servoj([0.12256506478332473, -1.635284879178968, -1.537033409638194, -1.144257628838716, 1.8929322922508813, 3.0296120560894813], 0.5, 0.5, 0.04, 0.05, 300)

2025-07-07 17:22:24,145 - gym_custom_envs_real_ur_drivers_URBasic_realTimeClientEvent - INFO - Program send to Robot:
servoj([0.12271692904837606, -1.635224133479022, -1.5370485960631803, -1.1443487473734486, 1.8929322922508813, 3.0296120560742947], 0.5, 0.5, 0.04, 0.05, 300)

2025-07-07 17:22:24,153 - gym_custom_envs_real_ur_drivers_URBasic_realTimeClientEvent - INFO - Program send to Robot:
servoj([0.12271844769102656, -1.6352235260220227, -1.5370487479274302, -1.144349658558796, 1.8929322922508813, 3.029612056074143], 0.5, 0.5, 0.04, 0.05, 300)

2025-07-07 17:22:24,169 - gym_custom_envs_real_ur_drivers_URBasic_realTimeClientEvent - INFO - Program send to Robot:
servoj([0.1394235136575277, -1.627630315047419, -1.5370487494460727, -1.154980154530697, 1.8929322922508813, 3.029612056074141], 0.5, 0.5, 0.04, 0.05, 300)

2025-07-07 17:22:24,177 - gym_custom_envs_real_ur_drivers_URBasic_realTimeClientEvent - INFO - Program send to Robot:
servoj([0.13959056431719272, -1.6275543829376728, -1.537048749461259, -1.155086459490416, 1.8929322922508813, 3.029612056074141], 0.5, 0.5, 0.04, 0.05, 300)

2025-07-07 17:22:24,185 - gym_custom_envs_real_ur_drivers_URBasic_realTimeClientEvent - INFO - Program send to Robot:
servoj([0.13959223482378938, -1.6275536236165753, -1.537048749461411, -1.155087522540013, 1.8929322922508813, 3.029612056074141], 0.5, 0.5, 0.04, 0.05, 300)

2025-07-07 17:22:24,193 - gym_custom_envs_real_ur_drivers_URBasic_realTimeClientEvent - INFO - Program send to Robot:
servoj([0.15477866132892304, -1.621479052103337, -1.5370487494614125, -1.1626807380705428, 1.8929322922508813, 3.0280934150941343], 0.5, 0.5, 0.04, 0.05, 300)

2025-07-07 17:22:24,208 - gym_custom_envs_real_ur_drivers_URBasic_realTimeClientEvent - INFO - Program send to Robot:
servoj([0.15493052559397436, -1.6214183063882048, -1.5370487494614125, -1.1627566702258483, 1.8929322922508813, 3.0280782286843344], 0.5, 0.5, 0.04, 0.05, 300)

2025-07-07 17:22:24,216 - gym_custom_envs_real_ur_drivers_URBasic_realTimeClientEvent - INFO - Program send to Robot:
servoj([0.15493204423662488, -1.6214176989310534, -1.5370487494614125, -1.1627574295474012, 1.8929322922508813, 3.028078076820236], 0.5, 0.5, 0.04, 0.05, 300)

2025-07-07 17:22:24,224 - gym_custom_envs_real_ur_drivers_URBasic_realTimeClientEvent - INFO - Program send to Robot:
servoj([0.171637110203126, -1.6183804108964683, -1.5370487494614125, -1.1673133600806374, 1.8929322922508813, 3.0265594343215887], 0.5, 0.5, 0.04, 0.05, 300)

2025-07-07 17:22:24,241 - gym_custom_envs_real_ur_drivers_URBasic_realTimeClientEvent - INFO - Program send to Robot:
servoj([0.17180416086279102, -1.6183500380161226, -1.5370487494614125, -1.1673589193859697, 1.8929322922508813, 3.0265442478966023], 0.5, 0.5, 0.04, 0.05, 300)

2025-07-07 17:22:24,249 - gym_custom_envs_real_ur_drivers_URBasic_realTimeClientEvent - INFO - Program send to Robot:
servoj([0.17180583136938765, -1.618349734287319, -1.5370487494614125, -1.167359374979023, 1.8929322922508813, 3.026544096032352], 0.5, 0.5, 0.04, 0.05, 300)

2025-07-07 17:22:24,257 - gym_custom_envs_real_ur_drivers_URBasic_realTimeClientEvent - INFO - Program send to Robot:
servoj([0.1854736168945148, -1.6137938083100107, -1.5370487494614125, -1.170396661494967, 1.8929322922508813, 3.0265440945137096], 0.5, 0.5, 0.04, 0.05, 300)

2025-07-07 17:22:24,265 - gym_custom_envs_real_ur_drivers_URBasic_realTimeClientEvent - INFO - Program send to Robot:
servoj([0.1856102947497661, -1.6137482490502377, -1.5370487494614125, -1.1704270343601264, 1.8929322922508813, 3.0265440944985236], 0.5, 0.5, 0.04, 0.05, 300)

2025-07-07 17:22:24,281 - gym_custom_envs_real_ur_drivers_URBasic_realTimeClientEvent - INFO - Program send to Robot:
servoj([0.1856116615283186, -1.6137477934576399, -1.5370487494614125, -1.170427338088778, 1.8929322922508813, 3.0265440944983717], 0.5, 0.5, 0.04, 0.05, 300)

2025-07-07 17:22:24,288 - gym_custom_envs_real_ur_drivers_URBasic_realTimeClientEvent - INFO - Program send to Robot:
servoj([0.19776080303615834, -1.6107105069417005, -1.5385673904414194, -1.1704273411260646, 1.8929322922508813, 3.025025453518363], 0.5, 0.5, 0.04, 0.05, 300)

2025-07-07 17:22:24,296 - gym_custom_envs_real_ur_drivers_URBasic_realTimeClientEvent - INFO - Program send to Robot:
servoj([0.19788229445123676, -1.610680134076541, -1.5385825768512196, -1.1704273411564374, 1.8929322922508813, 3.0250102671085632], 0.5, 0.5, 0.04, 0.05, 300)

2025-07-07 17:22:24,304 - gym_custom_envs_real_ur_drivers_URBasic_realTimeClientEvent - INFO - Program send to Robot:
servoj([0.19788350936538754, -1.6106798303478895, -1.5385827287153175, -1.1704273411567412, 1.8929322922508813, 3.025010115244465], 0.5, 0.5, 0.04, 0.05, 300)

2025-07-07 17:22:24,321 - gym_custom_envs_real_ur_drivers_URBasic_realTimeClientEvent - INFO - Program send to Robot:
servoj([0.2100326493545833, -1.6106798273106029, -1.5385827302339585, -1.1719459821367508, 1.8929322922508813, 3.0219728317658103], 0.5, 0.5, 0.04, 0.05, 300)

2025-07-07 17:22:24,329 - gym_custom_envs_real_ur_drivers_URBasic_realTimeClientEvent - INFO - Program send to Robot:
servoj([0.21015414075447525, -1.61067982728023, -1.5385827302491448, -1.171961168546551, 1.8929322922508813, 3.0219424589310235], 0.5, 0.5, 0.04, 0.05, 300)

2025-07-07 17:22:24,337 - gym_custom_envs_real_ur_drivers_URBasic_realTimeClientEvent - INFO - Program send to Robot:
servoj([0.21015535566847418, -1.6106798272799263, -1.5385827302492967, -1.171961320410649, 1.8929322922508813, 3.0219421552026757], 0.5, 0.5, 0.04, 0.05, 300)

2025-07-07 17:22:24,345 - gym_custom_envs_real_ur_drivers_URBasic_realTimeClientEvent - INFO - Program send to Robot:
servoj([0.21015536781761415, -1.6106798272799234, -1.5385827302492983, -1.17196132192929, 1.8929322922508813, 3.0219421521653924], 0.5, 0.5, 0.04, 0.05, 300)

2025-07-07 17:22:24,361 - gym_custom_envs_real_ur_drivers_URBasic_realTimeClientEvent - INFO - Program send to Robot:
servoj([0.21774857283913937, -1.6106798272799232, -1.5401013712293052, -1.1734799629244832, 1.8929322922508813, 3.0219421521350194], 0.5, 0.5, 0.04, 0.05, 300)

2025-07-07 17:22:24,369 - gym_custom_envs_real_ur_drivers_URBasic_realTimeClientEvent - INFO - Program send to Robot:
servoj([0.21782450488935462, -1.6106798272799232, -1.5401165576391054, -1.1734951493344352, 1.8929322922508813, 3.0219421521347156], 0.5, 0.5, 0.04, 0.05, 300)

2025-07-07 17:22:24,377 - gym_custom_envs_real_ur_drivers_URBasic_realTimeClientEvent - INFO - Program send to Robot:
servoj([0.2178252642098568, -1.6106798272799232, -1.5401167095032033, -1.1734953011985347, 1.8929322922508813, 3.021942152134713], 0.5, 0.5, 0.04, 0.05, 300)

2025-07-07 17:22:24,385 - gym_custom_envs_real_ur_drivers_URBasic_realTimeClientEvent - INFO - Program send to Robot:
servoj([0.2269371176831026, -1.6091611862999164, -1.5477099159218781, -1.1780512256571962, 1.8929322922508813, 3.020423511154706], 0.5, 0.5, 0.04, 0.05, 300)

2025-07-07 17:22:24,400 - gym_custom_envs_real_ur_drivers_URBasic_realTimeClientEvent - INFO - Program send to Robot:
servoj([0.22702823621783508, -1.6091459998901165, -1.5477858479860649, -1.1780967849017827, 1.8929322922508813, 3.020408324744906], 0.5, 0.5, 0.04, 0.05, 300)

2025-07-07 17:22:24,408 - gym_custom_envs_real_ur_drivers_URBasic_realTimeClientEvent - INFO - Program send to Robot:
servoj([0.2270291474031824, -1.6091458480260186, -1.5477866073067068, -1.1780972404942287, 1.8929322922508813, 3.020408172880808], 0.5, 0.5, 0.04, 0.05, 300)

2025-07-07 17:22:24,416 - gym_custom_envs_real_ur_drivers_URBasic_realTimeClientEvent - INFO - Program send to Robot:
servoj([0.2346223614150697, -1.6076272055273708, -1.5553798197999469, -1.1856904499501868, 1.8929322922508813, 3.020408171362167], 0.5, 0.5, 0.04, 0.05, 300)

2025-07-07 17:22:24,433 - gym_custom_envs_real_ur_drivers_URBasic_realTimeClientEvent - INFO - Program send to Robot:
servoj([0.2346982935551886, -1.6076120191023842, -1.5554557519248793, -1.1857663820447464, 1.8929322922508813, 3.0204081713469804], 0.5, 0.5, 0.04, 0.05, 300)

2025-07-07 17:22:24,441 - gym_custom_envs_real_ur_drivers_URBasic_realTimeClientEvent - INFO - Program send to Robot:
servoj([0.23469905287658976, -1.6076118672381343, -1.5554565112461287, -1.185767141365692, 1.8929322922508813, 3.0204081713468285], 0.5, 0.5, 0.04, 0.05, 300)

2025-07-07 17:22:24,449 - gym_custom_envs_real_ur_drivers_URBasic_realTimeClientEvent - INFO - Program send to Robot:
servoj([0.24229226536983808, -1.607611865719492, -1.563049723739375, -1.1948789948389422, 1.8929322922508813, 3.020408171346827], 0.5, 0.5, 0.04, 0.05, 300)

2025-07-07 17:22:24,457 - gym_custom_envs_real_ur_drivers_URBasic_realTimeClientEvent - INFO - Program send to Robot:
servoj([0.24236819749477057, -1.6076118657043055, -1.5631256558643074, -1.1949701133736748, 1.8929322922508813, 3.020408171346827], 0.5, 0.5, 0.04, 0.05, 300)

2025-07-07 17:22:24,473 - gym_custom_envs_real_ur_drivers_URBasic_realTimeClientEvent - INFO - Program send to Robot:
servoj([0.2423689568160199, -1.6076118657041536, -1.5631264151855568, -1.1949710245590222, 1.8929322922508813, 3.020408171346827], 0.5, 0.5, 0.04, 0.05, 300)

2025-07-07 17:22:24,481 - gym_custom_envs_real_ur_drivers_URBasic_realTimeClientEvent - INFO - Program send to Robot:
servoj([0.24692488734925275, -1.606093224724145, -1.5722382686588101, -1.2040828795509164, 1.8929322922508813, 3.020408171346827], 0.5, 0.5, 0.04, 0.05, 300)

2025-07-07 17:22:24,489 - gym_custom_envs_real_ur_drivers_URBasic_realTimeClientEvent - INFO - Program send to Robot:
servoj([0.2469704466545851, -1.606078038314345, -1.5723293871935426, -1.2041739981008353, 1.8929322922508813, 3.020408171346827], 0.5, 0.5, 0.04, 0.05, 300)

2025-07-07 17:22:24,496 - gym_custom_envs_real_ur_drivers_URBasic_realTimeClientEvent - INFO - Program send to Robot:
servoj([0.2469709022476384, -1.606077886450247, -1.5723302983788898, -1.2041749092863345, 1.8929322922508813, 3.020408171346827], 0.5, 0.5, 0.04, 0.05, 300)

2025-07-07 17:22:24,513 - gym_custom_envs_real_ur_drivers_URBasic_realTimeClientEvent - INFO - Program send to Robot:
servoj([0.2500081887635824, -1.606077884931606, -1.5799235123907773, -1.21328676427823, 1.8929322922508813, 3.020408171346827], 0.5, 0.5, 0.04, 0.05, 300)

2025-07-07 17:22:24,521 - gym_custom_envs_real_ur_drivers_URBasic_realTimeClientEvent - INFO - Program send to Robot:
servoj([0.25003856162874183, -1.6060778849164197, -1.5799994445308962, -1.213377882828149, 1.8929322922508813, 3.020408171346827], 0.5, 0.5, 0.04, 0.05, 300)

2025-07-07 17:22:24,529 - gym_custom_envs_real_ur_drivers_URBasic_realTimeClientEvent - INFO - Program send to Robot:
servoj([0.25003886535739345, -1.6060778849162678, -1.5800002038522973, -1.2133787940136482, 1.8929322922508813, 3.020408171346827], 0.5, 0.5, 0.04, 0.05, 300)

2025-07-07 17:22:24,537 - gym_custom_envs_real_ur_drivers_URBasic_realTimeClientEvent - INFO - Program send to Robot:
servoj([0.2500388683946799, -1.6060778849162662, -1.5800002114455114, -1.213378803125503, 1.8929322922508813, 3.020408171346827], 0.5, 0.5, 0.04, 0.05, 300)

2025-07-07 17:22:24,553 - gym_custom_envs_real_ur_drivers_URBasic_realTimeClientEvent - INFO - Program send to Robot:
servoj([0.25459479136507324, -1.6060778849162662, -1.5860747754414704, -1.2240092900766693, 1.8929322922508813, 3.020408171346827], 0.5, 0.5, 0.04, 0.05, 300)

2025-07-07 17:22:24,561 - gym_custom_envs_real_ur_drivers_URBasic_realTimeClientEvent - INFO - Program send to Robot:
servoj([0.2546403505947772, -1.6060778849162662, -1.58613552108143, -1.2241155949461808, 1.8929322922508813, 3.020408171346827], 0.5, 0.5, 0.04, 0.05, 300)

2025-07-07 17:22:24,577 - gym_custom_envs_real_ur_drivers_URBasic_realTimeClientEvent - INFO - Program send to Robot:
servoj([0.2576780881470876, -1.6075965258962732, -1.5906920514778504, -1.2332285038749167, 1.8929322922508813, 3.020408171346827], 0.5, 0.5, 0.04, 0.05, 300)

2025-07-07 17:22:24,594 - gym_custom_envs_real_ur_drivers_URBasic_realTimeClientEvent - INFO - Program send to Robot:
servoj([0.25770846552261073, -1.6076117123060734, -1.5907376167818148, -1.2333196329642042, 1.8929322922508813, 3.020408171346827], 0.5, 0.5, 0.04, 0.05, 300)

2025-07-07 17:22:24,602 - gym_custom_envs_real_ur_drivers_URBasic_realTimeClientEvent - INFO - Program send to Robot:
servoj([0.25770876929636594, -1.6076118641701713, -1.5907380724348543, -1.233320544255097, 1.8929322922508813, 3.020408171346827], 0.5, 0.5, 0.04, 0.05, 300)

2025-07-07 17:22:24,610 - gym_custom_envs_real_ur_drivers_URBasic_realTimeClientEvent - INFO - Program send to Robot:
servoj([0.26074605429411696, -1.6076118656888123, -1.5922567179713907, -1.2469883221880669, 1.8929322922508813, 3.020408171346827], 0.5, 0.5, 0.04, 0.05, 300)

2025-07-07 17:22:24,625 - gym_custom_envs_real_ur_drivers_URBasic_realTimeClientEvent - INFO - Program send to Robot:
servoj([0.2607764271440945, -1.6076118657039986, -1.592271904426756, -1.2471249999673966, 1.8929322922508813, 3.020408171346827], 0.5, 0.5, 0.04, 0.05, 300)

2025-07-07 17:22:24,634 - gym_custom_envs_real_ur_drivers_URBasic_realTimeClientEvent - INFO - Program send to Robot:
servoj([0.26077673087259423, -1.6076118657041505, -1.5922720562913097, -1.24712636674519, 1.8929322922508813, 3.020408171346827], 0.5, 0.5, 0.04, 0.05, 300)

2025-07-07 17:22:24,642 - gym_custom_envs_real_ur_drivers_URBasic_realTimeClientEvent - INFO - Program send to Robot:
servoj([0.2607767339098792, -1.607611865704152, -1.5922720578099552, -1.2623127902130358, 1.8929322922508813, 3.018889530366821], 0.5, 0.5, 0.04, 0.05, 300)

2025-07-07 17:22:24,657 - gym_custom_envs_real_ur_drivers_URBasic_realTimeClientEvent - INFO - Program send to Robot:
servoj([0.2607767339402521, -1.607611865704152, -1.5922720578251417, -1.262464654447714, 1.8929322922508813, 3.018874343957021], 0.5, 0.5, 0.04, 0.05, 300)

2025-07-07 17:22:24,665 - gym_custom_envs_real_ur_drivers_URBasic_realTimeClientEvent - INFO - Program send to Robot:
servoj([0.26077673394055584, -1.607611865704152, -1.5922720578252936, -1.262466173090061, 1.8929322922508813, 3.0188741920929227], 0.5, 0.5, 0.04, 0.05, 300)

2025-07-07 17:22:24,673 - gym_custom_envs_real_ur_drivers_URBasic_realTimeClientEvent - INFO - Program send to Robot:
servoj([0.26229537492056576, -1.607611865704152, -1.5907534168452893, -1.2806898800365658, 1.8914136512708746, 3.0127996266542545], 0.5, 0.5, 0.04, 0.05, 300)

2025-07-07 17:22:24,689 - gym_custom_envs_real_ur_drivers_URBasic_realTimeClientEvent - INFO - Program send to Robot:
servoj([0.2623105613303659, -1.607611865704152, -1.5907382304354891, -1.2808721171060307, 1.8913984648610744, 3.0127388809998674], 0.5, 0.5, 0.04, 0.05, 300)

2025-07-07 17:22:24,696 - gym_custom_envs_real_ur_drivers_URBasic_realTimeClientEvent - INFO - Program send to Robot:
servoj([0.26231071319446386, -1.607611865704152, -1.5907380785713912, -1.2808739394767255, 1.8913983129969765, 3.0127382735433237], 0.5, 0.5, 0.04, 0.05, 300)

2025-07-07 17:22:24,705 - gym_custom_envs_real_ur_drivers_URBasic_realTimeClientEvent - INFO - Program send to Robot:
servoj([0.26231071471310485, -1.607611865704152, -1.5877007950927362, -1.2990976494605142, 1.8929169524583422, 3.0005891396287048], 0.5, 0.5, 0.04, 0.05, 300)

2025-07-07 17:22:24,721 - gym_custom_envs_real_ur_drivers_URBasic_realTimeClientEvent - INFO - Program send to Robot:
servoj([0.26231071472829126, -1.607611865704152, -1.5876704222579496, -1.299279886560352, 1.8929321388529559, 3.0004676482895585], 0.5, 0.5, 0.04, 0.05, 300)

2025-07-07 17:22:24,729 - gym_custom_envs_real_ur_drivers_URBasic_realTimeClientEvent - INFO - Program send to Robot:
servoj([0.26231071472844314, -1.607611865704152, -1.5876701185296018, -1.2992817089313504, 1.892932290716902, 3.000466433376167], 0.5, 0.5, 0.04, 0.05, 300)

2025-07-07 17:22:24,745 - gym_custom_envs_real_ur_drivers_URBasic_realTimeClientEvent - INFO - Program send to Robot:
servoj([0.2607920737484377, -1.606093224724145, -1.5831141925522982, -1.3190240598951484, 1.8914136512555346, 2.9867986524069714], 0.5, 0.5, 0.04, 0.05, 300)

2025-07-07 17:22:24,754 - gym_custom_envs_real_ur_drivers_URBasic_realTimeClientEvent - INFO - Program send to Robot:
servoj([0.2607768873386377, -1.606078038314345, -1.5830686332925252, -1.3192214834047864, 1.891398464860921, 2.9866619745972796], 0.5, 0.5, 0.04, 0.05, 300)

2025-07-07 17:22:24,770 - gym_custom_envs_real_ur_drivers_URBasic_realTimeClientEvent - INFO - Program send to Robot:
servoj([0.26077673547453967, -1.6030406044902334, -1.5785122547599066, -1.3420030723399845, 1.891398312996975, 2.977548761939142], 0.5, 0.5, 0.04, 0.05, 300)

2025-07-07 17:22:24,777 - gym_custom_envs_real_ur_drivers_URBasic_realTimeClientEvent - INFO - Program send to Robot:
servoj([0.2607767339558987, -1.6030102301519924, -1.5784666909745806, -1.3422308882293363, 1.8913983114783355, 2.9774576298125606], 0.5, 0.5, 0.04, 0.05, 300)

2025-07-07 17:22:24,785 - gym_custom_envs_real_ur_drivers_URBasic_realTimeClientEvent - INFO - Program send to Robot:
servoj([0.26077673394071227, -1.60300992640861, -1.5784662353367274, -1.3422331663882299, 1.891398311463149, 2.977456718491295], 0.5, 0.5, 0.04, 0.05, 300)

2025-07-07 17:22:24,800 - gym_custom_envs_real_ur_drivers_URBasic_realTimeClientEvent - INFO - Program send to Robot:
servoj([0.25925809296055397, -1.5984540004311558, -1.5723916668603217, -1.3665314448499277, 1.88987967048299, 2.969863504478048], 0.5, 0.5, 0.04, 0.05, 300)

2025-07-07 17:22:24,809 - gym_custom_envs_real_ur_drivers_URBasic_realTimeClientEvent - INFO - Program send to Robot:
servoj([0.25924290655075233, -1.5984084411713813, -1.5723309211755576, -1.3667744276345446, 1.8898644840731886, 2.9697875723379155], 0.5, 0.5, 0.04, 0.05, 300)

2025-07-07 17:22:24,817 - gym_custom_envs_real_ur_drivers_URBasic_realTimeClientEvent - INFO - Program send to Robot:
servoj([0.25924275468665436, -1.5984079855787836, -1.5723303137187101, -1.3667768574623909, 1.8898643322090907, 2.969786813016514], 0.5, 0.5, 0.04, 0.05, 300)

2025-07-07 17:22:24,825 - gym_custom_envs_real_ur_drivers_URBasic_realTimeClientEvent - INFO - Program send to Robot:
servoj([0.2592427531680134, -1.5984079810228575, -1.5723303076441415, -1.3667768817606691, 1.8898643306904497, 2.9697868054233], 0.5, 0.5, 0.04, 0.05, 300)

2025-07-07 17:22:24,841 - gym_custom_envs_real_ur_drivers_URBasic_realTimeClientEvent - INFO - Program send to Robot:
servoj([0.25924275315282697, -1.5908147760772646, -1.564737102683362, -1.3910751376837605, 1.88682704871525, 2.966749523387355], 0.5, 0.5, 0.04, 0.05, 300)

2025-07-07 17:22:24,849 - gym_custom_envs_real_ur_drivers_URBasic_realTimeClientEvent - INFO - Program send to Robot:
servoj([0.2592427531526751, -1.5907388440278087, -1.5646611706337543, -1.3913181202429914, 1.8867966758954982, 2.9667191505669956], 0.5, 0.5, 0.04, 0.05, 300)

2025-07-07 17:22:24,864 - gym_custom_envs_real_ur_drivers_URBasic_realTimeClientEvent - INFO - Program send to Robot:
