2025-07-07 16:14:26,945 - gym_custom_envs_real_ur_drivers_URBasic_robotModelEvent - INFO - Init done
2025-07-07 16:14:27,446 - gym_custom_envs_real_ur_drivers_URBasic_realTimeClientEvent - INFO - Connected
2025-07-07 16:14:27,446 - gym_custom_envs_real_ur_drivers_URBasic_realTimeClientEvent - INFO - RT_CLient constructor done
2025-07-07 16:14:27,448 - gym_custom_envs_real_ur_drivers_URBasic_dataLogEvent - INFO - Data logging (not event logging) is disabled
2025-07-07 16:14:27,448 - gym_custom_envs_real_ur_drivers_URBasic_dataLogEvent - INFO - DataLog constructor done
2025-07-07 16:14:27,448 - gym_custom_envs_real_ur_drivers_URBasic_dataLogEvent - INFO - DataLog is stopped
2025-07-07 16:14:27,449 - gym_custom_envs_real_ur_drivers_URBasic_rtdeEvent - INFO - RTDE constructor done
2025-07-07 16:14:27,767 - gym_custom_envs_real_ur_drivers_URBasic_rtdeEvent - INFO - Controller version: 3.3.1-60
2025-07-07 16:14:27,770 - gym_custom_envs_real_ur_drivers_URBasic_rtdeEvent - INFO - RTDE started
2025-07-07 16:14:27,951 - gym_custom_envs_real_ur_drivers_URBasic_dashboardEvent - INFO - Connected
2025-07-07 16:14:27,952 - gym_custom_envs_real_ur_drivers_URBasic_dashboardEvent - INFO - UR Dashboard respond Connected: Universal Robots Dashboard Server
2025-07-07 16:14:27,952 - gym_custom_envs_real_ur_drivers_URBasic_dashboardEvent - INFO - Dashboard server constructor done
2025-07-07 16:14:27,953 - gym_custom_envs_real_ur_drivers_URBasic_robotConnectorEvent - INFO - Init done
2025-07-07 16:14:27,953 - gym_custom_envs_real_ur_drivers_URBasic_urScriptEvent - INFO - Init done!!!
2025-07-07 16:14:27,962 - gym_custom_envs_real_ur_drivers_URBasic_urScriptExtEvent - INFO - Init done
2025-07-07 16:14:29,590 - gym_custom_envs_real_ur_interfaceEvent - INFO - [] init done
2025-07-07 16:14:29,590 - gym_custom_envs_real_ur_drivers_URBasic_realTimeClientEvent - INFO - Program send to Robot:
end_freedrive_mode()

2025-07-07 16:14:32,974 - gym_custom_envs_real_ur_drivers_URBasic_realTimeClientEvent - INFO - Program send to Robot:
servoj([0.028765512483892003, -1.6145290262831815, -1.518764765009196, -1.614488712941305, 1.5550469880085385, 3.1715439378142336], 0.5, 0.5, 0.002, 0.2, 100)

2025-07-07 16:14:32,989 - gym_custom_envs_real_ur_drivers_URBasic_realTimeClientEvent - INFO - Program send to Robot:
servoj([0.028736604407062293, -1.6145074597975142, -1.5187935203234189, -1.614488712941305, 1.5550614375539353, 3.1715427773427085], 0.5, 0.5, 0.002, 0.2, 100)

2025-07-07 16:14:33,002 - gym_custom_envs_real_ur_drivers_URBasic_realTimeClientEvent - INFO - Program send to Robot:
servoj([0.02874183393880566, -1.6145368599778989, -1.5187715060800044, -1.6145249525653285, 1.5550294221638417, 3.1715627253260656], 0.5, 0.5, 0.002, 0.2, 100)

2025-07-07 16:14:33,019 - gym_custom_envs_real_ur_drivers_URBasic_realTimeClientEvent - INFO - Program send to Robot:
servoj([0.02877577407077473, -1.6145311771837798, -1.5187744690220917, -1.61447679201235, 1.555033563169682, 3.17156278439487], 0.5, 0.5, 0.002, 0.2, 100)

2025-07-07 16:14:33,039 - gym_custom_envs_real_ur_drivers_URBasic_realTimeClientEvent - INFO - Program send to Robot:
servoj([0.028738919833511768, -1.61451323157148, -1.5187906590565263, -1.6145363966571253, 1.5550428836399135, 3.1715644211872775], 0.5, 0.5, 0.002, 0.2, 100)

2025-07-07 16:14:33,050 - gym_custom_envs_real_ur_drivers_URBasic_realTimeClientEvent - INFO - Program send to Robot:
servoj([0.028736604407062293, -1.6145290262831815, -1.5188007091519746, -1.614488712941305, 1.5550614375539353, 3.1715645484974417], 0.5, 0.5, 0.002, 0.2, 100)

2025-07-07 16:14:33,066 - gym_custom_envs_real_ur_drivers_URBasic_realTimeClientEvent - INFO - Program send to Robot:
servoj([0.028734608288705672, -1.6145224850445323, -1.518807730912088, -1.6145249525653285, 1.5550655751212583, 3.1709597167392856], 0.5, 0.5, 0.002, 0.2, 100)

2025-07-07 16:14:33,085 - gym_custom_envs_real_ur_drivers_URBasic_realTimeClientEvent - INFO - Program send to Robot:
servoj([0.02871753353102227, -1.6144762303826148, -1.5188670053046953, -1.614620319996969, 1.5550500919924943, 3.1709745454423497], 0.5, 0.5, 0.002, 0.2, 100)

2025-07-07 16:14:33,098 - gym_custom_envs_real_ur_drivers_URBasic_realTimeClientEvent - INFO - Program send to Robot:
servoj([0.02871220370629611, -1.6144539490261869, -1.5188601496983676, -1.6145845572101039, 1.555053177373228, 3.1715581365454377], 0.5, 0.5, 0.002, 0.2, 100)

2025-07-07 16:14:33,117 - gym_custom_envs_real_ur_drivers_URBasic_realTimeClientEvent - INFO - Program send to Robot:
servoj([0.02869080738169441, -1.6144675257261518, -1.5189002903710125, -1.6146684805499476, 1.555024244403739, 3.1715839485765622], 0.5, 0.5, 0.002, 0.2, 100)

2025-07-07 16:14:33,133 - gym_custom_envs_real_ur_drivers_URBasic_realTimeClientEvent - INFO - Program send to Robot:
servoj([0.028677504354673936, -1.6144344893557732, -1.5189024795703292, -1.6146923224078578, 1.5550366936025368, 3.171565862006062], 0.5, 0.5, 0.002, 0.2, 100)

2025-07-07 16:14:33,146 - gym_custom_envs_real_ur_drivers_URBasic_realTimeClientEvent - INFO - Program send to Robot:
servoj([0.0286424239344207, -1.6144372736509995, -1.5189841316319628, -1.6147166411029261, 1.555020088948713, 3.171605522610244], 0.5, 0.5, 0.002, 0.2, 100)

2025-07-07 16:14:33,162 - gym_custom_envs_real_ur_drivers_URBasic_realTimeClientEvent - INFO - Program send to Robot:
servoj([0.028586049322092563, -1.6143887772083485, -1.5190695667956833, -1.61482440630068, 1.5550180270075373, 3.1716287152837266], 0.5, 0.5, 0.002, 0.2, 100)

2025-07-07 16:14:33,182 - gym_custom_envs_real_ur_drivers_URBasic_realTimeClientEvent - INFO - Program send to Robot:
servoj([0.028536678240097882, -1.6143772858521002, -1.5191438114481823, -1.6148482481585902, 1.5550232112656583, 3.171603416930126], 0.5, 0.5, 0.002, 0.2, 100)

2025-07-07 16:14:33,194 - gym_custom_envs_real_ur_drivers_URBasic_realTimeClientEvent - INFO - Program send to Robot:
servoj([0.028518286778335768, -1.6143427263979842, -1.5192011135100876, -1.6149202505694789, 1.5549808961933573, 3.1710237262519163], 0.5, 0.5, 0.002, 0.2, 100)

2025-07-07 16:14:33,213 - gym_custom_envs_real_ur_drivers_URBasic_realTimeClientEvent - INFO - Program send to Robot:
servoj([0.028495837691624927, -1.6143247553666038, -1.5191884384359797, -1.6149798552142542, 1.5550118055999553, 3.171033443525526], 0.5, 0.5, 0.002, 0.2, 100)

2025-07-07 16:14:33,229 - gym_custom_envs_real_ur_drivers_URBasic_realTimeClientEvent - INFO - Program send to Robot:
servoj([0.02848434692661274, -1.614305030425406, -1.5192705520915, -1.6149684111224574, 1.5549694870895083, 3.1716801839429514], 0.5, 0.5, 0.002, 0.2, 100)

2025-07-07 16:14:33,242 - gym_custom_envs_real_ur_drivers_URBasic_realTimeClientEvent - INFO - Program send to Robot:
servoj([0.028434176430257495, -1.614304529546092, -1.5193464153413136, -1.615051857625143, 1.5549336646156666, 3.1716913542494702], 0.5, 0.5, 0.002, 0.2, 100)

2025-07-07 16:14:33,259 - gym_custom_envs_real_ur_drivers_URBasic_realTimeClientEvent - INFO - Program send to Robot:
servoj([0.028397065368443893, -1.614257424453604, -1.5193917701657558, -1.6151124159442347, 1.554942612565307, 3.171130725890984], 0.5, 0.5, 0.002, 0.2, 100)

2025-07-07 16:14:33,279 - gym_custom_envs_real_ur_drivers_URBasic_realTimeClientEvent - INFO - Program send to Robot:
servoj([0.028397065368443893, -1.6142359286131454, -1.5194422137380321, -1.6151124159442347, 1.5549212600304514, 3.1711463072868113], 0.5, 0.5, 0.002, 0.2, 100)

2025-07-07 16:14:33,290 - gym_custom_envs_real_ur_drivers_URBasic_realTimeClientEvent - INFO - Program send to Robot:
servoj([0.0283552836949792, -1.6142163745143032, -1.5195061710010527, -1.6152201811419886, 1.5548831401287981, 3.1711689455820276], 0.5, 0.5, 0.002, 0.2, 100)

2025-07-07 16:14:33,306 - gym_custom_envs_real_ur_drivers_URBasic_realTimeClientEvent - INFO - Program send to Robot:
servoj([0.028338915660052567, -1.614166632521832, -1.5195131185083364, -1.6152559439288539, 1.5548872049936586, 3.171773476186126], 0.5, 0.5, 0.002, 0.2, 100)

2025-07-07 16:14:33,325 - gym_custom_envs_real_ur_drivers_URBasic_realTimeClientEvent - INFO - Program send to Robot:
servoj([0.028303890142650764, -1.6141908538904621, -1.519537034831854, -1.6152802626239222, 1.5548421450661616, 3.1712267799798606], 0.5, 0.5, 0.002, 0.2, 100)

2025-07-07 16:14:33,338 - gym_custom_envs_real_ur_drivers_URBasic_realTimeClientEvent - INFO - Program send to Robot:
servoj([0.028276235525938838, -1.6141208858738227, -1.51963713074377, -1.6153880278216761, 1.5548400514442844, 3.171229170012778], 0.5, 0.5, 0.002, 0.2, 100)

2025-07-07 16:14:33,357 - gym_custom_envs_real_ur_drivers_URBasic_realTimeClientEvent - INFO - Program send to Robot:
servoj([0.028290579945167732, -1.614179362911181, -1.5196254712222748, -1.6153041044818324, 1.5548185389419562, 3.1718450886230856], 0.5, 0.5, 0.002, 0.2, 100)

2025-07-07 16:14:33,373 - gym_custom_envs_real_ur_drivers_URBasic_realTimeClientEvent - INFO - Program send to Robot:
servoj([-0.019941750242513212, -1.5800002115222105, -1.593806038613181, -1.6904468282499765, 1.5385827302492983, 3.1998839219956188], 0.5, 0.5, 0.002, 0.2, 100)

2025-07-07 16:14:33,382 - gym_custom_envs_real_ur_drivers_URBasic_realTimeClientEvent - INFO - Program send to Robot:
servoj([-0.019941750242513212, -1.5800002115222105, -1.593806038613181, -1.6904468282499765, 1.5385827302492983, 3.1998839235141094], 0.5, 0.5, 0.002, 0.2, 100)

2025-07-07 16:14:33,386 - gym_custom_envs_real_ur_drivers_URBasic_realTimeClientEvent - INFO - Program send to Robot:
servoj([-0.019941750242513212, -1.5800002115222105, -1.593806038613181, -1.6904468282499765, 1.5385827302492983, 3.199883923529294], 0.5, 0.5, 0.002, 0.2, 100)

2025-07-07 16:14:33,402 - gym_custom_envs_real_ur_drivers_URBasic_realTimeClientEvent - INFO - Program send to Robot:
servoj([-0.019941750242513212, -1.5800002115222105, -1.593806038613181, -1.6904468282499765, 1.5385827302492983, 3.199883923529446], 0.5, 0.5, 0.002, 0.2, 100)

2025-07-07 16:14:33,410 - gym_custom_envs_real_ur_drivers_URBasic_realTimeClientEvent - INFO - Program send to Robot:
servoj([-0.019941750242513212, -1.5800002115222105, -1.593806038613181, -1.6904468282499765, 1.5385827302492983, 3.1998839235294474], 0.5, 0.5, 0.002, 0.2, 100)

2025-07-07 16:14:33,421 - gym_custom_envs_real_ur_drivers_URBasic_realTimeClientEvent - INFO - Program send to Robot:
servoj([-0.019941750242513212, -1.5800002115222105, -1.593806038613181, -1.6904468282499765, 1.5385827302492983, 3.1998839235294474], 0.5, 0.5, 0.002, 0.2, 100)

2025-07-07 16:14:33,434 - gym_custom_envs_real_ur_drivers_URBasic_realTimeClientEvent - INFO - Program send to Robot:
servoj([-0.019941750242513212, -1.5800002115222105, -1.593806038613181, -1.6904468282499765, 1.5385827302492983, 3.1998839235294474], 0.5, 0.5, 0.002, 0.2, 100)

2025-07-07 16:14:33,445 - gym_custom_envs_real_ur_drivers_URBasic_realTimeClientEvent - INFO - Program send to Robot:
servoj([-0.019941750242513212, -1.5800002115222105, -1.593806038613181, -1.6904468282499765, 1.5385827302492983, 3.1998839235294474], 0.5, 0.5, 0.002, 0.2, 100)

2025-07-07 16:14:33,453 - gym_custom_envs_real_ur_drivers_URBasic_realTimeClientEvent - INFO - Program send to Robot:
servoj([-0.019941750242513212, -1.5800002115222105, -1.593806038613181, -1.6904468282499765, 1.5385827302492983, 3.1998839235294474], 0.5, 0.5, 0.002, 0.2, 100)

2025-07-07 16:14:33,459 - gym_custom_envs_real_ur_drivers_URBasic_realTimeClientEvent - INFO - Program send to Robot:
servoj([-0.019941750242513212, -1.5800002115222105, -1.593806038613181, -1.6904468282499765, 1.5385827302492983, 3.1998839235294474], 0.5, 0.5, 0.002, 0.2, 100)

2025-07-07 16:14:33,477 - gym_custom_envs_real_ur_drivers_URBasic_realTimeClientEvent - INFO - Program send to Robot:
servoj([-0.019941750242513212, -1.5800002115222105, -1.593806038613181, -1.6904468282499765, 1.5385827302492983, 3.1998839235294474], 0.5, 0.5, 0.002, 0.2, 100)

2025-07-07 16:14:33,482 - gym_custom_envs_real_ur_drivers_URBasic_realTimeClientEvent - INFO - Program send to Robot:
servoj([-0.019941750242513212, -1.5800002115222105, -1.593806038613181, -1.6904468282499765, 1.5385827302492983, 3.1998839235294474], 0.5, 0.5, 0.002, 0.2, 100)

2025-07-07 16:14:33,493 - gym_custom_envs_real_ur_drivers_URBasic_realTimeClientEvent - INFO - Program send to Robot:
servoj([-0.019941750242513212, -1.5800002115222105, -1.593806038613181, -1.6904468282499765, 1.5385827302492983, 3.19836528254944], 0.5, 0.5, 0.002, 0.2, 100)

2025-07-07 16:14:33,507 - gym_custom_envs_real_ur_drivers_URBasic_realTimeClientEvent - INFO - Program send to Robot:
servoj([-0.019941750242513212, -1.5800002115222105, -1.593806038613181, -1.6904468282499765, 1.5385827302492983, 3.1983500961396403], 0.5, 0.5, 0.002, 0.2, 100)

2025-07-07 16:14:33,518 - gym_custom_envs_real_ur_drivers_URBasic_realTimeClientEvent - INFO - Program send to Robot:
servoj([-0.019941750242513212, -1.5800002115222105, -1.593806038613181, -1.6904468282499765, 1.5385827302492983, 3.1998685852555493], 0.5, 0.5, 0.002, 0.2, 100)

2025-07-07 16:14:33,522 - gym_custom_envs_real_ur_drivers_URBasic_realTimeClientEvent - INFO - Program send to Robot:
servoj([-0.019941750242513212, -1.5800002115222105, -1.593806038613181, -1.6904468282499765, 1.5385827302492983, 3.1998837701467084], 0.5, 0.5, 0.002, 0.2, 100)

2025-07-07 16:14:33,542 - gym_custom_envs_real_ur_drivers_URBasic_realTimeClientEvent - INFO - Program send to Robot:
servoj([-0.019941750242513212, -1.5800002115222105, -1.593806038613181, -1.6904468282499765, 1.5385827302492983, 3.19988392199562], 0.5, 0.5, 0.002, 0.2, 100)

2025-07-07 16:14:33,546 - gym_custom_envs_real_ur_drivers_URBasic_realTimeClientEvent - INFO - Program send to Robot:
servoj([-0.019941750242513212, -1.5800002115222105, -1.593806038613181, -1.6904468282499765, 1.5385827302492983, 3.1983652825341022], 0.5, 0.5, 0.002, 0.2, 100)

2025-07-07 16:14:33,565 - gym_custom_envs_real_ur_drivers_URBasic_realTimeClientEvent - INFO - Program send to Robot:
servoj([-0.019941750242513212, -1.5800002115222105, -1.593806038613181, -1.6904468282499765, 1.5385827302492983, 3.198350096139487], 0.5, 0.5, 0.002, 0.2, 100)

2025-07-07 16:14:33,573 - gym_custom_envs_real_ur_drivers_URBasic_realTimeClientEvent - INFO - Program send to Robot:
servoj([-0.019941750242513212, -1.5800002115222105, -1.593806038613181, -1.6904468282499765, 1.5385827302492983, 3.1983499442755408], 0.5, 0.5, 0.002, 0.2, 100)

2025-07-07 16:14:33,578 - gym_custom_envs_real_ur_drivers_URBasic_realTimeClientEvent - INFO - Program send to Robot:
servoj([-0.019941750242513212, -1.5800002115222105, -1.593806038613181, -1.6904468282499765, 1.5385827302492983, 3.1983499427569013], 0.5, 0.5, 0.002, 0.2, 100)

2025-07-07 16:14:33,598 - gym_custom_envs_real_ur_drivers_URBasic_realTimeClientEvent - INFO - Program send to Robot:
servoj([-0.019941750242513212, -1.5800002115222105, -1.593806038613181, -1.6904468282499765, 1.5385827302492983, 3.199868583721722], 0.5, 0.5, 0.002, 0.2, 100)

2025-07-07 16:14:33,602 - gym_custom_envs_real_ur_drivers_URBasic_realTimeClientEvent - INFO - Program send to Robot:
servoj([-0.019941750242513212, -1.5800002115222105, -1.593806038613181, -1.6904468282499765, 1.5385827302492983, 3.1998837701313705], 0.5, 0.5, 0.002, 0.2, 100)

2025-07-07 16:14:33,618 - gym_custom_envs_real_ur_drivers_URBasic_realTimeClientEvent - INFO - Program send to Robot:
servoj([-0.019941750242513212, -1.5800002115222105, -1.593806038613181, -1.6904468282499765, 1.5385827302492983, 3.199883921995467], 0.5, 0.5, 0.002, 0.2, 100)

2025-07-07 16:14:33,626 - gym_custom_envs_real_ur_drivers_URBasic_realTimeClientEvent - INFO - Program send to Robot:
servoj([-0.019941750242513212, -1.5800002115222105, -1.593806038613181, -1.6904468282499765, 1.5385827302492983, 3.1998839235141077], 0.5, 0.5, 0.002, 0.2, 100)

2025-07-07 16:14:33,639 - gym_custom_envs_real_ur_drivers_URBasic_realTimeClientEvent - INFO - Program send to Robot:
servoj([-0.019941750242513212, -1.5800002115222105, -1.593806038613181, -1.6904468282499765, 1.5385827302492983, 3.199883923529294], 0.5, 0.5, 0.002, 0.2, 100)

2025-07-07 16:14:33,651 - gym_custom_envs_real_ur_drivers_URBasic_realTimeClientEvent - INFO - Program send to Robot:
servoj([-0.019941750242513212, -1.5800002115222105, -1.593806038613181, -1.6904468282499765, 1.5385827302492983, 3.198365282549439], 0.5, 0.5, 0.002, 0.2, 100)

2025-07-07 16:14:33,662 - gym_custom_envs_real_ur_drivers_URBasic_realTimeClientEvent - INFO - Program send to Robot:
servoj([-0.019941750242513212, -1.5800002115222105, -1.593806038613181, -1.6904468282499765, 1.5385827302492983, 3.1983500961396403], 0.5, 0.5, 0.002, 0.2, 100)

2025-07-07 16:14:33,666 - gym_custom_envs_real_ur_drivers_URBasic_realTimeClientEvent - INFO - Program send to Robot:
servoj([-0.019941750242513212, -1.5800002115222105, -1.593806038613181, -1.6904468282499765, 1.5385827302492983, 3.198349944275542], 0.5, 0.5, 0.002, 0.2, 100)

2025-07-07 16:14:33,685 - gym_custom_envs_real_ur_drivers_URBasic_realTimeClientEvent - INFO - Program send to Robot:
servoj([-0.019941750242513212, -1.5800002115222105, -1.593806038613181, -1.6904468282499765, 1.5385827302492983, 3.1983499427569013], 0.5, 0.5, 0.002, 0.2, 100)

2025-07-07 16:14:33,693 - gym_custom_envs_real_ur_drivers_URBasic_realTimeClientEvent - INFO - Program send to Robot:
servoj([-0.019941750242513212, -1.5800002115222105, -1.593806038613181, -1.6904468282499765, 1.5385827302492983, 3.198349942741715], 0.5, 0.5, 0.002, 0.2, 100)

2025-07-07 16:14:33,698 - gym_custom_envs_real_ur_drivers_URBasic_realTimeClientEvent - INFO - Program send to Robot:
servoj([-0.019941750242513212, -1.5800002115222105, -1.593806038613181, -1.6904468282499765, 1.5385827302492983, 3.198349942741563], 0.5, 0.5, 0.002, 0.2, 100)

2025-07-07 16:14:33,717 - gym_custom_envs_real_ur_drivers_URBasic_realTimeClientEvent - INFO - Program send to Robot:
servoj([-0.019941750242513212, -1.5800002115222105, -1.593806038613181, -1.6904468282499765, 1.5385827302492983, 3.199868583721569], 0.5, 0.5, 0.002, 0.2, 100)

2025-07-07 16:14:33,722 - gym_custom_envs_real_ur_drivers_URBasic_realTimeClientEvent - INFO - Program send to Robot:
servoj([-0.019941750242513212, -1.5800002115222105, -1.593806038613181, -1.6904468282499765, 1.5385827302492983, 3.1998837701313687], 0.5, 0.5, 0.002, 0.2, 100)

2025-07-07 16:14:33,733 - gym_custom_envs_real_ur_drivers_URBasic_realTimeClientEvent - INFO - Program send to Robot:
servoj([-0.019941750242513212, -1.5800002115222105, -1.593806038613181, -1.6904468282499765, 1.5385827302492983, 3.199883921995467], 0.5, 0.5, 0.002, 0.2, 100)

2025-07-07 16:14:33,747 - gym_custom_envs_real_ur_drivers_URBasic_realTimeClientEvent - INFO - Program send to Robot:
servoj([-0.019941750242513212, -1.5800002115222105, -1.593806038613181, -1.6904468282499765, 1.5385827302492983, 3.1998839235141077], 0.5, 0.5, 0.002, 0.2, 100)

2025-07-07 16:14:33,758 - gym_custom_envs_real_ur_drivers_URBasic_realTimeClientEvent - INFO - Program send to Robot:
servoj([-0.019941750242513212, -1.5800002115222105, -1.593806038613181, -1.6904468282499765, 1.5385827302492983, 3.199883923529294], 0.5, 0.5, 0.002, 0.2, 100)

2025-07-07 16:14:33,762 - gym_custom_envs_real_ur_drivers_URBasic_realTimeClientEvent - INFO - Program send to Robot:
servoj([-0.019941750242513212, -1.5800002115222105, -1.593806038613181, -1.6904468282499765, 1.5385827302492983, 3.199883923529446], 0.5, 0.5, 0.002, 0.2, 100)

2025-07-07 16:14:33,781 - gym_custom_envs_real_ur_drivers_URBasic_realTimeClientEvent - INFO - Program send to Robot:
servoj([-0.019941750242513212, -1.5800002115222105, -1.593806038613181, -1.6904468282499765, 1.5385827302492983, 3.1998839235294474], 0.5, 0.5, 0.002, 0.2, 100)

2025-07-07 16:14:33,789 - gym_custom_envs_real_ur_drivers_URBasic_realTimeClientEvent - INFO - Program send to Robot:
servoj([-0.019941750242513212, -1.5800002115222105, -1.593806038613181, -1.6904468282499765, 1.5385827302492983, 3.1998839235294474], 0.5, 0.5, 0.002, 0.2, 100)

2025-07-07 16:14:33,794 - gym_custom_envs_real_ur_drivers_URBasic_realTimeClientEvent - INFO - Program send to Robot:
servoj([-0.019941750242513212, -1.5800002115222105, -1.593806038613181, -1.6904468282499765, 1.5385827302492983, 3.1998839235294474], 0.5, 0.5, 0.002, 0.2, 100)

2025-07-07 16:14:33,813 - gym_custom_envs_real_ur_drivers_URBasic_realTimeClientEvent - INFO - Program send to Robot:
servoj([-0.019941750242513212, -1.5800002115222105, -1.593806038613181, -1.6904468282499765, 1.5385827302492983, 3.1998839235294474], 0.5, 0.5, 0.002, 0.2, 100)

2025-07-07 16:14:33,818 - gym_custom_envs_real_ur_drivers_URBasic_realTimeClientEvent - INFO - Program send to Robot:
servoj([-0.019941750242513212, -1.5800002115222105, -1.593806038613181, -1.6904468282499765, 1.5385827302492983, 3.1998839235294474], 0.5, 0.5, 0.002, 0.2, 100)

2025-07-07 16:14:33,829 - gym_custom_envs_real_ur_drivers_URBasic_realTimeClientEvent - INFO - Program send to Robot:
servoj([-0.019941750242513212, -1.5800002115222105, -1.593806038613181, -1.6904468282499765, 1.5385827302492983, 3.1998839235294474], 0.5, 0.5, 0.002, 0.2, 100)

2025-07-07 16:14:33,842 - gym_custom_envs_real_ur_drivers_URBasic_realTimeClientEvent - INFO - Program send to Robot:
servoj([-0.019941750242513212, -1.5800002115222105, -1.593806038613181, -1.6904468282499765, 1.5370640892692913, 3.1998839235294474], 0.5, 0.5, 0.002, 0.2, 100)

2025-07-07 16:14:33,854 - gym_custom_envs_real_ur_drivers_URBasic_realTimeClientEvent - INFO - Program send to Robot:
servoj([-0.019941750242513212, -1.5800002115222105, -1.593806038613181, -1.6904468282499765, 1.5370489028594914, 3.1998839235294474], 0.5, 0.5, 0.002, 0.2, 100)

2025-07-07 16:14:33,858 - gym_custom_envs_real_ur_drivers_URBasic_realTimeClientEvent - INFO - Program send to Robot:
servoj([-0.019941750242513212, -1.5800002115222105, -1.593806038613181, -1.6904468282499765, 1.5370487509953932, 3.1998839235294474], 0.5, 0.5, 0.002, 0.2, 100)

2025-07-07 16:14:33,879 - gym_custom_envs_real_ur_drivers_URBasic_realTimeClientEvent - INFO - Program send to Robot:
servoj([-0.019941750242513212, -1.5800002115222105, -1.593806038613181, -1.6904468282499765, 1.5370487494767522, 3.1998839235294474], 0.5, 0.5, 0.002, 0.2, 100)

2025-07-07 16:14:33,882 - gym_custom_envs_real_ur_drivers_URBasic_realTimeClientEvent - INFO - Program send to Robot:
servoj([-0.019941750242513212, -1.5800002115222105, -1.593806038613181, -1.6904468282499765, 1.5370487494615659, 3.1998839235294474], 0.5, 0.5, 0.002, 0.2, 100)

2025-07-07 16:14:33,902 - gym_custom_envs_real_ur_drivers_URBasic_realTimeClientEvent - INFO - Program send to Robot:
servoj([-0.019941750242513212, -1.5800002115222105, -1.593806038613181, -1.6904468282499765, 1.537048749461414, 3.1998839235294474], 0.5, 0.5, 0.002, 0.2, 100)

2025-07-07 16:14:33,906 - gym_custom_envs_real_ur_drivers_URBasic_realTimeClientEvent - INFO - Program send to Robot:
servoj([-0.019941750242513212, -1.5800002115222105, -1.593806038613181, -1.6904468282499765, 1.5370487494614125, 3.1998839235294474], 0.5, 0.5, 0.002, 0.2, 100)

2025-07-07 16:14:33,925 - gym_custom_envs_real_ur_drivers_URBasic_realTimeClientEvent - INFO - Program send to Robot:
servoj([-0.019941750242513212, -1.5800002115222105, -1.593806038613181, -1.6904468282499765, 1.5370487494614125, 3.1998839235294474], 0.5, 0.5, 0.002, 0.2, 100)

2025-07-07 16:14:33,933 - gym_custom_envs_real_ur_drivers_URBasic_realTimeClientEvent - INFO - Program send to Robot:
servoj([-0.019941750242513212, -1.5800002115222105, -1.593806038613181, -1.6904468282499765, 1.5370487494614125, 3.1998839235294474], 0.5, 0.5, 0.002, 0.2, 100)

2025-07-07 16:14:33,938 - gym_custom_envs_real_ur_drivers_URBasic_realTimeClientEvent - INFO - Program send to Robot:
servoj([-0.019941750242513212, -1.5800002115222105, -1.593806038613181, -1.6904468282499765, 1.5370487494614125, 3.1998839235294474], 0.5, 0.5, 0.002, 0.2, 100)

2025-07-07 16:14:33,958 - gym_custom_envs_real_ur_drivers_URBasic_realTimeClientEvent - INFO - Program send to Robot:
servoj([-0.019941750242513212, -1.5800002115222105, -1.593806038613181, -1.6904468282499765, 1.5370487494614125, 3.1998839235294474], 0.5, 0.5, 0.002, 0.2, 100)

2025-07-07 16:14:33,963 - gym_custom_envs_real_ur_drivers_URBasic_realTimeClientEvent - INFO - Program send to Robot:
servoj([-0.019941750242513212, -1.5800002115222105, -1.593806038613181, -1.6904468282499765, 1.5370487494614125, 3.1998839235294474], 0.5, 0.5, 0.002, 0.2, 100)

2025-07-07 16:14:33,978 - gym_custom_envs_real_ur_drivers_URBasic_realTimeClientEvent - INFO - Program send to Robot:
servoj([-0.019941750242513212, -1.5800002115222105, -1.593806038613181, -1.6904468282499765, 1.5370487494614125, 3.1998839235294474], 0.5, 0.5, 0.002, 0.2, 100)

2025-07-07 16:14:33,986 - gym_custom_envs_real_ur_drivers_URBasic_realTimeClientEvent - INFO - Program send to Robot:
servoj([-0.019941750242513212, -1.5800002115222105, -1.593806038613181, -1.6904468282499765, 1.5370487494614125, 3.1998839235294474], 0.5, 0.5, 0.002, 0.2, 100)

2025-07-07 16:14:34,000 - gym_custom_envs_real_ur_drivers_URBasic_realTimeClientEvent - INFO - Program send to Robot:
servoj([-0.019941750242513212, -1.5800002115222105, -1.593806038613181, -1.6904468282499765, 1.5370487494614125, 3.1998839235294474], 0.5, 0.5, 0.002, 0.2, 100)

2025-07-07 16:14:34,010 - gym_custom_envs_real_ur_drivers_URBasic_realTimeClientEvent - INFO - Program send to Robot:
servoj([-0.019941750242513212, -1.5800002115222105, -1.593806038613181, -1.6904468282499765, 1.5370487494614125, 3.1998839235294474], 0.5, 0.5, 0.002, 0.2, 100)

2025-07-07 16:14:34,022 - gym_custom_envs_real_ur_drivers_URBasic_realTimeClientEvent - INFO - Program send to Robot:
servoj([-0.019941750242513212, -1.5800002115222105, -1.593806038613181, -1.6904468282499765, 1.5370487494614125, 3.1998839235294474], 0.5, 0.5, 0.002, 0.2, 100)

2025-07-07 16:14:34,026 - gym_custom_envs_real_ur_drivers_URBasic_realTimeClientEvent - INFO - Program send to Robot:
servoj([-0.019941750242513212, -1.5800002115222105, -1.593806038613181, -1.6904468282499765, 1.5370487494614125, 3.1998839235294474], 0.5, 0.5, 0.002, 0.2, 100)

2025-07-07 16:14:34,045 - gym_custom_envs_real_ur_drivers_URBasic_realTimeClientEvent - INFO - Program send to Robot:
servoj([-0.019941750242513212, -1.5800002115222105, -1.593806038613181, -1.6904468282499765, 1.5385673904414194, 3.1998839235294474], 0.5, 0.5, 0.002, 0.2, 100)

2025-07-07 16:14:34,053 - gym_custom_envs_real_ur_drivers_URBasic_realTimeClientEvent - INFO - Program send to Robot:
servoj([-0.019941750242513212, -1.5800002115222105, -1.593806038613181, -1.6904468282499765, 1.5385825768512196, 3.1998839235294474], 0.5, 0.5, 0.002, 0.2, 100)

2025-07-07 16:14:34,059 - gym_custom_envs_real_ur_drivers_URBasic_realTimeClientEvent - INFO - Program send to Robot:
servoj([-0.019941750242513212, -1.5800002115222105, -1.593806038613181, -1.6904468282499765, 1.5385827287153175, 3.1998839235294474], 0.5, 0.5, 0.002, 0.2, 100)

2025-07-07 16:14:34,077 - gym_custom_envs_real_ur_drivers_URBasic_realTimeClientEvent - INFO - Program send to Robot:
servoj([-0.019941750242513212, -1.5800002115222105, -1.593806038613181, -1.6904468282499765, 1.5385827302339585, 3.1998839235294474], 0.5, 0.5, 0.002, 0.2, 100)

2025-07-07 16:14:34,082 - gym_custom_envs_real_ur_drivers_URBasic_realTimeClientEvent - INFO - Program send to Robot:
servoj([-0.019941750242513212, -1.5800002115222105, -1.593806038613181, -1.6904468282499765, 1.5385827302491448, 3.1998839235294474], 0.5, 0.5, 0.002, 0.2, 100)

2025-07-07 16:14:34,093 - gym_custom_envs_real_ur_drivers_URBasic_realTimeClientEvent - INFO - Program send to Robot:
servoj([-0.019941750242513212, -1.5800002115222105, -1.593806038613181, -1.6904468282499765, 1.5385827302492967, 3.1998839235294474], 0.5, 0.5, 0.002, 0.2, 100)

2025-07-07 16:14:34,106 - gym_custom_envs_real_ur_drivers_URBasic_realTimeClientEvent - INFO - Program send to Robot:
servoj([-0.019941750242513212, -1.5800002115222105, -1.593806038613181, -1.6904468282499765, 1.5385827302492983, 3.1998839235294474], 0.5, 0.5, 0.002, 0.2, 100)

2025-07-07 16:14:34,118 - gym_custom_envs_real_ur_drivers_URBasic_realTimeClientEvent - INFO - Program send to Robot:
servoj([-0.019941750242513212, -1.5800002115222105, -1.593806038613181, -1.6904468282499765, 1.5385827302492983, 3.1998839235294474], 0.5, 0.5, 0.002, 0.2, 100)

2025-07-07 16:14:34,122 - gym_custom_envs_real_ur_drivers_URBasic_realTimeClientEvent - INFO - Program send to Robot:
servoj([-0.019941750242513212, -1.5800002115222105, -1.593806038613181, -1.6904468282499765, 1.5385827302492983, 3.1998839235294474], 0.5, 0.5, 0.002, 0.2, 100)

2025-07-07 16:14:34,141 - gym_custom_envs_real_ur_drivers_URBasic_realTimeClientEvent - INFO - Program send to Robot:
servoj([-0.019941750242513212, -1.5800002115222105, -1.593806038613181, -1.6904468282499765, 1.5385827302492983, 3.1998839235294474], 0.5, 0.5, 0.002, 0.2, 100)

2025-07-07 16:14:34,149 - gym_custom_envs_real_ur_drivers_URBasic_realTimeClientEvent - INFO - Program send to Robot:
servoj([-0.019941750242513212, -1.5800002115222105, -1.593806038613181, -1.6904468282499765, 1.5385827302492983, 3.1998839235294474], 0.5, 0.5, 0.002, 0.2, 100)

2025-07-07 16:14:34,154 - gym_custom_envs_real_ur_drivers_URBasic_realTimeClientEvent - INFO - Program send to Robot:
servoj([-0.019941750242513212, -1.5800002115222105, -1.593806038613181, -1.6904468282499765, 1.5385827302492983, 3.1998839235294474], 0.5, 0.5, 0.002, 0.2, 100)

2025-07-07 16:14:34,172 - gym_custom_envs_real_ur_drivers_URBasic_realTimeClientEvent - INFO - Program send to Robot:
servoj([-0.019941750242513212, -1.5800002115222105, -1.593806038613181, -1.6904468282499765, 1.5385827302492983, 3.1998839235294474], 0.5, 0.5, 0.002, 0.2, 100)

2025-07-07 16:14:34,179 - gym_custom_envs_real_ur_drivers_URBasic_realTimeClientEvent - INFO - Program send to Robot:
servoj([-0.019941750242513212, -1.5800002115222105, -1.593806038613181, -1.6904468282499765, 1.5385827302492983, 3.1998839235294474], 0.5, 0.5, 0.002, 0.2, 100)

2025-07-07 16:14:34,188 - gym_custom_envs_real_ur_drivers_URBasic_realTimeClientEvent - INFO - Program send to Robot:
servoj([-0.019941750242513212, -1.5800002115222105, -1.593806038613181, -1.6904468282499765, 1.5385827302492983, 3.1998839235294474], 0.5, 0.5, 0.002, 0.2, 100)

2025-07-07 16:14:34,202 - gym_custom_envs_real_ur_drivers_URBasic_realTimeClientEvent - INFO - Program send to Robot:
servoj([-0.019941750242513212, -1.5800002115222105, -1.593806038613181, -1.6904468282499765, 1.5385827302492983, 3.1998839235294474], 0.5, 0.5, 0.002, 0.2, 100)

2025-07-07 16:14:34,212 - gym_custom_envs_real_ur_drivers_URBasic_realTimeClientEvent - INFO - Program send to Robot:
servoj([-0.019941750242513212, -1.5800002115222105, -1.593806038613181, -1.6904468282499765, 1.5385827302492983, 3.1998839235294474], 0.5, 0.5, 0.002, 0.2, 100)

2025-07-07 16:14:34,221 - gym_custom_envs_real_ur_drivers_URBasic_realTimeClientEvent - INFO - Program send to Robot:
servoj([-0.019941750242513212, -1.5800002115222105, -1.593806038613181, -1.6904468282499765, 1.5385827302492983, 3.1998839235294474], 0.5, 0.5, 0.002, 0.2, 100)

2025-07-07 16:14:34,226 - gym_custom_envs_real_ur_drivers_URBasic_realTimeClientEvent - INFO - Program send to Robot:
servoj([-0.019941750242513212, -1.5800002115222105, -1.593806038613181, -1.6904468282499765, 1.5385827302492983, 3.1998839235294474], 0.5, 0.5, 0.002, 0.2, 100)

2025-07-07 16:14:34,245 - gym_custom_envs_real_ur_drivers_URBasic_realTimeClientEvent - INFO - Program send to Robot:
servoj([-0.019941750242513212, -1.5800002115222105, -1.593806038613181, -1.6904468282499765, 1.5385827302492983, 3.1998839235294474], 0.5, 0.5, 0.002, 0.2, 100)

2025-07-07 16:14:34,250 - gym_custom_envs_real_ur_drivers_URBasic_realTimeClientEvent - INFO - Program send to Robot:
servoj([-0.019941750242513212, -1.5800002115222105, -1.593806038613181, -1.6904468282499765, 1.5401013712293052, 3.19836528254944], 0.5, 0.5, 0.002, 0.2, 100)

2025-07-07 16:14:34,261 - gym_custom_envs_real_ur_drivers_URBasic_realTimeClientEvent - INFO - Program send to Robot:
servoj([-0.019941750242513212, -1.5800002115222105, -1.593806038613181, -1.6904468282499765, 1.5401165576391054, 3.1983500961396403], 0.5, 0.5, 0.002, 0.2, 100)

2025-07-07 16:14:34,274 - gym_custom_envs_real_ur_drivers_URBasic_realTimeClientEvent - INFO - Program send to Robot:
servoj([-0.019941750242513212, -1.5800002115222105, -1.593806038613181, -1.6904468282499765, 1.5401167095032033, 3.198349944275542], 0.5, 0.5, 0.002, 0.2, 100)

2025-07-07 16:14:34,284 - gym_custom_envs_real_ur_drivers_URBasic_realTimeClientEvent - INFO - Program send to Robot:
servoj([-0.019941750242513212, -1.5800002115222105, -1.593806038613181, -1.6904468282499765, 1.5401167110218443, 3.1998685837369085], 0.5, 0.5, 0.002, 0.2, 100)

2025-07-07 16:14:34,292 - gym_custom_envs_real_ur_drivers_URBasic_realTimeClientEvent - INFO - Program send to Robot:
servoj([-0.019941750242513212, -1.5800002115222105, -1.593806038613181, -1.6904468282499765, 1.5401167110370308, 3.1998837701315224], 0.5, 0.5, 0.002, 0.2, 100)

2025-07-07 16:14:34,308 - gym_custom_envs_real_ur_drivers_URBasic_realTimeClientEvent - INFO - Program send to Robot:
servoj([-0.019941750242513212, -1.5800002115222105, -1.593806038613181, -1.6904468282499765, 1.5401167110371827, 3.1998839219954682], 0.5, 0.5, 0.002, 0.2, 100)

2025-07-07 16:14:34,317 - gym_custom_envs_real_ur_drivers_URBasic_realTimeClientEvent - INFO - Program send to Robot:
servoj([-0.019941750242513212, -1.5800002115222105, -1.593806038613181, -1.6904468282499765, 1.538598070057177, 3.1998839235141077], 0.5, 0.5, 0.002, 0.2, 100)

2025-07-07 16:14:34,323 - gym_custom_envs_real_ur_drivers_URBasic_realTimeClientEvent - INFO - Program send to Robot:
servoj([-0.019941750242513212, -1.5800002115222105, -1.593806038613181, -1.6904468282499765, 1.5385828836473772, 3.199883923529294], 0.5, 0.5, 0.002, 0.2, 100)

2025-07-07 16:14:34,342 - gym_custom_envs_real_ur_drivers_URBasic_realTimeClientEvent - INFO - Program send to Robot:
servoj([-0.019941750242513212, -1.5800002115222105, -1.593806038613181, -1.6904468282499765, 1.5385827317832792, 3.199883923529446], 0.5, 0.5, 0.002, 0.2, 100)

2025-07-07 16:14:34,346 - gym_custom_envs_real_ur_drivers_URBasic_realTimeClientEvent - INFO - Program send to Robot:
servoj([-0.019941750242513212, -1.5800002115222105, -1.593806038613181, -1.6904468282499765, 1.5385827302646382, 3.1998839235294474], 0.5, 0.5, 0.002, 0.2, 100)

2025-07-07 16:14:34,362 - gym_custom_envs_real_ur_drivers_URBasic_realTimeClientEvent - INFO - Program send to Robot:
servoj([-0.019941750242513212, -1.5800002115222105, -1.593806038613181, -1.6904468282499765, 1.5385827302494517, 3.1998839235294474], 0.5, 0.5, 0.002, 0.2, 100)

2025-07-07 16:14:34,370 - gym_custom_envs_real_ur_drivers_URBasic_realTimeClientEvent - INFO - Program send to Robot:
servoj([-0.019941750242513212, -1.5800002115222105, -1.593806038613181, -1.6904468282499765, 1.5385827302492998, 3.1998839235294474], 0.5, 0.5, 0.002, 0.2, 100)

2025-07-07 16:14:34,381 - gym_custom_envs_real_ur_drivers_URBasic_realTimeClientEvent - INFO - Program send to Robot:
servoj([-0.019941750242513212, -1.5800002115222105, -1.593806038613181, -1.6904468282499765, 1.5385827302492983, 3.1998839235294474], 0.5, 0.5, 0.002, 0.2, 100)

2025-07-07 16:14:34,394 - gym_custom_envs_real_ur_drivers_URBasic_realTimeClientEvent - INFO - Program send to Robot:
servoj([-0.019941750242513212, -1.5800002115222105, -1.593806038613181, -1.6904468282499765, 1.5385827302492983, 3.1998839235294474], 0.5, 0.5, 0.002, 0.2, 100)

2025-07-07 16:14:34,405 - gym_custom_envs_real_ur_drivers_URBasic_realTimeClientEvent - INFO - Program send to Robot:
servoj([-0.019941750242513212, -1.5800002115222105, -1.593806038613181, -1.6904468282499765, 1.5385827302492983, 3.1998839235294474], 0.5, 0.5, 0.002, 0.2, 100)

2025-07-07 16:14:34,413 - gym_custom_envs_real_ur_drivers_URBasic_realTimeClientEvent - INFO - Program send to Robot:
servoj([-0.019941750242513212, -1.5800002115222105, -1.593806038613181, -1.6904468282499765, 1.5385827302492983, 3.1998839235294474], 0.5, 0.5, 0.002, 0.2, 100)

2025-07-07 16:14:34,418 - gym_custom_envs_real_ur_drivers_URBasic_realTimeClientEvent - INFO - Program send to Robot:
servoj([-0.019941750242513212, -1.5800002115222105, -1.593806038613181, -1.6904468282499765, 1.5385827302492983, 3.1998839235294474], 0.5, 0.5, 0.002, 0.2, 100)

2025-07-07 16:14:34,437 - gym_custom_envs_real_ur_drivers_URBasic_realTimeClientEvent - INFO - Program send to Robot:
servoj([-0.019941750242513212, -1.5800002115222105, -1.593806038613181, -1.6904468282499765, 1.5385827302492983, 3.1998839235294474], 0.5, 0.5, 0.002, 0.2, 100)

2025-07-07 16:14:34,442 - gym_custom_envs_real_ur_drivers_URBasic_realTimeClientEvent - INFO - Program send to Robot:
servoj([-0.019941750242513212, -1.5800002115222105, -1.593806038613181, -1.6904468282499765, 1.5385827302492983, 3.1998839235294474], 0.5, 0.5, 0.002, 0.2, 100)

2025-07-07 16:14:34,453 - gym_custom_envs_real_ur_drivers_URBasic_realTimeClientEvent - INFO - Program send to Robot:
servoj([-0.019941750242513212, -1.5800002115222105, -1.593806038613181, -1.6904468282499765, 1.5385827302492983, 3.1998839235294474], 0.5, 0.5, 0.002, 0.2, 100)

2025-07-07 16:14:34,467 - gym_custom_envs_real_ur_drivers_URBasic_realTimeClientEvent - INFO - Program send to Robot:
servoj([-0.019941750242513212, -1.5800002115222105, -1.593806038613181, -1.6904468282499765, 1.5385827302492983, 3.1998839235294474], 0.5, 0.5, 0.002, 0.2, 100)

2025-07-07 16:14:34,478 - gym_custom_envs_real_ur_drivers_URBasic_realTimeClientEvent - INFO - Program send to Robot:
servoj([-0.019941750242513212, -1.5800002115222105, -1.593806038613181, -1.6904468282499765, 1.5401013712293052, 3.1998839235294474], 0.5, 0.5, 0.002, 0.2, 100)

2025-07-07 16:14:34,482 - gym_custom_envs_real_ur_drivers_URBasic_realTimeClientEvent - INFO - Program send to Robot:
servoj([-0.019941750242513212, -1.5800002115222105, -1.593806038613181, -1.6904468282499765, 1.5401165576391054, 3.1998839235294474], 0.5, 0.5, 0.002, 0.2, 100)

2025-07-07 16:14:34,501 - gym_custom_envs_real_ur_drivers_URBasic_realTimeClientEvent - INFO - Program send to Robot:
servoj([-0.019941750242513212, -1.5800002115222105, -1.593806038613181, -1.6904468282499765, 1.5401167095032033, 3.1998839235294474], 0.5, 0.5, 0.002, 0.2, 100)

2025-07-07 16:14:34,509 - gym_custom_envs_real_ur_drivers_URBasic_realTimeClientEvent - INFO - Program send to Robot:
servoj([-0.019941750242513212, -1.5800002115222105, -1.593806038613181, -1.6904468282499765, 1.5416353520018502, 3.19836528254944], 0.5, 0.5, 0.002, 0.2, 100)

2025-07-07 16:14:34,514 - gym_custom_envs_real_ur_drivers_URBasic_realTimeClientEvent - INFO - Program send to Robot:
servoj([-0.019941750242513212, -1.5800002115222105, -1.593806038613181, -1.6904468282499765, 1.5416505384268366, 3.1983500961396403], 0.5, 0.5, 0.002, 0.2, 100)

2025-07-07 16:14:34,532 - gym_custom_envs_real_ur_drivers_URBasic_realTimeClientEvent - INFO - Program send to Robot:
servoj([-0.019941750242513212, -1.5800002115222105, -1.593806038613181, -1.6904468282499765, 1.5416506902910865, 3.198349944275542], 0.5, 0.5, 0.002, 0.2, 100)

2025-07-07 16:14:34,538 - gym_custom_envs_real_ur_drivers_URBasic_realTimeClientEvent - INFO - Program send to Robot:
servoj([-0.019941750242513212, -1.5800002115222105, -1.593806038613181, -1.6904468282499765, 1.541650691809729, 3.1983499427569013], 0.5, 0.5, 0.002, 0.2, 100)

2025-07-07 16:14:34,548 - gym_custom_envs_real_ur_drivers_URBasic_realTimeClientEvent - INFO - Program send to Robot:
servoj([-0.019941750242513212, -1.5800002115222105, -1.593806038613181, -1.6904468282499765, 1.5416506918249155, 3.198349942741715], 0.5, 0.5, 0.002, 0.2, 100)

2025-07-07 16:14:34,563 - gym_custom_envs_real_ur_drivers_URBasic_realTimeClientEvent - INFO - Program send to Robot:
servoj([-0.019941750242513212, -1.5800002115222105, -1.593806038613181, -1.6904468282499765, 1.5416506918250674, 3.198349942741563], 0.5, 0.5, 0.002, 0.2, 100)

2025-07-07 16:14:34,573 - gym_custom_envs_real_ur_drivers_URBasic_realTimeClientEvent - INFO - Program send to Robot:
servoj([-0.019941750242513212, -1.5800002115222105, -1.593806038613181, -1.6904468282499765, 1.5416506918250688, 3.1983499427415616], 0.5, 0.5, 0.002, 0.2, 100)

2025-07-07 16:14:34,582 - gym_custom_envs_real_ur_drivers_URBasic_realTimeClientEvent - INFO - Program send to Robot:
servoj([-0.019941750242513212, -1.5800002115222105, -1.593806038613181, -1.6904468282499765, 1.541650691825069, 3.1983499427415616], 0.5, 0.5, 0.002, 0.2, 100)

2025-07-07 16:14:34,586 - gym_custom_envs_real_ur_drivers_URBasic_realTimeClientEvent - INFO - Program send to Robot:
servoj([-0.019941750242513212, -1.5800002115222105, -1.593806038613181, -1.6904468282499765, 1.541650691825069, 3.1983499427415616], 0.5, 0.5, 0.002, 0.2, 100)

2025-07-07 16:14:34,602 - gym_custom_envs_real_ur_drivers_URBasic_realTimeClientEvent - INFO - Program send to Robot:
servoj([-0.019941750242513212, -1.5800002115222105, -1.593806038613181, -1.6904468282499765, 1.543169332805076, 3.1983499427415616], 0.5, 0.5, 0.002, 0.2, 100)

2025-07-07 16:14:34,610 - gym_custom_envs_real_ur_drivers_URBasic_realTimeClientEvent - INFO - Program send to Robot:
servoj([-0.019941750242513212, -1.5800002115222105, -1.593806038613181, -1.6904468282499765, 1.5431845192148759, 3.1983499427415616], 0.5, 0.5, 0.002, 0.2, 100)

2025-07-07 16:14:34,622 - gym_custom_envs_real_ur_drivers_URBasic_realTimeClientEvent - INFO - Program send to Robot:
servoj([-0.019941750242513212, -1.5800002115222105, -1.593806038613181, -1.6904468282499765, 1.5431846710789738, 3.1983499427415616], 0.5, 0.5, 0.002, 0.2, 100)

2025-07-07 16:14:34,634 - gym_custom_envs_real_ur_drivers_URBasic_realTimeClientEvent - INFO - Program send to Robot:
servoj([-0.019941750242513212, -1.5800002115222105, -1.593806038613181, -1.6904468282499765, 1.5431846725976148, 3.1983499427415616], 0.5, 0.5, 0.002, 0.2, 100)

2025-07-07 16:14:34,645 - gym_custom_envs_real_ur_drivers_URBasic_realTimeClientEvent - INFO - Program send to Robot:
servoj([-0.019941750242513212, -1.5800002115222105, -1.593806038613181, -1.6904468282499765, 1.5416660316327944, 3.1983499427415616], 0.5, 0.5, 0.002, 0.2, 100)

2025-07-07 16:14:34,650 - gym_custom_envs_real_ur_drivers_URBasic_realTimeClientEvent - INFO - Program send to Robot:
servoj([-0.019941750242513212, -1.5800002115222105, -1.593806038613181, -1.6904468282499765, 1.541650845223146, 3.1983499427415616], 0.5, 0.5, 0.002, 0.2, 100)

2025-07-07 16:14:34,658 - gym_custom_envs_real_ur_drivers_URBasic_realTimeClientEvent - INFO - Program send to Robot:
servoj([-0.019941750242513212, -1.5800002115222105, -1.593806038613181, -1.6904468282499765, 1.5416506933590497, 3.1983499427415616], 0.5, 0.5, 0.002, 0.2, 100)

2025-07-07 16:14:34,678 - gym_custom_envs_real_ur_drivers_URBasic_realTimeClientEvent - INFO - Program send to Robot:
servoj([-0.019941750242513212, -1.5800002115222105, -1.593806038613181, -1.6904468282499765, 1.5416506918404087, 3.1983499427415616], 0.5, 0.5, 0.002, 0.2, 100)

2025-07-07 16:14:34,683 - gym_custom_envs_real_ur_drivers_URBasic_realTimeClientEvent - INFO - Program send to Robot:
servoj([-0.019941750242513212, -1.5800002115222105, -1.593806038613181, -1.6904468282499765, 1.5416506918252222, 3.1983499427415616], 0.5, 0.5, 0.002, 0.2, 100)

2025-07-07 16:14:34,699 - gym_custom_envs_real_ur_drivers_URBasic_realTimeClientEvent - INFO - Program send to Robot:
servoj([-0.019941750242513212, -1.5800002115222105, -1.593806038613181, -1.6904468282499765, 1.5416506918250703, 3.1983499427415616], 0.5, 0.5, 0.002, 0.2, 100)

2025-07-07 16:14:34,707 - gym_custom_envs_real_ur_drivers_URBasic_realTimeClientEvent - INFO - Program send to Robot:
servoj([-0.019941750242513212, -1.5800002115222105, -1.593806038613181, -1.6904468282499765, 1.541650691825069, 3.1983499427415616], 0.5, 0.5, 0.002, 0.2, 100)

2025-07-07 16:14:34,720 - gym_custom_envs_real_ur_drivers_URBasic_realTimeClientEvent - INFO - Program send to Robot:
servoj([-0.019941750242513212, -1.5800002115222105, -1.593806038613181, -1.6904468282499765, 1.541650691825069, 3.1983499427415616], 0.5, 0.5, 0.002, 0.2, 100)

2025-07-07 16:14:34,730 - gym_custom_envs_real_ur_drivers_URBasic_realTimeClientEvent - INFO - Program send to Robot:
servoj([-0.019941750242513212, -1.5800002115222105, -1.593806038613181, -1.6904468282499765, 1.541650691825069, 3.1983499427415616], 0.5, 0.5, 0.002, 0.2, 100)

2025-07-07 16:14:34,743 - gym_custom_envs_real_ur_drivers_URBasic_realTimeClientEvent - INFO - Program send to Robot:
servoj([-0.019941750242513212, -1.5800002115222105, -1.593806038613181, -1.6904468282499765, 1.540132050845063, 3.199868583721569], 0.5, 0.5, 0.002, 0.2, 100)

2025-07-07 16:14:34,746 - gym_custom_envs_real_ur_drivers_URBasic_realTimeClientEvent - INFO - Program send to Robot:
servoj([-0.019941750242513212, -1.5800002115222105, -1.593806038613181, -1.6904468282499765, 1.540116864435263, 3.1998837701313687], 0.5, 0.5, 0.002, 0.2, 100)

2025-07-07 16:14:34,766 - gym_custom_envs_real_ur_drivers_URBasic_realTimeClientEvent - INFO - Program send to Robot:
servoj([-0.019941750242513212, -1.5800002115222105, -1.593806038613181, -1.6904468282499765, 1.540116712571165, 3.1983652810154597], 0.5, 0.5, 0.002, 0.2, 100)

2025-07-07 16:14:34,770 - gym_custom_envs_real_ur_drivers_URBasic_realTimeClientEvent - INFO - Program send to Robot:
servoj([-0.019941750242513212, -1.5800002115222105, -1.593806038613181, -1.6904468282499765, 1.540116711052524, 3.1983500961243005], 0.5, 0.5, 0.002, 0.2, 100)

2025-07-07 16:14:34,789 - gym_custom_envs_real_ur_drivers_URBasic_realTimeClientEvent - INFO - Program send to Robot:
servoj([-0.019941750242513212, -1.5800002115222105, -1.593806038613181, -1.6904468282499765, 1.5401167110373375, 3.198349944275389], 0.5, 0.5, 0.002, 0.2, 100)

2025-07-07 16:14:34,797 - gym_custom_envs_real_ur_drivers_URBasic_realTimeClientEvent - INFO - Program send to Robot:
servoj([-0.019941750242513212, -1.5800002115222105, -1.593806038613181, -1.6904468282499765, 1.5401167110371856, 3.1983499427568995], 0.5, 0.5, 0.002, 0.2, 100)

2025-07-07 16:14:34,802 - gym_custom_envs_real_ur_drivers_URBasic_realTimeClientEvent - INFO - Program send to Robot:
servoj([-0.019941750242513212, -1.5800002115222105, -1.593806038613181, -1.6904468282499765, 1.540116711037184, 3.198349942741715], 0.5, 0.5, 0.002, 0.2, 100)

2025-07-07 16:14:34,822 - gym_custom_envs_real_ur_drivers_URBasic_realTimeClientEvent - INFO - Program send to Robot:
servoj([-0.019941750242513212, -1.5800002115222105, -1.593806038613181, -1.6904468282499765, 1.540116711037184, 3.198349942741563], 0.5, 0.5, 0.002, 0.2, 100)

2025-07-07 16:14:34,826 - gym_custom_envs_real_ur_drivers_URBasic_realTimeClientEvent - INFO - Program send to Robot:
servoj([-0.019941750242513212, -1.5800002115222105, -1.593806038613181, -1.6904468282499765, 1.540116711037184, 3.1983499427415616], 0.5, 0.5, 0.002, 0.2, 100)

2025-07-07 16:14:34,842 - gym_custom_envs_real_ur_drivers_URBasic_realTimeClientEvent - INFO - Program send to Robot:
servoj([-0.019941750242513212, -1.5800002115222105, -1.593806038613181, -1.6904468282499765, 1.540116711037184, 3.1983499427415616], 0.5, 0.5, 0.002, 0.2, 100)

2025-07-07 16:14:34,851 - gym_custom_envs_real_ur_drivers_URBasic_realTimeClientEvent - INFO - Program send to Robot:
servoj([-0.019941750242513212, -1.5800002115222105, -1.593806038613181, -1.6904468282499765, 1.540116711037184, 3.1983499427415616], 0.5, 0.5, 0.002, 0.2, 100)

2025-07-07 16:14:34,867 - gym_custom_envs_real_ur_drivers_URBasic_realTimeClientEvent - INFO - Program send to Robot:
servoj([-0.019941750242513212, -1.5800002115222105, -1.593806038613181, -1.6904468282499765, 1.54163535201719, 3.1983499427415616], 0.5, 0.5, 0.002, 0.2, 100)

2025-07-07 16:14:34,875 - gym_custom_envs_real_ur_drivers_URBasic_realTimeClientEvent - INFO - Program send to Robot:
servoj([-0.019941750242513212, -1.5800002115222105, -1.593806038613181, -1.6904468282499765, 1.54165053842699, 3.1983499427415616], 0.5, 0.5, 0.002, 0.2, 100)

2025-07-07 16:14:34,885 - gym_custom_envs_real_ur_drivers_URBasic_realTimeClientEvent - INFO - Program send to Robot:
servoj([-0.019941750242513212, -1.5800002115222105, -1.593806038613181, -1.6904468282499765, 1.541650690291088, 3.1983499427415616], 0.5, 0.5, 0.002, 0.2, 100)

2025-07-07 16:14:34,898 - gym_custom_envs_real_ur_drivers_URBasic_realTimeClientEvent - INFO - Program send to Robot:
servoj([-0.019941750242513212, -1.5800002115222105, -1.593806038613181, -1.6904468282499765, 1.541650691809729, 3.1983499427415616], 0.5, 0.5, 0.002, 0.2, 100)

2025-07-07 16:14:34,910 - gym_custom_envs_real_ur_drivers_URBasic_realTimeClientEvent - INFO - Program send to Robot:
servoj([-0.019941750242513212, -1.5800002115222105, -1.593806038613181, -1.6904468282499765, 1.5416506918249155, 3.1983499427415616], 0.5, 0.5, 0.002, 0.2, 100)

2025-07-07 16:14:34,917 - gym_custom_envs_real_ur_drivers_URBasic_realTimeClientEvent - INFO - Program send to Robot:
servoj([-0.019941750242513212, -1.5800002115222105, -1.593806038613181, -1.6904468282499765, 1.5416506918250674, 3.1983499427415616], 0.5, 0.5, 0.002, 0.2, 100)

2025-07-07 16:14:34,933 - gym_custom_envs_real_ur_drivers_URBasic_realTimeClientEvent - INFO - Program send to Robot:
servoj([-0.019941750242513212, -1.5800002115222105, -1.593806038613181, -1.6904468282499765, 1.5416506918250688, 3.1983499427415616], 0.5, 0.5, 0.002, 0.2, 100)

2025-07-07 16:14:34,942 - gym_custom_envs_real_ur_drivers_URBasic_realTimeClientEvent - INFO - Program send to Robot:
servoj([-0.019941750242513212, -1.5800002115222105, -1.593806038613181, -1.6904468282499765, 1.541650691825069, 3.1983499427415616], 0.5, 0.5, 0.002, 0.2, 100)

2025-07-07 16:14:34,946 - gym_custom_envs_real_ur_drivers_URBasic_realTimeClientEvent - INFO - Program send to Robot:
servoj([-0.019941750242513212, -1.5800002115222105, -1.593806038613181, -1.6904468282499765, 1.541650691825069, 3.1983499427415616], 0.5, 0.5, 0.002, 0.2, 100)

2025-07-07 16:14:34,963 - gym_custom_envs_real_ur_drivers_URBasic_realTimeClientEvent - INFO - Program send to Robot:
servoj([-0.019941750242513212, -1.5800002115222105, -1.593806038613181, -1.6904468282499765, 1.541650691825069, 3.1983499427415616], 0.5, 0.5, 0.002, 0.2, 100)

2025-07-07 16:14:34,970 - gym_custom_envs_real_ur_drivers_URBasic_realTimeClientEvent - INFO - Program send to Robot:
servoj([-0.019941750242513212, -1.5800002115222105, -1.593806038613181, -1.6904468282499765, 1.541650691825069, 3.1983499427415616], 0.5, 0.5, 0.002, 0.2, 100)

2025-07-07 16:14:34,984 - gym_custom_envs_real_ur_drivers_URBasic_realTimeClientEvent - INFO - Program send to Robot:
servoj([-0.019941750242513212, -1.5800002115222105, -1.593806038613181, -1.6904468282499765, 1.541650691825069, 3.1983499427415616], 0.5, 0.5, 0.002, 0.2, 100)

2025-07-07 16:14:34,994 - gym_custom_envs_real_ur_drivers_URBasic_realTimeClientEvent - INFO - Program send to Robot:
servoj([-0.019941750242513212, -1.5800002115222105, -1.593806038613181, -1.6904468282499765, 1.541650691825069, 3.1983499427415616], 0.5, 0.5, 0.002, 0.2, 100)

2025-07-07 16:14:35,002 - gym_custom_envs_real_ur_drivers_URBasic_realTimeClientEvent - INFO - Program send to Robot:
servoj([-0.019941750242513212, -1.5800002115222105, -1.593806038613181, -1.6904468282499765, 1.541650691825069, 3.1983499427415616], 0.5, 0.5, 0.002, 0.2, 100)

2025-07-07 16:14:35,010 - gym_custom_envs_real_ur_drivers_URBasic_realTimeClientEvent - INFO - Program send to Robot:
servoj([-0.019941750242513212, -1.5800002115222105, -1.593806038613181, -1.6904468282499765, 1.541650691825069, 3.1983499427415616], 0.5, 0.5, 0.002, 0.2, 100)

2025-07-07 16:14:35,025 - gym_custom_envs_real_ur_drivers_URBasic_realTimeClientEvent - INFO - Program send to Robot:
servoj([-0.019941750242513212, -1.5800002115222105, -1.593806038613181, -1.6904468282499765, 1.541650691825069, 3.1983499427415616], 0.5, 0.5, 0.002, 0.2, 100)

2025-07-07 16:14:35,034 - gym_custom_envs_real_ur_drivers_URBasic_realTimeClientEvent - INFO - Program send to Robot:
servoj([-0.019941750242513212, -1.5800002115222105, -1.593806038613181, -1.6904468282499765, 1.541650691825069, 3.1983499427415616], 0.5, 0.5, 0.002, 0.2, 100)

2025-07-07 16:14:35,056 - gym_custom_envs_real_ur_drivers_URBasic_realTimeClientEvent - INFO - Program send to Robot:
servoj([-0.019941750242513212, -1.5800002115222105, -1.593806038613181, -1.6904468282499765, 1.541650691825069, 3.1983499427415616], 0.5, 0.5, 0.002, 0.2, 100)

2025-07-07 16:14:35,066 - gym_custom_envs_real_ur_drivers_URBasic_realTimeClientEvent - INFO - Program send to Robot:
servoj([-0.019941750242513212, -1.5800002115222105, -1.593806038613181, -1.6904468282499765, 1.541650691825069, 3.1983499427415616], 0.5, 0.5, 0.002, 0.2, 100)

2025-07-07 16:14:35,074 - gym_custom_envs_real_ur_drivers_URBasic_realTimeClientEvent - INFO - Program send to Robot:
servoj([-0.019941750242513212, -1.5800002115222105, -1.593806038613181, -1.6904468282499765, 1.541650691825069, 3.1983499427415616], 0.5, 0.5, 0.002, 0.2, 100)

2025-07-07 16:14:35,082 - gym_custom_envs_real_ur_drivers_URBasic_realTimeClientEvent - INFO - Program send to Robot:
servoj([-0.019941750242513212, -1.5800002115222105, -1.593806038613181, -1.6904468282499765, 1.541650691825069, 3.1983499427415616], 0.5, 0.5, 0.002, 0.2, 100)

2025-07-07 16:14:35,099 - gym_custom_envs_real_ur_drivers_URBasic_realTimeClientEvent - INFO - Program send to Robot:
servoj([-0.019941750242513212, -1.5800002115222105, -1.593806038613181, -1.6904468282499765, 1.541650691825069, 3.1983499427415616], 0.5, 0.5, 0.002, 0.2, 100)

2025-07-07 16:14:35,115 - gym_custom_envs_real_ur_drivers_URBasic_realTimeClientEvent - INFO - Program send to Robot:
servoj([-0.019941750242513212, -1.5800002115222105, -1.593806038613181, -1.6904468282499765, 1.541650691825069, 3.1983499427415616], 0.5, 0.5, 0.002, 0.2, 100)

2025-07-07 16:14:35,122 - gym_custom_envs_real_ur_drivers_URBasic_realTimeClientEvent - INFO - Program send to Robot:
servoj([-0.019941750242513212, -1.5800002115222105, -1.593806038613181, -1.6904468282499765, 1.541650691825069, 3.1983499427415616], 0.5, 0.5, 0.002, 0.2, 100)

2025-07-07 16:14:35,138 - gym_custom_envs_real_ur_drivers_URBasic_realTimeClientEvent - INFO - Program send to Robot:
servoj([-0.019941750242513212, -1.5800002115222105, -1.593806038613181, -1.6904468282499765, 1.541650691825069, 3.1983499427415616], 0.5, 0.5, 0.002, 0.2, 100)

2025-07-07 16:14:35,146 - gym_custom_envs_real_ur_drivers_URBasic_realTimeClientEvent - INFO - Program send to Robot:
servoj([-0.019941750242513212, -1.5800002115222105, -1.593806038613181, -1.6904468282499765, 1.541650691825069, 3.1983499427415616], 0.5, 0.5, 0.002, 0.2, 100)

2025-07-07 16:14:35,154 - gym_custom_envs_real_ur_drivers_URBasic_realTimeClientEvent - INFO - Program send to Robot:
servoj([-0.019941750242513212, -1.5800002115222105, -1.593806038613181, -1.6904468282499765, 1.541650691825069, 3.1983499427415616], 0.5, 0.5, 0.002, 0.2, 100)

2025-07-07 16:14:35,170 - gym_custom_envs_real_ur_drivers_URBasic_realTimeClientEvent - INFO - Program send to Robot:
servoj([-0.019941750242513212, -1.5800002115222105, -1.593806038613181, -1.6904468282499765, 1.541650691825069, 3.1983499427415616], 0.5, 0.5, 0.002, 0.2, 100)

2025-07-07 16:14:35,178 - gym_custom_envs_real_ur_drivers_URBasic_realTimeClientEvent - INFO - Program send to Robot:
servoj([-0.019941750242513212, -1.5800002115222105, -1.593806038613181, -1.6904468282499765, 1.541650691825069, 3.1983499427415616], 0.5, 0.5, 0.002, 0.2, 100)

2025-07-07 16:14:35,194 - gym_custom_envs_real_ur_drivers_URBasic_realTimeClientEvent - INFO - Program send to Robot:
servoj([-0.019941750242513212, -1.5800002115222105, -1.593806038613181, -1.6904468282499765, 1.541650691825069, 3.1983499427415616], 0.5, 0.5, 0.002, 0.2, 100)

2025-07-07 16:14:35,202 - gym_custom_envs_real_ur_drivers_URBasic_realTimeClientEvent - INFO - Program send to Robot:
servoj([-0.019941750242513212, -1.5800002115222105, -1.593806038613181, -1.6904468282499765, 1.541650691825069, 3.1983499427415616], 0.5, 0.5, 0.002, 0.2, 100)

2025-07-07 16:14:35,211 - gym_custom_envs_real_ur_drivers_URBasic_realTimeClientEvent - INFO - Program send to Robot:
servoj([-0.019941750242513212, -1.5800002115222105, -1.593806038613181, -1.6904468282499765, 1.541650691825069, 3.1983499427415616], 0.5, 0.5, 0.002, 0.2, 100)

2025-07-07 16:14:35,227 - gym_custom_envs_real_ur_drivers_URBasic_realTimeClientEvent - INFO - Program send to Robot:
servoj([-0.019941750242513212, -1.5800002115222105, -1.593806038613181, -1.6904468282499765, 1.541650691825069, 3.1983499427415616], 0.5, 0.5, 0.002, 0.2, 100)

2025-07-07 16:14:35,235 - gym_custom_envs_real_ur_drivers_URBasic_realTimeClientEvent - INFO - Program send to Robot:
servoj([-0.019941750242513212, -1.5800002115222105, -1.593806038613181, -1.6904468282499765, 1.541650691825069, 3.1983499427415616], 0.5, 0.5, 0.002, 0.2, 100)

2025-07-07 16:14:35,242 - gym_custom_envs_real_ur_drivers_URBasic_realTimeClientEvent - INFO - Program send to Robot:
servoj([-0.019941750242513212, -1.5800002115222105, -1.593806038613181, -1.6904468282499765, 1.541650691825069, 3.1983499427415616], 0.5, 0.5, 0.002, 0.2, 100)

2025-07-07 16:14:35,251 - gym_custom_envs_real_ur_drivers_URBasic_realTimeClientEvent - INFO - Program send to Robot:
servoj([-0.019941750242513212, -1.5800002115222105, -1.593806038613181, -1.6904468282499765, 1.541650691825069, 3.1983499427415616], 0.5, 0.5, 0.002, 0.2, 100)

2025-07-07 16:14:35,267 - gym_custom_envs_real_ur_drivers_URBasic_realTimeClientEvent - INFO - Program send to Robot:
servoj([-0.019941750242513212, -1.5800002115222105, -1.593806038613181, -1.6904468282499765, 1.541650691825069, 3.1983499427415616], 0.5, 0.5, 0.002, 0.2, 100)

2025-07-07 16:14:35,274 - gym_custom_envs_real_ur_drivers_URBasic_realTimeClientEvent - INFO - Program send to Robot:
servoj([-0.019941750242513212, -1.5800002115222105, -1.593806038613181, -1.6904468282499765, 1.541650691825069, 3.1983499427415616], 0.5, 0.5, 0.002, 0.2, 100)

2025-07-07 16:14:35,282 - gym_custom_envs_real_ur_drivers_URBasic_realTimeClientEvent - INFO - Program send to Robot:
servoj([-0.019941750242513212, -1.5800002115222105, -1.593806038613181, -1.6904468282499765, 1.541650691825069, 3.1983499427415616], 0.5, 0.5, 0.002, 0.2, 100)

2025-07-07 16:14:35,290 - gym_custom_envs_real_ur_drivers_URBasic_realTimeClientEvent - INFO - Program send to Robot:
servoj([-0.019941750242513212, -1.5800002115222105, -1.593806038613181, -1.6904468282499765, 1.541650691825069, 3.1983499427415616], 0.5, 0.5, 0.002, 0.2, 100)

2025-07-07 16:14:35,306 - gym_custom_envs_real_ur_drivers_URBasic_realTimeClientEvent - INFO - Program send to Robot:
servoj([-0.019941750242513212, -1.5800002115222105, -1.593806038613181, -1.6904468282499765, 1.541650691825069, 3.1983499427415616], 0.5, 0.5, 0.002, 0.2, 100)

2025-07-07 16:14:35,314 - gym_custom_envs_real_ur_drivers_URBasic_realTimeClientEvent - INFO - Program send to Robot:
servoj([-0.019941750242513212, -1.5800002115222105, -1.593806038613181, -1.6904468282499765, 1.541650691825069, 3.1983499427415616], 0.5, 0.5, 0.002, 0.2, 100)

2025-07-07 16:14:35,322 - gym_custom_envs_real_ur_drivers_URBasic_realTimeClientEvent - INFO - Program send to Robot:
servoj([-0.019941750242513212, -1.5800002115222105, -1.593806038613181, -1.6904468282499765, 1.541650691825069, 3.1983499427415616], 0.5, 0.5, 0.002, 0.2, 100)

2025-07-07 16:14:35,338 - gym_custom_envs_real_ur_drivers_URBasic_realTimeClientEvent - INFO - Program send to Robot:
servoj([-0.019941750242513212, -1.5800002115222105, -1.593806038613181, -1.6904468282499765, 1.541650691825069, 3.1983499427415616], 0.5, 0.5, 0.002, 0.2, 100)

2025-07-07 16:14:35,347 - gym_custom_envs_real_ur_drivers_URBasic_realTimeClientEvent - INFO - Program send to Robot:
servoj([-0.019941750242513212, -1.5800002115222105, -1.593806038613181, -1.6904468282499765, 1.541650691825069, 3.1983499427415616], 0.5, 0.5, 0.002, 0.2, 100)

2025-07-07 16:14:35,355 - gym_custom_envs_real_ur_drivers_URBasic_realTimeClientEvent - INFO - Program send to Robot:
servoj([-0.019941750242513212, -1.5800002115222105, -1.593806038613181, -1.6904468282499765, 1.541650691825069, 3.1983499427415616], 0.5, 0.5, 0.002, 0.2, 100)

2025-07-07 16:14:35,362 - gym_custom_envs_real_ur_drivers_URBasic_realTimeClientEvent - INFO - Program send to Robot:
servoj([-0.019941750242513212, -1.5800002115222105, -1.593806038613181, -1.6904468282499765, 1.541650691825069, 3.1983499427415616], 0.5, 0.5, 0.002, 0.2, 100)

2025-07-07 16:14:35,379 - gym_custom_envs_real_ur_drivers_URBasic_realTimeClientEvent - INFO - Program send to Robot:
servoj([-0.019941750242513212, -1.5800002115222105, -1.593806038613181, -1.6904468282499765, 1.541650691825069, 3.1983499427415616], 0.5, 0.5, 0.002, 0.2, 100)

2025-07-07 16:14:35,386 - gym_custom_envs_real_ur_drivers_URBasic_realTimeClientEvent - INFO - Program send to Robot:
servoj([-0.019941750242513212, -1.5800002115222105, -1.593806038613181, -1.6904468282499765, 1.541650691825069, 3.1983499427415616], 0.5, 0.5, 0.002, 0.2, 100)

2025-07-07 16:14:35,394 - gym_custom_envs_real_ur_drivers_URBasic_realTimeClientEvent - INFO - Program send to Robot:
servoj([-0.019941750242513212, -1.5800002115222105, -1.593806038613181, -1.6904468282499765, 1.541650691825069, 3.1983499427415616], 0.5, 0.5, 0.002, 0.2, 100)

2025-07-07 16:14:35,403 - gym_custom_envs_real_ur_drivers_URBasic_realTimeClientEvent - INFO - Program send to Robot:
servoj([-0.019941750242513212, -1.5800002115222105, -1.593806038613181, -1.6904468282499765, 1.541650691825069, 3.1983499427415616], 0.5, 0.5, 0.002, 0.2, 100)

2025-07-07 16:14:35,418 - gym_custom_envs_real_ur_drivers_URBasic_realTimeClientEvent - INFO - Program send to Robot:
servoj([-0.019941750242513212, -1.5800002115222105, -1.593806038613181, -1.6904468282499765, 1.541650691825069, 3.1983499427415616], 0.5, 0.5, 0.002, 0.2, 100)

2025-07-07 16:14:35,427 - gym_custom_envs_real_ur_drivers_URBasic_realTimeClientEvent - INFO - Program send to Robot:
servoj([-0.019941750242513212, -1.5800002115222105, -1.593806038613181, -1.6904468282499765, 1.541650691825069, 3.1983499427415616], 0.5, 0.5, 0.002, 0.2, 100)

2025-07-07 16:14:35,434 - gym_custom_envs_real_ur_drivers_URBasic_realTimeClientEvent - INFO - Program send to Robot:
servoj([-0.019941750242513212, -1.5800002115222105, -1.593806038613181, -1.6904468282499765, 1.541650691825069, 3.1983499427415616], 0.5, 0.5, 0.002, 0.2, 100)

2025-07-07 16:14:35,443 - gym_custom_envs_real_ur_drivers_URBasic_realTimeClientEvent - INFO - Program send to Robot:
servoj([-0.019941750242513212, -1.5800002115222105, -1.593806038613181, -1.6904468282499765, 1.541650691825069, 3.1983499427415616], 0.5, 0.5, 0.002, 0.2, 100)

2025-07-07 16:14:35,458 - gym_custom_envs_real_ur_drivers_URBasic_realTimeClientEvent - INFO - Program send to Robot:
servoj([-0.019941750242513212, -1.5800002115222105, -1.593806038613181, -1.6904468282499765, 1.541650691825069, 3.1983499427415616], 0.5, 0.5, 0.002, 0.2, 100)

2025-07-07 16:14:35,468 - gym_custom_envs_real_ur_drivers_URBasic_realTimeClientEvent - INFO - Program send to Robot:
servoj([-0.019941750242513212, -1.5800002115222105, -1.593806038613181, -1.6904468282499765, 1.541650691825069, 3.1983499427415616], 0.5, 0.5, 0.002, 0.2, 100)

2025-07-07 16:14:35,476 - gym_custom_envs_real_ur_drivers_URBasic_realTimeClientEvent - INFO - Program send to Robot:
servoj([-0.019941750242513212, -1.5800002115222105, -1.593806038613181, -1.6904468282499765, 1.541650691825069, 3.1983499427415616], 0.5, 0.5, 0.002, 0.2, 100)

2025-07-07 16:14:35,491 - gym_custom_envs_real_ur_drivers_URBasic_realTimeClientEvent - INFO - Program send to Robot:
servoj([-0.019941750242513212, -1.5800002115222105, -1.593806038613181, -1.6904468282499765, 1.541650691825069, 3.1983499427415616], 0.5, 0.5, 0.002, 0.2, 100)

2025-07-07 16:14:35,499 - gym_custom_envs_real_ur_drivers_URBasic_realTimeClientEvent - INFO - Program send to Robot:
servoj([-0.019941750242513212, -1.5800002115222105, -1.593806038613181, -1.6904468282499765, 1.541650691825069, 3.1983499427415616], 0.5, 0.5, 0.002, 0.2, 100)

2025-07-07 16:14:35,507 - gym_custom_envs_real_ur_drivers_URBasic_realTimeClientEvent - INFO - Program send to Robot:
servoj([-0.019941750242513212, -1.5800002115222105, -1.593806038613181, -1.6904468282499765, 1.541650691825069, 3.1983499427415616], 0.5, 0.5, 0.002, 0.2, 100)

2025-07-07 16:14:35,514 - gym_custom_envs_real_ur_drivers_URBasic_realTimeClientEvent - INFO - Program send to Robot:
servoj([-0.019941750242513212, -1.5800002115222105, -1.593806038613181, -1.6904468282499765, 1.541650691825069, 3.1983499427415616], 0.5, 0.5, 0.002, 0.2, 100)

2025-07-07 16:14:35,531 - gym_custom_envs_real_ur_drivers_URBasic_realTimeClientEvent - INFO - Program send to Robot:
servoj([-0.019941750242513212, -1.5800002115222105, -1.593806038613181, -1.6904468282499765, 1.541650691825069, 3.1983499427415616], 0.5, 0.5, 0.002, 0.2, 100)

2025-07-07 16:14:35,547 - gym_custom_envs_real_ur_drivers_URBasic_realTimeClientEvent - INFO - Program send to Robot:
servoj([-0.019941750242513212, -1.5800002115222105, -1.593806038613181, -1.6904468282499765, 1.541650691825069, 3.1983499427415616], 0.5, 0.5, 0.002, 0.2, 100)

2025-07-07 16:14:35,554 - gym_custom_envs_real_ur_drivers_URBasic_realTimeClientEvent - INFO - Program send to Robot:
servoj([-0.019941750242513212, -1.5800002115222105, -1.593806038613181, -1.6904468282499765, 1.541650691825069, 3.1983499427415616], 0.5, 0.5, 0.002, 0.2, 100)

2025-07-07 16:14:35,562 - gym_custom_envs_real_ur_drivers_URBasic_realTimeClientEvent - INFO - Program send to Robot:
servoj([-0.019941750242513212, -1.5800002115222105, -1.593806038613181, -1.6904468282499765, 1.541650691825069, 3.1983499427415616], 0.5, 0.5, 0.002, 0.2, 100)

2025-07-07 16:14:35,579 - gym_custom_envs_real_ur_drivers_URBasic_realTimeClientEvent - INFO - Program send to Robot:
servoj([-0.019941750242513212, -1.5800002115222105, -1.593806038613181, -1.6904468282499765, 1.541650691825069, 3.1983499427415616], 0.5, 0.5, 0.002, 0.2, 100)

2025-07-07 16:14:35,587 - gym_custom_envs_real_ur_drivers_URBasic_realTimeClientEvent - INFO - Program send to Robot:
servoj([-0.019941750242513212, -1.5800002115222105, -1.593806038613181, -1.6904468282499765, 1.541650691825069, 3.1983499427415616], 0.5, 0.5, 0.002, 0.2, 100)

2025-07-07 16:14:35,595 - gym_custom_envs_real_ur_drivers_URBasic_realTimeClientEvent - INFO - Program send to Robot:
servoj([-0.019941750242513212, -1.5800002115222105, -1.593806038613181, -1.6904468282499765, 1.541650691825069, 3.1983499427415616], 0.5, 0.5, 0.002, 0.2, 100)

2025-07-07 16:14:35,602 - gym_custom_envs_real_ur_drivers_URBasic_realTimeClientEvent - INFO - Program send to Robot:
servoj([-0.019941750242513212, -1.5800002115222105, -1.593806038613181, -1.6904468282499765, 1.541650691825069, 3.1983499427415616], 0.5, 0.5, 0.002, 0.2, 100)

2025-07-07 16:14:35,619 - gym_custom_envs_real_ur_drivers_URBasic_realTimeClientEvent - INFO - Program send to Robot:
servoj([-0.019941750242513212, -1.5800002115222105, -1.593806038613181, -1.6904468282499765, 1.541650691825069, 3.1983499427415616], 0.5, 0.5, 0.002, 0.2, 100)

2025-07-07 16:14:35,627 - gym_custom_envs_real_ur_drivers_URBasic_realTimeClientEvent - INFO - Program send to Robot:
servoj([-0.019941750242513212, -1.5800002115222105, -1.593806038613181, -1.6904468282499765, 1.541650691825069, 3.1983499427415616], 0.5, 0.5, 0.002, 0.2, 100)

2025-07-07 16:14:35,634 - gym_custom_envs_real_ur_drivers_URBasic_realTimeClientEvent - INFO - Program send to Robot:
servoj([-0.019941750242513212, -1.5800002115222105, -1.593806038613181, -1.6904468282499765, 1.541650691825069, 3.1983499427415616], 0.5, 0.5, 0.002, 0.2, 100)

2025-07-07 16:14:35,642 - gym_custom_envs_real_ur_drivers_URBasic_realTimeClientEvent - INFO - Program send to Robot:
servoj([-0.019941750242513212, -1.5800002115222105, -1.593806038613181, -1.6904468282499765, 1.541650691825069, 3.1983499427415616], 0.5, 0.5, 0.002, 0.2, 100)

2025-07-07 16:14:35,658 - gym_custom_envs_real_ur_drivers_URBasic_realTimeClientEvent - INFO - Program send to Robot:
servoj([-0.019941750242513212, -1.5800002115222105, -1.593806038613181, -1.6904468282499765, 1.541650691825069, 3.1983499427415616], 0.5, 0.5, 0.002, 0.2, 100)

2025-07-07 16:14:35,666 - gym_custom_envs_real_ur_drivers_URBasic_realTimeClientEvent - INFO - Program send to Robot:
servoj([-0.019941750242513212, -1.5800002115222105, -1.593806038613181, -1.6904468282499765, 1.543169332805076, 3.1983499427415616], 0.5, 0.5, 0.002, 0.2, 100)

2025-07-07 16:14:35,674 - gym_custom_envs_real_ur_drivers_URBasic_realTimeClientEvent - INFO - Program send to Robot:
servoj([-0.019941750242513212, -1.5800002115222105, -1.593806038613181, -1.6904468282499765, 1.5431845192148759, 3.1983499427415616], 0.5, 0.5, 0.002, 0.2, 100)

2025-07-07 16:14:35,691 - gym_custom_envs_real_ur_drivers_URBasic_realTimeClientEvent - INFO - Program send to Robot:
servoj([-0.019941750242513212, -1.5800002115222105, -1.593806038613181, -1.6904468282499765, 1.5416660300989669, 3.1983499427415616], 0.5, 0.5, 0.002, 0.2, 100)

2025-07-07 16:14:35,698 - gym_custom_envs_real_ur_drivers_URBasic_realTimeClientEvent - INFO - Program send to Robot:
servoj([-0.019941750242513212, -1.5800002115222105, -1.593806038613181, -1.6904468282499765, 1.541650845207808, 3.1983499427415616], 0.5, 0.5, 0.002, 0.2, 100)

2025-07-07 16:14:35,706 - gym_custom_envs_real_ur_drivers_URBasic_realTimeClientEvent - INFO - Program send to Robot:
servoj([-0.019941750242513212, -1.5800002115222105, -1.593806038613181, -1.6904468282499765, 1.5416506933588963, 3.1983499427415616], 0.5, 0.5, 0.002, 0.2, 100)

2025-07-07 16:14:35,715 - gym_custom_envs_real_ur_drivers_URBasic_realTimeClientEvent - INFO - Program send to Robot:
servoj([-0.019941750242513212, -1.5800002115222105, -1.593806038613181, -1.6904468282499765, 1.5416506918404072, 3.1983499427415616], 0.5, 0.5, 0.002, 0.2, 100)

2025-07-07 16:14:35,731 - gym_custom_envs_real_ur_drivers_URBasic_realTimeClientEvent - INFO - Program send to Robot:
servoj([-0.019941750242513212, -1.5800002115222105, -1.593806038613181, -1.6904468282499765, 1.5431693328052292, 3.1983499427415616], 0.5, 0.5, 0.002, 0.2, 100)

2025-07-07 16:14:35,739 - gym_custom_envs_real_ur_drivers_URBasic_realTimeClientEvent - INFO - Program send to Robot:
servoj([-0.019941750242513212, -1.5800002115222105, -1.593806038613181, -1.6904468282499765, 1.5431845192148774, 3.1983499427415616], 0.5, 0.5, 0.002, 0.2, 100)

2025-07-07 16:14:35,746 - gym_custom_envs_real_ur_drivers_URBasic_realTimeClientEvent - INFO - Program send to Robot:
servoj([-0.019941750242513212, -1.5800002115222105, -1.593806038613181, -1.6904468282499765, 1.5431846710789738, 3.1983499427415616], 0.5, 0.5, 0.002, 0.2, 100)

2025-07-07 16:14:35,755 - gym_custom_envs_real_ur_drivers_URBasic_realTimeClientEvent - INFO - Program send to Robot:
servoj([-0.019941750242513212, -1.5800002115222105, -1.593806038613181, -1.6904468282499765, 1.5416660316176078, 3.1983499427415616], 0.5, 0.5, 0.002, 0.2, 100)

2025-07-07 16:14:35,761 - gym_custom_envs_real_ur_drivers_URBasic_rtdeEvent - INFO - Total packages: 1000
2025-07-07 16:14:35,771 - gym_custom_envs_real_ur_drivers_URBasic_realTimeClientEvent - INFO - Program send to Robot:
servoj([-0.019941750242513212, -1.5800002115222105, -1.593806038613181, -1.6904468282499765, 1.5416508452229942, 3.1983499427415616], 0.5, 0.5, 0.002, 0.2, 100)

2025-07-07 16:14:35,778 - gym_custom_envs_real_ur_drivers_URBasic_realTimeClientEvent - INFO - Program send to Robot:
servoj([-0.019941750242513212, -1.5800002115222105, -1.593806038613181, -1.6904468282499765, 1.5416506933590481, 3.1983499427415616], 0.5, 0.5, 0.002, 0.2, 100)

2025-07-07 16:14:35,786 - gym_custom_envs_real_ur_drivers_URBasic_realTimeClientEvent - INFO - Program send to Robot:
servoj([-0.019941750242513212, -1.5800002115222105, -1.593806038613181, -1.6904468282499765, 1.5431693328204157, 3.1983499427415616], 0.5, 0.5, 0.002, 0.2, 100)

2025-07-07 16:14:35,794 - gym_custom_envs_real_ur_drivers_URBasic_realTimeClientEvent - INFO - Program send to Robot:
servoj([-0.019941750242513212, -1.5800002115222105, -1.593806038613181, -1.6904468282499765, 1.5431845192150293, 3.1983499427415616], 0.5, 0.5, 0.002, 0.2, 100)

2025-07-07 16:14:35,811 - gym_custom_envs_real_ur_drivers_URBasic_realTimeClientEvent - INFO - Program send to Robot:
servoj([-0.019941750242513212, -1.5800002115222105, -1.593806038613181, -1.6904468282499765, 1.5431846710789754, 3.1983499427415616], 0.5, 0.5, 0.002, 0.2, 100)

2025-07-07 16:14:35,818 - gym_custom_envs_real_ur_drivers_URBasic_realTimeClientEvent - INFO - Program send to Robot:
servoj([-0.019941750242513212, -1.5800002115222105, -1.593806038613181, -1.6904468282499765, 1.5431846725976148, 3.1983499427415616], 0.5, 0.5, 0.002, 0.2, 100)

2025-07-07 16:14:35,827 - gym_custom_envs_real_ur_drivers_URBasic_realTimeClientEvent - INFO - Program send to Robot:
servoj([-0.019941750242513212, -1.5800002115222105, -1.593806038613181, -1.6904468282499765, 1.5431846726128013, 3.1983499427415616], 0.5, 0.5, 0.002, 0.2, 100)

2025-07-07 16:14:35,842 - gym_custom_envs_real_ur_drivers_URBasic_realTimeClientEvent - INFO - Program send to Robot:
servoj([-0.019941750242513212, -1.5800002115222105, -1.593806038613181, -1.6904468282499765, 1.5431846726129532, 3.1983499427415616], 0.5, 0.5, 0.002, 0.2, 100)

2025-07-07 16:14:35,852 - gym_custom_envs_real_ur_drivers_URBasic_realTimeClientEvent - INFO - Program send to Robot:
servoj([-0.019941750242513212, -1.5800002115222105, -1.593806038613181, -1.6904468282499765, 1.5431846726129548, 3.1983499427415616], 0.5, 0.5, 0.002, 0.2, 100)

2025-07-07 16:14:35,860 - gym_custom_envs_real_ur_drivers_URBasic_realTimeClientEvent - INFO - Program send to Robot:
servoj([-0.019941750242513212, -1.5800002115222105, -1.593806038613181, -1.6904468282499765, 1.5431846726129548, 3.1983499427415616], 0.5, 0.5, 0.002, 0.2, 100)

2025-07-07 16:14:35,866 - gym_custom_envs_real_ur_drivers_URBasic_realTimeClientEvent - INFO - Program send to Robot:
servoj([-0.019941750242513212, -1.5800002115222105, -1.593806038613181, -1.6904468282499765, 1.5431846726129548, 3.1983499427415616], 0.5, 0.5, 0.002, 0.2, 100)

2025-07-07 16:14:35,883 - gym_custom_envs_real_ur_drivers_URBasic_realTimeClientEvent - INFO - Program send to Robot:
servoj([-0.019941750242513212, -1.5800002115222105, -1.593806038613181, -1.6904468282499765, 1.5431846726129548, 3.1983499427415616], 0.5, 0.5, 0.002, 0.2, 100)

2025-07-07 16:14:35,890 - gym_custom_envs_real_ur_drivers_URBasic_realTimeClientEvent - INFO - Program send to Robot:
servoj([-0.019941750242513212, -1.5800002115222105, -1.593806038613181, -1.6904468282499765, 1.5431846726129548, 3.1983499427415616], 0.5, 0.5, 0.002, 0.2, 100)

2025-07-07 16:14:35,899 - gym_custom_envs_real_ur_drivers_URBasic_realTimeClientEvent - INFO - Program send to Robot:
servoj([-0.019941750242513212, -1.5800002115222105, -1.593806038613181, -1.6904468282499765, 1.5431846726129548, 3.1983499427415616], 0.5, 0.5, 0.002, 0.2, 100)

2025-07-07 16:14:35,907 - gym_custom_envs_real_ur_drivers_URBasic_realTimeClientEvent - INFO - Program send to Robot:
servoj([-0.019941750242513212, -1.5800002115222105, -1.593806038613181, -1.6904468282499765, 1.5431846726129548, 3.1983499427415616], 0.5, 0.5, 0.002, 0.2, 100)

2025-07-07 16:14:35,923 - gym_custom_envs_real_ur_drivers_URBasic_realTimeClientEvent - INFO - Program send to Robot:
servoj([-0.019941750242513212, -1.5800002115222105, -1.593806038613181, -1.6904468282499765, 1.5431846726129548, 3.1983499427415616], 0.5, 0.5, 0.002, 0.2, 100)

2025-07-07 16:14:35,930 - gym_custom_envs_real_ur_drivers_URBasic_realTimeClientEvent - INFO - Program send to Robot:
servoj([-0.019941750242513212, -1.5800002115222105, -1.593806038613181, -1.6904468282499765, 1.5431846726129548, 3.1983499427415616], 0.5, 0.5, 0.002, 0.2, 100)

2025-07-07 16:14:35,938 - gym_custom_envs_real_ur_drivers_URBasic_realTimeClientEvent - INFO - Program send to Robot:
servoj([-0.019941750242513212, -1.5800002115222105, -1.593806038613181, -1.6904468282499765, 1.5431846726129548, 3.1983499427415616], 0.5, 0.5, 0.002, 0.2, 100)

2025-07-07 16:14:35,955 - gym_custom_envs_real_ur_drivers_URBasic_realTimeClientEvent - INFO - Program send to Robot:
servoj([-0.019941750242513212, -1.5800002115222105, -1.593806038613181, -1.6904468282499765, 1.5431846726129548, 3.1983499427415616], 0.5, 0.5, 0.002, 0.2, 100)

2025-07-07 16:14:35,963 - gym_custom_envs_real_ur_drivers_URBasic_realTimeClientEvent - INFO - Program send to Robot:
servoj([-0.019941750242513212, -1.5800002115222105, -1.593806038613181, -1.6904468282499765, 1.5431846726129548, 3.1983499427415616], 0.5, 0.5, 0.002, 0.2, 100)

2025-07-07 16:14:35,971 - gym_custom_envs_real_ur_drivers_URBasic_realTimeClientEvent - INFO - Program send to Robot:
servoj([-0.019941750242513212, -1.5800002115222105, -1.593806038613181, -1.6904468282499765, 1.5431846726129548, 3.1983499427415616], 0.5, 0.5, 0.002, 0.2, 100)

2025-07-07 16:14:35,979 - gym_custom_envs_real_ur_drivers_URBasic_realTimeClientEvent - INFO - Program send to Robot:
servoj([-0.019941750242513212, -1.5800002115222105, -1.593806038613181, -1.6904468282499765, 1.5431846726129548, 3.1983499427415616], 0.5, 0.5, 0.002, 0.2, 100)

2025-07-07 16:14:35,994 - gym_custom_envs_real_ur_drivers_URBasic_realTimeClientEvent - INFO - Program send to Robot:
servoj([-0.019941750242513212, -1.5800002115222105, -1.593806038613181, -1.6904468282499765, 1.5431846726129548, 3.1983499427415616], 0.5, 0.5, 0.002, 0.2, 100)

2025-07-07 16:14:36,002 - gym_custom_envs_real_ur_drivers_URBasic_realTimeClientEvent - INFO - Program send to Robot:
servoj([-0.019941750242513212, -1.5800002115222105, -1.593806038613181, -1.6904468282499765, 1.5431846726129548, 3.1983499427415616], 0.5, 0.5, 0.002, 0.2, 100)

2025-07-07 16:14:36,011 - gym_custom_envs_real_ur_drivers_URBasic_realTimeClientEvent - INFO - Program send to Robot:
servoj([-0.019941750242513212, -1.5800002115222105, -1.593806038613181, -1.6904468282499765, 1.5431846726129548, 3.1983499427415616], 0.5, 0.5, 0.002, 0.2, 100)

2025-07-07 16:14:36,018 - gym_custom_envs_real_ur_drivers_URBasic_realTimeClientEvent - INFO - Program send to Robot:
servoj([-0.019941750242513212, -1.5800002115222105, -1.593806038613181, -1.6904468282499765, 1.5431846726129548, 3.1983499427415616], 0.5, 0.5, 0.002, 0.2, 100)

2025-07-07 16:14:36,034 - gym_custom_envs_real_ur_drivers_URBasic_realTimeClientEvent - INFO - Program send to Robot:
servoj([-0.019941750242513212, -1.5800002115222105, -1.593806038613181, -1.6904468282499765, 1.5431846726129548, 3.1983499427415616], 0.5, 0.5, 0.002, 0.2, 100)

2025-07-07 16:14:36,043 - gym_custom_envs_real_ur_drivers_URBasic_realTimeClientEvent - INFO - Program send to Robot:
servoj([-0.019941750242513212, -1.5800002115222105, -1.593806038613181, -1.6904468282499765, 1.5447033135929618, 3.1983499427415616], 0.5, 0.5, 0.002, 0.2, 100)

2025-07-07 16:14:36,058 - gym_custom_envs_real_ur_drivers_URBasic_realTimeClientEvent - INFO - Program send to Robot:
servoj([-0.019941750242513212, -1.5800002115222105, -1.593806038613181, -1.6904468282499765, 1.5447185000027617, 3.1983499427415616], 0.5, 0.5, 0.002, 0.2, 100)

2025-07-07 16:14:36,066 - gym_custom_envs_real_ur_drivers_URBasic_realTimeClientEvent - INFO - Program send to Robot:
servoj([-0.019941750242513212, -1.5800002115222105, -1.593806038613181, -1.6904468282499765, 1.5447186518668599, 3.1983499427415616], 0.5, 0.5, 0.002, 0.2, 100)

2025-07-07 16:14:36,082 - gym_custom_envs_real_ur_drivers_URBasic_realTimeClientEvent - INFO - Program send to Robot:
servoj([-0.019941750242513212, -1.5800002115222105, -1.593806038613181, -1.6904468282499765, 1.5447186533855009, 3.1983499427415616], 0.5, 0.5, 0.002, 0.2, 100)

2025-07-07 16:14:36,090 - gym_custom_envs_real_ur_drivers_URBasic_realTimeClientEvent - INFO - Program send to Robot:
servoj([-0.019941750242513212, -1.5800002115222105, -1.593806038613181, -1.6904468282499765, 1.5447186534006871, 3.1983499427415616], 0.5, 0.5, 0.002, 0.2, 100)

2025-07-07 16:14:36,099 - gym_custom_envs_real_ur_drivers_URBasic_realTimeClientEvent - INFO - Program send to Robot:
servoj([-0.019941750242513212, -1.5800002115222105, -1.593806038613181, -1.6904468282499765, 1.544718653400839, 3.1983499427415616], 0.5, 0.5, 0.002, 0.2, 100)

2025-07-07 16:14:36,114 - gym_custom_envs_real_ur_drivers_URBasic_realTimeClientEvent - INFO - Program send to Robot:
servoj([-0.019941750242513212, -1.5800002115222105, -1.593806038613181, -1.6904468282499765, 1.5447186534008406, 3.1983499427415616], 0.5, 0.5, 0.002, 0.2, 100)

2025-07-07 16:14:36,122 - gym_custom_envs_real_ur_drivers_URBasic_realTimeClientEvent - INFO - Program send to Robot:
servoj([-0.019941750242513212, -1.5800002115222105, -1.593806038613181, -1.6904468282499765, 1.5447186534008406, 3.1983499427415616], 0.5, 0.5, 0.002, 0.2, 100)

2025-07-07 16:14:36,130 - gym_custom_envs_real_ur_drivers_URBasic_realTimeClientEvent - INFO - Program send to Robot:
servoj([-0.019941750242513212, -1.5800002115222105, -1.593806038613181, -1.6904468282499765, 1.5447186534008406, 3.1983499427415616], 0.5, 0.5, 0.002, 0.2, 100)

2025-07-07 16:14:36,138 - gym_custom_envs_real_ur_drivers_URBasic_realTimeClientEvent - INFO - Program send to Robot:
servoj([-0.019941750242513212, -1.5800002115222105, -1.593806038613181, -1.6904468282499765, 1.5447186534008406, 3.1983499427415616], 0.5, 0.5, 0.002, 0.2, 100)

2025-07-07 16:14:36,163 - gym_custom_envs_real_ur_drivers_URBasic_realTimeClientEvent - INFO - Program send to Robot:
servoj([-0.019941750242513212, -1.5800002115222105, -1.593806038613181, -1.6904468282499765, 1.5447186534008406, 3.1983499427415616], 0.5, 0.5, 0.002, 0.2, 100)

2025-07-07 16:14:36,171 - gym_custom_envs_real_ur_drivers_URBasic_realTimeClientEvent - INFO - Program send to Robot:
servoj([-0.019941750242513212, -1.5800002115222105, -1.593806038613181, -1.6904468282499765, 1.5432000124208336, 3.1983499427415616], 0.5, 0.5, 0.002, 0.2, 100)

2025-07-07 16:14:36,186 - gym_custom_envs_real_ur_drivers_URBasic_realTimeClientEvent - INFO - Program send to Robot:
servoj([-0.019941750242513212, -1.5800002115222105, -1.593806038613181, -1.6904468282499765, 1.5431848260110335, 3.1983499427415616], 0.5, 0.5, 0.002, 0.2, 100)

2025-07-07 16:14:36,194 - gym_custom_envs_real_ur_drivers_URBasic_realTimeClientEvent - INFO - Program send to Robot:
servoj([-0.019941750242513212, -1.5800002115222105, -1.593806038613181, -1.6904468282499765, 1.5431846741469355, 3.1983499427415616], 0.5, 0.5, 0.002, 0.2, 100)

2025-07-07 16:14:36,202 - gym_custom_envs_real_ur_drivers_URBasic_realTimeClientEvent - INFO - Program send to Robot:
servoj([-0.019941750242513212, -1.5800002115222105, -1.593806038613181, -1.6904468282499765, 1.5431846726282945, 3.1983499427415616], 0.5, 0.5, 0.002, 0.2, 100)

2025-07-07 16:14:36,218 - gym_custom_envs_real_ur_drivers_URBasic_realTimeClientEvent - INFO - Program send to Robot:
servoj([-0.019941750242513212, -1.5800002115222105, -1.593806038613181, -1.6904468282499765, 1.5431846726131082, 3.1983499427415616], 0.5, 0.5, 0.002, 0.2, 100)

2025-07-07 16:14:36,226 - gym_custom_envs_real_ur_drivers_URBasic_realTimeClientEvent - INFO - Program send to Robot:
servoj([-0.019941750242513212, -1.5800002115222105, -1.593806038613181, -1.6904468282499765, 1.5431846726129563, 3.1983499427415616], 0.5, 0.5, 0.002, 0.2, 100)

2025-07-07 16:14:36,234 - gym_custom_envs_real_ur_drivers_URBasic_realTimeClientEvent - INFO - Program send to Robot:
servoj([-0.019941750242513212, -1.5800002115222105, -1.593806038613181, -1.6904468282499765, 1.5431846726129548, 3.1983499427415616], 0.5, 0.5, 0.002, 0.2, 100)

2025-07-07 16:14:36,242 - gym_custom_envs_real_ur_drivers_URBasic_realTimeClientEvent - INFO - Program send to Robot:
servoj([-0.019941750242513212, -1.5800002115222105, -1.593806038613181, -1.6904468282499765, 1.5431846726129548, 3.1983499427415616], 0.5, 0.5, 0.002, 0.2, 100)

2025-07-07 16:14:36,259 - gym_custom_envs_real_ur_drivers_URBasic_realTimeClientEvent - INFO - Program send to Robot:
servoj([-0.019941750242513212, -1.5800002115222105, -1.593806038613181, -1.6904468282499765, 1.5431846726129548, 3.1983499427415616], 0.5, 0.5, 0.002, 0.2, 100)

2025-07-07 16:14:36,266 - gym_custom_envs_real_ur_drivers_URBasic_realTimeClientEvent - INFO - Program send to Robot:
servoj([-0.019941750242513212, -1.5800002115222105, -1.593806038613181, -1.6904468282499765, 1.5431846726129548, 3.1983499427415616], 0.5, 0.5, 0.002, 0.2, 100)

2025-07-07 16:14:36,274 - gym_custom_envs_real_ur_drivers_URBasic_realTimeClientEvent - INFO - Program send to Robot:
servoj([-0.019941750242513212, -1.5800002115222105, -1.593806038613181, -1.6904468282499765, 1.5431846726129548, 3.1983499427415616], 0.5, 0.5, 0.002, 0.2, 100)

2025-07-07 16:14:36,282 - gym_custom_envs_real_ur_drivers_URBasic_realTimeClientEvent - INFO - Program send to Robot:
servoj([-0.019941750242513212, -1.5800002115222105, -1.593806038613181, -1.6904468282499765, 1.5431846726129548, 3.1983499427415616], 0.5, 0.5, 0.002, 0.2, 100)

2025-07-07 16:14:36,297 - gym_custom_envs_real_ur_drivers_URBasic_realTimeClientEvent - INFO - Program send to Robot:
servoj([-0.019941750242513212, -1.5800002115222105, -1.593806038613181, -1.6904468282499765, 1.5431846726129548, 3.1983499427415616], 0.5, 0.5, 0.002, 0.2, 100)

2025-07-07 16:14:36,306 - gym_custom_envs_real_ur_drivers_URBasic_realTimeClientEvent - INFO - Program send to Robot:
servoj([-0.019941750242513212, -1.5800002115222105, -1.593806038613181, -1.6904468282499765, 1.5447033135929618, 3.1983499427415616], 0.5, 0.5, 0.002, 0.2, 100)

2025-07-07 16:14:36,322 - gym_custom_envs_real_ur_drivers_URBasic_realTimeClientEvent - INFO - Program send to Robot:
servoj([-0.019941750242513212, -1.5800002115222105, -1.593806038613181, -1.6904468282499765, 1.5447185000027617, 3.1983499427415616], 0.5, 0.5, 0.002, 0.2, 100)

2025-07-07 16:14:36,330 - gym_custom_envs_real_ur_drivers_URBasic_realTimeClientEvent - INFO - Program send to Robot:
servoj([-0.019941750242513212, -1.5800002115222105, -1.593806038613181, -1.6904468282499765, 1.5447186518668599, 3.1983499427415616], 0.5, 0.5, 0.002, 0.2, 100)

2025-07-07 16:14:36,339 - gym_custom_envs_real_ur_drivers_URBasic_realTimeClientEvent - INFO - Program send to Robot:
servoj([-0.019941750242513212, -1.5800002115222105, -1.593806038613181, -1.6904468282499765, 1.5447186533855009, 3.1983499427415616], 0.5, 0.5, 0.002, 0.2, 100)

2025-07-07 16:14:36,346 - gym_custom_envs_real_ur_drivers_URBasic_realTimeClientEvent - INFO - Program send to Robot:
servoj([-0.019941750242513212, -1.5800002115222105, -1.593806038613181, -1.6904468282499765, 1.5447186534006871, 3.1983499427415616], 0.5, 0.5, 0.002, 0.2, 100)

2025-07-07 16:14:36,362 - gym_custom_envs_real_ur_drivers_URBasic_realTimeClientEvent - INFO - Program send to Robot:
servoj([-0.019941750242513212, -1.5800002115222105, -1.593806038613181, -1.6904468282499765, 1.543200012420832, 3.1983499427415616], 0.5, 0.5, 0.002, 0.2, 100)

2025-07-07 16:14:36,370 - gym_custom_envs_real_ur_drivers_URBasic_realTimeClientEvent - INFO - Program send to Robot:
servoj([-0.019941750242513212, -1.5800002115222105, -1.593806038613181, -1.6904468282499765, 1.5431848260110335, 3.1983499427415616], 0.5, 0.5, 0.002, 0.2, 100)

2025-07-07 16:14:36,378 - gym_custom_envs_real_ur_drivers_URBasic_realTimeClientEvent - INFO - Program send to Robot:
servoj([-0.019941750242513212, -1.5800002115222105, -1.593806038613181, -1.6904468282499765, 1.5431846741469355, 3.1983499427415616], 0.5, 0.5, 0.002, 0.2, 100)

2025-07-07 16:14:36,394 - gym_custom_envs_real_ur_drivers_URBasic_realTimeClientEvent - INFO - Program send to Robot:
servoj([-0.019941750242513212, -1.5800002115222105, -1.593806038613181, -1.6904468282499765, 1.5431846726282945, 3.1983499427415616], 0.5, 0.5, 0.002, 0.2, 100)

2025-07-07 16:14:36,403 - gym_custom_envs_real_ur_drivers_URBasic_realTimeClientEvent - INFO - Program send to Robot:
servoj([-0.019941750242513212, -1.5800002115222105, -1.593806038613181, -1.6904468282499765, 1.5431846726131082, 3.1983499427415616], 0.5, 0.5, 0.002, 0.2, 100)

2025-07-07 16:14:36,418 - gym_custom_envs_real_ur_drivers_URBasic_realTimeClientEvent - INFO - Program send to Robot:
servoj([-0.019941750242513212, -1.5800002115222105, -1.593806038613181, -1.6904468282499765, 1.5431846726129563, 3.1983499427415616], 0.5, 0.5, 0.002, 0.2, 100)

2025-07-07 16:14:36,426 - gym_custom_envs_real_ur_drivers_URBasic_realTimeClientEvent - INFO - Program send to Robot:
servoj([-0.019941750242513212, -1.5800002115222105, -1.593806038613181, -1.6904468282499765, 1.5431846726129548, 3.1983499427415616], 0.5, 0.5, 0.002, 0.2, 100)

2025-07-07 16:14:36,441 - gym_custom_envs_real_ur_drivers_URBasic_realTimeClientEvent - INFO - Program send to Robot:
servoj([-0.019941750242513212, -1.5800002115222105, -1.593806038613181, -1.6904468282499765, 1.5431846726129548, 3.1983499427415616], 0.5, 0.5, 0.002, 0.2, 100)

2025-07-07 16:14:36,450 - gym_custom_envs_real_ur_drivers_URBasic_realTimeClientEvent - INFO - Program send to Robot:
servoj([-0.019941750242513212, -1.5800002115222105, -1.593806038613181, -1.6904468282499765, 1.5431846726129548, 3.1983499427415616], 0.5, 0.5, 0.002, 0.2, 100)

2025-07-07 16:14:36,459 - gym_custom_envs_real_ur_drivers_URBasic_realTimeClientEvent - INFO - Program send to Robot:
servoj([-0.019941750242513212, -1.5800002115222105, -1.593806038613181, -1.6889281872699697, 1.5431846726129548, 3.1983499427415616], 0.5, 0.5, 0.002, 0.2, 100)

2025-07-07 16:14:36,466 - gym_custom_envs_real_ur_drivers_URBasic_realTimeClientEvent - INFO - Program send to Robot:
servoj([-0.019941750242513212, -1.5800002115222105, -1.593806038613181, -1.6889130008601698, 1.5431846726129548, 3.1983499427415616], 0.5, 0.5, 0.002, 0.2, 100)

2025-07-07 16:14:36,484 - gym_custom_envs_real_ur_drivers_URBasic_realTimeClientEvent - INFO - Program send to Robot:
servoj([-0.019941750242513212, -1.5800002115222105, -1.593806038613181, -1.6889128489960719, 1.5431846726129548, 3.1983499427415616], 0.5, 0.5, 0.002, 0.2, 100)

2025-07-07 16:14:36,490 - gym_custom_envs_real_ur_drivers_URBasic_realTimeClientEvent - INFO - Program send to Robot:
servoj([-0.019941750242513212, -1.5800002115222105, -1.593806038613181, -1.6889128474774309, 1.5431846726129548, 3.1983499427415616], 0.5, 0.5, 0.002, 0.2, 100)

2025-07-07 16:14:36,500 - gym_custom_envs_real_ur_drivers_URBasic_realTimeClientEvent - INFO - Program send to Robot:
servoj([-0.019941750242513212, -1.5800002115222105, -1.593806038613181, -1.6889128474622443, 1.5431846726129548, 3.1983499427415616], 0.5, 0.5, 0.002, 0.2, 100)

2025-07-07 16:14:36,514 - gym_custom_envs_real_ur_drivers_URBasic_realTimeClientEvent - INFO - Program send to Robot:
servoj([-0.019941750242513212, -1.5800002115222105, -1.593806038613181, -1.6889128474620925, 1.5431846726129548, 3.1983499427415616], 0.5, 0.5, 0.002, 0.2, 100)

2025-07-07 16:14:36,524 - gym_custom_envs_real_ur_drivers_URBasic_realTimeClientEvent - INFO - Program send to Robot:
servoj([-0.019941750242513212, -1.5800002115222105, -1.593806038613181, -1.688912847462091, 1.5431846726129548, 3.1983499427415616], 0.5, 0.5, 0.002, 0.2, 100)

2025-07-07 16:14:36,532 - gym_custom_envs_real_ur_drivers_URBasic_realTimeClientEvent - INFO - Program send to Robot:
servoj([-0.019941750242513212, -1.5800002115222105, -1.593806038613181, -1.688912847462091, 1.5431846726129548, 3.1983499427415616], 0.5, 0.5, 0.002, 0.2, 100)

2025-07-07 16:14:36,538 - gym_custom_envs_real_ur_drivers_URBasic_realTimeClientEvent - INFO - Program send to Robot:
servoj([-0.019941750242513212, -1.5800002115222105, -1.593806038613181, -1.688912847462091, 1.5431846726129548, 3.1983499427415616], 0.5, 0.5, 0.002, 0.2, 100)

2025-07-07 16:14:36,556 - gym_custom_envs_real_ur_drivers_URBasic_realTimeClientEvent - INFO - Program send to Robot:
servoj([-0.019941750242513212, -1.5800002115222105, -1.593806038613181, -1.6873942064820842, 1.5431846726129548, 3.1983499427415616], 0.5, 0.5, 0.002, 0.2, 100)

2025-07-07 16:14:36,562 - gym_custom_envs_real_ur_drivers_URBasic_realTimeClientEvent - INFO - Program send to Robot:
servoj([-0.019941750242513212, -1.5800002115222105, -1.593806038613181, -1.6873790200722842, 1.5431846726129548, 3.1983499427415616], 0.5, 0.5, 0.002, 0.2, 100)

2025-07-07 16:14:36,572 - gym_custom_envs_real_ur_drivers_URBasic_realTimeClientEvent - INFO - Program send to Robot:
servoj([-0.019941750242513212, -1.5800002115222105, -1.593806038613181, -1.687378868208186, 1.5431846726129548, 3.1983499427415616], 0.5, 0.5, 0.002, 0.2, 100)

2025-07-07 16:14:36,586 - gym_custom_envs_real_ur_drivers_URBasic_realTimeClientEvent - INFO - Program send to Robot:
servoj([-0.019941750242513212, -1.5800002115222105, -1.593806038613181, -1.687378866689545, 1.5431846726129548, 3.1983499427415616], 0.5, 0.5, 0.002, 0.2, 100)

2025-07-07 16:14:36,597 - gym_custom_envs_real_ur_drivers_URBasic_realTimeClientEvent - INFO - Program send to Robot:
servoj([-0.019941750242513212, -1.5800002115222105, -1.593806038613181, -1.6873788666743588, 1.5447033135929618, 3.1983499427415616], 0.5, 0.5, 0.002, 0.2, 100)

2025-07-07 16:14:36,602 - gym_custom_envs_real_ur_drivers_URBasic_realTimeClientEvent - INFO - Program send to Robot:
servoj([-0.019941750242513212, -1.5800002115222105, -1.593806038613181, -1.687378866674207, 1.5447185000027617, 3.1983499427415616], 0.5, 0.5, 0.002, 0.2, 100)

2025-07-07 16:14:36,610 - gym_custom_envs_real_ur_drivers_URBasic_realTimeClientEvent - INFO - Program send to Robot:
servoj([-0.019941750242513212, -1.5800002115222105, -1.593806038613181, -1.6873788666742053, 1.5447186518668599, 3.1983499427415616], 0.5, 0.5, 0.002, 0.2, 100)

2025-07-07 16:14:36,628 - gym_custom_envs_real_ur_drivers_URBasic_realTimeClientEvent - INFO - Program send to Robot:
servoj([-0.019941750242513212, -1.5800002115222105, -1.593806038613181, -1.6873788666742053, 1.5432000124054939, 3.1983499427415616], 0.5, 0.5, 0.002, 0.2, 100)

2025-07-07 16:14:36,634 - gym_custom_envs_real_ur_drivers_URBasic_realTimeClientEvent - INFO - Program send to Robot:
servoj([-0.019941750242513212, -1.5800002115222105, -1.593806038613181, -1.6873788666742053, 1.54318482601088, 3.1983499427415616], 0.5, 0.5, 0.002, 0.2, 100)

2025-07-07 16:14:36,643 - gym_custom_envs_real_ur_drivers_URBasic_realTimeClientEvent - INFO - Program send to Robot:
servoj([-0.019941750242513212, -1.5800002115222105, -1.593806038613181, -1.6873788666742053, 1.543184674146934, 3.1983499427415616], 0.5, 0.5, 0.002, 0.2, 100)

2025-07-07 16:14:36,658 - gym_custom_envs_real_ur_drivers_URBasic_realTimeClientEvent - INFO - Program send to Robot:
servoj([-0.019941750242513212, -1.5800002115222105, -1.593806038613181, -1.6858602256941986, 1.5431846726282945, 3.1983499427415616], 0.5, 0.5, 0.002, 0.2, 100)

2025-07-07 16:14:36,667 - gym_custom_envs_real_ur_drivers_URBasic_realTimeClientEvent - INFO - Program send to Robot:
servoj([-0.019941750242513212, -1.5800002115222105, -1.593806038613181, -1.6858450392843984, 1.5431846726131082, 3.1983499427415616], 0.5, 0.5, 0.002, 0.2, 100)

2025-07-07 16:14:36,675 - gym_custom_envs_real_ur_drivers_URBasic_realTimeClientEvent - INFO - Program send to Robot:
servoj([-0.019941750242513212, -1.5800002115222105, -1.593806038613181, -1.6858448874203005, 1.5431846726129563, 3.1983499427415616], 0.5, 0.5, 0.002, 0.2, 100)

2025-07-07 16:14:36,682 - gym_custom_envs_real_ur_drivers_URBasic_realTimeClientEvent - INFO - Program send to Robot:
servoj([-0.019941750242513212, -1.5800002115222105, -1.593806038613181, -1.6858448859016595, 1.5431846726129548, 3.1983499427415616], 0.5, 0.5, 0.002, 0.2, 100)

2025-07-07 16:14:36,700 - gym_custom_envs_real_ur_drivers_URBasic_realTimeClientEvent - INFO - Program send to Robot:
servoj([-0.019941750242513212, -1.5800002115222105, -1.592287397633174, -1.6858448858864732, 1.5431846726129548, 3.1983499427415616], 0.5, 0.5, 0.002, 0.2, 100)

2025-07-07 16:14:36,706 - gym_custom_envs_real_ur_drivers_URBasic_realTimeClientEvent - INFO - Program send to Robot:
servoj([-0.019941750242513212, -1.5800002115222105, -1.5922722112233738, -1.6858448858863213, 1.5431846726129548, 3.1983499427415616], 0.5, 0.5, 0.002, 0.2, 100)

2025-07-07 16:14:36,716 - gym_custom_envs_real_ur_drivers_URBasic_realTimeClientEvent - INFO - Program send to Robot:
servoj([-0.019941750242513212, -1.5800002115222105, -1.5922720593592758, -1.6858448858863198, 1.5431846726129548, 3.1983499427415616], 0.5, 0.5, 0.002, 0.2, 100)

2025-07-07 16:14:36,730 - gym_custom_envs_real_ur_drivers_URBasic_realTimeClientEvent - INFO - Program send to Robot:
servoj([-0.019941750242513212, -1.5800002115222105, -1.5922720578406349, -1.6858448858863198, 1.5431846726129548, 3.1983499427415616], 0.5, 0.5, 0.002, 0.2, 100)

2025-07-07 16:14:36,741 - gym_custom_envs_real_ur_drivers_URBasic_realTimeClientEvent - INFO - Program send to Robot:
servoj([-0.019941750242513212, -1.5800002115222105, -1.5922720578254483, -1.6858448858863198, 1.5431846726129548, 3.1983499427415616], 0.5, 0.5, 0.002, 0.2, 100)

2025-07-07 16:14:36,746 - gym_custom_envs_real_ur_drivers_URBasic_realTimeClientEvent - INFO - Program send to Robot:
servoj([-0.019941750242513212, -1.5800002115222105, -1.5922720578252965, -1.6858448858863198, 1.5431846726129548, 3.1983499427415616], 0.5, 0.5, 0.002, 0.2, 100)

2025-07-07 16:14:36,754 - gym_custom_envs_real_ur_drivers_URBasic_realTimeClientEvent - INFO - Program send to Robot:
servoj([-0.019941750242513212, -1.5800002115222105, -1.5922720578252951, -1.6858448858863198, 1.5431846726129548, 3.1983499427415616], 0.5, 0.5, 0.002, 0.2, 100)

2025-07-07 16:14:36,772 - gym_custom_envs_real_ur_drivers_URBasic_realTimeClientEvent - INFO - Program send to Robot:
servoj([-0.019941750242513212, -1.5800002115222105, -1.5922720578252951, -1.6858448858863198, 1.5431846726129548, 3.1983499427415616], 0.5, 0.5, 0.002, 0.2, 100)

2025-07-07 16:14:36,778 - gym_custom_envs_real_ur_drivers_URBasic_realTimeClientEvent - INFO - Program send to Robot:
servoj([-0.019941750242513212, -1.5800002115222105, -1.5907534168452893, -1.6858448858863198, 1.5431846726129548, 3.1983499427415616], 0.5, 0.5, 0.002, 0.2, 100)

2025-07-07 16:14:36,788 - gym_custom_envs_real_ur_drivers_URBasic_realTimeClientEvent - INFO - Program send to Robot:
servoj([-0.019941750242513212, -1.5800002115222105, -1.5907382304354891, -1.6858448858863198, 1.5431846726129548, 3.1983499427415616], 0.5, 0.5, 0.002, 0.2, 100)

2025-07-07 16:14:36,803 - gym_custom_envs_real_ur_drivers_URBasic_realTimeClientEvent - INFO - Program send to Robot:
servoj([-0.019941750242513212, -1.5800002115222105, -1.5907380785713912, -1.6858448858863198, 1.5431846726129548, 3.1983499427415616], 0.5, 0.5, 0.002, 0.2, 100)

2025-07-07 16:14:36,812 - gym_custom_envs_real_ur_drivers_URBasic_realTimeClientEvent - INFO - Program send to Robot:
servoj([-0.019941750242513212, -1.5800002115222105, -1.5877007950927362, -1.6858448858863198, 1.5431846726129548, 3.1983499427415616], 0.5, 0.5, 0.002, 0.2, 100)

2025-07-07 16:14:36,821 - gym_custom_envs_real_ur_drivers_URBasic_realTimeClientEvent - INFO - Program send to Robot:
servoj([-0.019941750242513212, -1.5800002115222105, -1.5876704222579496, -1.6858448858863198, 1.5431846726129548, 3.1983499427415616], 0.5, 0.5, 0.002, 0.2, 100)

2025-07-07 16:14:36,825 - gym_custom_envs_real_ur_drivers_URBasic_realTimeClientEvent - INFO - Program send to Robot:
