2025-07-07 16:18:32,461 - gym_custom_envs_real_ur_drivers_URBasic_robotModelEvent - INFO - Init done
2025-07-07 16:18:32,962 - gym_custom_envs_real_ur_drivers_URBasic_realTimeClientEvent - INFO - Connected
2025-07-07 16:18:32,962 - gym_custom_envs_real_ur_drivers_URBasic_realTimeClientEvent - INFO - RT_CLient constructor done
2025-07-07 16:18:32,963 - gym_custom_envs_real_ur_drivers_URBasic_dataLogEvent - INFO - Data logging (not event logging) is disabled
2025-07-07 16:18:32,964 - gym_custom_envs_real_ur_drivers_URBasic_dataLogEvent - INFO - DataLog constructor done
2025-07-07 16:18:32,964 - gym_custom_envs_real_ur_drivers_URBasic_dataLogEvent - INFO - DataLog is stopped
2025-07-07 16:18:32,965 - gym_custom_envs_real_ur_drivers_URBasic_rtdeEvent - INFO - RTDE constructor done
2025-07-07 16:18:33,352 - gym_custom_envs_real_ur_drivers_URBasic_rtdeEvent - INFO - Controller version: 3.3.1-60
2025-07-07 16:18:33,355 - gym_custom_envs_real_ur_drivers_URBasic_rtdeEvent - INFO - RTDE started
2025-07-07 16:18:33,467 - gym_custom_envs_real_ur_drivers_URBasic_dashboardEvent - INFO - Connected
2025-07-07 16:18:33,467 - gym_custom_envs_real_ur_drivers_URBasic_dashboardEvent - INFO - UR Dashboard respond Connected: Universal Robots Dashboard Server
2025-07-07 16:18:33,468 - gym_custom_envs_real_ur_drivers_URBasic_dashboardEvent - INFO - Dashboard server constructor done
2025-07-07 16:18:33,468 - gym_custom_envs_real_ur_drivers_URBasic_robotConnectorEvent - INFO - Init done
2025-07-07 16:18:33,468 - gym_custom_envs_real_ur_drivers_URBasic_urScriptEvent - INFO - Init done!!!
2025-07-07 16:18:33,482 - gym_custom_envs_real_ur_drivers_URBasic_urScriptExtEvent - INFO - Init done
2025-07-07 16:18:35,033 - gym_custom_envs_real_ur_interfaceEvent - INFO - [] init done
2025-07-07 16:18:35,033 - gym_custom_envs_real_ur_drivers_URBasic_realTimeClientEvent - INFO - Program send to Robot:
end_freedrive_mode()

2025-07-07 16:18:40,574 - gym_custom_envs_real_ur_drivers_URBasic_realTimeClientEvent - INFO - Program send to Robot:
servoj([0.038609843577875655, -1.6161454533635278, -1.5254200283616168, -1.5837067531026352, 1.5293158769607544, 3.190055485304792], 0.5, 0.5, 0.002, 0.2, 100)

2025-07-07 16:18:40,587 - gym_custom_envs_real_ur_drivers_URBasic_realTimeClientEvent - INFO - Program send to Robot:
servoj([0.038646580958724266, -1.6161509688136164, -1.5254170292536324, -1.583696348278382, 1.529327917098999, 3.190036149332802], 0.5, 0.5, 0.002, 0.2, 100)

2025-07-07 16:18:40,604 - gym_custom_envs_real_ur_drivers_URBasic_realTimeClientEvent - INFO - Program send to Robot:
servoj([0.03862534507024621, -1.6161509688136164, -1.5254311116996233, -1.58366790173748, 1.529327917098999, 3.1900219260623515], 0.5, 0.5, 0.002, 0.2, 100)

2025-07-07 16:18:40,624 - gym_custom_envs_real_ur_drivers_URBasic_realTimeClientEvent - INFO - Program send to Robot:
servoj([0.0386324236997389, -1.6161439275906209, -1.5254240704766278, -1.583696348278382, 1.529327917098999, 3.190050372603253], 0.5, 0.5, 0.002, 0.2, 100)

2025-07-07 16:18:40,635 - gym_custom_envs_real_ur_drivers_URBasic_realTimeClientEvent - INFO - Program send to Robot:
servoj([0.03863683128121123, -1.6161399215534604, -1.5254089848724288, -1.5836810718476007, 1.5293039560317994, 3.1900180836647376], 0.5, 0.5, 0.002, 0.2, 100)

2025-07-07 16:18:40,651 - gym_custom_envs_real_ur_drivers_URBasic_realTimeClientEvent - INFO - Program send to Robot:
servoj([0.03860540089212037, -1.6161354212001706, -1.5254209124970886, -1.583679025139559, 1.5293394804000855, 3.190038003230309], 0.5, 0.5, 0.002, 0.2, 100)

2025-07-07 16:18:40,670 - gym_custom_envs_real_ur_drivers_URBasic_realTimeClientEvent - INFO - Program send to Robot:
servoj([0.038635056854281605, -1.6161338953185835, -1.5254319969356507, -1.5836976275397487, 1.5293515205383301, 3.1900257125849314], 0.5, 0.5, 0.002, 0.2, 100)

2025-07-07 16:18:40,683 - gym_custom_envs_real_ur_drivers_URBasic_realTimeClientEvent - INFO - Program send to Robot:
servoj([0.03862663538727324, -1.6161354212001706, -1.525442034780113, -1.583671984378551, 1.5293394804000855, 3.1900096993710565], 0.5, 0.5, 0.002, 0.2, 100)

2025-07-07 16:18:40,699 - gym_custom_envs_real_ur_drivers_URBasic_realTimeClientEvent - INFO - Program send to Robot:
servoj([0.03860276446488244, -1.616109963175665, -1.52544115347344, -1.5836780229505558, 1.5293158769607544, 3.1900199951169292], 0.5, 0.5, 0.002, 0.2, 100)

2025-07-07 16:18:40,718 - gym_custom_envs_real_ur_drivers_URBasic_realTimeClientEvent - INFO - Program send to Robot:
servoj([0.03862797917291808, -1.616126855038707, -1.5254179163758974, -1.583668903197852, 1.5293515205383301, 3.1900469742301594], 0.5, 0.5, 0.002, 0.2, 100)

2025-07-07 16:18:40,731 - gym_custom_envs_real_ur_drivers_URBasic_realTimeClientEvent - INFO - Program send to Robot:
servoj([0.03862223271245206, -1.6161253444448735, -1.5254289615589773, -1.583701614126636, 1.5293634414672852, 3.1900488857327294], 0.5, 0.5, 0.002, 0.2, 100)

2025-07-07 16:18:40,747 - gym_custom_envs_real_ur_drivers_URBasic_realTimeClientEvent - INFO - Program send to Robot:
servoj([0.03862090149155456, -1.616126855038707, -1.5254531177752808, -1.5837046678196254, 1.5293515205383301, 3.1900328936704057], 0.5, 0.5, 0.002, 0.2, 100)

2025-07-07 16:18:40,766 - gym_custom_envs_real_ur_drivers_URBasic_realTimeClientEvent - INFO - Program send to Robot:
servoj([0.03864786988242611, -1.6161213396781544, -1.5254209124970886, -1.5836933882920154, 1.5293394804000855, 3.190030962469301], 0.5, 0.5, 0.002, 0.2, 100)

2025-07-07 16:18:40,780 - gym_custom_envs_real_ur_drivers_URBasic_realTimeClientEvent - INFO - Program send to Robot:
servoj([0.03862090149155456, -1.6161479758783368, -1.5254460774954042, -1.5836976275397487, 1.5293515205383301, 3.1900399339502825], 0.5, 0.5, 0.002, 0.2, 100)

2025-07-07 16:18:40,798 - gym_custom_envs_real_ur_drivers_URBasic_realTimeClientEvent - INFO - Program send to Robot:
servoj([0.03862090149155456, -1.6161338953185835, -1.5254035542049489, -1.5836832653688002, 1.5293515205383301, 3.190018672305055], 0.5, 0.5, 0.002, 0.2, 100)

2025-07-07 16:18:40,814 - gym_custom_envs_real_ur_drivers_URBasic_realTimeClientEvent - INFO - Program send to Robot:
servoj([0.0386337135523242, -1.6161424619611786, -1.5254138717360806, -1.5836863475310075, 1.5293394804000855, 3.1900167401320645], 0.5, 0.5, 0.002, 0.2, 100)

2025-07-07 16:18:40,827 - gym_custom_envs_real_ur_drivers_URBasic_realTimeClientEvent - INFO - Program send to Robot:
servoj([0.03863683128121123, -1.6161399215534604, -1.5254230692324913, -1.5837024800748958, 1.5293039560317994, 3.1900252666883695], 0.5, 0.5, 0.002, 0.2, 100)

2025-07-07 16:18:40,846 - gym_custom_envs_real_ur_drivers_URBasic_realTimeClientEvent - INFO - Program send to Robot:
servoj([0.03864079171737515, -1.6161354212001706, -1.5254209124970886, -1.583700710683464, 1.5293394804000855, 3.1900237808930725], 0.5, 0.5, 0.002, 0.2, 100)

2025-07-07 16:18:40,863 - gym_custom_envs_real_ur_drivers_URBasic_realTimeClientEvent - INFO - Program send to Robot:
servoj([0.03864523914284172, -1.6161313699556457, -1.525434111769499, -1.5837067531026352, 1.5293158769607544, 3.1900342193588904], 0.5, 0.5, 0.002, 0.2, 100)

2025-07-07 16:18:40,875 - gym_custom_envs_real_ur_drivers_URBasic_realTimeClientEvent - INFO - Program send to Robot:
servoj([0.03862663538727324, -1.616114017286706, -1.5254349940191048, -1.5836933882920154, 1.5293394804000855, 3.1900167401320645], 0.5, 0.5, 0.002, 0.2, 100)

2025-07-07 16:18:40,891 - gym_custom_envs_real_ur_drivers_URBasic_realTimeClientEvent - INFO - Program send to Robot:
servoj([0.03864523914284172, -1.616117004879606, -1.5254200283616168, -1.5836780229505558, 1.5293158769607544, 3.190027177654949], 0.5, 0.5, 0.002, 0.2, 100)

2025-07-07 16:18:40,909 - gym_custom_envs_real_ur_drivers_URBasic_realTimeClientEvent - INFO - Program send to Robot:
servoj([0.03864391087282395, -1.6161469637334918, -1.5254230692324913, -1.5836810718476007, 1.5293039560317994, 3.1900252666883695], 0.5, 0.5, 0.002, 0.2, 100)

2025-07-07 16:18:40,922 - gym_custom_envs_real_ur_drivers_URBasic_realTimeClientEvent - INFO - Program send to Robot:
servoj([0.03864079171737515, -1.6161283804391624, -1.525449075541121, -1.5836863475310075, 1.5293394804000855, 3.190030962469301], 0.5, 0.5, 0.002, 0.2, 100)

2025-07-07 16:18:40,941 - gym_custom_envs_real_ur_drivers_URBasic_realTimeClientEvent - INFO - Program send to Robot:
servoj([0.03862534507024621, -1.6161509688136164, -1.5254026651587216, -1.5837036711502972, 1.529327917098999, 3.1900431905557975], 0.5, 0.5, 0.002, 0.2, 100)

2025-07-07 16:18:40,957 - gym_custom_envs_real_ur_drivers_URBasic_realTimeClientEvent - INFO - Program send to Robot:
servoj([0.0386324236997389, -1.6161228039216342, -1.5254311116996233, -1.5836893070553864, 1.529327917098999, 3.1900078436163604], 0.5, 0.5, 0.002, 0.2, 100)

2025-07-07 16:18:40,972 - gym_custom_envs_real_ur_drivers_URBasic_realTimeClientEvent - INFO - Program send to Robot:
servoj([0.05829126993965428, -1.5938060386131812, -1.584602153885867, -1.538582730249298, 1.601475942552609, 3.2182916929840752], 0.5, 0.5, 0.002, 0.2, 100)

2025-07-07 16:18:40,982 - gym_custom_envs_real_ur_drivers_URBasic_realTimeClientEvent - INFO - Program send to Robot:
servoj([0.05829126993965428, -1.5938060386131812, -1.584602153885867, -1.538582730249298, 1.601475942552609, 3.2182916929840752], 0.5, 0.5, 0.002, 0.2, 100)

2025-07-07 16:18:40,987 - gym_custom_envs_real_ur_drivers_URBasic_realTimeClientEvent - INFO - Program send to Robot:
servoj([0.05829126993965428, -1.5938060386131812, -1.584602153885867, -1.538582730249298, 1.601475942552609, 3.2182916929840752], 0.5, 0.5, 0.002, 0.2, 100)

2025-07-07 16:18:41,007 - gym_custom_envs_real_ur_drivers_URBasic_realTimeClientEvent - INFO - Program send to Robot:
servoj([0.05829126993965428, -1.5938060386131812, -1.584602153885867, -1.538582730249298, 1.601475942552609, 3.2182916929840752], 0.5, 0.5, 0.002, 0.2, 100)

2025-07-07 16:18:41,011 - gym_custom_envs_real_ur_drivers_URBasic_realTimeClientEvent - INFO - Program send to Robot:
servoj([0.05829126993965428, -1.5938060386131812, -1.584602153885867, -1.538582730249298, 1.601475942552609, 3.2182916929840752], 0.5, 0.5, 0.002, 0.2, 100)

2025-07-07 16:18:41,029 - gym_custom_envs_real_ur_drivers_URBasic_realTimeClientEvent - INFO - Program send to Robot:
servoj([0.05829126993965428, -1.5938060386131812, -1.584602153885867, -1.538582730249298, 1.601475942552609, 3.2182916929840752], 0.5, 0.5, 0.002, 0.2, 100)

2025-07-07 16:18:41,037 - gym_custom_envs_real_ur_drivers_URBasic_realTimeClientEvent - INFO - Program send to Robot:
servoj([0.05829126993965428, -1.5938060386131812, -1.584602153885867, -1.538582730249298, 1.601475942552609, 3.2182916929840752], 0.5, 0.5, 0.002, 0.2, 100)

2025-07-07 16:18:41,042 - gym_custom_envs_real_ur_drivers_URBasic_realTimeClientEvent - INFO - Program send to Robot:
servoj([0.05829126993965428, -1.5938060386131812, -1.584602153885867, -1.538582730249298, 1.601475942552609, 3.2182916929840752], 0.5, 0.5, 0.002, 0.2, 100)

2025-07-07 16:18:41,061 - gym_custom_envs_real_ur_drivers_URBasic_realTimeClientEvent - INFO - Program send to Robot:
servoj([0.05829126993965428, -1.5938060386131812, -1.584602153885867, -1.538582730249298, 1.601475942552609, 3.2182916929840752], 0.5, 0.5, 0.002, 0.2, 100)

2025-07-07 16:18:41,067 - gym_custom_envs_real_ur_drivers_URBasic_realTimeClientEvent - INFO - Program send to Robot:
servoj([0.05829126993965428, -1.5938060386131812, -1.584602153885867, -1.538582730249298, 1.601475942552609, 3.2182916929840752], 0.5, 0.5, 0.002, 0.2, 100)

2025-07-07 16:18:41,077 - gym_custom_envs_real_ur_drivers_URBasic_realTimeClientEvent - INFO - Program send to Robot:
servoj([0.05829126993965428, -1.5938060386131812, -1.584602153885867, -1.538582730249298, 1.601475942552609, 3.2182916929840752], 0.5, 0.5, 0.002, 0.2, 100)

2025-07-07 16:18:41,091 - gym_custom_envs_real_ur_drivers_URBasic_realTimeClientEvent - INFO - Program send to Robot:
servoj([0.05829126993965428, -1.5938060386131812, -1.584602153885867, -1.538582730249298, 1.601475942552609, 3.2182916929840752], 0.5, 0.5, 0.002, 0.2, 100)

2025-07-07 16:18:41,102 - gym_custom_envs_real_ur_drivers_URBasic_realTimeClientEvent - INFO - Program send to Robot:
servoj([0.05829126993965428, -1.5938060386131812, -1.584602153885867, -1.538582730249298, 1.601475942552609, 3.2182916929840752], 0.5, 0.5, 0.002, 0.2, 100)

2025-07-07 16:18:41,107 - gym_custom_envs_real_ur_drivers_URBasic_realTimeClientEvent - INFO - Program send to Robot:
servoj([0.05829126993965428, -1.5938060386131812, -1.584602153885867, -1.538582730249298, 1.601475942552609, 3.2182916929840752], 0.5, 0.5, 0.002, 0.2, 100)

2025-07-07 16:18:41,115 - gym_custom_envs_real_ur_drivers_URBasic_realTimeClientEvent - INFO - Program send to Robot:
servoj([0.05829126993965428, -1.5938060386131812, -1.584602153885867, -1.538582730249298, 1.601475942552609, 3.2182916929840752], 0.5, 0.5, 0.002, 0.2, 100)

2025-07-07 16:18:41,131 - gym_custom_envs_real_ur_drivers_URBasic_realTimeClientEvent - INFO - Program send to Robot:
servoj([0.05829126993965428, -1.5938060386131812, -1.584602153885867, -1.538582730249298, 1.601475942552609, 3.2182916929840752], 0.5, 0.5, 0.002, 0.2, 100)

2025-07-07 16:18:41,139 - gym_custom_envs_real_ur_drivers_URBasic_realTimeClientEvent - INFO - Program send to Robot:
servoj([0.05829126993965428, -1.5938060386131812, -1.584602153885867, -1.538582730249298, 1.601475942552609, 3.2182916929840752], 0.5, 0.5, 0.002, 0.2, 100)

2025-07-07 16:18:41,149 - gym_custom_envs_real_ur_drivers_URBasic_realTimeClientEvent - INFO - Program send to Robot:
servoj([0.05829126993965428, -1.5938060386131812, -1.584602153885867, -1.538582730249298, 1.601475942552609, 3.2182916929840752], 0.5, 0.5, 0.002, 0.2, 100)

2025-07-07 16:18:41,163 - gym_custom_envs_real_ur_drivers_URBasic_realTimeClientEvent - INFO - Program send to Robot:
servoj([0.05829126993965428, -1.5938060386131812, -1.584602153885867, -1.538582730249298, 1.601475942552609, 3.2182916929840752], 0.5, 0.5, 0.002, 0.2, 100)

2025-07-07 16:18:41,173 - gym_custom_envs_real_ur_drivers_URBasic_realTimeClientEvent - INFO - Program send to Robot:
servoj([0.05829126993965428, -1.5938060386131812, -1.584602153885867, -1.538582730249298, 1.601475942552609, 3.2182916929840752], 0.5, 0.5, 0.002, 0.2, 100)

2025-07-07 16:18:41,181 - gym_custom_envs_real_ur_drivers_URBasic_realTimeClientEvent - INFO - Program send to Robot:
servoj([0.05829126993965428, -1.5938060386131812, -1.584602153885867, -1.538582730249298, 1.601475942552609, 3.2182916929840752], 0.5, 0.5, 0.002, 0.2, 100)

2025-07-07 16:18:41,186 - gym_custom_envs_real_ur_drivers_URBasic_realTimeClientEvent - INFO - Program send to Robot:
servoj([0.05829126993965428, -1.5938060386131812, -1.584602153885867, -1.538582730249298, 1.601475942552609, 3.2182916929840752], 0.5, 0.5, 0.002, 0.2, 100)

2025-07-07 16:18:41,206 - gym_custom_envs_real_ur_drivers_URBasic_realTimeClientEvent - INFO - Program send to Robot:
servoj([0.05829126993965428, -1.5938060386131812, -1.584602153885867, -1.538582730249298, 1.601475942552609, 3.2182916929840752], 0.5, 0.5, 0.002, 0.2, 100)

2025-07-07 16:18:41,212 - gym_custom_envs_real_ur_drivers_URBasic_realTimeClientEvent - INFO - Program send to Robot:
servoj([0.05829126993965428, -1.5938060386131812, -1.584602153885867, -1.538582730249298, 1.601475942552609, 3.2182916929840752], 0.5, 0.5, 0.002, 0.2, 100)

2025-07-07 16:18:41,230 - gym_custom_envs_real_ur_drivers_URBasic_realTimeClientEvent - INFO - Program send to Robot:
servoj([0.05829126993965428, -1.5938060386131812, -1.584602153885867, -1.538582730249298, 1.601475942552609, 3.2182916929840752], 0.5, 0.5, 0.002, 0.2, 100)

2025-07-07 16:18:41,234 - gym_custom_envs_real_ur_drivers_URBasic_realTimeClientEvent - INFO - Program send to Robot:
servoj([0.05829126993965428, -1.5938060386131812, -1.584602153885867, -1.538582730249298, 1.601475942552609, 3.2182916929840752], 0.5, 0.5, 0.002, 0.2, 100)

2025-07-07 16:18:41,252 - gym_custom_envs_real_ur_drivers_URBasic_realTimeClientEvent - INFO - Program send to Robot:
servoj([0.05829126993965428, -1.5938060386131812, -1.584602153885867, -1.538582730249298, 1.601475942552609, 3.2182916929840752], 0.5, 0.5, 0.002, 0.2, 100)

2025-07-07 16:18:41,259 - gym_custom_envs_real_ur_drivers_URBasic_realTimeClientEvent - INFO - Program send to Robot:
servoj([0.05829126993965428, -1.5938060386131812, -1.584602153885867, -1.538582730249298, 1.601475942552609, 3.2182916929840752], 0.5, 0.5, 0.002, 0.2, 100)

2025-07-07 16:18:41,270 - gym_custom_envs_real_ur_drivers_URBasic_realTimeClientEvent - INFO - Program send to Robot:
servoj([0.05829126993965428, -1.5938060386131812, -1.584602153885867, -1.538582730249298, 1.601475942552609, 3.2182916929840752], 0.5, 0.5, 0.002, 0.2, 100)

2025-07-07 16:18:41,283 - gym_custom_envs_real_ur_drivers_URBasic_realTimeClientEvent - INFO - Program send to Robot:
servoj([0.05829126993965428, -1.5938060386131812, -1.584602153885867, -1.538582730249298, 1.601475942552609, 3.2182916929840752], 0.5, 0.5, 0.002, 0.2, 100)

2025-07-07 16:18:41,294 - gym_custom_envs_real_ur_drivers_URBasic_realTimeClientEvent - INFO - Program send to Robot:
servoj([0.05829126993965428, -1.5938060386131812, -1.584602153885867, -1.538582730249298, 1.601475942552609, 3.2182916929840752], 0.5, 0.5, 0.002, 0.2, 100)

2025-07-07 16:18:41,302 - gym_custom_envs_real_ur_drivers_URBasic_realTimeClientEvent - INFO - Program send to Robot:
servoj([0.05829126993965428, -1.5938060386131812, -1.584602153885867, -1.538582730249298, 1.601475942552609, 3.2182916929840752], 0.5, 0.5, 0.002, 0.2, 100)

2025-07-07 16:18:41,308 - gym_custom_envs_real_ur_drivers_URBasic_realTimeClientEvent - INFO - Program send to Robot:
servoj([0.05829126993965428, -1.5938060386131812, -1.584602153885867, -1.538582730249298, 1.601475942552609, 3.2182916929840752], 0.5, 0.5, 0.002, 0.2, 100)

2025-07-07 16:18:41,326 - gym_custom_envs_real_ur_drivers_URBasic_realTimeClientEvent - INFO - Program send to Robot:
servoj([0.05829126993965428, -1.5938060386131812, -1.584602153885867, -1.538582730249298, 1.601475942552609, 3.2182916929840752], 0.5, 0.5, 0.002, 0.2, 100)

2025-07-07 16:18:41,354 - gym_custom_envs_real_ur_drivers_URBasic_rtdeEvent - INFO - Total packages: 1000
2025-07-07 16:18:41,354 - gym_custom_envs_real_ur_drivers_URBasic_realTimeClientEvent - INFO - Program send to Robot:
servoj([0.05829126993965428, -1.5938060386131812, -1.584602153885867, -1.538582730249298, 1.601475942552609, 3.2182916929840752], 0.5, 0.5, 0.002, 0.2, 100)

2025-07-07 16:18:41,367 - gym_custom_envs_real_ur_drivers_URBasic_realTimeClientEvent - INFO - Program send to Robot:
servoj([0.05829126993965428, -1.5938060386131812, -1.584602153885867, -1.538582730249298, 1.601475942552609, 3.2182916929840752], 0.5, 0.5, 0.002, 0.2, 100)

2025-07-07 16:18:41,372 - gym_custom_envs_real_ur_drivers_URBasic_realTimeClientEvent - INFO - Program send to Robot:
servoj([0.05829126993965428, -1.5938060386131812, -1.584602153885867, -1.538582730249298, 1.601475942552609, 3.2182916929840752], 0.5, 0.5, 0.002, 0.2, 100)

2025-07-07 16:18:41,393 - gym_custom_envs_real_ur_drivers_URBasic_realTimeClientEvent - INFO - Program send to Robot:
servoj([0.05829126993965428, -1.5938060386131812, -1.584602153885867, -1.538582730249298, 1.601475942552609, 3.2182916929840752], 0.5, 0.5, 0.002, 0.2, 100)

2025-07-07 16:18:41,404 - gym_custom_envs_real_ur_drivers_URBasic_realTimeClientEvent - INFO - Program send to Robot:
servoj([0.05829126993965428, -1.5938060386131812, -1.584602153885867, -1.538582730249298, 1.601475942552609, 3.2182916929840752], 0.5, 0.5, 0.002, 0.2, 100)

2025-07-07 16:18:41,415 - gym_custom_envs_real_ur_drivers_URBasic_realTimeClientEvent - INFO - Program send to Robot:
servoj([0.05829126993965428, -1.5938060386131812, -1.584602153885867, -1.538582730249298, 1.601475942552609, 3.2182916929840752], 0.5, 0.5, 0.002, 0.2, 100)

2025-07-07 16:18:41,419 - gym_custom_envs_real_ur_drivers_URBasic_realTimeClientEvent - INFO - Program send to Robot:
servoj([0.05829126993965428, -1.5938060386131812, -1.584602153885867, -1.538582730249298, 1.601475942552609, 3.2182916929840752], 0.5, 0.5, 0.002, 0.2, 100)

2025-07-07 16:18:41,439 - gym_custom_envs_real_ur_drivers_URBasic_realTimeClientEvent - INFO - Program send to Robot:
servoj([0.05829126993965428, -1.5938060386131812, -1.584602153885867, -1.538582730249298, 1.601475942552609, 3.2182916929840752], 0.5, 0.5, 0.002, 0.2, 100)

2025-07-07 16:18:41,448 - gym_custom_envs_real_ur_drivers_URBasic_realTimeClientEvent - INFO - Program send to Robot:
servoj([0.05829126993965428, -1.5938060386131812, -1.584602153885867, -1.538582730249298, 1.601475942552609, 3.2182916929840752], 0.5, 0.5, 0.002, 0.2, 100)

2025-07-07 16:18:41,464 - gym_custom_envs_real_ur_drivers_URBasic_realTimeClientEvent - INFO - Program send to Robot:
servoj([0.05829126993965428, -1.5938060386131812, -1.584602153885867, -1.538582730249298, 1.601475942552609, 3.2182916929840752], 0.5, 0.5, 0.002, 0.2, 100)

2025-07-07 16:18:41,468 - gym_custom_envs_real_ur_drivers_URBasic_realTimeClientEvent - INFO - Program send to Robot:
servoj([0.05829126993965428, -1.5938060386131812, -1.584602153885867, -1.538582730249298, 1.601475942552609, 3.2182916929840752], 0.5, 0.5, 0.002, 0.2, 100)

2025-07-07 16:18:41,489 - gym_custom_envs_real_ur_drivers_URBasic_realTimeClientEvent - INFO - Program send to Robot:
servoj([0.05829126993965428, -1.5938060386131812, -1.584602153885867, -1.538582730249298, 1.601475942552609, 3.2182916929840752], 0.5, 0.5, 0.002, 0.2, 100)

2025-07-07 16:18:41,499 - gym_custom_envs_real_ur_drivers_URBasic_realTimeClientEvent - INFO - Program send to Robot:
servoj([0.05829126993965428, -1.5938060386131812, -1.584602153885867, -1.538582730249298, 1.601475942552609, 3.2182916929840752], 0.5, 0.5, 0.002, 0.2, 100)

2025-07-07 16:18:41,511 - gym_custom_envs_real_ur_drivers_URBasic_realTimeClientEvent - INFO - Program send to Robot:
servoj([0.05829126993965428, -1.5938060386131812, -1.584602153885867, -1.538582730249298, 1.601475942552609, 3.2182916929840752], 0.5, 0.5, 0.002, 0.2, 100)

2025-07-07 16:18:41,515 - gym_custom_envs_real_ur_drivers_URBasic_realTimeClientEvent - INFO - Program send to Robot:
servoj([0.05829126993965428, -1.5938060386131812, -1.584602153885867, -1.538582730249298, 1.601475942552609, 3.2182916929840752], 0.5, 0.5, 0.002, 0.2, 100)

2025-07-07 16:18:41,535 - gym_custom_envs_real_ur_drivers_URBasic_realTimeClientEvent - INFO - Program send to Robot:
servoj([0.05829126993965428, -1.5938060386131812, -1.584602153885867, -1.538582730249298, 1.601475942552609, 3.2182916929840752], 0.5, 0.5, 0.002, 0.2, 100)

2025-07-07 16:18:41,539 - gym_custom_envs_real_ur_drivers_URBasic_realTimeClientEvent - INFO - Program send to Robot:
servoj([0.05829126993965428, -1.5938060386131812, -1.584602153885867, -1.538582730249298, 1.601475942552609, 3.2182916929840752], 0.5, 0.5, 0.002, 0.2, 100)

2025-07-07 16:18:41,558 - gym_custom_envs_real_ur_drivers_URBasic_realTimeClientEvent - INFO - Program send to Robot:
servoj([0.05829126993965428, -1.5938060386131812, -1.584602153885867, -1.538582730249298, 1.601475942552609, 3.2182916929840752], 0.5, 0.5, 0.002, 0.2, 100)

2025-07-07 16:18:41,562 - gym_custom_envs_real_ur_drivers_URBasic_realTimeClientEvent - INFO - Program send to Robot:
servoj([0.05829126993965428, -1.5938060386131812, -1.584602153885867, -1.538582730249298, 1.601475942552609, 3.2182916929840752], 0.5, 0.5, 0.002, 0.2, 100)

2025-07-07 16:18:41,582 - gym_custom_envs_real_ur_drivers_URBasic_realTimeClientEvent - INFO - Program send to Robot:
servoj([0.05829126993965428, -1.5938060386131812, -1.584602153885867, -1.538582730249298, 1.601475942552609, 3.2182916929840752], 0.5, 0.5, 0.002, 0.2, 100)

2025-07-07 16:18:41,587 - gym_custom_envs_real_ur_drivers_URBasic_realTimeClientEvent - INFO - Program send to Robot:
servoj([0.05829126993965428, -1.5938060386131812, -1.584602153885867, -1.538582730249298, 1.601475942552609, 3.2182916929840752], 0.5, 0.5, 0.002, 0.2, 100)

2025-07-07 16:18:41,595 - gym_custom_envs_real_ur_drivers_URBasic_realTimeClientEvent - INFO - Program send to Robot:
servoj([0.05829126993965428, -1.5938060386131812, -1.584602153885867, -1.538582730249298, 1.601475942552609, 3.2182916929840752], 0.5, 0.5, 0.002, 0.2, 100)

2025-07-07 16:18:41,611 - gym_custom_envs_real_ur_drivers_URBasic_realTimeClientEvent - INFO - Program send to Robot:
servoj([0.05829126993965428, -1.5938060386131812, -1.584602153885867, -1.538582730249298, 1.601475942552609, 3.2182916929840752], 0.5, 0.5, 0.002, 0.2, 100)

2025-07-07 16:18:41,619 - gym_custom_envs_real_ur_drivers_URBasic_realTimeClientEvent - INFO - Program send to Robot:
servoj([0.05829126993965428, -1.5938060386131812, -1.584602153885867, -1.538582730249298, 1.601475942552609, 3.2182916929840752], 0.5, 0.5, 0.002, 0.2, 100)

2025-07-07 16:18:41,630 - gym_custom_envs_real_ur_drivers_URBasic_realTimeClientEvent - INFO - Program send to Robot:
servoj([0.05829126993965428, -1.5938060386131812, -1.584602153885867, -1.538582730249298, 1.601475942552609, 3.2182916929840752], 0.5, 0.5, 0.002, 0.2, 100)

2025-07-07 16:18:41,643 - gym_custom_envs_real_ur_drivers_URBasic_realTimeClientEvent - INFO - Program send to Robot:
servoj([0.05829126993965428, -1.5938060386131812, -1.584602153885867, -1.538582730249298, 1.601475942552609, 3.2182916929840752], 0.5, 0.5, 0.002, 0.2, 100)

2025-07-07 16:18:41,653 - gym_custom_envs_real_ur_drivers_URBasic_realTimeClientEvent - INFO - Program send to Robot:
servoj([0.05829126993965428, -1.5938060386131812, -1.584602153885867, -1.538582730249298, 1.601475942552609, 3.2182916929840752], 0.5, 0.5, 0.002, 0.2, 100)

2025-07-07 16:18:41,661 - gym_custom_envs_real_ur_drivers_URBasic_realTimeClientEvent - INFO - Program send to Robot:
servoj([0.05829126993965428, -1.5938060386131812, -1.584602153885867, -1.538582730249298, 1.601475942552609, 3.2182916929840752], 0.5, 0.5, 0.002, 0.2, 100)

2025-07-07 16:18:41,666 - gym_custom_envs_real_ur_drivers_URBasic_realTimeClientEvent - INFO - Program send to Robot:
servoj([0.05829126993965428, -1.5938060386131812, -1.584602153885867, -1.538582730249298, 1.601475942552609, 3.2182916929840752], 0.5, 0.5, 0.002, 0.2, 100)

2025-07-07 16:18:41,685 - gym_custom_envs_real_ur_drivers_URBasic_realTimeClientEvent - INFO - Program send to Robot:
servoj([0.05829126993965428, -1.5938060386131812, -1.584602153885867, -1.538582730249298, 1.601475942552609, 3.2182916929840752], 0.5, 0.5, 0.002, 0.2, 100)

2025-07-07 16:18:41,691 - gym_custom_envs_real_ur_drivers_URBasic_realTimeClientEvent - INFO - Program send to Robot:
servoj([0.05829126993965428, -1.5938060386131812, -1.584602153885867, -1.538582730249298, 1.601475942552609, 3.2182916929840752], 0.5, 0.5, 0.002, 0.2, 100)

2025-07-07 16:18:41,701 - gym_custom_envs_real_ur_drivers_URBasic_realTimeClientEvent - INFO - Program send to Robot:
servoj([0.05829126993965428, -1.5938060386131812, -1.584602153885867, -1.538582730249298, 1.601475942552609, 3.2182916929840752], 0.5, 0.5, 0.002, 0.2, 100)

2025-07-07 16:18:41,715 - gym_custom_envs_real_ur_drivers_URBasic_realTimeClientEvent - INFO - Program send to Robot:
servoj([0.05829126993965428, -1.5938060386131812, -1.584602153885867, -1.538582730249298, 1.601475942552609, 3.2182916929840752], 0.5, 0.5, 0.002, 0.2, 100)

2025-07-07 16:18:41,726 - gym_custom_envs_real_ur_drivers_URBasic_realTimeClientEvent - INFO - Program send to Robot:
servoj([0.05829126993965428, -1.5938060386131812, -1.584602153885867, -1.538582730249298, 1.601475942552609, 3.2182916929840752], 0.5, 0.5, 0.002, 0.2, 100)

2025-07-07 16:18:41,731 - gym_custom_envs_real_ur_drivers_URBasic_realTimeClientEvent - INFO - Program send to Robot:
servoj([0.05829126993965428, -1.5938060386131812, -1.584602153885867, -1.538582730249298, 1.601475942552609, 3.2182916929840752], 0.5, 0.5, 0.002, 0.2, 100)

2025-07-07 16:18:41,739 - gym_custom_envs_real_ur_drivers_URBasic_realTimeClientEvent - INFO - Program send to Robot:
servoj([0.05829126993965428, -1.5938060386131812, -1.584602153885867, -1.538582730249298, 1.601475942552609, 3.2182916929840752], 0.5, 0.5, 0.002, 0.2, 100)

2025-07-07 16:18:41,758 - gym_custom_envs_real_ur_drivers_URBasic_realTimeClientEvent - INFO - Program send to Robot:
servoj([0.05829126993965428, -1.5938060386131812, -1.584602153885867, -1.538582730249298, 1.601475942552609, 3.2182916929840752], 0.5, 0.5, 0.002, 0.2, 100)

2025-07-07 16:18:41,762 - gym_custom_envs_real_ur_drivers_URBasic_realTimeClientEvent - INFO - Program send to Robot:
servoj([0.05829126993965428, -1.5938060386131812, -1.584602153885867, -1.538582730249298, 1.601475942552609, 3.2182916929840752], 0.5, 0.5, 0.002, 0.2, 100)

2025-07-07 16:18:41,781 - gym_custom_envs_real_ur_drivers_URBasic_realTimeClientEvent - INFO - Program send to Robot:
servoj([0.05829126993965428, -1.5938060386131812, -1.584602153885867, -1.538582730249298, 1.601475942552609, 3.2182916929840752], 0.5, 0.5, 0.002, 0.2, 100)

2025-07-07 16:18:41,787 - gym_custom_envs_real_ur_drivers_URBasic_realTimeClientEvent - INFO - Program send to Robot:
servoj([0.05829126993965428, -1.5938060386131812, -1.584602153885867, -1.538582730249298, 1.601475942552609, 3.2182916929840752], 0.5, 0.5, 0.002, 0.2, 100)

2025-07-07 16:18:41,797 - gym_custom_envs_real_ur_drivers_URBasic_realTimeClientEvent - INFO - Program send to Robot:
servoj([0.05829126993965428, -1.5938060386131812, -1.584602153885867, -1.538582730249298, 1.601475942552609, 3.2182916929840752], 0.5, 0.5, 0.002, 0.2, 100)

2025-07-07 16:18:41,811 - gym_custom_envs_real_ur_drivers_URBasic_realTimeClientEvent - INFO - Program send to Robot:
servoj([0.05829126993965428, -1.5938060386131812, -1.584602153885867, -1.538582730249298, 1.601475942552609, 3.2182916929840752], 0.5, 0.5, 0.002, 0.2, 100)

2025-07-07 16:18:41,821 - gym_custom_envs_real_ur_drivers_URBasic_realTimeClientEvent - INFO - Program send to Robot:
servoj([0.05829126993965428, -1.5938060386131812, -1.584602153885867, -1.538582730249298, 1.601475942552609, 3.2182916929840752], 0.5, 0.5, 0.002, 0.2, 100)

2025-07-07 16:18:41,830 - gym_custom_envs_real_ur_drivers_URBasic_realTimeClientEvent - INFO - Program send to Robot:
servoj([0.05829126993965428, -1.5938060386131812, -1.584602153885867, -1.538582730249298, 1.601475942552609, 3.2182916929840752], 0.5, 0.5, 0.002, 0.2, 100)

2025-07-07 16:18:41,835 - gym_custom_envs_real_ur_drivers_URBasic_realTimeClientEvent - INFO - Program send to Robot:
servoj([0.05829126993965428, -1.5938060386131812, -1.584602153885867, -1.538582730249298, 1.601475942552609, 3.2182916929840752], 0.5, 0.5, 0.002, 0.2, 100)

2025-07-07 16:18:41,855 - gym_custom_envs_real_ur_drivers_URBasic_realTimeClientEvent - INFO - Program send to Robot:
servoj([0.05829126993965428, -1.5938060386131812, -1.584602153885867, -1.538582730249298, 1.601475942552609, 3.2182916929840752], 0.5, 0.5, 0.002, 0.2, 100)

2025-07-07 16:18:41,858 - gym_custom_envs_real_ur_drivers_URBasic_realTimeClientEvent - INFO - Program send to Robot:
servoj([0.05829126993965428, -1.5938060386131812, -1.584602153885867, -1.538582730249298, 1.601475942552609, 3.2182916929840752], 0.5, 0.5, 0.002, 0.2, 100)

2025-07-07 16:18:41,875 - gym_custom_envs_real_ur_drivers_URBasic_realTimeClientEvent - INFO - Program send to Robot:
servoj([0.05829126993965428, -1.5938060386131812, -1.584602153885867, -1.538582730249298, 1.601475942552609, 3.2182916929840752], 0.5, 0.5, 0.002, 0.2, 100)

2025-07-07 16:18:41,883 - gym_custom_envs_real_ur_drivers_URBasic_realTimeClientEvent - INFO - Program send to Robot:
servoj([0.05829126993965428, -1.5938060386131812, -1.584602153885867, -1.538582730249298, 1.601475942552609, 3.2182916929840752], 0.5, 0.5, 0.002, 0.2, 100)

2025-07-07 16:18:41,894 - gym_custom_envs_real_ur_drivers_URBasic_realTimeClientEvent - INFO - Program send to Robot:
servoj([0.05829126993965428, -1.5938060386131812, -1.584602153885867, -1.538582730249298, 1.601475942552609, 3.2182916929840752], 0.5, 0.5, 0.002, 0.2, 100)

2025-07-07 16:18:41,907 - gym_custom_envs_real_ur_drivers_URBasic_realTimeClientEvent - INFO - Program send to Robot:
servoj([0.05829126993965428, -1.5938060386131812, -1.584602153885867, -1.538582730249298, 1.601475942552609, 3.2182916929840752], 0.5, 0.5, 0.002, 0.2, 100)

2025-07-07 16:18:41,917 - gym_custom_envs_real_ur_drivers_URBasic_realTimeClientEvent - INFO - Program send to Robot:
servoj([0.05829126993965428, -1.5938060386131812, -1.584602153885867, -1.538582730249298, 1.601475942552609, 3.2182916929840752], 0.5, 0.5, 0.002, 0.2, 100)

2025-07-07 16:18:41,925 - gym_custom_envs_real_ur_drivers_URBasic_realTimeClientEvent - INFO - Program send to Robot:
servoj([0.05829126993965428, -1.5938060386131812, -1.584602153885867, -1.538582730249298, 1.601475942552609, 3.2182916929840752], 0.5, 0.5, 0.002, 0.2, 100)

2025-07-07 16:18:41,930 - gym_custom_envs_real_ur_drivers_URBasic_realTimeClientEvent - INFO - Program send to Robot:
servoj([0.05829126993965428, -1.5938060386131812, -1.584602153885867, -1.538582730249298, 1.601475942552609, 3.2182916929840752], 0.5, 0.5, 0.002, 0.2, 100)

2025-07-07 16:18:41,949 - gym_custom_envs_real_ur_drivers_URBasic_realTimeClientEvent - INFO - Program send to Robot:
servoj([0.05829126993965428, -1.5938060386131812, -1.584602153885867, -1.538582730249298, 1.601475942552609, 3.2182916929840752], 0.5, 0.5, 0.002, 0.2, 100)

2025-07-07 16:18:41,955 - gym_custom_envs_real_ur_drivers_URBasic_realTimeClientEvent - INFO - Program send to Robot:
servoj([0.05829126993965428, -1.5938060386131812, -1.584602153885867, -1.538582730249298, 1.601475942552609, 3.2182916929840752], 0.5, 0.5, 0.002, 0.2, 100)

2025-07-07 16:18:41,965 - gym_custom_envs_real_ur_drivers_URBasic_realTimeClientEvent - INFO - Program send to Robot:
servoj([0.05829126993965428, -1.5938060386131812, -1.584602153885867, -1.538582730249298, 1.601475942552609, 3.2182916929840752], 0.5, 0.5, 0.002, 0.2, 100)

2025-07-07 16:18:41,978 - gym_custom_envs_real_ur_drivers_URBasic_realTimeClientEvent - INFO - Program send to Robot:
servoj([0.05829126993965428, -1.5938060386131812, -1.584602153885867, -1.538582730249298, 1.601475942552609, 3.2182916929840752], 0.5, 0.5, 0.002, 0.2, 100)

2025-07-07 16:18:41,990 - gym_custom_envs_real_ur_drivers_URBasic_realTimeClientEvent - INFO - Program send to Robot:
servoj([0.05829126993965428, -1.5938060386131812, -1.584602153885867, -1.538582730249298, 1.601475942552609, 3.2182916929840752], 0.5, 0.5, 0.002, 0.2, 100)

2025-07-07 16:18:41,994 - gym_custom_envs_real_ur_drivers_URBasic_realTimeClientEvent - INFO - Program send to Robot:
servoj([0.05829126993965428, -1.5938060386131812, -1.584602153885867, -1.538582730249298, 1.601475942552609, 3.2182916929840752], 0.5, 0.5, 0.002, 0.2, 100)

2025-07-07 16:18:42,003 - gym_custom_envs_real_ur_drivers_URBasic_realTimeClientEvent - INFO - Program send to Robot:
servoj([0.05829126993965428, -1.5938060386131812, -1.584602153885867, -1.538582730249298, 1.601475942552609, 3.2182916929840752], 0.5, 0.5, 0.002, 0.2, 100)

2025-07-07 16:18:42,022 - gym_custom_envs_real_ur_drivers_URBasic_realTimeClientEvent - INFO - Program send to Robot:
servoj([0.05829126993965428, -1.5938060386131812, -1.584602153885867, -1.538582730249298, 1.601475942552609, 3.2182916929840752], 0.5, 0.5, 0.002, 0.2, 100)

2025-07-07 16:18:42,027 - gym_custom_envs_real_ur_drivers_URBasic_realTimeClientEvent - INFO - Program send to Robot:
servoj([0.05829126993965428, -1.5938060386131812, -1.584602153885867, -1.538582730249298, 1.601475942552609, 3.2182916929840752], 0.5, 0.5, 0.002, 0.2, 100)

2025-07-07 16:18:42,036 - gym_custom_envs_real_ur_drivers_URBasic_realTimeClientEvent - INFO - Program send to Robot:
servoj([0.05829126993965428, -1.5938060386131812, -1.584602153885867, -1.538582730249298, 1.601475942552609, 3.2182916929840752], 0.5, 0.5, 0.002, 0.2, 100)

2025-07-07 16:18:42,051 - gym_custom_envs_real_ur_drivers_URBasic_realTimeClientEvent - INFO - Program send to Robot:
servoj([0.05829126993965428, -1.5938060386131812, -1.584602153885867, -1.538582730249298, 1.601475942552609, 3.2182916929840752], 0.5, 0.5, 0.002, 0.2, 100)

2025-07-07 16:18:42,060 - gym_custom_envs_real_ur_drivers_URBasic_realTimeClientEvent - INFO - Program send to Robot:
servoj([0.05829126993965428, -1.5938060386131812, -1.584602153885867, -1.538582730249298, 1.601475942552609, 3.2182916929840752], 0.5, 0.5, 0.002, 0.2, 100)

2025-07-07 16:18:42,068 - gym_custom_envs_real_ur_drivers_URBasic_realTimeClientEvent - INFO - Program send to Robot:
servoj([0.05829126993965428, -1.5938060386131812, -1.584602153885867, -1.538582730249298, 1.601475942552609, 3.2182916929840752], 0.5, 0.5, 0.002, 0.2, 100)

2025-07-07 16:18:42,075 - gym_custom_envs_real_ur_drivers_URBasic_realTimeClientEvent - INFO - Program send to Robot:
servoj([0.05829126993965428, -1.5938060386131812, -1.584602153885867, -1.538582730249298, 1.601475942552609, 3.2182916929840752], 0.5, 0.5, 0.002, 0.2, 100)

2025-07-07 16:18:42,092 - gym_custom_envs_real_ur_drivers_URBasic_realTimeClientEvent - INFO - Program send to Robot:
servoj([0.05829126993965428, -1.5938060386131812, -1.584602153885867, -1.538582730249298, 1.601475942552609, 3.2182916929840752], 0.5, 0.5, 0.002, 0.2, 100)

2025-07-07 16:18:42,098 - gym_custom_envs_real_ur_drivers_URBasic_realTimeClientEvent - INFO - Program send to Robot:
servoj([0.05829126993965428, -1.5938060386131812, -1.584602153885867, -1.538582730249298, 1.601475942552609, 3.2182916929840752], 0.5, 0.5, 0.002, 0.2, 100)

2025-07-07 16:18:42,108 - gym_custom_envs_real_ur_drivers_URBasic_realTimeClientEvent - INFO - Program send to Robot:
servoj([0.05829126993965428, -1.5938060386131812, -1.584602153885867, -1.538582730249298, 1.601475942552609, 3.2182916929840752], 0.5, 0.5, 0.002, 0.2, 100)

2025-07-07 16:18:42,117 - gym_custom_envs_real_ur_drivers_URBasic_realTimeClientEvent - INFO - Program send to Robot:
servoj([0.05829126993965428, -1.5938060386131812, -1.584602153885867, -1.538582730249298, 1.601475942552609, 3.2182916929840752], 0.5, 0.5, 0.002, 0.2, 100)

2025-07-07 16:18:42,133 - gym_custom_envs_real_ur_drivers_URBasic_realTimeClientEvent - INFO - Program send to Robot:
servoj([0.05829126993965428, -1.5938060386131812, -1.584602153885867, -1.538582730249298, 1.601475942552609, 3.2182916929840752], 0.5, 0.5, 0.002, 0.2, 100)

2025-07-07 16:18:42,141 - gym_custom_envs_real_ur_drivers_URBasic_realTimeClientEvent - INFO - Program send to Robot:
servoj([0.05829126993965428, -1.5938060386131812, -1.584602153885867, -1.538582730249298, 1.601475942552609, 3.2182916929840752], 0.5, 0.5, 0.002, 0.2, 100)

2025-07-07 16:18:42,147 - gym_custom_envs_real_ur_drivers_URBasic_realTimeClientEvent - INFO - Program send to Robot:
servoj([0.05829126993965428, -1.5938060386131812, -1.584602153885867, -1.538582730249298, 1.601475942552609, 3.2182916929840752], 0.5, 0.5, 0.002, 0.2, 100)

2025-07-07 16:18:42,165 - gym_custom_envs_real_ur_drivers_URBasic_realTimeClientEvent - INFO - Program send to Robot:
servoj([0.05829126993965428, -1.5938060386131812, -1.584602153885867, -1.538582730249298, 1.601475942552609, 3.2182916929840752], 0.5, 0.5, 0.002, 0.2, 100)

2025-07-07 16:18:42,171 - gym_custom_envs_real_ur_drivers_URBasic_realTimeClientEvent - INFO - Program send to Robot:
servoj([0.05829126993965428, -1.5938060386131812, -1.584602153885867, -1.538582730249298, 1.601475942552609, 3.2182916929840752], 0.5, 0.5, 0.002, 0.2, 100)

2025-07-07 16:18:42,180 - gym_custom_envs_real_ur_drivers_URBasic_realTimeClientEvent - INFO - Program send to Robot:
servoj([0.05829126993965428, -1.5938060386131812, -1.584602153885867, -1.538582730249298, 1.601475942552609, 3.2182916929840752], 0.5, 0.5, 0.002, 0.2, 100)

2025-07-07 16:18:42,195 - gym_custom_envs_real_ur_drivers_URBasic_realTimeClientEvent - INFO - Program send to Robot:
servoj([0.05829126993965428, -1.5938060386131812, -1.584602153885867, -1.538582730249298, 1.601475942552609, 3.2182916929840752], 0.5, 0.5, 0.002, 0.2, 100)

2025-07-07 16:18:42,204 - gym_custom_envs_real_ur_drivers_URBasic_realTimeClientEvent - INFO - Program send to Robot:
servoj([0.05829126993965428, -1.5938060386131812, -1.584602153885867, -1.538582730249298, 1.601475942552609, 3.2182916929840752], 0.5, 0.5, 0.002, 0.2, 100)

2025-07-07 16:18:42,213 - gym_custom_envs_real_ur_drivers_URBasic_realTimeClientEvent - INFO - Program send to Robot:
servoj([0.05829126993965428, -1.5938060386131812, -1.584602153885867, -1.538582730249298, 1.601475942552609, 3.2182916929840752], 0.5, 0.5, 0.002, 0.2, 100)

2025-07-07 16:18:42,218 - gym_custom_envs_real_ur_drivers_URBasic_realTimeClientEvent - INFO - Program send to Robot:
servoj([0.05829126993965428, -1.5938060386131812, -1.584602153885867, -1.538582730249298, 1.601475942552609, 3.2182916929840752], 0.5, 0.5, 0.002, 0.2, 100)

2025-07-07 16:18:42,238 - gym_custom_envs_real_ur_drivers_URBasic_realTimeClientEvent - INFO - Program send to Robot:
servoj([0.05829126993965428, -1.5938060386131812, -1.584602153885867, -1.538582730249298, 1.601475942552609, 3.2182916929840752], 0.5, 0.5, 0.002, 0.2, 100)

2025-07-07 16:18:42,243 - gym_custom_envs_real_ur_drivers_URBasic_realTimeClientEvent - INFO - Program send to Robot:
servoj([0.05829126993965428, -1.5938060386131812, -1.584602153885867, -1.538582730249298, 1.601475942552609, 3.2182916929840752], 0.5, 0.5, 0.002, 0.2, 100)

2025-07-07 16:18:42,254 - gym_custom_envs_real_ur_drivers_URBasic_realTimeClientEvent - INFO - Program send to Robot:
servoj([0.05829126993965428, -1.5938060386131812, -1.584602153885867, -1.538582730249298, 1.601475942552609, 3.2182916929840752], 0.5, 0.5, 0.002, 0.2, 100)

2025-07-07 16:18:42,266 - gym_custom_envs_real_ur_drivers_URBasic_realTimeClientEvent - INFO - Program send to Robot:
servoj([0.05829126993965428, -1.5938060386131812, -1.584602153885867, -1.538582730249298, 1.601475942552609, 3.2182916929840752], 0.5, 0.5, 0.002, 0.2, 100)

2025-07-07 16:18:42,277 - gym_custom_envs_real_ur_drivers_URBasic_realTimeClientEvent - INFO - Program send to Robot:
servoj([0.05829126993965428, -1.5938060386131812, -1.584602153885867, -1.538582730249298, 1.601475942552609, 3.2182916929840752], 0.5, 0.5, 0.002, 0.2, 100)

2025-07-07 16:18:42,285 - gym_custom_envs_real_ur_drivers_URBasic_realTimeClientEvent - INFO - Program send to Robot:
servoj([0.05829126993965428, -1.5938060386131812, -1.584602153885867, -1.538582730249298, 1.601475942552609, 3.2182916929840752], 0.5, 0.5, 0.002, 0.2, 100)

2025-07-07 16:18:42,300 - gym_custom_envs_real_ur_drivers_URBasic_realTimeClientEvent - INFO - Program send to Robot:
servoj([0.05829126993965428, -1.5938060386131812, -1.584602153885867, -1.538582730249298, 1.601475942552609, 3.2182916929840752], 0.5, 0.5, 0.002, 0.2, 100)

2025-07-07 16:18:42,308 - gym_custom_envs_real_ur_drivers_URBasic_realTimeClientEvent - INFO - Program send to Robot:
servoj([0.05829126993965428, -1.5938060386131812, -1.584602153885867, -1.538582730249298, 1.601475942552609, 3.2182916929840752], 0.5, 0.5, 0.002, 0.2, 100)

2025-07-07 16:18:42,314 - gym_custom_envs_real_ur_drivers_URBasic_realTimeClientEvent - INFO - Program send to Robot:
servoj([0.05829126993965428, -1.5938060386131812, -1.584602153885867, -1.538582730249298, 1.601475942552609, 3.2182916929840752], 0.5, 0.5, 0.002, 0.2, 100)

2025-07-07 16:18:42,332 - gym_custom_envs_real_ur_drivers_URBasic_realTimeClientEvent - INFO - Program send to Robot:
servoj([0.05829126993965428, -1.5938060386131812, -1.584602153885867, -1.538582730249298, 1.601475942552609, 3.2182916929840752], 0.5, 0.5, 0.002, 0.2, 100)

2025-07-07 16:18:42,339 - gym_custom_envs_real_ur_drivers_URBasic_realTimeClientEvent - INFO - Program send to Robot:
servoj([0.05829126993965428, -1.5938060386131812, -1.584602153885867, -1.538582730249298, 1.601475942552609, 3.2182916929840752], 0.5, 0.5, 0.002, 0.2, 100)

2025-07-07 16:18:42,348 - gym_custom_envs_real_ur_drivers_URBasic_realTimeClientEvent - INFO - Program send to Robot:
servoj([0.05829126993965428, -1.5938060386131812, -1.584602153885867, -1.538582730249298, 1.601475942552609, 3.2182916929840752], 0.5, 0.5, 0.002, 0.2, 100)

2025-07-07 16:18:42,357 - gym_custom_envs_real_ur_drivers_URBasic_realTimeClientEvent - INFO - Program send to Robot:
servoj([0.05829126993965428, -1.5938060386131812, -1.584602153885867, -1.538582730249298, 1.601475942552609, 3.2182916929840752], 0.5, 0.5, 0.002, 0.2, 100)

2025-07-07 16:18:42,373 - gym_custom_envs_real_ur_drivers_URBasic_realTimeClientEvent - INFO - Program send to Robot:
servoj([0.05829126993965428, -1.5938060386131812, -1.584602153885867, -1.538582730249298, 1.601475942552609, 3.2182916929840752], 0.5, 0.5, 0.002, 0.2, 100)

2025-07-07 16:18:42,381 - gym_custom_envs_real_ur_drivers_URBasic_realTimeClientEvent - INFO - Program send to Robot:
servoj([0.05829126993965428, -1.5938060386131812, -1.584602153885867, -1.538582730249298, 1.601475942552609, 3.2182916929840752], 0.5, 0.5, 0.002, 0.2, 100)

2025-07-07 16:18:42,387 - gym_custom_envs_real_ur_drivers_URBasic_realTimeClientEvent - INFO - Program send to Robot:
servoj([0.05829126993965428, -1.5938060386131812, -1.584602153885867, -1.538582730249298, 1.601475942552609, 3.2182916929840752], 0.5, 0.5, 0.002, 0.2, 100)

2025-07-07 16:18:42,404 - gym_custom_envs_real_ur_drivers_URBasic_realTimeClientEvent - INFO - Program send to Robot:
servoj([0.05829126993965428, -1.5938060386131812, -1.584602153885867, -1.538582730249298, 1.601475942552609, 3.2182916929840752], 0.5, 0.5, 0.002, 0.2, 100)

2025-07-07 16:18:42,411 - gym_custom_envs_real_ur_drivers_URBasic_realTimeClientEvent - INFO - Program send to Robot:
servoj([0.05829126993965428, -1.5938060386131812, -1.584602153885867, -1.538582730249298, 1.601475942552609, 3.2182916929840752], 0.5, 0.5, 0.002, 0.2, 100)

2025-07-07 16:18:42,419 - gym_custom_envs_real_ur_drivers_URBasic_realTimeClientEvent - INFO - Program send to Robot:
servoj([0.05829126993965428, -1.5938060386131812, -1.584602153885867, -1.538582730249298, 1.601475942552609, 3.2182916929840752], 0.5, 0.5, 0.002, 0.2, 100)

2025-07-07 16:18:42,427 - gym_custom_envs_real_ur_drivers_URBasic_realTimeClientEvent - INFO - Program send to Robot:
servoj([0.05829126993965428, -1.5938060386131812, -1.584602153885867, -1.538582730249298, 1.601475942552609, 3.2182916929840752], 0.5, 0.5, 0.002, 0.2, 100)

2025-07-07 16:18:42,443 - gym_custom_envs_real_ur_drivers_URBasic_realTimeClientEvent - INFO - Program send to Robot:
servoj([0.05829126993965428, -1.5938060386131812, -1.584602153885867, -1.538582730249298, 1.601475942552609, 3.2182916929840752], 0.5, 0.5, 0.002, 0.2, 100)

2025-07-07 16:18:42,451 - gym_custom_envs_real_ur_drivers_URBasic_realTimeClientEvent - INFO - Program send to Robot:
servoj([0.05829126993965428, -1.5938060386131812, -1.584602153885867, -1.538582730249298, 1.601475942552609, 3.2182916929840752], 0.5, 0.5, 0.002, 0.2, 100)

2025-07-07 16:18:42,459 - gym_custom_envs_real_ur_drivers_URBasic_realTimeClientEvent - INFO - Program send to Robot:
servoj([0.05829126993965428, -1.5938060386131812, -1.584602153885867, -1.538582730249298, 1.601475942552609, 3.2182916929840752], 0.5, 0.5, 0.002, 0.2, 100)

2025-07-07 16:18:42,476 - gym_custom_envs_real_ur_drivers_URBasic_realTimeClientEvent - INFO - Program send to Robot:
servoj([0.05829126993965428, -1.5938060386131812, -1.584602153885867, -1.538582730249298, 1.601475942552609, 3.2182916929840752], 0.5, 0.5, 0.002, 0.2, 100)

2025-07-07 16:18:42,483 - gym_custom_envs_real_ur_drivers_URBasic_realTimeClientEvent - INFO - Program send to Robot:
servoj([0.05829126993965428, -1.5938060386131812, -1.584602153885867, -1.538582730249298, 1.601475942552609, 3.2182916929840752], 0.5, 0.5, 0.002, 0.2, 100)

2025-07-07 16:18:42,492 - gym_custom_envs_real_ur_drivers_URBasic_realTimeClientEvent - INFO - Program send to Robot:
servoj([0.05829126993965428, -1.5938060386131812, -1.584602153885867, -1.538582730249298, 1.601475942552609, 3.2182916929840752], 0.5, 0.5, 0.002, 0.2, 100)

2025-07-07 16:18:42,501 - gym_custom_envs_real_ur_drivers_URBasic_realTimeClientEvent - INFO - Program send to Robot:
servoj([0.05829126993965428, -1.5938060386131812, -1.584602153885867, -1.538582730249298, 1.601475942552609, 3.2182916929840752], 0.5, 0.5, 0.002, 0.2, 100)

2025-07-07 16:18:42,517 - gym_custom_envs_real_ur_drivers_URBasic_realTimeClientEvent - INFO - Program send to Robot:
servoj([0.05829126993965428, -1.5938060386131812, -1.584602153885867, -1.538582730249298, 1.601475942552609, 3.2182916929840752], 0.5, 0.5, 0.002, 0.2, 100)

2025-07-07 16:18:42,525 - gym_custom_envs_real_ur_drivers_URBasic_realTimeClientEvent - INFO - Program send to Robot:
servoj([0.05829126993965428, -1.5938060386131812, -1.584602153885867, -1.538582730249298, 1.601475942552609, 3.2182916929840752], 0.5, 0.5, 0.002, 0.2, 100)

2025-07-07 16:18:42,531 - gym_custom_envs_real_ur_drivers_URBasic_realTimeClientEvent - INFO - Program send to Robot:
servoj([0.05829126993965428, -1.5938060386131812, -1.584602153885867, -1.538582730249298, 1.601475942552609, 3.2182916929840752], 0.5, 0.5, 0.002, 0.2, 100)

2025-07-07 16:18:42,549 - gym_custom_envs_real_ur_drivers_URBasic_realTimeClientEvent - INFO - Program send to Robot:
servoj([0.05829126993965428, -1.5938060386131812, -1.584602153885867, -1.538582730249298, 1.601475942552609, 3.2182916929840752], 0.5, 0.5, 0.002, 0.2, 100)

2025-07-07 16:18:42,555 - gym_custom_envs_real_ur_drivers_URBasic_realTimeClientEvent - INFO - Program send to Robot:
servoj([0.05829126993965428, -1.5938060386131812, -1.584602153885867, -1.538582730249298, 1.601475942552609, 3.2182916929840752], 0.5, 0.5, 0.002, 0.2, 100)

2025-07-07 16:18:42,565 - gym_custom_envs_real_ur_drivers_URBasic_realTimeClientEvent - INFO - Program send to Robot:
servoj([0.05829126993965428, -1.5938060386131812, -1.584602153885867, -1.538582730249298, 1.601475942552609, 3.2182916929840752], 0.5, 0.5, 0.002, 0.2, 100)

2025-07-07 16:18:42,578 - gym_custom_envs_real_ur_drivers_URBasic_realTimeClientEvent - INFO - Program send to Robot:
servoj([0.05829126993965428, -1.5938060386131812, -1.584602153885867, -1.538582730249298, 1.601475942552609, 3.2182916929840752], 0.5, 0.5, 0.002, 0.2, 100)

2025-07-07 16:18:42,590 - gym_custom_envs_real_ur_drivers_URBasic_realTimeClientEvent - INFO - Program send to Robot:
servoj([0.05829126993965428, -1.5938060386131812, -1.584602153885867, -1.538582730249298, 1.601475942552609, 3.2182916929840752], 0.5, 0.5, 0.002, 0.2, 100)

2025-07-07 16:18:42,595 - gym_custom_envs_real_ur_drivers_URBasic_realTimeClientEvent - INFO - Program send to Robot:
servoj([0.05829126993965428, -1.5938060386131812, -1.584602153885867, -1.538582730249298, 1.601475942552609, 3.2182916929840752], 0.5, 0.5, 0.002, 0.2, 100)

2025-07-07 16:18:42,603 - gym_custom_envs_real_ur_drivers_URBasic_realTimeClientEvent - INFO - Program send to Robot:
servoj([0.05829126993965428, -1.5938060386131812, -1.584602153885867, -1.538582730249298, 1.601475942552609, 3.2182916929840752], 0.5, 0.5, 0.002, 0.2, 100)

2025-07-07 16:18:42,618 - gym_custom_envs_real_ur_drivers_URBasic_realTimeClientEvent - INFO - Program send to Robot:
servoj([0.05829126993965428, -1.5938060386131812, -1.584602153885867, -1.538582730249298, 1.601475942552609, 3.2182916929840752], 0.5, 0.5, 0.002, 0.2, 100)

2025-07-07 16:18:42,626 - gym_custom_envs_real_ur_drivers_URBasic_realTimeClientEvent - INFO - Program send to Robot:
servoj([0.05829126993965428, -1.5938060386131812, -1.584602153885867, -1.538582730249298, 1.601475942552609, 3.2182916929840752], 0.5, 0.5, 0.002, 0.2, 100)

2025-07-07 16:18:42,640 - gym_custom_envs_real_ur_drivers_URBasic_realTimeClientEvent - INFO - Program send to Robot:
servoj([0.05829126993965428, -1.5938060386131812, -1.584602153885867, -1.538582730249298, 1.601475942552609, 3.2182916929840752], 0.5, 0.5, 0.002, 0.2, 100)

2025-07-07 16:18:42,651 - gym_custom_envs_real_ur_drivers_URBasic_realTimeClientEvent - INFO - Program send to Robot:
servoj([0.05829126993965428, -1.5938060386131812, -1.584602153885867, -1.538582730249298, 1.601475942552609, 3.2182916929840752], 0.5, 0.5, 0.002, 0.2, 100)

2025-07-07 16:18:42,665 - gym_custom_envs_real_ur_drivers_URBasic_realTimeClientEvent - INFO - Program send to Robot:
servoj([0.05829126993965428, -1.5938060386131812, -1.584602153885867, -1.538582730249298, 1.601475942552609, 3.2182916929840752], 0.5, 0.5, 0.002, 0.2, 100)

2025-07-07 16:18:42,676 - gym_custom_envs_real_ur_drivers_URBasic_realTimeClientEvent - INFO - Program send to Robot:
servoj([0.05829126993965428, -1.5938060386131812, -1.584602153885867, -1.538582730249298, 1.601475942552609, 3.2182916929840752], 0.5, 0.5, 0.002, 0.2, 100)

2025-07-07 16:18:42,688 - gym_custom_envs_real_ur_drivers_URBasic_realTimeClientEvent - INFO - Program send to Robot:
servoj([0.05829126993965428, -1.5938060386131812, -1.584602153885867, -1.538582730249298, 1.601475942552609, 3.2182916929840752], 0.5, 0.5, 0.002, 0.2, 100)

2025-07-07 16:18:42,699 - gym_custom_envs_real_ur_drivers_URBasic_realTimeClientEvent - INFO - Program send to Robot:
servoj([0.05829126993965428, -1.5938060386131812, -1.584602153885867, -1.538582730249298, 1.601475942552609, 3.2182916929840752], 0.5, 0.5, 0.002, 0.2, 100)

2025-07-07 16:18:42,712 - gym_custom_envs_real_ur_drivers_URBasic_realTimeClientEvent - INFO - Program send to Robot:
servoj([0.05829126993965428, -1.5938060386131812, -1.584602153885867, -1.538582730249298, 1.601475942552609, 3.2182916929840752], 0.5, 0.5, 0.002, 0.2, 100)

2025-07-07 16:18:42,723 - gym_custom_envs_real_ur_drivers_URBasic_realTimeClientEvent - INFO - Program send to Robot:
servoj([0.05829126993965428, -1.5938060386131812, -1.584602153885867, -1.538582730249298, 1.601475942552609, 3.2182916929840752], 0.5, 0.5, 0.002, 0.2, 100)

2025-07-07 16:18:42,737 - gym_custom_envs_real_ur_drivers_URBasic_realTimeClientEvent - INFO - Program send to Robot:
servoj([0.05829126993965428, -1.5938060386131812, -1.584602153885867, -1.538582730249298, 1.601475942552609, 3.2182916929840752], 0.5, 0.5, 0.002, 0.2, 100)

2025-07-07 16:18:42,747 - gym_custom_envs_real_ur_drivers_URBasic_realTimeClientEvent - INFO - Program send to Robot:
servoj([0.05829126993965428, -1.5938060386131812, -1.584602153885867, -1.538582730249298, 1.601475942552609, 3.2182916929840752], 0.5, 0.5, 0.002, 0.2, 100)

2025-07-07 16:18:42,755 - gym_custom_envs_real_ur_drivers_URBasic_realTimeClientEvent - INFO - Program send to Robot:
servoj([0.05829126993965428, -1.5938060386131812, -1.584602153885867, -1.538582730249298, 1.601475942552609, 3.2182916929840752], 0.5, 0.5, 0.002, 0.2, 100)

2025-07-07 16:18:42,771 - gym_custom_envs_real_ur_drivers_URBasic_realTimeClientEvent - INFO - Program send to Robot:
servoj([0.05829126993965428, -1.5938060386131812, -1.584602153885867, -1.538582730249298, 1.601475942552609, 3.2182916929840752], 0.5, 0.5, 0.002, 0.2, 100)

2025-07-07 16:18:42,779 - gym_custom_envs_real_ur_drivers_URBasic_realTimeClientEvent - INFO - Program send to Robot:
servoj([0.05829126993965428, -1.5938060386131812, -1.584602153885867, -1.538582730249298, 1.601475942552609, 3.2182916929840752], 0.5, 0.5, 0.002, 0.2, 100)

2025-07-07 16:18:42,787 - gym_custom_envs_real_ur_drivers_URBasic_realTimeClientEvent - INFO - Program send to Robot:
servoj([0.05829126993965428, -1.5938060386131812, -1.584602153885867, -1.538582730249298, 1.601475942552609, 3.2182916929840752], 0.5, 0.5, 0.002, 0.2, 100)

2025-07-07 16:18:42,803 - gym_custom_envs_real_ur_drivers_URBasic_realTimeClientEvent - INFO - Program send to Robot:
servoj([0.05829126993965428, -1.5938060386131812, -1.584602153885867, -1.538582730249298, 1.601475942552609, 3.2182916929840752], 0.5, 0.5, 0.002, 0.2, 100)

2025-07-07 16:18:42,810 - gym_custom_envs_real_ur_drivers_URBasic_realTimeClientEvent - INFO - Program send to Robot:
servoj([0.05829126993965428, -1.5938060386131812, -1.584602153885867, -1.538582730249298, 1.601475942552609, 3.2182916929840752], 0.5, 0.5, 0.002, 0.2, 100)

2025-07-07 16:18:42,832 - gym_custom_envs_real_ur_drivers_URBasic_realTimeClientEvent - INFO - Program send to Robot:
servoj([0.05829126993965428, -1.5938060386131812, -1.584602153885867, -1.538582730249298, 1.601475942552609, 3.2182916929840752], 0.5, 0.5, 0.002, 0.2, 100)

2025-07-07 16:18:42,843 - gym_custom_envs_real_ur_drivers_URBasic_realTimeClientEvent - INFO - Program send to Robot:
servoj([0.05829126993965428, -1.5938060386131812, -1.584602153885867, -1.538582730249298, 1.601475942552609, 3.2182916929840752], 0.5, 0.5, 0.002, 0.2, 100)

2025-07-07 16:18:42,856 - gym_custom_envs_real_ur_drivers_URBasic_realTimeClientEvent - INFO - Program send to Robot:
servoj([0.05829126993965428, -1.5938060386131812, -1.584602153885867, -1.538582730249298, 1.601475942552609, 3.2182916929840752], 0.5, 0.5, 0.002, 0.2, 100)

2025-07-07 16:18:42,867 - gym_custom_envs_real_ur_drivers_URBasic_realTimeClientEvent - INFO - Program send to Robot:
servoj([0.05829126993965428, -1.5938060386131812, -1.584602153885867, -1.538582730249298, 1.601475942552609, 3.2182916929840752], 0.5, 0.5, 0.002, 0.2, 100)

2025-07-07 16:18:42,875 - gym_custom_envs_real_ur_drivers_URBasic_realTimeClientEvent - INFO - Program send to Robot:
servoj([0.05829126993965428, -1.5938060386131812, -1.584602153885867, -1.538582730249298, 1.601475942552609, 3.2182916929840752], 0.5, 0.5, 0.002, 0.2, 100)

2025-07-07 16:18:42,882 - gym_custom_envs_real_ur_drivers_URBasic_realTimeClientEvent - INFO - Program send to Robot:
servoj([0.05829126993965428, -1.5938060386131812, -1.584602153885867, -1.538582730249298, 1.601475942552609, 3.2182916929840752], 0.5, 0.5, 0.002, 0.2, 100)

2025-07-07 16:18:42,900 - gym_custom_envs_real_ur_drivers_URBasic_realTimeClientEvent - INFO - Program send to Robot:
servoj([0.05829126993965428, -1.5938060386131812, -1.584602153885867, -1.538582730249298, 1.601475942552609, 3.2182916929840752], 0.5, 0.5, 0.002, 0.2, 100)

2025-07-07 16:18:42,916 - gym_custom_envs_real_ur_drivers_URBasic_realTimeClientEvent - INFO - Program send to Robot:
servoj([0.05829126993965428, -1.5938060386131812, -1.584602153885867, -1.538582730249298, 1.601475942552609, 3.2182916929840752], 0.5, 0.5, 0.002, 0.2, 100)

2025-07-07 16:18:42,924 - gym_custom_envs_real_ur_drivers_URBasic_realTimeClientEvent - INFO - Program send to Robot:
servoj([0.05829126993965428, -1.5938060386131812, -1.584602153885867, -1.538582730249298, 1.601475942552609, 3.2182916929840752], 0.5, 0.5, 0.002, 0.2, 100)

2025-07-07 16:18:42,940 - gym_custom_envs_real_ur_drivers_URBasic_realTimeClientEvent - INFO - Program send to Robot:
servoj([0.05829126993965428, -1.5938060386131812, -1.584602153885867, -1.538582730249298, 1.601475942552609, 3.2182916929840752], 0.5, 0.5, 0.002, 0.2, 100)

2025-07-07 16:18:42,947 - gym_custom_envs_real_ur_drivers_URBasic_realTimeClientEvent - INFO - Program send to Robot:
servoj([0.05829126993965428, -1.5938060386131812, -1.584602153885867, -1.538582730249298, 1.601475942552609, 3.2182916929840752], 0.5, 0.5, 0.002, 0.2, 100)

2025-07-07 16:18:42,963 - gym_custom_envs_real_ur_drivers_URBasic_realTimeClientEvent - INFO - Program send to Robot:
servoj([0.05829126993965428, -1.5938060386131812, -1.584602153885867, -1.538582730249298, 1.601475942552609, 3.2182916929840752], 0.5, 0.5, 0.002, 0.2, 100)

2025-07-07 16:18:42,972 - gym_custom_envs_real_ur_drivers_URBasic_realTimeClientEvent - INFO - Program send to Robot:
servoj([0.05829126993965428, -1.5938060386131812, -1.584602153885867, -1.538582730249298, 1.601475942552609, 3.2182916929840752], 0.5, 0.5, 0.002, 0.2, 100)

2025-07-07 16:18:42,988 - gym_custom_envs_real_ur_drivers_URBasic_realTimeClientEvent - INFO - Program send to Robot:
servoj([0.05829126993965428, -1.5938060386131812, -1.584602153885867, -1.538582730249298, 1.601475942552609, 3.2182916929840752], 0.5, 0.5, 0.002, 0.2, 100)

2025-07-07 16:18:42,996 - gym_custom_envs_real_ur_drivers_URBasic_realTimeClientEvent - INFO - Program send to Robot:
servoj([0.05829126993965428, -1.5938060386131812, -1.584602153885867, -1.538582730249298, 1.601475942552609, 3.2182916929840752], 0.5, 0.5, 0.002, 0.2, 100)

2025-07-07 16:18:43,012 - gym_custom_envs_real_ur_drivers_URBasic_realTimeClientEvent - INFO - Program send to Robot:
servoj([0.05829126993965428, -1.5938060386131812, -1.584602153885867, -1.538582730249298, 1.601475942552609, 3.2182916929840752], 0.5, 0.5, 0.002, 0.2, 100)

2025-07-07 16:18:43,020 - gym_custom_envs_real_ur_drivers_URBasic_realTimeClientEvent - INFO - Program send to Robot:
servoj([0.05829126993965428, -1.5938060386131812, -1.584602153885867, -1.538582730249298, 1.601475942552609, 3.2182916929840752], 0.5, 0.5, 0.002, 0.2, 100)

2025-07-07 16:18:43,035 - gym_custom_envs_real_ur_drivers_URBasic_realTimeClientEvent - INFO - Program send to Robot:
servoj([0.05829126993965428, -1.5938060386131812, -1.584602153885867, -1.538582730249298, 1.601475942552609, 3.2182916929840752], 0.5, 0.5, 0.002, 0.2, 100)

2025-07-07 16:18:43,043 - gym_custom_envs_real_ur_drivers_URBasic_realTimeClientEvent - INFO - Program send to Robot:
servoj([0.05829126993965428, -1.5938060386131812, -1.584602153885867, -1.538582730249298, 1.601475942552609, 3.2182916929840752], 0.5, 0.5, 0.002, 0.2, 100)

2025-07-07 16:18:43,051 - gym_custom_envs_real_ur_drivers_URBasic_realTimeClientEvent - INFO - Program send to Robot:
servoj([0.05829126993965428, -1.5938060386131812, -1.584602153885867, -1.538582730249298, 1.601475942552609, 3.2182916929840752], 0.5, 0.5, 0.002, 0.2, 100)

2025-07-07 16:18:43,059 - gym_custom_envs_real_ur_drivers_URBasic_realTimeClientEvent - INFO - Program send to Robot:
servoj([0.05829126993965428, -1.5938060386131812, -1.584602153885867, -1.538582730249298, 1.601475942552609, 3.2182916929840752], 0.5, 0.5, 0.002, 0.2, 100)

2025-07-07 16:18:43,074 - gym_custom_envs_real_ur_drivers_URBasic_realTimeClientEvent - INFO - Program send to Robot:
servoj([0.05829126993965428, -1.5938060386131812, -1.584602153885867, -1.538582730249298, 1.601475942552609, 3.2182916929840752], 0.5, 0.5, 0.002, 0.2, 100)

2025-07-07 16:18:43,083 - gym_custom_envs_real_ur_drivers_URBasic_realTimeClientEvent - INFO - Program send to Robot:
servoj([0.05829126993965428, -1.5938060386131812, -1.584602153885867, -1.538582730249298, 1.601475942552609, 3.2182916929840752], 0.5, 0.5, 0.002, 0.2, 100)

2025-07-07 16:18:43,090 - gym_custom_envs_real_ur_drivers_URBasic_realTimeClientEvent - INFO - Program send to Robot:
servoj([0.05829126993965428, -1.5938060386131812, -1.584602153885867, -1.538582730249298, 1.601475942552609, 3.2182916929840752], 0.5, 0.5, 0.002, 0.2, 100)

2025-07-07 16:18:43,107 - gym_custom_envs_real_ur_drivers_URBasic_realTimeClientEvent - INFO - Program send to Robot:
servoj([0.05829126993965428, -1.5938060386131812, -1.584602153885867, -1.538582730249298, 1.601475942552609, 3.2182916929840752], 0.5, 0.5, 0.002, 0.2, 100)

2025-07-07 16:18:43,115 - gym_custom_envs_real_ur_drivers_URBasic_realTimeClientEvent - INFO - Program send to Robot:
servoj([0.05829126993965428, -1.5938060386131812, -1.584602153885867, -1.538582730249298, 1.601475942552609, 3.2182916929840752], 0.5, 0.5, 0.002, 0.2, 100)

2025-07-07 16:18:43,123 - gym_custom_envs_real_ur_drivers_URBasic_realTimeClientEvent - INFO - Program send to Robot:
servoj([0.05829126993965428, -1.5938060386131812, -1.584602153885867, -1.538582730249298, 1.601475942552609, 3.2182916929840752], 0.5, 0.5, 0.002, 0.2, 100)

2025-07-07 16:18:43,139 - gym_custom_envs_real_ur_drivers_URBasic_realTimeClientEvent - INFO - Program send to Robot:
servoj([0.05829126993965428, -1.5938060386131812, -1.584602153885867, -1.538582730249298, 1.601475942552609, 3.2182916929840752], 0.5, 0.5, 0.002, 0.2, 100)

2025-07-07 16:18:43,155 - gym_custom_envs_real_ur_drivers_URBasic_realTimeClientEvent - INFO - Program send to Robot:
servoj([0.05829126993965428, -1.5938060386131812, -1.584602153885867, -1.538582730249298, 1.601475942552609, 3.2182916929840752], 0.5, 0.5, 0.002, 0.2, 100)

2025-07-07 16:18:43,163 - gym_custom_envs_real_ur_drivers_URBasic_realTimeClientEvent - INFO - Program send to Robot:
servoj([0.05829126993965428, -1.5938060386131812, -1.584602153885867, -1.538582730249298, 1.601475942552609, 3.2182916929840752], 0.5, 0.5, 0.002, 0.2, 100)

2025-07-07 16:18:43,171 - gym_custom_envs_real_ur_drivers_URBasic_realTimeClientEvent - INFO - Program send to Robot:
servoj([0.05829126993965428, -1.5938060386131812, -1.584602153885867, -1.538582730249298, 1.601475942552609, 3.2182916929840752], 0.5, 0.5, 0.002, 0.2, 100)

2025-07-07 16:18:43,187 - gym_custom_envs_real_ur_drivers_URBasic_realTimeClientEvent - INFO - Program send to Robot:
servoj([0.05829126993965428, -1.5938060386131812, -1.584602153885867, -1.538582730249298, 1.601475942552609, 3.2182916929840752], 0.5, 0.5, 0.002, 0.2, 100)

2025-07-07 16:18:43,195 - gym_custom_envs_real_ur_drivers_URBasic_realTimeClientEvent - INFO - Program send to Robot:
servoj([0.05829126993965428, -1.5938060386131812, -1.584602153885867, -1.538582730249298, 1.601475942552609, 3.2182916929840752], 0.5, 0.5, 0.002, 0.2, 100)

2025-07-07 16:18:43,203 - gym_custom_envs_real_ur_drivers_URBasic_realTimeClientEvent - INFO - Program send to Robot:
servoj([0.05829126993965428, -1.5938060386131812, -1.584602153885867, -1.538582730249298, 1.601475942552609, 3.2182916929840752], 0.5, 0.5, 0.002, 0.2, 100)

2025-07-07 16:18:43,211 - gym_custom_envs_real_ur_drivers_URBasic_realTimeClientEvent - INFO - Program send to Robot:
servoj([0.05829126993965428, -1.5938060386131812, -1.584602153885867, -1.538582730249298, 1.601475942552609, 3.2182916929840752], 0.5, 0.5, 0.002, 0.2, 100)

2025-07-07 16:18:43,227 - gym_custom_envs_real_ur_drivers_URBasic_realTimeClientEvent - INFO - Program send to Robot:
servoj([0.05829126993965428, -1.5938060386131812, -1.584602153885867, -1.538582730249298, 1.601475942552609, 3.2182916929840752], 0.5, 0.5, 0.002, 0.2, 100)

2025-07-07 16:18:43,235 - gym_custom_envs_real_ur_drivers_URBasic_realTimeClientEvent - INFO - Program send to Robot:
servoj([0.05829126993965428, -1.5938060386131812, -1.584602153885867, -1.538582730249298, 1.601475942552609, 3.2182916929840752], 0.5, 0.5, 0.002, 0.2, 100)

2025-07-07 16:18:43,243 - gym_custom_envs_real_ur_drivers_URBasic_realTimeClientEvent - INFO - Program send to Robot:
servoj([0.05829126993965428, -1.5938060386131812, -1.584602153885867, -1.538582730249298, 1.601475942552609, 3.2182916929840752], 0.5, 0.5, 0.002, 0.2, 100)

2025-07-07 16:18:43,252 - gym_custom_envs_real_ur_drivers_URBasic_realTimeClientEvent - INFO - Program send to Robot:
servoj([0.05829126993965428, -1.5938060386131812, -1.584602153885867, -1.538582730249298, 1.601475942552609, 3.2182916929840752], 0.5, 0.5, 0.002, 0.2, 100)

2025-07-07 16:18:43,268 - gym_custom_envs_real_ur_drivers_URBasic_realTimeClientEvent - INFO - Program send to Robot:
servoj([0.05829126993965428, -1.5938060386131812, -1.584602153885867, -1.538582730249298, 1.601475942552609, 3.2182916929840752], 0.5, 0.5, 0.002, 0.2, 100)

2025-07-07 16:18:43,277 - gym_custom_envs_real_ur_drivers_URBasic_realTimeClientEvent - INFO - Program send to Robot:
servoj([0.05829126993965428, -1.5938060386131812, -1.584602153885867, -1.538582730249298, 1.601475942552609, 3.2182916929840752], 0.5, 0.5, 0.002, 0.2, 100)

2025-07-07 16:18:43,282 - gym_custom_envs_real_ur_drivers_URBasic_realTimeClientEvent - INFO - Program send to Robot:
servoj([0.05829126993965428, -1.5938060386131812, -1.584602153885867, -1.538582730249298, 1.601475942552609, 3.2182916929840752], 0.5, 0.5, 0.002, 0.2, 100)

2025-07-07 16:18:43,299 - gym_custom_envs_real_ur_drivers_URBasic_realTimeClientEvent - INFO - Program send to Robot:
servoj([0.05829126993965428, -1.5938060386131812, -1.584602153885867, -1.538582730249298, 1.601475942552609, 3.2182916929840752], 0.5, 0.5, 0.002, 0.2, 100)

2025-07-07 16:18:43,307 - gym_custom_envs_real_ur_drivers_URBasic_realTimeClientEvent - INFO - Program send to Robot:
servoj([0.05829126993965428, -1.5938060386131812, -1.584602153885867, -1.538582730249298, 1.601475942552609, 3.2182916929840752], 0.5, 0.5, 0.002, 0.2, 100)

2025-07-07 16:18:43,318 - gym_custom_envs_real_ur_drivers_URBasic_realTimeClientEvent - INFO - Program send to Robot:
servoj([0.05829126993965428, -1.5938060386131812, -1.584602153885867, -1.538582730249298, 1.601475942552609, 3.2182916929840752], 0.5, 0.5, 0.002, 0.2, 100)

2025-07-07 16:18:43,331 - gym_custom_envs_real_ur_drivers_URBasic_realTimeClientEvent - INFO - Program send to Robot:
servoj([0.05829126993965428, -1.5938060386131812, -1.584602153885867, -1.538582730249298, 1.601475942552609, 3.2182916929840752], 0.5, 0.5, 0.002, 0.2, 100)

2025-07-07 16:18:43,341 - gym_custom_envs_real_ur_drivers_URBasic_realTimeClientEvent - INFO - Program send to Robot:
servoj([0.05829126993965428, -1.5938060386131812, -1.584602153885867, -1.538582730249298, 1.601475942552609, 3.2182916929840752], 0.5, 0.5, 0.002, 0.2, 100)

2025-07-07 16:18:43,349 - gym_custom_envs_real_ur_drivers_URBasic_realTimeClientEvent - INFO - Program send to Robot:
servoj([0.05829126993965428, -1.5938060386131812, -1.584602153885867, -1.538582730249298, 1.601475942552609, 3.2182916929840752], 0.5, 0.5, 0.002, 0.2, 100)

2025-07-07 16:18:43,355 - gym_custom_envs_real_ur_drivers_URBasic_realTimeClientEvent - INFO - Program send to Robot:
servoj([0.05829126993965428, -1.5938060386131812, -1.584602153885867, -1.538582730249298, 1.601475942552609, 3.2182916929840752], 0.5, 0.5, 0.002, 0.2, 100)

2025-07-07 16:18:43,374 - gym_custom_envs_real_ur_drivers_URBasic_realTimeClientEvent - INFO - Program send to Robot:
servoj([0.05829126993965428, -1.5938060386131812, -1.584602153885867, -1.538582730249298, 1.601475942552609, 3.2182916929840752], 0.5, 0.5, 0.002, 0.2, 100)

2025-07-07 16:18:43,379 - gym_custom_envs_real_ur_drivers_URBasic_realTimeClientEvent - INFO - Program send to Robot:
servoj([0.05829126993965428, -1.5938060386131812, -1.584602153885867, -1.538582730249298, 1.601475942552609, 3.2182916929840752], 0.5, 0.5, 0.002, 0.2, 100)

2025-07-07 16:18:43,389 - gym_custom_envs_real_ur_drivers_URBasic_realTimeClientEvent - INFO - Program send to Robot:
servoj([0.05829126993965428, -1.5938060386131812, -1.584602153885867, -1.538582730249298, 1.601475942552609, 3.2182916929840752], 0.5, 0.5, 0.002, 0.2, 100)

2025-07-07 16:18:43,404 - gym_custom_envs_real_ur_drivers_URBasic_realTimeClientEvent - INFO - Program send to Robot:
servoj([0.05829126993965428, -1.5938060386131812, -1.584602153885867, -1.538582730249298, 1.601475942552609, 3.2182916929840752], 0.5, 0.5, 0.002, 0.2, 100)

2025-07-07 16:18:43,414 - gym_custom_envs_real_ur_drivers_URBasic_realTimeClientEvent - INFO - Program send to Robot:
servoj([0.05829126993965428, -1.5938060386131812, -1.584602153885867, -1.538582730249298, 1.601475942552609, 3.2182916929840752], 0.5, 0.5, 0.002, 0.2, 100)

2025-07-07 16:18:43,422 - gym_custom_envs_real_ur_drivers_URBasic_realTimeClientEvent - INFO - Program send to Robot:
servoj([0.05829126993965428, -1.5938060386131812, -1.584602153885867, -1.538582730249298, 1.601475942552609, 3.2182916929840752], 0.5, 0.5, 0.002, 0.2, 100)

2025-07-07 16:18:43,427 - gym_custom_envs_real_ur_drivers_URBasic_realTimeClientEvent - INFO - Program send to Robot:
servoj([0.05829126993965428, -1.5938060386131812, -1.584602153885867, -1.538582730249298, 1.601475942552609, 3.2182916929840752], 0.5, 0.5, 0.002, 0.2, 100)

2025-07-07 16:18:43,443 - gym_custom_envs_real_ur_drivers_URBasic_realTimeClientEvent - INFO - Program send to Robot:
servoj([0.05829126993965428, -1.5938060386131812, -1.584602153885867, -1.538582730249298, 1.601475942552609, 3.2182916929840752], 0.5, 0.5, 0.002, 0.2, 100)

2025-07-07 16:18:43,450 - gym_custom_envs_real_ur_drivers_URBasic_realTimeClientEvent - INFO - Program send to Robot:
servoj([0.05829126993965428, -1.5938060386131812, -1.584602153885867, -1.538582730249298, 1.601475942552609, 3.2182916929840752], 0.5, 0.5, 0.002, 0.2, 100)

2025-07-07 16:18:43,461 - gym_custom_envs_real_ur_drivers_URBasic_realTimeClientEvent - INFO - Program send to Robot:
servoj([0.05829126993965428, -1.5938060386131812, -1.584602153885867, -1.538582730249298, 1.601475942552609, 3.2182916929840752], 0.5, 0.5, 0.002, 0.2, 100)

2025-07-07 16:18:43,475 - gym_custom_envs_real_ur_drivers_URBasic_realTimeClientEvent - INFO - Program send to Robot:
servoj([0.05829126993965428, -1.5938060386131812, -1.584602153885867, -1.538582730249298, 1.601475942552609, 3.2182916929840752], 0.5, 0.5, 0.002, 0.2, 100)

2025-07-07 16:18:43,485 - gym_custom_envs_real_ur_drivers_URBasic_realTimeClientEvent - INFO - Program send to Robot:
servoj([0.05829126993965428, -1.5938060386131812, -1.584602153885867, -1.538582730249298, 1.601475942552609, 3.2182916929840752], 0.5, 0.5, 0.002, 0.2, 100)

2025-07-07 16:18:43,493 - gym_custom_envs_real_ur_drivers_URBasic_realTimeClientEvent - INFO - Program send to Robot:
servoj([0.05829126993965428, -1.5938060386131812, -1.584602153885867, -1.538582730249298, 1.601475942552609, 3.2182916929840752], 0.5, 0.5, 0.002, 0.2, 100)

2025-07-07 16:18:43,499 - gym_custom_envs_real_ur_drivers_URBasic_realTimeClientEvent - INFO - Program send to Robot:
servoj([0.05829126993965428, -1.5938060386131812, -1.584602153885867, -1.538582730249298, 1.601475942552609, 3.2182916929840752], 0.5, 0.5, 0.002, 0.2, 100)

2025-07-07 16:18:43,518 - gym_custom_envs_real_ur_drivers_URBasic_realTimeClientEvent - INFO - Program send to Robot:
servoj([0.05829126993965428, -1.5938060386131812, -1.584602153885867, -1.538582730249298, 1.601475942552609, 3.2182916929840752], 0.5, 0.5, 0.002, 0.2, 100)

2025-07-07 16:18:43,523 - gym_custom_envs_real_ur_drivers_URBasic_realTimeClientEvent - INFO - Program send to Robot:
servoj([0.05829126993965428, -1.5938060386131812, -1.584602153885867, -1.538582730249298, 1.601475942552609, 3.2182916929840752], 0.5, 0.5, 0.002, 0.2, 100)

2025-07-07 16:18:43,533 - gym_custom_envs_real_ur_drivers_URBasic_realTimeClientEvent - INFO - Program send to Robot:
servoj([0.05829126993965428, -1.5938060386131812, -1.584602153885867, -1.538582730249298, 1.601475942552609, 3.2182916929840752], 0.5, 0.5, 0.002, 0.2, 100)

2025-07-07 16:18:43,547 - gym_custom_envs_real_ur_drivers_URBasic_realTimeClientEvent - INFO - Program send to Robot:
servoj([0.05829126993965428, -1.5938060386131812, -1.584602153885867, -1.538582730249298, 1.601475942552609, 3.2182916929840752], 0.5, 0.5, 0.002, 0.2, 100)

2025-07-07 16:18:43,559 - gym_custom_envs_real_ur_drivers_URBasic_realTimeClientEvent - INFO - Program send to Robot:
servoj([0.05829126993965428, -1.5938060386131812, -1.584602153885867, -1.538582730249298, 1.601475942552609, 3.2182916929840752], 0.5, 0.5, 0.002, 0.2, 100)

2025-07-07 16:18:43,563 - gym_custom_envs_real_ur_drivers_URBasic_realTimeClientEvent - INFO - Program send to Robot:
servoj([0.05829126993965428, -1.5938060386131812, -1.584602153885867, -1.538582730249298, 1.601475942552609, 3.2182916929840752], 0.5, 0.5, 0.002, 0.2, 100)

2025-07-07 16:18:43,582 - gym_custom_envs_real_ur_drivers_URBasic_realTimeClientEvent - INFO - Program send to Robot:
servoj([0.05829126993965428, -1.5938060386131812, -1.584602153885867, -1.538582730249298, 1.601475942552609, 3.2182916929840752], 0.5, 0.5, 0.002, 0.2, 100)

2025-07-07 16:18:43,587 - gym_custom_envs_real_ur_drivers_URBasic_realTimeClientEvent - INFO - Program send to Robot:
servoj([0.05829126993965428, -1.5938060386131812, -1.584602153885867, -1.538582730249298, 1.601475942552609, 3.2182916929840752], 0.5, 0.5, 0.002, 0.2, 100)

2025-07-07 16:18:43,595 - gym_custom_envs_real_ur_drivers_URBasic_realTimeClientEvent - INFO - Program send to Robot:
servoj([0.05829126993965428, -1.5938060386131812, -1.584602153885867, -1.538582730249298, 1.601475942552609, 3.2182916929840752], 0.5, 0.5, 0.002, 0.2, 100)

2025-07-07 16:18:43,614 - gym_custom_envs_real_ur_drivers_URBasic_realTimeClientEvent - INFO - Program send to Robot:
servoj([0.05829126993965428, -1.5938060386131812, -1.584602153885867, -1.538582730249298, 1.601475942552609, 3.2182916929840752], 0.5, 0.5, 0.002, 0.2, 100)

2025-07-07 16:18:43,619 - gym_custom_envs_real_ur_drivers_URBasic_realTimeClientEvent - INFO - Program send to Robot:
servoj([0.05829126993965428, -1.5938060386131812, -1.584602153885867, -1.538582730249298, 1.601475942552609, 3.2182916929840752], 0.5, 0.5, 0.002, 0.2, 100)

2025-07-07 16:18:43,629 - gym_custom_envs_real_ur_drivers_URBasic_realTimeClientEvent - INFO - Program send to Robot:
servoj([0.05829126993965428, -1.5938060386131812, -1.584602153885867, -1.538582730249298, 1.601475942552609, 3.2182916929840752], 0.5, 0.5, 0.002, 0.2, 100)

2025-07-07 16:18:43,642 - gym_custom_envs_real_ur_drivers_URBasic_realTimeClientEvent - INFO - Program send to Robot:
servoj([0.05829126993965428, -1.5938060386131812, -1.584602153885867, -1.538582730249298, 1.601475942552609, 3.2182916929840752], 0.5, 0.5, 0.002, 0.2, 100)

2025-07-07 16:18:43,653 - gym_custom_envs_real_ur_drivers_URBasic_realTimeClientEvent - INFO - Program send to Robot:
servoj([0.05829126993965428, -1.5938060386131812, -1.584602153885867, -1.538582730249298, 1.601475942552609, 3.2182916929840752], 0.5, 0.5, 0.002, 0.2, 100)

2025-07-07 16:18:43,662 - gym_custom_envs_real_ur_drivers_URBasic_realTimeClientEvent - INFO - Program send to Robot:
servoj([0.05829126993965428, -1.5938060386131812, -1.584602153885867, -1.538582730249298, 1.601475942552609, 3.2182916929840752], 0.5, 0.5, 0.002, 0.2, 100)

2025-07-07 16:18:43,678 - gym_custom_envs_real_ur_drivers_URBasic_realTimeClientEvent - INFO - Program send to Robot:
servoj([0.05829126993965428, -1.5938060386131812, -1.584602153885867, -1.538582730249298, 1.601475942552609, 3.2182916929840752], 0.5, 0.5, 0.002, 0.2, 100)

2025-07-07 16:18:43,686 - gym_custom_envs_real_ur_drivers_URBasic_realTimeClientEvent - INFO - Program send to Robot:
servoj([0.05829126993965428, -1.5938060386131812, -1.584602153885867, -1.538582730249298, 1.601475942552609, 3.2182916929840752], 0.5, 0.5, 0.002, 0.2, 100)

2025-07-07 16:18:43,701 - gym_custom_envs_real_ur_drivers_URBasic_realTimeClientEvent - INFO - Program send to Robot:
servoj([0.05829126993965428, -1.5938060386131812, -1.584602153885867, -1.538582730249298, 1.601475942552609, 3.2182916929840752], 0.5, 0.5, 0.002, 0.2, 100)

2025-07-07 16:18:43,709 - gym_custom_envs_real_ur_drivers_URBasic_realTimeClientEvent - INFO - Program send to Robot:
servoj([0.05829126993965428, -1.5938060386131812, -1.584602153885867, -1.538582730249298, 1.601475942552609, 3.2182916929840752], 0.5, 0.5, 0.002, 0.2, 100)

2025-07-07 16:18:43,715 - gym_custom_envs_real_ur_drivers_URBasic_realTimeClientEvent - INFO - Program send to Robot:
servoj([0.05829126993965428, -1.5938060386131812, -1.584602153885867, -1.538582730249298, 1.601475942552609, 3.2182916929840752], 0.5, 0.5, 0.002, 0.2, 100)

2025-07-07 16:18:43,732 - gym_custom_envs_real_ur_drivers_URBasic_realTimeClientEvent - INFO - Program send to Robot:
servoj([0.05829126993965428, -1.5938060386131812, -1.584602153885867, -1.538582730249298, 1.601475942552609, 3.2182916929840752], 0.5, 0.5, 0.002, 0.2, 100)

2025-07-07 16:18:43,738 - gym_custom_envs_real_ur_drivers_URBasic_realTimeClientEvent - INFO - Program send to Robot:
servoj([0.05829126993965428, -1.5938060386131812, -1.584602153885867, -1.538582730249298, 1.601475942552609, 3.2182916929840752], 0.5, 0.5, 0.002, 0.2, 100)

2025-07-07 16:18:43,748 - gym_custom_envs_real_ur_drivers_URBasic_realTimeClientEvent - INFO - Program send to Robot:
servoj([0.05829126993965428, -1.5938060386131812, -1.584602153885867, -1.538582730249298, 1.601475942552609, 3.2182916929840752], 0.5, 0.5, 0.002, 0.2, 100)

2025-07-07 16:18:43,756 - gym_custom_envs_real_ur_drivers_URBasic_realTimeClientEvent - INFO - Program send to Robot:
servoj([0.05829126993965428, -1.5938060386131812, -1.584602153885867, -1.538582730249298, 1.601475942552609, 3.2182916929840752], 0.5, 0.5, 0.002, 0.2, 100)

2025-07-07 16:18:43,772 - gym_custom_envs_real_ur_drivers_URBasic_realTimeClientEvent - INFO - Program send to Robot:
servoj([0.05829126993965428, -1.5938060386131812, -1.584602153885867, -1.538582730249298, 1.601475942552609, 3.2182916929840752], 0.5, 0.5, 0.002, 0.2, 100)

2025-07-07 16:18:43,781 - gym_custom_envs_real_ur_drivers_URBasic_realTimeClientEvent - INFO - Program send to Robot:
servoj([0.05829126993965428, -1.5938060386131812, -1.584602153885867, -1.538582730249298, 1.601475942552609, 3.2182916929840752], 0.5, 0.5, 0.002, 0.2, 100)

2025-07-07 16:18:43,786 - gym_custom_envs_real_ur_drivers_URBasic_realTimeClientEvent - INFO - Program send to Robot:
servoj([0.05829126993965428, -1.5938060386131812, -1.584602153885867, -1.538582730249298, 1.601475942552609, 3.2182916929840752], 0.5, 0.5, 0.002, 0.2, 100)

2025-07-07 16:18:43,806 - gym_custom_envs_real_ur_drivers_URBasic_realTimeClientEvent - INFO - Program send to Robot:
servoj([0.05829126993965428, -1.5938060386131812, -1.584602153885867, -1.538582730249298, 1.601475942552609, 3.2182916929840752], 0.5, 0.5, 0.002, 0.2, 100)

2025-07-07 16:18:43,811 - gym_custom_envs_real_ur_drivers_URBasic_realTimeClientEvent - INFO - Program send to Robot:
servoj([0.05829126993965428, -1.5938060386131812, -1.584602153885867, -1.538582730249298, 1.601475942552609, 3.2182916929840752], 0.5, 0.5, 0.002, 0.2, 100)

2025-07-07 16:18:43,820 - gym_custom_envs_real_ur_drivers_URBasic_realTimeClientEvent - INFO - Program send to Robot:
servoj([0.05829126993965428, -1.5938060386131812, -1.584602153885867, -1.538582730249298, 1.601475942552609, 3.2182916929840752], 0.5, 0.5, 0.002, 0.2, 100)

2025-07-07 16:18:43,834 - gym_custom_envs_real_ur_drivers_URBasic_realTimeClientEvent - INFO - Program send to Robot:
servoj([0.05829126993965428, -1.5938060386131812, -1.584602153885867, -1.538582730249298, 1.601475942552609, 3.2182916929840752], 0.5, 0.5, 0.002, 0.2, 100)

2025-07-07 16:18:43,843 - gym_custom_envs_real_ur_drivers_URBasic_realTimeClientEvent - INFO - Program send to Robot:
servoj([0.05829126993965428, -1.5938060386131812, -1.584602153885867, -1.538582730249298, 1.601475942552609, 3.2182916929840752], 0.5, 0.5, 0.002, 0.2, 100)

2025-07-07 16:18:43,851 - gym_custom_envs_real_ur_drivers_URBasic_realTimeClientEvent - INFO - Program send to Robot:
servoj([0.05829126993965428, -1.5938060386131812, -1.584602153885867, -1.538582730249298, 1.601475942552609, 3.2182916929840752], 0.5, 0.5, 0.002, 0.2, 100)

2025-07-07 16:18:43,859 - gym_custom_envs_real_ur_drivers_URBasic_realTimeClientEvent - INFO - Program send to Robot:
servoj([0.05829126993965428, -1.5938060386131812, -1.584602153885867, -1.538582730249298, 1.601475942552609, 3.2182916929840752], 0.5, 0.5, 0.002, 0.2, 100)

2025-07-07 16:18:43,875 - gym_custom_envs_real_ur_drivers_URBasic_realTimeClientEvent - INFO - Program send to Robot:
servoj([0.05829126993965428, -1.5938060386131812, -1.584602153885867, -1.538582730249298, 1.601475942552609, 3.2182916929840752], 0.5, 0.5, 0.002, 0.2, 100)

2025-07-07 16:18:43,882 - gym_custom_envs_real_ur_drivers_URBasic_realTimeClientEvent - INFO - Program send to Robot:
servoj([0.05829126993965428, -1.5938060386131812, -1.584602153885867, -1.538582730249298, 1.601475942552609, 3.2182916929840752], 0.5, 0.5, 0.002, 0.2, 100)

2025-07-07 16:18:43,891 - gym_custom_envs_real_ur_drivers_URBasic_realTimeClientEvent - INFO - Program send to Robot:
servoj([0.05829126993965428, -1.5938060386131812, -1.584602153885867, -1.538582730249298, 1.601475942552609, 3.2182916929840752], 0.5, 0.5, 0.002, 0.2, 100)

2025-07-07 16:18:43,908 - gym_custom_envs_real_ur_drivers_URBasic_realTimeClientEvent - INFO - Program send to Robot:
servoj([0.05829126993965428, -1.5938060386131812, -1.584602153885867, -1.538582730249298, 1.5999573015726032, 3.2182916929840752], 0.5, 0.5, 0.002, 0.2, 100)

2025-07-07 16:18:43,916 - gym_custom_envs_real_ur_drivers_URBasic_realTimeClientEvent - INFO - Program send to Robot:
servoj([0.05829126993965428, -1.5938060386131812, -1.584602153885867, -1.538582730249298, 1.599942115162803, 3.2182916929840752], 0.5, 0.5, 0.002, 0.2, 100)

2025-07-07 16:18:43,925 - gym_custom_envs_real_ur_drivers_URBasic_realTimeClientEvent - INFO - Program send to Robot:
servoj([0.05829126993965428, -1.5938060386131812, -1.584602153885867, -1.538582730249298, 1.599941963298705, 3.2182916929840752], 0.5, 0.5, 0.002, 0.2, 100)

2025-07-07 16:18:43,930 - gym_custom_envs_real_ur_drivers_URBasic_realTimeClientEvent - INFO - Program send to Robot:
servoj([0.05829126993965428, -1.5938060386131812, -1.584602153885867, -1.538582730249298, 1.599941961780064, 3.2182916929840752], 0.5, 0.5, 0.002, 0.2, 100)

2025-07-07 16:18:43,949 - gym_custom_envs_real_ur_drivers_URBasic_realTimeClientEvent - INFO - Program send to Robot:
servoj([0.05829126993965428, -1.5938060386131812, -1.584602153885867, -1.538582730249298, 1.5999419617648776, 3.2182916929840752], 0.5, 0.5, 0.002, 0.2, 100)

2025-07-07 16:18:43,955 - gym_custom_envs_real_ur_drivers_URBasic_realTimeClientEvent - INFO - Program send to Robot:
servoj([0.05829126993965428, -1.5938060386131812, -1.584602153885867, -1.538582730249298, 1.5999419617647257, 3.2182916929840752], 0.5, 0.5, 0.002, 0.2, 100)

2025-07-07 16:18:43,965 - gym_custom_envs_real_ur_drivers_URBasic_realTimeClientEvent - INFO - Program send to Robot:
servoj([0.05829126993965428, -1.5938060386131812, -1.584602153885867, -1.538582730249298, 1.5984233207847172, 3.2182916929840752], 0.5, 0.5, 0.002, 0.2, 100)

2025-07-07 16:18:43,978 - gym_custom_envs_real_ur_drivers_URBasic_realTimeClientEvent - INFO - Program send to Robot:
servoj([0.05829126993965428, -1.5938060386131812, -1.584602153885867, -1.538582730249298, 1.5984081343749172, 3.2182916929840752], 0.5, 0.5, 0.002, 0.2, 100)

2025-07-07 16:18:43,989 - gym_custom_envs_real_ur_drivers_URBasic_realTimeClientEvent - INFO - Program send to Robot:
servoj([0.05829126993965428, -1.5938060386131812, -1.584602153885867, -1.538582730249298, 1.5984079825108193, 3.2182916929840752], 0.5, 0.5, 0.002, 0.2, 100)

2025-07-07 16:18:43,997 - gym_custom_envs_real_ur_drivers_URBasic_realTimeClientEvent - INFO - Program send to Robot:
servoj([0.05829126993965428, -1.5938060386131812, -1.584602153885867, -1.538582730249298, 1.5984079809921783, 3.2182916929840752], 0.5, 0.5, 0.002, 0.2, 100)

2025-07-07 16:18:44,002 - gym_custom_envs_real_ur_drivers_URBasic_realTimeClientEvent - INFO - Program send to Robot:
servoj([0.05829126993965428, -1.5938060386131812, -1.584602153885867, -1.538582730249298, 1.5984079809769918, 3.2182916929840752], 0.5, 0.5, 0.002, 0.2, 100)

2025-07-07 16:18:44,021 - gym_custom_envs_real_ur_drivers_URBasic_realTimeClientEvent - INFO - Program send to Robot:
servoj([0.05829126993965428, -1.5938060386131812, -1.584602153885867, -1.538582730249298, 1.59840798097684, 3.2182916929840752], 0.5, 0.5, 0.002, 0.2, 100)

2025-07-07 16:18:44,026 - gym_custom_envs_real_ur_drivers_URBasic_realTimeClientEvent - INFO - Program send to Robot:
servoj([0.05829126993965428, -1.5938060386131812, -1.584602153885867, -1.540101371229305, 1.5968893399968314, 3.219810333964082], 0.5, 0.5, 0.002, 0.2, 100)

2025-07-07 16:18:44,037 - gym_custom_envs_real_ur_drivers_URBasic_realTimeClientEvent - INFO - Program send to Robot:
servoj([0.05829126993965428, -1.5938060386131812, -1.584602153885867, -1.5401165576391052, 1.5968741535870314, 3.2198255203738824], 0.5, 0.5, 0.002, 0.2, 100)

2025-07-07 16:18:44,051 - gym_custom_envs_real_ur_drivers_URBasic_realTimeClientEvent - INFO - Program send to Robot:
servoj([0.05829126993965428, -1.5938060386131812, -1.584602153885867, -1.5401167095032031, 1.5968740017229333, 3.21982567223798], 0.5, 0.5, 0.002, 0.2, 100)

2025-07-07 16:18:44,062 - gym_custom_envs_real_ur_drivers_URBasic_realTimeClientEvent - INFO - Program send to Robot:
servoj([0.05829126993965428, -1.5938060386131812, -1.584602153885867, -1.540116711021844, 1.5953553592242853, 3.2198256737566213], 0.5, 0.5, 0.002, 0.2, 100)

2025-07-07 16:18:44,067 - gym_custom_envs_real_ur_drivers_URBasic_realTimeClientEvent - INFO - Program send to Robot:
servoj([0.05829126993965428, -1.5938060386131812, -1.584602153885867, -1.5401167110370306, 1.5953401727992989, 3.2198256737718074], 0.5, 0.5, 0.002, 0.2, 100)

2025-07-07 16:18:44,086 - gym_custom_envs_real_ur_drivers_URBasic_realTimeClientEvent - INFO - Program send to Robot:
servoj([0.05829126993965428, -1.5938060386131812, -1.584602153885867, -1.5401167110371825, 1.595340020935049, 3.2198256737719593], 0.5, 0.5, 0.002, 0.2, 100)

2025-07-07 16:18:44,094 - gym_custom_envs_real_ur_drivers_URBasic_realTimeClientEvent - INFO - Program send to Robot:
servoj([0.05829126993965428, -1.5938060386131812, -1.584602153885867, -1.5401167110371838, 1.5923027374563925, 3.221344314751968], 0.5, 0.5, 0.002, 0.2, 100)

2025-07-07 16:18:44,099 - gym_custom_envs_real_ur_drivers_URBasic_realTimeClientEvent - INFO - Program send to Robot:
servoj([0.05829126993965428, -1.5938060386131812, -1.584602153885867, -1.5401167110371838, 1.592272364621606, 3.2213595011617677], 0.5, 0.5, 0.002, 0.2, 100)

2025-07-07 16:18:44,117 - gym_custom_envs_real_ur_drivers_URBasic_realTimeClientEvent - INFO - Program send to Robot:
servoj([0.05829126993965428, -1.5938060386131812, -1.584602153885867, -1.5401167110371838, 1.5922720608932581, 3.221359653025866], 0.5, 0.5, 0.002, 0.2, 100)

2025-07-07 16:18:44,124 - gym_custom_envs_real_ur_drivers_URBasic_realTimeClientEvent - INFO - Program send to Robot:
servoj([0.05829126993965428, -1.5938060386131812, -1.584602153885867, -1.5416353520171904, 1.5892347758959617, 3.2213596545445067], 0.5, 0.5, 0.002, 0.2, 100)

2025-07-07 16:18:44,132 - gym_custom_envs_real_ur_drivers_URBasic_realTimeClientEvent - INFO - Program send to Robot:
servoj([0.05829126993965428, -1.5938060386131812, -1.584602153885867, -1.5416505384269905, 1.5892044030459889, 3.221359654559693], 0.5, 0.5, 0.002, 0.2, 100)

2025-07-07 16:18:44,147 - gym_custom_envs_real_ur_drivers_URBasic_realTimeClientEvent - INFO - Program send to Robot:
servoj([0.05829126993965428, -1.5938060386131812, -1.584602153885867, -1.5416506902910885, 1.5892040993174892, 3.221359654559845], 0.5, 0.5, 0.002, 0.2, 100)

2025-07-07 16:18:44,156 - gym_custom_envs_real_ur_drivers_URBasic_realTimeClientEvent - INFO - Program send to Robot:
servoj([0.05829126993965428, -1.5938060386131812, -1.584602153885867, -1.5416506918097295, 1.583129532360177, 3.2213596545598464], 0.5, 0.5, 0.002, 0.2, 100)

2025-07-07 16:18:44,165 - gym_custom_envs_real_ur_drivers_URBasic_realTimeClientEvent - INFO - Program send to Robot:
servoj([0.05829126993965428, -1.5938060386131812, -1.584602153885867, -1.541650691824916, 1.583068786690604, 3.2213596545598464], 0.5, 0.5, 0.002, 0.2, 100)

2025-07-07 16:18:44,172 - gym_custom_envs_real_ur_drivers_URBasic_realTimeClientEvent - INFO - Program send to Robot:
servoj([0.05829126993965428, -1.5938060386131812, -1.584602153885867, -1.5416506918250679, 1.5830681792339083, 3.2213596545598464], 0.5, 0.5, 0.002, 0.2, 100)

2025-07-07 16:18:44,189 - gym_custom_envs_real_ur_drivers_URBasic_realTimeClientEvent - INFO - Program send to Robot:
servoj([0.05829126993965428, -1.5938060386131812, -1.584602153885867, -1.5416506918250692, 1.5769936092393135, 3.2213596545598464], 0.5, 0.5, 0.002, 0.2, 100)

2025-07-07 16:18:44,195 - gym_custom_envs_real_ur_drivers_URBasic_realTimeClientEvent - INFO - Program send to Robot:
servoj([0.05829126993965428, -1.5938060386131812, -1.584602153885867, -1.5416506918250694, 1.5769328635393676, 3.2213596545598464], 0.5, 0.5, 0.002, 0.2, 100)

2025-07-07 16:18:44,204 - gym_custom_envs_real_ur_drivers_URBasic_realTimeClientEvent - INFO - Program send to Robot:
servoj([0.05829126993965428, -1.5938060386131812, -1.584602153885867, -1.5416506918250694, 1.5769322560823682, 3.2213596545598464], 0.5, 0.5, 0.002, 0.2, 100)

2025-07-07 16:18:44,219 - gym_custom_envs_real_ur_drivers_URBasic_realTimeClientEvent - INFO - Program send to Robot:
servoj([0.05829126993965428, -1.5938060386131812, -1.584602153885867, -1.5416506918250694, 1.5723763270677782, 3.2213596545598464], 0.5, 0.5, 0.002, 0.2, 100)

2025-07-07 16:18:44,227 - gym_custom_envs_real_ur_drivers_URBasic_realTimeClientEvent - INFO - Program send to Robot:
servoj([0.05829126993965428, -1.5938060386131812, -1.584602153885867, -1.5416506918250694, 1.5723307677776321, 3.2213596545598464], 0.5, 0.5, 0.002, 0.2, 100)

2025-07-07 16:18:44,235 - gym_custom_envs_real_ur_drivers_URBasic_realTimeClientEvent - INFO - Program send to Robot:
servoj([0.05829126993965428, -1.5938060386131812, -1.584602153885867, -1.5416506918250694, 1.5723303121847307, 3.2213596545598464], 0.5, 0.5, 0.002, 0.2, 100)

2025-07-07 16:18:44,243 - gym_custom_envs_real_ur_drivers_URBasic_realTimeClientEvent - INFO - Program send to Robot:
servoj([0.05829126993965428, -1.5938060386131812, -1.584602153885867, -1.5416506918250694, 1.5723303076288018, 3.2213596545598464], 0.5, 0.5, 0.002, 0.2, 100)

2025-07-07 16:18:44,259 - gym_custom_envs_real_ur_drivers_URBasic_realTimeClientEvent - INFO - Program send to Robot:
servoj([0.05829126993965428, -1.5938060386131812, -1.584602153885867, -1.5416506918250694, 1.5692930256232287, 3.2213596545598464], 0.5, 0.5, 0.002, 0.2, 100)

2025-07-07 16:18:44,267 - gym_custom_envs_real_ur_drivers_URBasic_realTimeClientEvent - INFO - Program send to Robot:
servoj([0.05829126993965428, -1.5938060386131812, -1.584602153885867, -1.5416506918250694, 1.569262652803173, 3.2213596545598464], 0.5, 0.5, 0.002, 0.2, 100)

2025-07-07 16:18:44,275 - gym_custom_envs_real_ur_drivers_URBasic_realTimeClientEvent - INFO - Program send to Robot:
servoj([0.05829126993965428, -1.5938060386131812, -1.584602153885867, -1.5416506918250694, 1.5692623490749724, 3.2213596545598464], 0.5, 0.5, 0.002, 0.2, 100)

2025-07-07 16:18:44,284 - gym_custom_envs_real_ur_drivers_URBasic_realTimeClientEvent - INFO - Program send to Robot:
servoj([0.05829126993965428, -1.5938060386131812, -1.584602153885867, -1.5416506918250694, 1.5647064230976704, 3.2213596545598464], 0.5, 0.5, 0.002, 0.2, 100)

2025-07-07 16:18:44,300 - gym_custom_envs_real_ur_drivers_URBasic_realTimeClientEvent - INFO - Program send to Robot:
servoj([0.05829126993965428, -1.5938060386131812, -1.584602153885867, -1.5416506918250694, 1.5646608638378974, 3.2213596545598464], 0.5, 0.5, 0.002, 0.2, 100)

2025-07-07 16:18:44,309 - gym_custom_envs_real_ur_drivers_URBasic_realTimeClientEvent - INFO - Program send to Robot:
servoj([0.05829126993965428, -1.5938060386131812, -1.584602153885867, -1.5416506918250694, 1.5646604082452997, 3.2213596545598464], 0.5, 0.5, 0.002, 0.2, 100)

2025-07-07 16:18:44,314 - gym_custom_envs_real_ur_drivers_URBasic_realTimeClientEvent - INFO - Program send to Robot:
servoj([0.05829126993965428, -1.5938060386131812, -1.584602153885867, -1.5416506918250694, 1.5616231217293597, 3.2213596545598464], 0.5, 0.5, 0.002, 0.2, 100)

2025-07-07 16:18:44,334 - gym_custom_envs_real_ur_drivers_URBasic_realTimeClientEvent - INFO - Program send to Robot:
servoj([0.05829126993965428, -1.5938060386131812, -1.584602153885867, -1.5416506918250694, 1.5615927488642003, 3.2213596545598464], 0.5, 0.5, 0.002, 0.2, 100)

2025-07-07 16:18:44,340 - gym_custom_envs_real_ur_drivers_URBasic_realTimeClientEvent - INFO - Program send to Robot:
servoj([0.05829126993965428, -1.5938060386131812, -1.584602153885867, -1.5416506918250694, 1.5615924451355487, 3.2213596545598464], 0.5, 0.5, 0.002, 0.2, 100)

2025-07-07 16:18:44,348 - gym_custom_envs_real_ur_drivers_URBasic_realTimeClientEvent - INFO - Program send to Robot:
servoj([0.05829126993965428, -1.5938060386131812, -1.584602153885867, -1.5416506918250694, 1.5555178781782353, 3.2213596545598464], 0.5, 0.5, 0.002, 0.2, 100)

2025-07-07 16:18:44,363 - gym_custom_envs_real_ur_drivers_URBasic_realTimeClientEvent - INFO - Program send to Robot:
servoj([0.05829126993965428, -1.5938060386131812, -1.584602153885867, -1.5416506918250694, 1.5554571325086624, 3.2213596545598464], 0.5, 0.5, 0.002, 0.2, 100)

2025-07-07 16:18:44,371 - gym_custom_envs_real_ur_drivers_URBasic_realTimeClientEvent - INFO - Program send to Robot:
servoj([0.05829126993965428, -1.5938060386131812, -1.584602153885867, -1.5416506918250694, 1.5554565250519665, 3.2213596545598464], 0.5, 0.5, 0.002, 0.2, 100)

2025-07-07 16:18:44,379 - gym_custom_envs_real_ur_drivers_URBasic_realTimeClientEvent - INFO - Program send to Robot:
servoj([0.05829126993965428, -1.5938060386131812, -1.584602153885867, -1.5416506918250694, 1.5509005960373787, 3.2213596545598464], 0.5, 0.5, 0.002, 0.2, 100)

2025-07-07 16:18:44,395 - gym_custom_envs_real_ur_drivers_URBasic_realTimeClientEvent - INFO - Program send to Robot:
servoj([0.05829126993965428, -1.5938060386131812, -1.584602153885867, -1.5416506918250694, 1.550855036747233, 3.2213596545598464], 0.5, 0.5, 0.002, 0.2, 100)

2025-07-07 16:18:44,403 - gym_custom_envs_real_ur_drivers_URBasic_realTimeClientEvent - INFO - Program send to Robot:
servoj([0.05829126993965428, -1.5938060386131812, -1.584602153885867, -1.5416506918250694, 1.5508545811543315, 3.2213596545598464], 0.5, 0.5, 0.002, 0.2, 100)

2025-07-07 16:18:44,410 - gym_custom_envs_real_ur_drivers_URBasic_realTimeClientEvent - INFO - Program send to Robot:
servoj([0.05829126993965428, -1.5938060386131812, -1.584602153885867, -1.5416506918250694, 1.5462986536583825, 3.2213596545598464], 0.5, 0.5, 0.002, 0.2, 100)

2025-07-07 16:18:44,420 - gym_custom_envs_real_ur_drivers_URBasic_realTimeClientEvent - INFO - Program send to Robot:
servoj([0.05829126993965428, -1.5938060386131812, -1.584602153885867, -1.5416506918250694, 1.546253094383423, 3.2213596545598464], 0.5, 0.5, 0.002, 0.2, 100)

2025-07-07 16:18:44,435 - gym_custom_envs_real_ur_drivers_URBasic_realTimeClientEvent - INFO - Program send to Robot:
servoj([0.05829126993965428, -1.5938060386131812, -1.584602153885867, -1.5416506918250694, 1.5462526387906734, 3.2213596545598464], 0.5, 0.5, 0.002, 0.2, 100)

2025-07-07 16:18:44,445 - gym_custom_envs_real_ur_drivers_URBasic_realTimeClientEvent - INFO - Program send to Robot:
servoj([0.05829126993965428, -1.5938060386131812, -1.584602153885867, -1.5416506918250694, 1.5462526342347458, 3.2213596545598464], 0.5, 0.5, 0.002, 0.2, 100)

2025-07-07 16:18:44,453 - gym_custom_envs_real_ur_drivers_URBasic_realTimeClientEvent - INFO - Program send to Robot:
servoj([0.05829126993965428, -1.5938060386131812, -1.584602153885867, -1.5416506918250694, 1.5462526341891867, 3.2213596545598464], 0.5, 0.5, 0.002, 0.2, 100)

2025-07-07 16:18:44,459 - gym_custom_envs_real_ur_drivers_URBasic_realTimeClientEvent - INFO - Program send to Robot:
servoj([0.05829126993965428, -1.5938060386131812, -1.584602153885867, -1.5416506918250694, 1.546252634188731, 3.2213596545598464], 0.5, 0.5, 0.002, 0.2, 100)

2025-07-07 16:18:44,478 - gym_custom_envs_real_ur_drivers_URBasic_realTimeClientEvent - INFO - Program send to Robot:
servoj([0.05829126993965428, -1.5938060386131812, -1.584602153885867, -1.5416506918250694, 1.5462526341887264, 3.2213596545598464], 0.5, 0.5, 0.002, 0.2, 100)

2025-07-07 16:18:44,483 - gym_custom_envs_real_ur_drivers_URBasic_realTimeClientEvent - INFO - Program send to Robot:
servoj([0.05829126993965428, -1.5938060386131812, -1.584602153885867, -1.5416506918250694, 1.5462526341887264, 3.2213596545598464], 0.5, 0.5, 0.002, 0.2, 100)

2025-07-07 16:18:44,492 - gym_custom_envs_real_ur_drivers_URBasic_realTimeClientEvent - INFO - Program send to Robot:
servoj([0.05829126993965428, -1.5938060386131812, -1.584602153885867, -1.5416506918250694, 1.5462526341887264, 3.2213596545598464], 0.5, 0.5, 0.002, 0.2, 100)

2025-07-07 16:18:44,507 - gym_custom_envs_real_ur_drivers_URBasic_realTimeClientEvent - INFO - Program send to Robot:
