2025-07-07 16:33:07,327 - gym_custom_envs_real_ur_drivers_URBasic_robotModelEvent - INFO - Init done
2025-07-07 16:33:07,828 - gym_custom_envs_real_ur_drivers_URBasic_realTimeClientEvent - INFO - Connected
2025-07-07 16:33:07,828 - gym_custom_envs_real_ur_drivers_URBasic_realTimeClientEvent - INFO - RT_CLient constructor done
2025-07-07 16:33:07,829 - gym_custom_envs_real_ur_drivers_URBasic_dataLogEvent - INFO - Data logging (not event logging) is disabled
2025-07-07 16:33:07,830 - gym_custom_envs_real_ur_drivers_URBasic_dataLogEvent - INFO - DataLog constructor done
2025-07-07 16:33:07,830 - gym_custom_envs_real_ur_drivers_URBasic_dataLogEvent - INFO - DataLog is stopped
2025-07-07 16:33:07,831 - gym_custom_envs_real_ur_drivers_URBasic_rtdeEvent - INFO - RTDE constructor done
2025-07-07 16:33:08,332 - gym_custom_envs_real_ur_drivers_URBasic_dashboardEvent - INFO - Connected
2025-07-07 16:33:08,333 - gym_custom_envs_real_ur_drivers_URBasic_dashboardEvent - INFO - UR Dashboard respond Connected: Universal Robots Dashboard Server
2025-07-07 16:33:08,333 - gym_custom_envs_real_ur_drivers_URBasic_dashboardEvent - INFO - Dashboard server constructor done
2025-07-07 16:33:08,334 - gym_custom_envs_real_ur_drivers_URBasic_robotConnectorEvent - INFO - Init done
2025-07-07 16:33:08,440 - gym_custom_envs_real_ur_drivers_URBasic_rtdeEvent - INFO - Controller version: 3.3.1-60
2025-07-07 16:33:08,445 - gym_custom_envs_real_ur_drivers_URBasic_rtdeEvent - INFO - RTDE started
2025-07-07 16:33:09,335 - gym_custom_envs_real_ur_drivers_URBasic_urScriptEvent - INFO - Init done!!!
2025-07-07 16:33:09,346 - gym_custom_envs_real_ur_drivers_URBasic_urScriptExtEvent - INFO - Init done
2025-07-07 16:33:10,937 - gym_custom_envs_real_ur_interfaceEvent - INFO - [] init done
2025-07-07 16:33:10,937 - gym_custom_envs_real_ur_drivers_URBasic_realTimeClientEvent - INFO - Program send to Robot:
end_freedrive_mode()

2025-07-07 16:33:14,011 - gym_custom_envs_real_ur_drivers_URBasic_realTimeClientEvent - INFO - Program send to Robot:
servoj([0.011074507797953138, -1.608161399221004, -1.526397075464881, -1.5929311084724178, 1.5293394804000855, 3.153808537186031], 0.5, 0.5, 0.002, 0.2, 100)

2025-07-07 16:33:14,033 - gym_custom_envs_real_ur_drivers_URBasic_realTimeClientEvent - INFO - Program send to Robot:
servoj([0.011088646915948219, -1.6081577957952011, -1.5263954314212758, -1.5929112025727568, 1.5293634414672852, 3.1537977213379547], 0.5, 0.5, 0.002, 0.2, 100)

2025-07-07 16:33:14,050 - gym_custom_envs_real_ur_drivers_URBasic_realTimeClientEvent - INFO - Program send to Robot:
servoj([0.010595542103293347, -1.6081694964971354, -1.526372783636487, -1.5928980715858019, 1.5293394804000855, 3.1538247317382937], 0.5, 0.5, 0.002, 0.2, 100)

2025-07-07 16:33:14,067 - gym_custom_envs_real_ur_drivers_URBasic_realTimeClientEvent - INFO - Program send to Robot:
servoj([0.010582530750506837, -1.6081448807776961, -1.5264051727410124, -1.5929145900291097, 1.5293394804000855, 3.153808537186031], 0.5, 0.5, 0.002, 0.2, 100)

2025-07-07 16:33:14,083 - gym_custom_envs_real_ur_drivers_URBasic_realTimeClientEvent - INFO - Program send to Robot:
servoj([0.011084792254627118, -1.6081595886828355, -1.5263841236290558, -1.5929044671445947, 1.5293515205383301, 3.153798993389649], 0.5, 0.5, 0.002, 0.2, 100)

2025-07-07 16:33:14,103 - gym_custom_envs_real_ur_drivers_URBasic_realTimeClientEvent - INFO - Program send to Robot:
servoj([0.011071242587464739, -1.608164081093144, -1.5263824820536989, -1.5929341130591652, 1.5293754816055298, 3.1538372421882284], 0.5, 0.5, 0.002, 0.2, 100)

2025-07-07 16:33:14,115 - gym_custom_envs_real_ur_drivers_URBasic_realTimeClientEvent - INFO - Program send to Robot:
servoj([0.011058226720154487, -1.6081775937732667, -1.5263808809126185, -1.592906168861933, 1.5293394804000855, 3.153775986135983], 0.5, 0.5, 0.002, 0.2, 100)

2025-07-07 16:33:14,131 - gym_custom_envs_real_ur_drivers_URBasic_realTimeClientEvent - INFO - Program send to Robot:
servoj([0.011075540431972536, -1.6081550402316773, -1.5263696695323703, -1.5929327434210934, 1.529327917098999, 3.1538015114780693], 0.5, 0.5, 0.002, 0.2, 100)

2025-07-07 16:33:14,152 - gym_custom_envs_real_ur_drivers_URBasic_realTimeClientEvent - INFO - Program send to Robot:
servoj([0.011082648090814747, -1.6076742932334334, -1.5263889781887499, -1.5929145900291097, 1.5293394804000855, 3.153800277964377], 0.5, 0.5, 0.002, 0.2, 100)

2025-07-07 16:33:14,163 - gym_custom_envs_real_ur_drivers_URBasic_realTimeClientEvent - INFO - Program send to Robot:
servoj([0.011066367505041842, -1.607677519449689, -1.5264132700171438, -1.5929226873052411, 1.5293394804000855, 3.1538247317382937], 0.5, 0.5, 0.002, 0.2, 100)

2025-07-07 16:33:14,179 - gym_custom_envs_real_ur_drivers_URBasic_realTimeClientEvent - INFO - Program send to Robot:
servoj([0.011092897245824185, -1.6081924201757842, -1.5263664275024864, -1.5929260237633962, 1.5293158769607544, 3.153819153330976], 0.5, 0.5, 0.002, 0.2, 100)

2025-07-07 16:33:14,200 - gym_custom_envs_real_ur_drivers_URBasic_realTimeClientEvent - INFO - Program send to Robot:
servoj([0.011102783011243391, -1.6081541420484522, -1.5263937905379792, -1.59292433011931, 1.529387402534485, 3.153811518047926], 0.5, 0.5, 0.002, 0.2, 100)

2025-07-07 16:33:14,211 - gym_custom_envs_real_ur_drivers_URBasic_realTimeClientEvent - INFO - Program send to Robot:
servoj([0.010595542103293347, -1.608161398729027, -1.526372783636487, -1.5928899743096705, 1.5293394804000855, 3.1537921806882454], 0.5, 0.5, 0.002, 0.2, 100)

2025-07-07 16:33:14,226 - gym_custom_envs_real_ur_drivers_URBasic_realTimeClientEvent - INFO - Program send to Robot:
servoj([0.010575459303006926, -1.6081631377865024, -1.5264020597713486, -1.5928997053773357, 1.529327917098999, 3.153825966108498], 0.5, 0.5, 0.002, 0.2, 100)

2025-07-07 16:33:14,249 - gym_custom_envs_real_ur_drivers_URBasic_realTimeClientEvent - INFO - Program send to Robot:
servoj([0.011095042765425459, -1.6081712353511173, -1.5264020597713486, -1.5929078029370802, 1.529327917098999, 3.153825966108498], 0.5, 0.5, 0.002, 0.2, 100)

2025-07-07 16:33:14,267 - gym_custom_envs_real_ur_drivers_URBasic_realTimeClientEvent - INFO - Program send to Robot:
servoj([0.011103800207252941, -1.6081721774860034, -1.5263824820536989, -1.5928929833834364, 1.5293754816055298, 3.1538127910817915], 0.5, 0.5, 0.002, 0.2, 100)

2025-07-07 16:33:14,283 - gym_custom_envs_real_ur_drivers_URBasic_realTimeClientEvent - INFO - Program send to Robot:
servoj([0.011076615004195337, -1.6081892413464278, -1.5263580057332777, -1.5929014062841707, 1.5293158769607544, 3.153827251185984], 0.5, 0.5, 0.002, 0.2, 100)

2025-07-07 16:33:14,300 - gym_custom_envs_real_ur_drivers_URBasic_realTimeClientEvent - INFO - Program send to Robot:
servoj([0.01106315238666629, -1.6081559847002838, -1.5263905784465588, -1.592926016666305, 1.5293754816055298, 3.1538046946889313], 0.5, 0.5, 0.002, 0.2, 100)

2025-07-07 16:33:14,315 - gym_custom_envs_real_ur_drivers_URBasic_realTimeClientEvent - INFO - Program send to Robot:
servoj([0.010617745447266987, -1.6076787116109517, -1.5263873347329715, -1.5929192992610608, 1.5293634414672852, 3.1537977213379547], 0.5, 0.5, 0.002, 0.2, 100)

2025-07-07 16:33:14,332 - gym_custom_envs_real_ur_drivers_URBasic_realTimeClientEvent - INFO - Program send to Robot:
servoj([0.010606951629238758, -1.6076856167258204, -1.5264051727410124, -1.592906168861933, 1.5293394804000855, 3.153808537186031], 0.5, 0.5, 0.002, 0.2, 100)

2025-07-07 16:33:14,347 - gym_custom_envs_real_ur_drivers_URBasic_realTimeClientEvent - INFO - Program send to Robot:
servoj([0.01105433987527202, -1.6081663159456079, -1.526393962211604, -1.592891607817591, 1.529327917098999, 3.1538178685487535], 0.5, 0.5, 0.002, 0.2, 100)

2025-07-07 16:33:14,370 - gym_custom_envs_real_ur_drivers_URBasic_realTimeClientEvent - INFO - Program send to Robot:
servoj([0.011088597710680092, -1.6081820366548452, -1.5264116247978838, -1.5929192992610608, 1.5293634414672852, 3.153830431958703], 0.5, 0.5, 0.002, 0.2, 100)

2025-07-07 16:33:14,387 - gym_custom_envs_real_ur_drivers_URBasic_realTimeClientEvent - INFO - Program send to Robot:
servoj([0.011080506721934823, -1.6081658919914525, -1.5263954314212758, -1.5929277198168972, 1.5293634414672852, 3.153830431958703], 0.5, 0.5, 0.002, 0.2, 100)

2025-07-07 16:33:14,411 - gym_custom_envs_real_ur_drivers_URBasic_realTimeClientEvent - INFO - Program send to Robot:
servoj([0.010579261512551971, -1.607682390504645, -1.526372783636487, -1.5928980715858019, 1.5293394804000855, 3.153808537186031], 0.5, 0.5, 0.002, 0.2, 100)

2025-07-07 16:33:14,427 - gym_custom_envs_real_ur_drivers_URBasic_realTimeClientEvent - INFO - Program send to Robot:
servoj([0.010576984157646865, -1.6076845006596965, -1.5264294184682208, -1.5929142068079594, 1.5293994426727295, 3.153818327890771], 0.5, 0.5, 0.002, 0.2, 100)

2025-07-07 16:33:14,445 - gym_custom_envs_real_ur_drivers_URBasic_realTimeClientEvent - INFO - Program send to Robot:
servoj([-0.01840792283736685, -1.5585243271090725, -1.6152817696435804, -1.5462526341887264, 1.6352235198860932, 3.1185829417715087], 0.5, 0.5, 0.002, 0.2, 100)

2025-07-07 16:33:14,451 - gym_custom_envs_real_ur_drivers_URBasic_realTimeClientEvent - INFO - Program send to Robot:
servoj([-0.01840777098845524, -1.5585244789579842, -1.6152817696435804, -1.5462526341887264, 1.6352235198860932, 3.1185829417715087], 0.5, 0.5, 0.002, 0.2, 100)

2025-07-07 16:33:14,459 - gym_custom_envs_real_ur_drivers_URBasic_realTimeClientEvent - INFO - Program send to Robot:
servoj([-0.018407769469966126, -1.5585244804764733, -1.6152817696435804, -1.5462526341887264, 1.6352235198860932, 3.1185829417715087], 0.5, 0.5, 0.002, 0.2, 100)

2025-07-07 16:33:14,475 - gym_custom_envs_real_ur_drivers_URBasic_realTimeClientEvent - INFO - Program send to Robot:
servoj([-0.018407769454781234, -1.558524480491658, -1.6152817696435804, -1.5462526341887264, 1.6352235198860932, 3.1185829417715087], 0.5, 0.5, 0.002, 0.2, 100)

2025-07-07 16:33:14,483 - gym_custom_envs_real_ur_drivers_URBasic_realTimeClientEvent - INFO - Program send to Robot:
servoj([-0.018407769454629387, -1.55852448049181, -1.6152817696435804, -1.5462526341887264, 1.6352235198860932, 3.1185829417715087], 0.5, 0.5, 0.002, 0.2, 100)

2025-07-07 16:33:14,491 - gym_custom_envs_real_ur_drivers_URBasic_realTimeClientEvent - INFO - Program send to Robot:
servoj([-0.018407769454627868, -1.5585244804918115, -1.6152817696435804, -1.5462526341887264, 1.6352235198860932, 3.1185829417715087], 0.5, 0.5, 0.002, 0.2, 100)

2025-07-07 16:33:14,500 - gym_custom_envs_real_ur_drivers_URBasic_realTimeClientEvent - INFO - Program send to Robot:
servoj([-0.01992641043463436, -1.5585244804918115, -1.6152817696435804, -1.5462526341887264, 1.6352235198860932, 3.1185829417715087], 0.5, 0.5, 0.002, 0.2, 100)

2025-07-07 16:33:14,516 - gym_custom_envs_real_ur_drivers_URBasic_realTimeClientEvent - INFO - Program send to Robot:
servoj([-0.019941596844434424, -1.5585244804918115, -1.6152817696435804, -1.5462526341887264, 1.6352235198860932, 3.1185829417715087], 0.5, 0.5, 0.002, 0.2, 100)

2025-07-07 16:33:14,525 - gym_custom_envs_real_ur_drivers_URBasic_realTimeClientEvent - INFO - Program send to Robot:
servoj([-0.019941748708532422, -1.5585244804918115, -1.6152817696435804, -1.5462526341887264, 1.6352235198860932, 3.1185829417715087], 0.5, 0.5, 0.002, 0.2, 100)

2025-07-07 16:33:14,531 - gym_custom_envs_real_ur_drivers_URBasic_realTimeClientEvent - INFO - Program send to Robot:
servoj([-0.018423109247166898, -1.5585244804918115, -1.6152817696435804, -1.5462526341887264, 1.6352235198860932, 3.1185829417715087], 0.5, 0.5, 0.002, 0.2, 100)

2025-07-07 16:33:14,550 - gym_custom_envs_real_ur_drivers_URBasic_realTimeClientEvent - INFO - Program send to Robot:
servoj([-0.018407922852553243, -1.5585244804918115, -1.6152817696435804, -1.5462526341887264, 1.6352235198860932, 3.1185829417715087], 0.5, 0.5, 0.002, 0.2, 100)

2025-07-07 16:33:14,555 - gym_custom_envs_real_ur_drivers_URBasic_realTimeClientEvent - INFO - Program send to Robot:
servoj([-0.018407770988607106, -1.5585244804918115, -1.6152817696435804, -1.5462526341887264, 1.6352235198860932, 3.1185829417715087], 0.5, 0.5, 0.002, 0.2, 100)

2025-07-07 16:33:14,564 - gym_custom_envs_real_ur_drivers_URBasic_realTimeClientEvent - INFO - Program send to Robot:
servoj([-0.018407769469967646, -1.5585244804918115, -1.6152817696435804, -1.5462526341887264, 1.6352235198860932, 3.1185829417715087], 0.5, 0.5, 0.002, 0.2, 100)

2025-07-07 16:33:14,579 - gym_custom_envs_real_ur_drivers_URBasic_realTimeClientEvent - INFO - Program send to Robot:
servoj([-0.018407769454781252, -1.5585244804918115, -1.6152817696435804, -1.5462526341887264, 1.6352235198860932, 3.1185829417715087], 0.5, 0.5, 0.002, 0.2, 100)

2025-07-07 16:33:14,587 - gym_custom_envs_real_ur_drivers_URBasic_realTimeClientEvent - INFO - Program send to Robot:
servoj([-0.018407769454629387, -1.5585244804918115, -1.6152817696435804, -1.5462526341887264, 1.6352235198860932, 3.1185829417715087], 0.5, 0.5, 0.002, 0.2, 100)

2025-07-07 16:33:14,595 - gym_custom_envs_real_ur_drivers_URBasic_realTimeClientEvent - INFO - Program send to Robot:
servoj([-0.019926410434634372, -1.5585244804918115, -1.6152817696435804, -1.5462526341887264, 1.6352235198860932, 3.1185829417715087], 0.5, 0.5, 0.002, 0.2, 100)

2025-07-07 16:33:14,603 - gym_custom_envs_real_ur_drivers_URBasic_realTimeClientEvent - INFO - Program send to Robot:
servoj([-0.019941596844434424, -1.5585244804918115, -1.6152817696435804, -1.5462526341887264, 1.6352235198860932, 3.1185829417715087], 0.5, 0.5, 0.002, 0.2, 100)

2025-07-07 16:33:14,619 - gym_custom_envs_real_ur_drivers_URBasic_realTimeClientEvent - INFO - Program send to Robot:
servoj([-0.019941748708532422, -1.5585244804918115, -1.6152817696435804, -1.5462526341887264, 1.6352235198860932, 3.1185829417715087], 0.5, 0.5, 0.002, 0.2, 100)

2025-07-07 16:33:14,626 - gym_custom_envs_real_ur_drivers_URBasic_realTimeClientEvent - INFO - Program send to Robot:
servoj([-0.019941750227173403, -1.5570058395118047, -1.6152817696435804, -1.5462526341887264, 1.6352235198860932, 3.1185829417715087], 0.5, 0.5, 0.002, 0.2, 100)

2025-07-07 16:33:14,635 - gym_custom_envs_real_ur_drivers_URBasic_realTimeClientEvent - INFO - Program send to Robot:
servoj([-0.019941750242359814, -1.5569906531020048, -1.6152817696435804, -1.5462526341887264, 1.6352235198860932, 3.1185829417715087], 0.5, 0.5, 0.002, 0.2, 100)

2025-07-07 16:33:14,651 - gym_custom_envs_real_ur_drivers_URBasic_realTimeClientEvent - INFO - Program send to Robot:
servoj([-0.01994175024251168, -1.5569905012379066, -1.6152817696435804, -1.5462526341887264, 1.6352235198860932, 3.1185829417715087], 0.5, 0.5, 0.002, 0.2, 100)

2025-07-07 16:33:14,660 - gym_custom_envs_real_ur_drivers_URBasic_realTimeClientEvent - INFO - Program send to Robot:
servoj([-0.019941750242513195, -1.5585091406992724, -1.6152817696435804, -1.5462526341887264, 1.6352235198860932, 3.1185829417715087], 0.5, 0.5, 0.002, 0.2, 100)

2025-07-07 16:33:14,669 - gym_custom_envs_real_ur_drivers_URBasic_realTimeClientEvent - INFO - Program send to Robot:
servoj([-0.019941750242513212, -1.5585243270938862, -1.6152817696435804, -1.5462526341887264, 1.6352235198860932, 3.1185829417715087], 0.5, 0.5, 0.002, 0.2, 100)

2025-07-07 16:33:14,675 - gym_custom_envs_real_ur_drivers_URBasic_realTimeClientEvent - INFO - Program send to Robot:
servoj([-0.019941750242513212, -1.5585244789578323, -1.6152817696435804, -1.5462526341887264, 1.6352235198860932, 3.1185829417715087], 0.5, 0.5, 0.002, 0.2, 100)

2025-07-07 16:33:14,693 - gym_custom_envs_real_ur_drivers_URBasic_realTimeClientEvent - INFO - Program send to Robot:
servoj([-0.018423109262506707, -1.5585244804764717, -1.6152817696435804, -1.5462526341887264, 1.6352235198860932, 3.1185829417715087], 0.5, 0.5, 0.002, 0.2, 100)

2025-07-07 16:33:14,698 - gym_custom_envs_real_ur_drivers_URBasic_realTimeClientEvent - INFO - Program send to Robot:
servoj([-0.01840792285270664, -1.558524480491658, -1.6152817696435804, -1.5462526341887264, 1.6352235198860932, 3.1185829417715087], 0.5, 0.5, 0.002, 0.2, 100)

2025-07-07 16:33:14,708 - gym_custom_envs_real_ur_drivers_URBasic_realTimeClientEvent - INFO - Program send to Robot:
servoj([-0.01840777098860864, -1.55852448049181, -1.6152817696435804, -1.5462526341887264, 1.6352235198860932, 3.1185829417715087], 0.5, 0.5, 0.002, 0.2, 100)

2025-07-07 16:33:14,723 - gym_custom_envs_real_ur_drivers_URBasic_realTimeClientEvent - INFO - Program send to Robot:
servoj([-0.01840776946996766, -1.5585244804918115, -1.6152817696435804, -1.5462526341887264, 1.6352235198860932, 3.1185829417715087], 0.5, 0.5, 0.002, 0.2, 100)

2025-07-07 16:33:14,732 - gym_custom_envs_real_ur_drivers_URBasic_realTimeClientEvent - INFO - Program send to Robot:
servoj([-0.018407769454781252, -1.5585244804918115, -1.6152817696435804, -1.5462526341887264, 1.6352235198860932, 3.1185829417715087], 0.5, 0.5, 0.002, 0.2, 100)

2025-07-07 16:33:14,740 - gym_custom_envs_real_ur_drivers_URBasic_realTimeClientEvent - INFO - Program send to Robot:
servoj([-0.018407769454629387, -1.5585244804918115, -1.6152817696435804, -1.5462526341887264, 1.6352235198860932, 3.1185829417715087], 0.5, 0.5, 0.002, 0.2, 100)

2025-07-07 16:33:14,746 - gym_custom_envs_real_ur_drivers_URBasic_realTimeClientEvent - INFO - Program send to Robot:
servoj([-0.018407769454627868, -1.5585244804918115, -1.6152817696435804, -1.5462526341887264, 1.6352235198860932, 3.1185829417715087], 0.5, 0.5, 0.002, 0.2, 100)

2025-07-07 16:33:14,764 - gym_custom_envs_real_ur_drivers_URBasic_realTimeClientEvent - INFO - Program send to Robot:
servoj([-0.018407769454627854, -1.5585244804918115, -1.6152817696435804, -1.5462526341887264, 1.6352235198860932, 3.1185829417715087], 0.5, 0.5, 0.002, 0.2, 100)

2025-07-07 16:33:14,771 - gym_custom_envs_real_ur_drivers_URBasic_realTimeClientEvent - INFO - Program send to Robot:
servoj([-0.018407769454627854, -1.5585244804918115, -1.6152817696435804, -1.5462526341887264, 1.6352235198860932, 3.1185829417715087], 0.5, 0.5, 0.002, 0.2, 100)

2025-07-07 16:33:14,780 - gym_custom_envs_real_ur_drivers_URBasic_realTimeClientEvent - INFO - Program send to Robot:
servoj([-0.018407769454627854, -1.5585244804918115, -1.6152817696435804, -1.5462526341887264, 1.6352235198860932, 3.1185829417715087], 0.5, 0.5, 0.002, 0.2, 100)

2025-07-07 16:33:14,789 - gym_custom_envs_real_ur_drivers_URBasic_realTimeClientEvent - INFO - Program send to Robot:
servoj([-0.018407769454627854, -1.5585244804918115, -1.6152817696435804, -1.5462526341887264, 1.6352235198860932, 3.1185829417715087], 0.5, 0.5, 0.002, 0.2, 100)

2025-07-07 16:33:14,805 - gym_custom_envs_real_ur_drivers_URBasic_realTimeClientEvent - INFO - Program send to Robot:
servoj([-0.018407769454627854, -1.5585244804918115, -1.6152817696435804, -1.5462526341887264, 1.6352235198860932, 3.1185829417715087], 0.5, 0.5, 0.002, 0.2, 100)

2025-07-07 16:33:14,813 - gym_custom_envs_real_ur_drivers_URBasic_realTimeClientEvent - INFO - Program send to Robot:
servoj([-0.018407769454627854, -1.5585244804918115, -1.6152817696435804, -1.5462526341887264, 1.6352235198860932, 3.1185829417715087], 0.5, 0.5, 0.002, 0.2, 100)

2025-07-07 16:33:14,819 - gym_custom_envs_real_ur_drivers_URBasic_realTimeClientEvent - INFO - Program send to Robot:
servoj([-0.018407769454627854, -1.5585244804918115, -1.6152817696435804, -1.5462526341887264, 1.633704878906087, 3.1185829417715087], 0.5, 0.5, 0.002, 0.2, 100)

2025-07-07 16:33:14,837 - gym_custom_envs_real_ur_drivers_URBasic_realTimeClientEvent - INFO - Program send to Robot:
servoj([-0.018407769454627854, -1.5585244804918115, -1.6152817696435804, -1.5462526341887264, 1.633689692496287, 3.1185829417715087], 0.5, 0.5, 0.002, 0.2, 100)

2025-07-07 16:33:14,842 - gym_custom_envs_real_ur_drivers_URBasic_realTimeClientEvent - INFO - Program send to Robot:
servoj([-0.018407769454627854, -1.5585244804918115, -1.6152817696435804, -1.5462526341887264, 1.633689540632189, 3.1185829417715087], 0.5, 0.5, 0.002, 0.2, 100)

2025-07-07 16:33:14,853 - gym_custom_envs_real_ur_drivers_URBasic_realTimeClientEvent - INFO - Program send to Robot:
servoj([-0.018407769454627854, -1.5585244804918115, -1.6152817696435804, -1.5462526341887264, 1.633689539113548, 3.1185829417715087], 0.5, 0.5, 0.002, 0.2, 100)

2025-07-07 16:33:14,867 - gym_custom_envs_real_ur_drivers_URBasic_realTimeClientEvent - INFO - Program send to Robot:
servoj([-0.018407769454627854, -1.5585244804918115, -1.6152817696435804, -1.5462526341887264, 1.6336895390983617, 3.1185829417715087], 0.5, 0.5, 0.002, 0.2, 100)

2025-07-07 16:33:14,877 - gym_custom_envs_real_ur_drivers_URBasic_realTimeClientEvent - INFO - Program send to Robot:
servoj([-0.018407769454627854, -1.5585244804918115, -1.6152817696435804, -1.5462526341887264, 1.6336895390982098, 3.1185829417715087], 0.5, 0.5, 0.002, 0.2, 100)

2025-07-07 16:33:14,886 - gym_custom_envs_real_ur_drivers_URBasic_realTimeClientEvent - INFO - Program send to Robot:
servoj([-0.018407769454627854, -1.5570058395118047, -1.6152817696435804, -1.5462526341887264, 1.6352081800782143, 3.1185829417715087], 0.5, 0.5, 0.002, 0.2, 100)

2025-07-07 16:33:14,891 - gym_custom_envs_real_ur_drivers_URBasic_realTimeClientEvent - INFO - Program send to Robot:
servoj([-0.018407769454627854, -1.5569906531020048, -1.6152817696435804, -1.5462526341887264, 1.6352233664880143, 3.1185829417715087], 0.5, 0.5, 0.002, 0.2, 100)

2025-07-07 16:33:14,908 - gym_custom_envs_real_ur_drivers_URBasic_realTimeClientEvent - INFO - Program send to Robot:
servoj([-0.018407769454627854, -1.5569905012379066, -1.6152817696435804, -1.5462526341887264, 1.6352235183521124, 3.1185829417715087], 0.5, 0.5, 0.002, 0.2, 100)

2025-07-07 16:33:14,915 - gym_custom_envs_real_ur_drivers_URBasic_realTimeClientEvent - INFO - Program send to Robot:
servoj([-0.018407769454627854, -1.5585091406992724, -1.6152817696435804, -1.5462526341887264, 1.6337048788907473, 3.1185829417715087], 0.5, 0.5, 0.002, 0.2, 100)

2025-07-07 16:33:14,927 - gym_custom_envs_real_ur_drivers_URBasic_realTimeClientEvent - INFO - Program send to Robot:
servoj([-0.018407769454627854, -1.5585243270938862, -1.6152817696435804, -1.5462526341887264, 1.6336896924961335, 3.1185829417715087], 0.5, 0.5, 0.002, 0.2, 100)

2025-07-07 16:33:14,939 - gym_custom_envs_real_ur_drivers_URBasic_realTimeClientEvent - INFO - Program send to Robot:
servoj([-0.018407769454627854, -1.5585244789578323, -1.6152817696435804, -1.5462526341887264, 1.6336895406321874, 3.1185829417715087], 0.5, 0.5, 0.002, 0.2, 100)

2025-07-07 16:33:14,951 - gym_custom_envs_real_ur_drivers_URBasic_realTimeClientEvent - INFO - Program send to Robot:
servoj([-0.018407769454627854, -1.5585244804764717, -1.6152817696435804, -1.5462526341887264, 1.633689539113548, 3.117064300791502], 0.5, 0.5, 0.002, 0.2, 100)

2025-07-07 16:33:14,955 - gym_custom_envs_real_ur_drivers_URBasic_realTimeClientEvent - INFO - Program send to Robot:
servoj([-0.018407769454627854, -1.558524480491658, -1.6152817696435804, -1.5462526341887264, 1.6336895390983617, 3.1170491143817016], 0.5, 0.5, 0.002, 0.2, 100)

2025-07-07 16:33:14,975 - gym_custom_envs_real_ur_drivers_URBasic_realTimeClientEvent - INFO - Program send to Robot:
servoj([-0.018407769454627854, -1.55852448049181, -1.6152817696435804, -1.5462526341887264, 1.6336895390982098, 3.117048962517604], 0.5, 0.5, 0.002, 0.2, 100)

2025-07-07 16:33:14,979 - gym_custom_envs_real_ur_drivers_URBasic_realTimeClientEvent - INFO - Program send to Robot:
servoj([-0.018407769454627854, -1.5585244804918115, -1.6152817696435804, -1.5462526341887264, 1.6336895390982082, 3.1170489609989627], 0.5, 0.5, 0.002, 0.2, 100)

2025-07-07 16:33:14,999 - gym_custom_envs_real_ur_drivers_URBasic_realTimeClientEvent - INFO - Program send to Robot:
servoj([-0.018407769454627854, -1.5585244804918115, -1.6152817696435804, -1.5462526341887264, 1.6336895390982082, 3.1170489609837766], 0.5, 0.5, 0.002, 0.2, 100)

2025-07-07 16:33:15,004 - gym_custom_envs_real_ur_drivers_URBasic_realTimeClientEvent - INFO - Program send to Robot:
servoj([-0.018407769454627854, -1.5585244804918115, -1.6152817696435804, -1.5462526341887264, 1.6336895390982082, 3.1170489609836247], 0.5, 0.5, 0.002, 0.2, 100)

2025-07-07 16:33:15,025 - gym_custom_envs_real_ur_drivers_URBasic_realTimeClientEvent - INFO - Program send to Robot:
servoj([-0.018407769454627854, -1.5585244804918115, -1.6152817696435804, -1.5462526341887264, 1.6336895390982082, 3.117048960983623], 0.5, 0.5, 0.002, 0.2, 100)

2025-07-07 16:33:15,036 - gym_custom_envs_real_ur_drivers_URBasic_realTimeClientEvent - INFO - Program send to Robot:
servoj([-0.018407769454627854, -1.5585244804918115, -1.6152817696435804, -1.5462526341887264, 1.6336895390982082, 3.117048960983623], 0.5, 0.5, 0.002, 0.2, 100)

2025-07-07 16:33:15,044 - gym_custom_envs_real_ur_drivers_URBasic_realTimeClientEvent - INFO - Program send to Robot:
servoj([-0.018407769454627854, -1.5585244804918115, -1.6152817696435804, -1.5462526341887264, 1.6336895390982082, 3.117048960983623], 0.5, 0.5, 0.002, 0.2, 100)

2025-07-07 16:33:15,051 - gym_custom_envs_real_ur_drivers_URBasic_realTimeClientEvent - INFO - Program send to Robot:
servoj([-0.018407769454627854, -1.5585244804918115, -1.6152817696435804, -1.5462526341887264, 1.6336895390982082, 3.117048960983623], 0.5, 0.5, 0.002, 0.2, 100)

2025-07-07 16:33:15,067 - gym_custom_envs_real_ur_drivers_URBasic_realTimeClientEvent - INFO - Program send to Robot:
servoj([-0.018407769454627854, -1.5585244804918115, -1.6152817696435804, -1.5462526341887264, 1.6336895390982082, 3.117048960983623], 0.5, 0.5, 0.002, 0.2, 100)

2025-07-07 16:33:15,074 - gym_custom_envs_real_ur_drivers_URBasic_realTimeClientEvent - INFO - Program send to Robot:
servoj([-0.018407769454627854, -1.5585244804918115, -1.6152817696435804, -1.5477712751687331, 1.6306522571381945, 3.1185676019636297], 0.5, 0.5, 0.002, 0.2, 100)

2025-07-07 16:33:15,095 - gym_custom_envs_real_ur_drivers_URBasic_realTimeClientEvent - INFO - Program send to Robot:
servoj([-0.018407769454627854, -1.5585244804918115, -1.6152817696435804, -1.5477864615785333, 1.6306218843185942, 3.11858278837343], 0.5, 0.5, 0.002, 0.2, 100)

2025-07-07 16:33:15,099 - gym_custom_envs_real_ur_drivers_URBasic_realTimeClientEvent - INFO - Program send to Robot:
servoj([-0.018407769454627854, -1.5585244804918115, -1.6152817696435804, -1.5477866134426312, 1.6306215805903983, 3.118582940237528], 0.5, 0.5, 0.002, 0.2, 100)

2025-07-07 16:33:15,119 - gym_custom_envs_real_ur_drivers_URBasic_realTimeClientEvent - INFO - Program send to Robot:
servoj([-0.015370487494613965, -1.5585244804918115, -1.6152817696435804, -1.5477866149612722, 1.6291029365731093, 3.118582941756169], 0.5, 0.5, 0.002, 0.2, 100)

2025-07-07 16:33:15,123 - gym_custom_envs_real_ur_drivers_URBasic_realTimeClientEvent - INFO - Program send to Robot:
servoj([-0.015340114675013825, -1.5585244804918115, -1.6152817696435804, -1.5477866149764585, 1.6290877501329364, 3.118582941771355], 0.5, 0.5, 0.002, 0.2, 100)

2025-07-07 16:33:15,143 - gym_custom_envs_real_ur_drivers_URBasic_realTimeClientEvent - INFO - Program send to Robot:
servoj([-0.012302528986804376, -1.5585244804918115, -1.6152817696435804, -1.5477866149766104, 1.6275689572885277, 3.1201015827515137], 0.5, 0.5, 0.002, 0.2, 100)

2025-07-07 16:33:15,147 - gym_custom_envs_real_ur_drivers_URBasic_realTimeClientEvent - INFO - Program send to Robot:
servoj([-0.01227215312992228, -1.5585244804918115, -1.6152817696435804, -1.547786614976612, 1.6275537693600837, 3.1201167691613154], 0.5, 0.5, 0.002, 0.2, 100)

2025-07-07 16:33:15,168 - gym_custom_envs_real_ur_drivers_URBasic_realTimeClientEvent - INFO - Program send to Robot:
servoj([-0.010753208391346514, -1.5570058395118047, -1.6152817696435804, -1.547786614976612, 1.6229976945407791, 3.12163556200542], 0.5, 0.5, 0.002, 0.2, 100)

2025-07-07 16:33:15,171 - gym_custom_envs_real_ur_drivers_URBasic_realTimeClientEvent - INFO - Program send to Robot:
servoj([-0.010738018943960757, -1.5569906531020048, -1.6152817696435804, -1.547786614976612, 1.622952133792586, 3.121650749933861], 0.5, 0.5, 0.002, 0.2, 100)

2025-07-07 16:33:15,191 - gym_custom_envs_real_ur_drivers_URBasic_realTimeClientEvent - INFO - Program send to Robot:
servoj([-0.010737867049486899, -1.5569905012379066, -1.6152817696435804, -1.547786614976612, 1.622951678185104, 3.1216509018131453], 0.5, 0.5, 0.002, 0.2, 100)

2025-07-07 16:33:15,195 - gym_custom_envs_real_ur_drivers_URBasic_realTimeClientEvent - INFO - Program send to Robot:
servoj([-0.010737865530542162, -1.5569904997192656, -1.6152817696435804, -1.547786614976612, 1.6229516736290295, 3.121650903331938], 0.5, 0.5, 0.002, 0.2, 100)

2025-07-07 16:33:15,214 - gym_custom_envs_real_ur_drivers_URBasic_realTimeClientEvent - INFO - Program send to Robot:
servoj([-0.009219224535346208, -1.558509140684086, -1.6152817696435804, -1.547786614976612, 1.6183957506434479, 3.121650903347126], 0.5, 0.5, 0.002, 0.2, 100)

2025-07-07 16:33:15,219 - gym_custom_envs_real_ur_drivers_URBasic_realTimeClientEvent - INFO - Program send to Robot:
servoj([-0.00920403812539425, -1.5585243270937343, -1.6152817696435804, -1.547786614976612, 1.618350191413592, 3.1216509033472777], 0.5, 0.5, 0.002, 0.2, 100)

2025-07-07 16:33:15,227 - gym_custom_envs_real_ur_drivers_URBasic_realTimeClientEvent - INFO - Program send to Robot:
servoj([-0.00920388626129473, -1.5585244789578308, -1.6152817696435804, -1.547786614976612, 1.6183497358212935, 3.1216509033472795], 0.5, 0.5, 0.002, 0.2, 100)

2025-07-07 16:33:15,242 - gym_custom_envs_real_ur_drivers_URBasic_realTimeClientEvent - INFO - Program send to Robot:
servoj([-0.009203884742653734, -1.5585244804764717, -1.6152817696435804, -1.547786614976612, 1.6062006034253167, 3.123169544327286], 0.5, 0.5, 0.002, 0.2, 100)

2025-07-07 16:33:15,250 - gym_custom_envs_real_ur_drivers_URBasic_realTimeClientEvent - INFO - Program send to Robot:
servoj([-0.009203884727467325, -1.558524480491658, -1.6152817696435804, -1.547786614976612, 1.606079112101357, 3.123184730737086], 0.5, 0.5, 0.002, 0.2, 100)

2025-07-07 16:33:15,262 - gym_custom_envs_real_ur_drivers_URBasic_realTimeClientEvent - INFO - Program send to Robot:
servoj([-0.00920388472731546, -1.55852448049181, -1.6152817696435804, -1.547786614976612, 1.6060778971881173, 3.1231848826011843], 0.5, 0.5, 0.002, 0.2, 100)

2025-07-07 16:33:15,275 - gym_custom_envs_real_ur_drivers_URBasic_realTimeClientEvent - INFO - Program send to Robot:
servoj([-0.009203884727313942, -1.5585244804918115, -1.6152817696435804, -1.547786614976612, 1.5863355522988964, 3.123184884119825], 0.5, 0.5, 0.002, 0.2, 100)

2025-07-07 16:33:15,287 - gym_custom_envs_real_ur_drivers_URBasic_realTimeClientEvent - INFO - Program send to Robot:
servoj([-0.009203884727313927, -1.5585244804918115, -1.6152817696435804, -1.547786614976612, 1.5861381288500043, 3.1231848841350116], 0.5, 0.5, 0.002, 0.2, 100)

2025-07-07 16:33:15,291 - gym_custom_envs_real_ur_drivers_URBasic_realTimeClientEvent - INFO - Program send to Robot:
servoj([-0.009203884727313927, -1.5585244804918115, -1.6152817696435804, -1.547786614976612, 1.5861361546155153, 3.1231848841351635], 0.5, 0.5, 0.002, 0.2, 100)

2025-07-07 16:33:15,310 - gym_custom_envs_real_ur_drivers_URBasic_realTimeClientEvent - INFO - Program send to Robot:
servoj([-0.009203884727313927, -1.5585244804918115, -1.6152817696435804, -1.5462679739966052, 1.560319238213055, 3.1231848841351653], 0.5, 0.5, 0.002, 0.2, 100)

2025-07-07 16:33:15,315 - gym_custom_envs_real_ur_drivers_URBasic_realTimeClientEvent - INFO - Program send to Robot:
servoj([-0.009203884727313927, -1.5585244804918115, -1.6152817696435804, -1.546252787586805, 1.5600610690490304, 3.1231848841351653], 0.5, 0.5, 0.002, 0.2, 100)

2025-07-07 16:33:15,323 - gym_custom_envs_real_ur_drivers_URBasic_realTimeClientEvent - INFO - Program send to Robot:
servoj([-0.009203884727313927, -1.5585244804918115, -1.6152817696435804, -1.546252635722707, 1.5600584873573902, 3.1231848841351653], 0.5, 0.5, 0.002, 0.2, 100)

2025-07-07 16:33:15,341 - gym_custom_envs_real_ur_drivers_URBasic_realTimeClientEvent - INFO - Program send to Robot:
servoj([-0.009203884727313927, -1.5585244804918115, -1.6152817696435804, -1.5462526342040661, 1.5357602058603652, 3.1216662431551585], 0.5, 0.5, 0.002, 0.2, 100)

2025-07-07 16:33:15,347 - gym_custom_envs_real_ur_drivers_URBasic_realTimeClientEvent - INFO - Program send to Robot:
servoj([-0.009203884727313927, -1.5585244804918115, -1.6152817696435804, -1.5462526341888798, 1.535517223045395, 3.121651056745358], 0.5, 0.5, 0.002, 0.2, 100)

2025-07-07 16:33:15,357 - gym_custom_envs_real_ur_drivers_URBasic_realTimeClientEvent - INFO - Program send to Robot:
servoj([-0.009203884727313927, -1.5585244804918115, -1.6152817696435804, -1.546252634188728, 1.5355147932172453, 3.1216509048812604], 0.5, 0.5, 0.002, 0.2, 100)

2025-07-07 16:33:15,371 - gym_custom_envs_real_ur_drivers_URBasic_realTimeClientEvent - INFO - Program send to Robot:
servoj([-0.006166602767300478, -1.5585244804918115, -1.6152817696435804, -1.5462526341887264, 1.52336564107891, 3.121650903362619], 0.5, 0.5, 0.002, 0.2, 100)

2025-07-07 16:33:15,382 - gym_custom_envs_real_ur_drivers_URBasic_realTimeClientEvent - INFO - Program send to Robot:
servoj([-0.006136229947700343, -1.5585244804918115, -1.6152817696435804, -1.5462526341887264, 1.5232441495575266, 3.1216509033474327], 0.5, 0.5, 0.002, 0.2, 100)

2025-07-07 16:33:15,391 - gym_custom_envs_real_ur_drivers_URBasic_realTimeClientEvent - INFO - Program send to Robot:
servoj([-0.006135926219504342, -1.5585244804918115, -1.6152817696435804, -1.5462526341887264, 1.5232429346423129, 3.121650903347281], 0.5, 0.5, 0.002, 0.2, 100)

2025-07-07 16:33:15,395 - gym_custom_envs_real_ur_drivers_URBasic_realTimeClientEvent - INFO - Program send to Robot:
servoj([-0.0030986412222084926, -1.5585244804918115, -1.6152817696435804, -1.5462526341887264, 1.520205640533147, 3.1216509033472795], 0.5, 0.5, 0.002, 0.2, 100)

2025-07-07 16:33:15,410 - gym_custom_envs_real_ur_drivers_URBasic_realTimeClientEvent - INFO - Program send to Robot:
servoj([-0.003068268372235534, -1.5585244804918115, -1.6152817696435804, -1.5462526341887264, 1.5201752675920552, 3.1216509033472795], 0.5, 0.5, 0.002, 0.2, 100)

2025-07-07 16:33:15,418 - gym_custom_envs_real_ur_drivers_URBasic_realTimeClientEvent - INFO - Program send to Robot:
servoj([-0.0030679646437358045, -1.5585244804918115, -1.6152817696435804, -1.5462526341887264, 1.5201749638626443, 3.1216509033472795], 0.5, 0.5, 0.002, 0.2, 100)

2025-07-07 16:33:15,431 - gym_custom_envs_real_ur_drivers_URBasic_realTimeClientEvent - INFO - Program send to Robot:
servoj([-0.0030679616064508072, -1.5585244804918115, -1.6152817696435804, -1.5462526341887264, 1.5201749608253503, 3.1216509033472795], 0.5, 0.5, 0.002, 0.2, 100)

2025-07-07 16:33:15,443 - gym_custom_envs_real_ur_drivers_URBasic_realTimeClientEvent - INFO - Program send to Robot:
servoj([-0.003067961576077957, -1.5585244804918115, -1.6152817696435804, -1.5462526341887264, 1.5201749607949773, 3.1216509033472795], 0.5, 0.5, 0.002, 0.2, 100)

2025-07-07 16:33:15,454 - gym_custom_envs_real_ur_drivers_URBasic_realTimeClientEvent - INFO - Program send to Robot:
servoj([-0.0030679615757742288, -1.5585244804918115, -1.6152817696435804, -1.5462526341887264, 1.5201749607946735, 3.1216509033472795], 0.5, 0.5, 0.002, 0.2, 100)

2025-07-07 16:33:15,459 - gym_custom_envs_real_ur_drivers_URBasic_realTimeClientEvent - INFO - Program send to Robot:
servoj([-0.0030679615757711913, -1.5585244804918115, -1.6152817696435804, -1.5462526341887264, 1.5201749607946706, 3.1216509033472795], 0.5, 0.5, 0.002, 0.2, 100)

2025-07-07 16:33:15,467 - gym_custom_envs_real_ur_drivers_URBasic_realTimeClientEvent - INFO - Program send to Robot:
servoj([-0.003067961575771161, -1.5585244804918115, -1.6152817696435804, -1.5462526341887264, 1.5201749607946704, 3.1216509033472795], 0.5, 0.5, 0.002, 0.2, 100)

2025-07-07 16:33:15,482 - gym_custom_envs_real_ur_drivers_URBasic_realTimeClientEvent - INFO - Program send to Robot:
servoj([-0.003067961575771161, -1.5585244804918115, -1.6152817696435804, -1.5462526341887264, 1.5201749607946704, 3.1216509033472795], 0.5, 0.5, 0.002, 0.2, 100)

2025-07-07 16:33:15,490 - gym_custom_envs_real_ur_drivers_URBasic_realTimeClientEvent - INFO - Program send to Robot:
servoj([-0.003067961575771161, -1.5585244804918115, -1.6152817696435804, -1.5462526341887264, 1.5216936017746772, 3.1216509033472795], 0.5, 0.5, 0.002, 0.2, 100)

2025-07-07 16:33:15,502 - gym_custom_envs_real_ur_drivers_URBasic_realTimeClientEvent - INFO - Program send to Robot:
servoj([-0.003067961575771161, -1.5585244804918115, -1.6152817696435804, -1.5462526341887264, 1.5217087881844773, 3.1216509033472795], 0.5, 0.5, 0.002, 0.2, 100)

2025-07-07 16:33:15,515 - gym_custom_envs_real_ur_drivers_URBasic_realTimeClientEvent - INFO - Program send to Robot:
servoj([-0.003067961575771161, -1.5585244804918115, -1.6152817696435804, -1.5462526341887264, 1.5217089400485753, 3.1216509033472795], 0.5, 0.5, 0.002, 0.2, 100)

2025-07-07 16:33:15,526 - gym_custom_envs_real_ur_drivers_URBasic_realTimeClientEvent - INFO - Program send to Robot:
servoj([-0.003067961575771161, -1.5570058395118047, -1.6152817696435804, -1.5462526341887264, 1.5217089415672163, 3.1216509033472795], 0.5, 0.5, 0.002, 0.2, 100)

2025-07-07 16:33:15,531 - gym_custom_envs_real_ur_drivers_URBasic_realTimeClientEvent - INFO - Program send to Robot:
servoj([-0.003067961575771161, -1.5569906531020048, -1.6152817696435804, -1.5462526341887264, 1.5217089415824028, 3.1216509033472795], 0.5, 0.5, 0.002, 0.2, 100)

2025-07-07 16:33:15,539 - gym_custom_envs_real_ur_drivers_URBasic_realTimeClientEvent - INFO - Program send to Robot:
servoj([-0.003067961575771161, -1.5569905012379066, -1.6152817696435804, -1.5462526341887264, 1.5217089415825547, 3.1216509033472795], 0.5, 0.5, 0.002, 0.2, 100)

2025-07-07 16:33:15,554 - gym_custom_envs_real_ur_drivers_URBasic_realTimeClientEvent - INFO - Program send to Robot:
servoj([-0.003067961575771161, -1.5585091406992724, -1.6152817696435804, -1.5462526341887264, 1.5217089415825562, 3.1216509033472795], 0.5, 0.5, 0.002, 0.2, 100)

2025-07-07 16:33:15,562 - gym_custom_envs_real_ur_drivers_URBasic_realTimeClientEvent - INFO - Program send to Robot:
servoj([-0.003067961575771161, -1.5585243270938862, -1.6152817696435804, -1.5462526341887264, 1.5217089415825562, 3.1216509033472795], 0.5, 0.5, 0.002, 0.2, 100)

2025-07-07 16:33:15,576 - gym_custom_envs_real_ur_drivers_URBasic_realTimeClientEvent - INFO - Program send to Robot:
servoj([-0.003067961575771161, -1.5585244789578323, -1.6152817696435804, -1.5462526341887264, 1.5217089415825562, 3.1216509033472795], 0.5, 0.5, 0.002, 0.2, 100)

2025-07-07 16:33:15,587 - gym_custom_envs_real_ur_drivers_URBasic_realTimeClientEvent - INFO - Program send to Robot:
servoj([-0.003067961575771161, -1.5585244804764717, -1.6152817696435804, -1.5462526341887264, 1.5217089415825562, 3.1216509033472795], 0.5, 0.5, 0.002, 0.2, 100)

2025-07-07 16:33:15,600 - gym_custom_envs_real_ur_drivers_URBasic_realTimeClientEvent - INFO - Program send to Robot:
servoj([-0.003067961575771161, -1.558524480491658, -1.6152817696435804, -1.5462526341887264, 1.5217089415825562, 3.1216509033472795], 0.5, 0.5, 0.002, 0.2, 100)

2025-07-07 16:33:15,603 - gym_custom_envs_real_ur_drivers_URBasic_realTimeClientEvent - INFO - Program send to Robot:
servoj([-0.003067961575771161, -1.55852448049181, -1.6152817696435804, -1.5462526341887264, 1.5217089415825562, 3.1216509033472795], 0.5, 0.5, 0.002, 0.2, 100)

2025-07-07 16:33:15,624 - gym_custom_envs_real_ur_drivers_URBasic_realTimeClientEvent - INFO - Program send to Robot:
servoj([-0.003067961575771161, -1.5585244804918115, -1.6152817696435804, -1.5447339932087194, 1.5217089415825562, 3.1216509033472795], 0.5, 0.5, 0.002, 0.2, 100)

2025-07-07 16:33:15,627 - gym_custom_envs_real_ur_drivers_URBasic_realTimeClientEvent - INFO - Program send to Robot:
servoj([-0.003067961575771161, -1.5585244804918115, -1.6152817696435804, -1.5447188067989193, 1.5217089415825562, 3.1216509033472795], 0.5, 0.5, 0.002, 0.2, 100)

2025-07-07 16:33:15,643 - gym_custom_envs_real_ur_drivers_URBasic_realTimeClientEvent - INFO - Program send to Robot:
servoj([-0.003067961575771161, -1.5585244804918115, -1.6152817696435804, -1.5447186549348213, 1.5217089415825562, 3.1216509033472795], 0.5, 0.5, 0.002, 0.2, 100)

2025-07-07 16:33:15,659 - gym_custom_envs_real_ur_drivers_URBasic_realTimeClientEvent - INFO - Program send to Robot:
servoj([-0.003067961575771161, -1.5585244804918115, -1.6152817696435804, -1.5462372943961873, 1.5232275825625632, 3.1216509033472795], 0.5, 0.5, 0.002, 0.2, 100)

2025-07-07 16:33:15,667 - gym_custom_envs_real_ur_drivers_URBasic_realTimeClientEvent - INFO - Program send to Robot:
servoj([-0.003067961575771161, -1.5585244804918115, -1.6152817696435804, -1.546252480790801, 1.523242768972363, 3.1216509033472795], 0.5, 0.5, 0.002, 0.2, 100)

2025-07-07 16:33:15,675 - gym_custom_envs_real_ur_drivers_URBasic_realTimeClientEvent - INFO - Program send to Robot:
servoj([-0.003067961575771161, -1.5585244804918115, -1.6152817696435804, -1.5462526326547472, 1.523242920836461, 3.1216509033472795], 0.5, 0.5, 0.002, 0.2, 100)

2025-07-07 16:33:15,683 - gym_custom_envs_real_ur_drivers_URBasic_realTimeClientEvent - INFO - Program send to Robot:
servoj([-0.003067961575771161, -1.5585244804918115, -1.6152817696435804, -1.5447339931933797, 1.527798845295122, 3.123169544327286], 0.5, 0.5, 0.002, 0.2, 100)

2025-07-07 16:33:15,699 - gym_custom_envs_real_ur_drivers_URBasic_realTimeClientEvent - INFO - Program send to Robot:
servoj([-0.003067961575771161, -1.5585244804918115, -1.6152817696435804, -1.5447188067987658, 1.5278444045397088, 3.123184730737086], 0.5, 0.5, 0.002, 0.2, 100)

2025-07-07 16:33:15,707 - gym_custom_envs_real_ur_drivers_URBasic_realTimeClientEvent - INFO - Program send to Robot:
servoj([-0.003067961575771161, -1.5585244804918115, -1.6152817696435804, -1.5447186549348197, 1.5278448601321546, 3.1231848826011843], 0.5, 0.5, 0.002, 0.2, 100)

2025-07-07 16:33:15,714 - gym_custom_envs_real_ur_drivers_URBasic_realTimeClientEvent - INFO - Program send to Robot:
servoj([-0.003067961575771161, -1.5570058395118047, -1.6152817696435804, -1.5462372943961873, 1.529363505668086, 3.1247035250998323], 0.5, 0.5, 0.002, 0.2, 100)

2025-07-07 16:33:15,722 - gym_custom_envs_real_ur_drivers_URBasic_realTimeClientEvent - INFO - Program send to Robot:
servoj([-0.003067961575771161, -1.5569906531020048, -1.6152817696435804, -1.546252480790801, 1.5293786921234453, 3.1247187115248187], 0.5, 0.5, 0.002, 0.2, 100)

2025-07-07 16:33:15,739 - gym_custom_envs_real_ur_drivers_URBasic_realTimeClientEvent - INFO - Program send to Robot:
servoj([-0.003067961575771161, -1.5569905012379066, -1.6152817696435804, -1.5462526326547472, 1.529378843987999, 3.124718863389069], 0.5, 0.5, 0.002, 0.2, 100)

2025-07-07 16:33:15,755 - gym_custom_envs_real_ur_drivers_URBasic_realTimeClientEvent - INFO - Program send to Robot:
servoj([-0.003067961575771161, -1.5569904997192656, -1.6152817696435804, -1.5462526341733867, 1.5308974864866514, 3.123200223927704], 0.5, 0.5, 0.002, 0.2, 100)

2025-07-07 16:33:15,762 - gym_custom_envs_real_ur_drivers_URBasic_realTimeClientEvent - INFO - Program send to Robot:
servoj([-0.003067961575771161, -1.5569904997040793, -1.6152817696435804, -1.546252634188573, 1.5309126729116378, 3.1231850375330903], 0.5, 0.5, 0.002, 0.2, 100)

2025-07-07 16:33:15,770 - gym_custom_envs_real_ur_drivers_URBasic_realTimeClientEvent - INFO - Program send to Robot:
servoj([-0.003067961575771161, -1.5569904997039274, -1.6152817696435804, -1.5462526341887248, 1.5309128247758876, 3.1231848856691444], 0.5, 0.5, 0.002, 0.2, 100)

2025-07-07 16:33:15,779 - gym_custom_envs_real_ur_drivers_URBasic_realTimeClientEvent - INFO - Program send to Robot:
servoj([-0.003067961575771161, -1.556990499703926, -1.6152817696435804, -1.5447339932087194, 1.5369873902145572, 3.118628961210485], 0.5, 0.5, 0.002, 0.2, 100)

2025-07-07 16:33:15,795 - gym_custom_envs_real_ur_drivers_URBasic_realTimeClientEvent - INFO - Program send to Robot:
servoj([-0.003067961575771161, -1.556990499703926, -1.6152817696435804, -1.5447188067989193, 1.5370481358689438, 3.1185834019658984], 0.5, 0.5, 0.002, 0.2, 100)

2025-07-07 16:33:15,805 - gym_custom_envs_real_ur_drivers_URBasic_realTimeClientEvent - INFO - Program send to Robot:
servoj([-0.003067961575771161, -1.556990499703926, -1.6152817696435804, -1.5447186549348213, 1.5370487433254878, 3.1185829463734525], 0.5, 0.5, 0.002, 0.2, 100)

2025-07-07 16:33:15,811 - gym_custom_envs_real_ur_drivers_URBasic_realTimeClientEvent - INFO - Program send to Robot:
servoj([-0.003067961575771161, -1.556990499703926, -1.6152817696435804, -1.5432000124361736, 1.5507165182201141, 3.114027018877507], 0.5, 0.5, 0.002, 0.2, 100)

2025-07-07 16:33:15,819 - gym_custom_envs_real_ur_drivers_URBasic_realTimeClientEvent - INFO - Program send to Robot:
servoj([-0.003067961575771161, -1.556990499703926, -1.6152817696435804, -1.5431848260111871, 1.5508531959690603, 3.113981459602548], 0.5, 0.5, 0.002, 0.2, 100)

2025-07-07 16:33:15,835 - gym_custom_envs_real_ur_drivers_URBasic_realTimeClientEvent - INFO - Program send to Robot:
servoj([-0.003067961575771161, -1.556990499703926, -1.6152817696435804, -1.5431846741469373, 1.5508545627465498, 3.113981004009798], 0.5, 0.5, 0.002, 0.2, 100)

2025-07-07 16:33:15,843 - gym_custom_envs_real_ur_drivers_URBasic_realTimeClientEvent - INFO - Program send to Robot:
servoj([-0.003067961575771161, -1.5585091406839326, -1.6152817696435804, -1.5431846726282947, 1.575152832094433, 3.109425076513851], 0.5, 0.5, 0.002, 0.2, 100)

2025-07-07 16:33:15,851 - gym_custom_envs_real_ur_drivers_URBasic_realTimeClientEvent - INFO - Program send to Robot:
servoj([-0.003067961575771161, -1.5585243270937328, -1.6152817696435804, -1.5431846726131084, 1.575395814787912, 3.1093795172388914], 0.5, 0.5, 0.002, 0.2, 100)

2025-07-07 16:33:15,859 - gym_custom_envs_real_ur_drivers_URBasic_realTimeClientEvent - INFO - Program send to Robot:
servoj([-0.003067961575771161, -1.5585244789578308, -1.6152817696435804, -1.5431846726129566, 1.5753982446148467, 3.109379061646142], 0.5, 0.5, 0.002, 0.2, 100)

2025-07-07 16:33:15,875 - gym_custom_envs_real_ur_drivers_URBasic_realTimeClientEvent - INFO - Program send to Robot:
servoj([-0.003067961575771161, -1.5585244804764717, -1.6152817696435804, -1.543184672612955, 1.6042524475332454, 3.103304493170187], 0.5, 0.5, 0.002, 0.2, 100)

2025-07-07 16:33:15,883 - gym_custom_envs_real_ur_drivers_URBasic_realTimeClientEvent - INFO - Program send to Robot:
servoj([-0.003067961575771161, -1.558524480491658, -1.6152817696435804, -1.543184672612955, 1.6045409895624292, 3.1032437474854273], 0.5, 0.5, 0.002, 0.2, 100)

2025-07-07 16:33:15,899 - gym_custom_envs_real_ur_drivers_URBasic_realTimeClientEvent - INFO - Program send to Robot:
servoj([-0.003067961575771161, -1.55852448049181, -1.6152817696435804, -1.543184672612955, 1.604543874982721, 3.10324314002858], 0.5, 0.5, 0.002, 0.2, 100)

2025-07-07 16:33:15,906 - gym_custom_envs_real_ur_drivers_URBasic_realTimeClientEvent - INFO - Program send to Robot:
servoj([-0.003067961575771161, -1.5585244804918115, -1.6152817696435804, -1.5416660316329482, 1.6273235185370256, 3.100205851993998], 0.5, 0.5, 0.002, 0.2, 100)

2025-07-07 16:33:15,915 - gym_custom_envs_real_ur_drivers_URBasic_realTimeClientEvent - INFO - Program send to Robot:
servoj([-0.003067961575771161, -1.5585244804918115, -1.6152817696435804, -1.541650845223148, 1.6275513149725687, 3.100175479113652], 0.5, 0.5, 0.002, 0.2, 100)

2025-07-07 16:33:15,924 - gym_custom_envs_real_ur_drivers_URBasic_realTimeClientEvent - INFO - Program send to Robot:
servoj([-0.003067961575771161, -1.5585244804918115, -1.6152817696435804, -1.5416506933590501, 1.627553592936924, 3.1001751753848485], 0.5, 0.5, 0.002, 0.2, 100)

2025-07-07 16:33:15,940 - gym_custom_envs_real_ur_drivers_URBasic_realTimeClientEvent - INFO - Program send to Robot:
servoj([-0.003067961575771161, -1.5585244804918115, -1.6152817696435804, -1.5416506918404091, 1.6397027435566223, 3.0986565313675536], 0.5, 0.5, 0.002, 0.2, 100)

2025-07-07 16:33:15,948 - gym_custom_envs_real_ur_drivers_URBasic_realTimeClientEvent - INFO - Program send to Robot:
servoj([-0.003067961575771161, -1.5585244804918115, -1.6152817696435804, -1.5416506918252226, 1.6398242350628194, 3.0986413449273806], 0.5, 0.5, 0.002, 0.2, 100)

2025-07-07 16:33:15,955 - gym_custom_envs_real_ur_drivers_URBasic_realTimeClientEvent - INFO - Program send to Robot:
servoj([-0.003067961575771161, -1.5585244804918115, -1.6152817696435804, -1.5416506918250708, 1.6398254499778813, 3.098641193062979], 0.5, 0.5, 0.002, 0.2, 100)

2025-07-07 16:33:15,973 - gym_custom_envs_real_ur_drivers_URBasic_realTimeClientEvent - INFO - Program send to Robot:
servoj([-0.003067961575771161, -1.5585244804918115, -1.6152817696435804, -1.5416506918250694, 1.6428627440870447, 3.0986411915443353], 0.5, 0.5, 0.002, 0.2, 100)

2025-07-07 16:33:15,979 - gym_custom_envs_real_ur_drivers_URBasic_realTimeClientEvent - INFO - Program send to Robot:
servoj([-0.003067961575771161, -1.5585244804918115, -1.6152817696435804, -1.5416506918250694, 1.6428931170281365, 3.0986411915291487], 0.5, 0.5, 0.002, 0.2, 100)

2025-07-07 16:33:15,987 - gym_custom_envs_real_ur_drivers_URBasic_realTimeClientEvent - INFO - Program send to Robot:
servoj([-0.003067961575771161, -1.5585244804918115, -1.6152817696435804, -1.5416506918250694, 1.6428934207575474, 3.098641191528997], 0.5, 0.5, 0.002, 0.2, 100)

2025-07-07 16:33:16,004 - gym_custom_envs_real_ur_drivers_URBasic_realTimeClientEvent - INFO - Program send to Robot:
servoj([-0.003067961575771161, -1.5585244804918115, -1.6152817696435804, -1.5401320508450629, 1.6444120647748484, 3.098641191528995], 0.5, 0.5, 0.002, 0.2, 100)

2025-07-07 16:33:16,019 - gym_custom_envs_real_ur_drivers_URBasic_realTimeClientEvent - INFO - Program send to Robot:
servoj([-0.003067961575771161, -1.5585244804918115, -1.6152817696435804, -1.5401168644352627, 1.6444272512150215, 3.098641191528995], 0.5, 0.5, 0.002, 0.2, 100)

2025-07-07 16:33:16,027 - gym_custom_envs_real_ur_drivers_URBasic_realTimeClientEvent - INFO - Program send to Robot:
servoj([-0.003067961575771161, -1.5585244804918115, -1.6152817696435804, -1.5401167125711648, 1.6444274030794233, 3.098641191528995], 0.5, 0.5, 0.002, 0.2, 100)

2025-07-07 16:33:16,035 - gym_custom_envs_real_ur_drivers_URBasic_realTimeClientEvent - INFO - Program send to Robot:
servoj([-0.003067961575771161, -1.5570058395118047, -1.6152817696435804, -1.5401167110525238, 1.6444274045980671, 3.098641191528995], 0.5, 0.5, 0.002, 0.2, 100)

2025-07-07 16:33:16,044 - gym_custom_envs_real_ur_drivers_URBasic_realTimeClientEvent - INFO - Program send to Robot:
servoj([-0.003067961575771161, -1.5569906531020048, -1.6152817696435804, -1.5401167110373373, 1.6444274046132537, 3.098641191528995], 0.5, 0.5, 0.002, 0.2, 100)

2025-07-07 16:33:16,060 - gym_custom_envs_real_ur_drivers_URBasic_realTimeClientEvent - INFO - Program send to Robot:
servoj([-0.003067961575771161, -1.5569905012379066, -1.6152817696435804, -1.5401167110371854, 1.6444274046134055, 3.098641191528995], 0.5, 0.5, 0.002, 0.2, 100)

2025-07-07 16:33:16,069 - gym_custom_envs_real_ur_drivers_URBasic_realTimeClientEvent - INFO - Program send to Robot:
servoj([-0.003067961575771161, -1.5585091406992724, -1.6152817696435804, -1.5401167110371838, 1.644427404613407, 3.100159832509002], 0.5, 0.5, 0.002, 0.2, 100)

2025-07-07 16:33:16,075 - gym_custom_envs_real_ur_drivers_URBasic_realTimeClientEvent - INFO - Program send to Robot:
servoj([-0.003067961575771161, -1.5585243270938862, -1.6152817696435804, -1.5401167110371838, 1.644427404613407, 3.100175018918802], 0.5, 0.5, 0.002, 0.2, 100)

2025-07-07 16:33:16,086 - gym_custom_envs_real_ur_drivers_URBasic_realTimeClientEvent - INFO - Program send to Robot:
servoj([-0.003067961575771161, -1.5585244789578323, -1.6152817696435804, -1.5401167110371838, 1.644427404613407, 3.1001751707829], 0.5, 0.5, 0.002, 0.2, 100)

2025-07-07 16:33:16,099 - gym_custom_envs_real_ur_drivers_URBasic_realTimeClientEvent - INFO - Program send to Robot:
servoj([-0.003067961575771161, -1.5585244804764717, -1.6152817696435804, -1.5401167110371838, 1.644427404613407, 3.100175172301541], 0.5, 0.5, 0.002, 0.2, 100)

2025-07-07 16:33:16,110 - gym_custom_envs_real_ur_drivers_URBasic_realTimeClientEvent - INFO - Program send to Robot:
servoj([-0.003067961575771161, -1.558524480491658, -1.6152817696435804, -1.5401167110371838, 1.644427404613407, 3.1001751723167272], 0.5, 0.5, 0.002, 0.2, 100)

2025-07-07 16:33:16,115 - gym_custom_envs_real_ur_drivers_URBasic_realTimeClientEvent - INFO - Program send to Robot:
servoj([-0.003067961575771161, -1.55852448049181, -1.6152817696435804, -1.5401167110371838, 1.644427404613407, 3.100175172316879], 0.5, 0.5, 0.002, 0.2, 100)

2025-07-07 16:33:16,134 - gym_custom_envs_real_ur_drivers_URBasic_realTimeClientEvent - INFO - Program send to Robot:
servoj([-0.003067961575771161, -1.5585244804918115, -1.6152817696435804, -1.5385980700571769, 1.644427404613407, 3.100175172316881], 0.5, 0.5, 0.002, 0.2, 100)

2025-07-07 16:33:16,142 - gym_custom_envs_real_ur_drivers_URBasic_realTimeClientEvent - INFO - Program send to Robot:
servoj([-0.003067961575771161, -1.5585244804918115, -1.6152817696435804, -1.538582883647377, 1.644427404613407, 3.100175172316881], 0.5, 0.5, 0.002, 0.2, 100)

2025-07-07 16:33:16,158 - gym_custom_envs_real_ur_drivers_URBasic_realTimeClientEvent - INFO - Program send to Robot:
servoj([-0.003067961575771161, -1.5585244804918115, -1.6152817696435804, -1.538582731783279, 1.644427404613407, 3.100175172316881], 0.5, 0.5, 0.002, 0.2, 100)

2025-07-07 16:33:16,163 - gym_custom_envs_real_ur_drivers_URBasic_realTimeClientEvent - INFO - Program send to Robot:
servoj([-0.003067961575771161, -1.5585244804918115, -1.6152817696435804, -1.538582730264638, 1.644427404613407, 3.100175172316881], 0.5, 0.5, 0.002, 0.2, 100)

2025-07-07 16:33:16,171 - gym_custom_envs_real_ur_drivers_URBasic_realTimeClientEvent - INFO - Program send to Robot:
servoj([-0.003067961575771161, -1.5585244804918115, -1.6152817696435804, -1.5385827302494515, 1.644427404613407, 3.100175172316881], 0.5, 0.5, 0.002, 0.2, 100)

2025-07-07 16:33:16,187 - gym_custom_envs_real_ur_drivers_URBasic_realTimeClientEvent - INFO - Program send to Robot:
servoj([-0.003067961575771161, -1.5585244804918115, -1.6152817696435804, -1.5385827302492996, 1.644427404613407, 3.100175172316881], 0.5, 0.5, 0.002, 0.2, 100)

2025-07-07 16:33:16,195 - gym_custom_envs_real_ur_drivers_URBasic_realTimeClientEvent - INFO - Program send to Robot:
servoj([-0.003067961575771161, -1.5585244804918115, -1.6152817696435804, -1.5370640892692913, 1.644427404613407, 3.100175172316881], 0.5, 0.5, 0.002, 0.2, 100)

2025-07-07 16:33:16,203 - gym_custom_envs_real_ur_drivers_URBasic_realTimeClientEvent - INFO - Program send to Robot:
servoj([-0.003067961575771161, -1.5585244804918115, -1.6152817696435804, -1.5370489028594914, 1.644427404613407, 3.100175172316881], 0.5, 0.5, 0.002, 0.2, 100)

2025-07-07 16:33:16,220 - gym_custom_envs_real_ur_drivers_URBasic_realTimeClientEvent - INFO - Program send to Robot:
servoj([-0.003067961575771161, -1.5585244804918115, -1.6152817696435804, -1.5370487509953932, 1.644427404613407, 3.100175172316881], 0.5, 0.5, 0.002, 0.2, 100)

2025-07-07 16:33:16,227 - gym_custom_envs_real_ur_drivers_URBasic_realTimeClientEvent - INFO - Program send to Robot:
servoj([-0.003067961575771161, -1.5585244804918115, -1.6152817696435804, -1.5324928265367317, 1.644427404613407, 3.100175172316881], 0.5, 0.5, 0.002, 0.2, 100)

2025-07-07 16:33:16,235 - gym_custom_envs_real_ur_drivers_URBasic_realTimeClientEvent - INFO - Program send to Robot:
servoj([-0.003067961575771161, -1.5585244804918115, -1.6152817696435804, -1.5324472672921452, 1.644427404613407, 3.100175172316881], 0.5, 0.5, 0.002, 0.2, 100)

2025-07-07 16:33:16,256 - gym_custom_envs_real_ur_drivers_URBasic_realTimeClientEvent - INFO - Program send to Robot:
servoj([-0.003067961575771161, -1.5585244804918115, -1.6152817696435804, -1.5324468116996992, 1.644427404613407, 3.100175172316881], 0.5, 0.5, 0.002, 0.2, 100)

2025-07-07 16:33:16,259 - gym_custom_envs_real_ur_drivers_URBasic_realTimeClientEvent - INFO - Program send to Robot:
servoj([-0.003067961575771161, -1.5585244804918115, -1.6152817696435804, -1.518779038323714, 1.644427404613407, 3.100175172316881], 0.5, 0.5, 0.002, 0.2, 100)

2025-07-07 16:33:16,279 - gym_custom_envs_real_ur_drivers_URBasic_realTimeClientEvent - INFO - Program send to Robot:
servoj([-0.003067961575771161, -1.5585244804918115, -1.6152817696435804, -1.5186423605899542, 1.644427404613407, 3.100175172316881], 0.5, 0.5, 0.002, 0.2, 100)

2025-07-07 16:33:16,282 - gym_custom_envs_real_ur_drivers_URBasic_realTimeClientEvent - INFO - Program send to Robot:
servoj([-0.003067961575771161, -1.5585244804918115, -1.6152817696435804, -1.5186409938126166, 1.644427404613407, 3.100175172316881], 0.5, 0.5, 0.002, 0.2, 100)

2025-07-07 16:33:16,305 - gym_custom_envs_real_ur_drivers_URBasic_realTimeClientEvent - INFO - Program send to Robot:
servoj([-0.003067961575771161, -1.5585244804918115, -1.6152817696435804, -1.4958613654447415, 1.644427404613407, 3.100175172316881], 0.5, 0.5, 0.002, 0.2, 100)

2025-07-07 16:33:16,315 - gym_custom_envs_real_ur_drivers_URBasic_realTimeClientEvent - INFO - Program send to Robot:
servoj([-0.003067961575771161, -1.5585244804918115, -1.6152817696435804, -1.4956335691610627, 1.644427404613407, 3.100175172316881], 0.5, 0.5, 0.002, 0.2, 100)

2025-07-07 16:33:16,323 - gym_custom_envs_real_ur_drivers_URBasic_realTimeClientEvent - INFO - Program send to Robot:
servoj([-0.003067961575771161, -1.5570058395118047, -1.6152817696435804, -1.46525847159809, 1.644427404613407, 3.100175172316881], 0.5, 0.5, 0.002, 0.2, 100)

2025-07-07 16:33:16,330 - gym_custom_envs_real_ur_drivers_URBasic_realTimeClientEvent - INFO - Program send to Robot:
servoj([-0.003067961575771161, -1.5569906531020048, -1.6152817696435804, -1.4649547206224602, 1.644427404613407, 3.100175172316881], 0.5, 0.5, 0.002, 0.2, 100)

2025-07-07 16:33:16,347 - gym_custom_envs_real_ur_drivers_URBasic_realTimeClientEvent - INFO - Program send to Robot:
servoj([-0.003067961575771161, -1.5569905012379066, -1.6152817696435804, -1.464951683112704, 1.644427404613407, 3.100175172316881], 0.5, 0.5, 0.002, 0.2, 100)

2025-07-07 16:33:16,354 - gym_custom_envs_real_ur_drivers_URBasic_realTimeClientEvent - INFO - Program send to Robot:
servoj([-0.001549320595764656, -1.5569904997192656, -1.6152817696435804, -1.4254669872574302, 1.644427404613407, 3.100175172316881], 0.5, 0.5, 0.002, 0.2, 100)

2025-07-07 16:33:16,371 - gym_custom_envs_real_ur_drivers_URBasic_realTimeClientEvent - INFO - Program send to Robot:
servoj([-0.001534134185964591, -1.5569904997040793, -1.6152817696435804, -1.4250721402988773, 1.644427404613407, 3.100175172316881], 0.5, 0.5, 0.002, 0.2, 100)

2025-07-07 16:33:16,378 - gym_custom_envs_real_ur_drivers_URBasic_realTimeClientEvent - INFO - Program send to Robot:
servoj([-0.0015339823218665904, -1.5569904997039274, -1.6152817696435804, -1.4250681918292918, 1.644427404613407, 3.100175172316881], 0.5, 0.5, 0.002, 0.2, 100)

2025-07-07 16:33:16,400 - gym_custom_envs_real_ur_drivers_URBasic_realTimeClientEvent - INFO - Program send to Robot:
servoj([-0.0015339808032256103, -1.556990499703926, -1.6152817696435804, -1.384064845884413, 1.644427404613407, 3.100175172316881], 0.5, 0.5, 0.002, 0.2, 100)

2025-07-07 16:33:16,403 - gym_custom_envs_real_ur_drivers_URBasic_realTimeClientEvent - INFO - Program send to Robot:
servoj([-0.0015339807880392006, -1.556990499703926, -1.6152817696435804, -1.3836548124249641, 1.644427404613407, 3.100175172316881], 0.5, 0.5, 0.002, 0.2, 100)

2025-07-07 16:33:16,419 - gym_custom_envs_real_ur_drivers_URBasic_realTimeClientEvent - INFO - Program send to Robot:
servoj([-1.533980788039202e-05, -1.5585091406839326, -1.6152817696435804, -1.339610123670173, 1.644427404613407, 3.101693813296888], 0.5, 0.5, 0.002, 0.2, 100)

2025-07-07 16:33:16,426 - gym_custom_envs_real_ur_drivers_URBasic_realTimeClientEvent - INFO - Program send to Robot:
servoj([-1.5339807880392032e-07, -1.5585243270937328, -1.6152817696435804, -1.3391696767826249, 1.644427404613407, 3.101708999706688], 0.5, 0.5, 0.002, 0.2, 100)

2025-07-07 16:33:16,434 - gym_custom_envs_real_ur_drivers_URBasic_rtdeEvent - INFO - Total packages: 1000
2025-07-07 16:33:16,443 - gym_custom_envs_real_ur_drivers_URBasic_realTimeClientEvent - INFO - Program send to Robot:
servoj([-1.5339807880392047e-09, -1.5585244789578308, -1.6152817696435804, -1.3391652723137495, 1.644427404613407, 3.101709151570786], 0.5, 0.5, 0.002, 0.2, 100)

2025-07-07 16:33:16,451 - gym_custom_envs_real_ur_drivers_URBasic_realTimeClientEvent - INFO - Program send to Robot:
servoj([0.004555922924680586, -1.5585244804764717, -1.6152817696435804, -1.2966432808288706, 1.6429087636334, 3.101709153089427], 0.5, 0.5, 0.002, 0.2, 100)

2025-07-07 16:33:16,459 - gym_custom_envs_real_ur_drivers_URBasic_realTimeClientEvent - INFO - Program send to Robot:
servoj([0.0046014821692672, -1.558524480491658, -1.6152817696435804, -1.296218060914022, 1.6428935772236, 3.1017091531046135], 0.5, 0.5, 0.002, 0.2, 100)

2025-07-07 16:33:16,467 - gym_custom_envs_real_ur_drivers_URBasic_realTimeClientEvent - INFO - Program send to Robot:
servoj([0.004601937761713065, -1.55852448049181, -1.6152817696435804, -1.2962138087148734, 1.642893425359502, 3.1017091531047654], 0.5, 0.5, 0.002, 0.2, 100)

2025-07-07 16:33:16,483 - gym_custom_envs_real_ur_drivers_URBasic_realTimeClientEvent - INFO - Program send to Robot:
servoj([0.009157865257657917, -1.5570058395118047, -1.6152817696435804, -1.2536918187526918, 1.642893423840861, 3.1017091531047667], 0.5, 0.5, 0.002, 0.2, 100)

2025-07-07 16:33:16,491 - gym_custom_envs_real_ur_drivers_URBasic_realTimeClientEvent - INFO - Program send to Robot:
servoj([0.009203424532617367, -1.5569906531020048, -1.6152817696435804, -1.25326659885307, 1.6428934238256745, 3.1017091531047667], 0.5, 0.5, 0.002, 0.2, 100)

2025-07-07 16:33:16,498 - gym_custom_envs_real_ur_drivers_URBasic_realTimeClientEvent - INFO - Program send to Robot:
servoj([0.009203880125366961, -1.5569905012379066, -1.6152817696435804, -1.2532623466540738, 1.6428934238255228, 3.1017091531047667], 0.5, 0.5, 0.002, 0.2, 100)

2025-07-07 16:33:16,521 - gym_custom_envs_real_ur_drivers_URBasic_realTimeClientEvent - INFO - Program send to Robot:
servoj([0.012241166641307907, -1.5585091406992724, -1.6137631286635734, -1.210740356691894, 1.6428934238255213, 3.1017091531047667], 0.5, 0.5, 0.002, 0.2, 100)

2025-07-07 16:33:16,531 - gym_custom_envs_real_ur_drivers_URBasic_realTimeClientEvent - INFO - Program send to Robot:
servoj([0.012271539506467316, -1.5585243270938862, -1.6137479422537733, -1.210315136792272, 1.6428934238255213, 3.1017091531047667], 0.5, 0.5, 0.002, 0.2, 100)

2025-07-07 16:33:16,544 - gym_custom_envs_real_ur_drivers_URBasic_realTimeClientEvent - INFO - Program send to Robot:
servoj([0.01227184323511891, -1.5585244789578323, -1.6122291494096683, -1.173863501073113, 1.6428934238255213, 3.1001905121247595], 0.5, 0.5, 0.002, 0.2, 100)

2025-07-07 16:33:16,547 - gym_custom_envs_real_ur_drivers_URBasic_realTimeClientEvent - INFO - Program send to Robot:
servoj([0.012271846272405426, -1.5585244804764717, -1.6122139614812272, -1.1734989847159214, 1.6428934238255213, 3.1001753257149596], 0.5, 0.5, 0.002, 0.2, 100)

2025-07-07 16:33:16,562 - gym_custom_envs_real_ur_drivers_URBasic_realTimeClientEvent - INFO - Program send to Robot:
servoj([0.012271846302778291, -1.558524480491658, -1.612213809601943, -1.1734953395523495, 1.6428934238255213, 3.100175173850862], 0.5, 0.5, 0.002, 0.2, 100)

2025-07-07 16:33:16,570 - gym_custom_envs_real_ur_drivers_URBasic_realTimeClientEvent - INFO - Program send to Robot:
servoj([0.01227184630308202, -1.55852448049181, -1.61221380808315, -1.1734953031007138, 1.6428934238255213, 3.1001751723322206], 0.5, 0.5, 0.002, 0.2, 100)

2025-07-07 16:33:16,587 - gym_custom_envs_real_ur_drivers_URBasic_realTimeClientEvent - INFO - Program send to Robot:
servoj([0.012271846303085058, -1.5570058395118047, -1.612213808067962, -1.1446411241160686, 1.6428934238255213, 3.100175172317034], 0.5, 0.5, 0.002, 0.2, 100)

2025-07-07 16:33:16,603 - gym_custom_envs_real_ur_drivers_URBasic_realTimeClientEvent - INFO - Program send to Robot:
servoj([0.012271846303085088, -1.5569906531020048, -1.6122138080678101, -1.1443525823262222, 1.6428934238255213, 3.100175172316882], 0.5, 0.5, 0.002, 0.2, 100)

2025-07-07 16:33:16,614 - gym_custom_envs_real_ur_drivers_URBasic_realTimeClientEvent - INFO - Program send to Robot:
servoj([0.012271846303085088, -1.5585091422179134, -1.6122138080678088, -1.126126005148242, 1.6428934238255213, 3.100175172316881], 0.5, 0.5, 0.002, 0.2, 100)

2025-07-07 16:33:16,619 - gym_custom_envs_real_ur_drivers_URBasic_realTimeClientEvent - INFO - Program send to Robot:
servoj([0.012271846303085088, -1.5585243271090725, -1.6122138080678088, -1.1259437393764624, 1.6428934238255213, 3.100175172316881], 0.5, 0.5, 0.002, 0.2, 100)

2025-07-07 16:33:16,636 - gym_custom_envs_real_ur_drivers_URBasic_realTimeClientEvent - INFO - Program send to Robot:
servoj([0.012271846303085088, -1.5585244789579842, -1.6122138080678088, -1.1259419167187446, 1.6428934238255213, 3.100175172316881], 0.5, 0.5, 0.002, 0.2, 100)

2025-07-07 16:33:16,643 - gym_custom_envs_real_ur_drivers_URBasic_realTimeClientEvent - INFO - Program send to Robot:
servoj([0.012271846303085088, -1.5570058394964665, -1.6122138080678088, -1.116830052612127, 1.6428934238255213, 3.100175172316881], 0.5, 0.5, 0.002, 0.2, 100)

2025-07-07 16:33:16,659 - gym_custom_envs_real_ur_drivers_URBasic_realTimeClientEvent - INFO - Program send to Robot:
servoj([0.012271846303085088, -1.5569906531018514, -1.6122138080678088, -1.116738933971061, 1.6428934238255213, 3.100175172316881], 0.5, 0.5, 0.002, 0.2, 100)

2025-07-07 16:33:16,666 - gym_custom_envs_real_ur_drivers_URBasic_realTimeClientEvent - INFO - Program send to Robot:
servoj([0.012271846303085088, -1.556990501237905, -1.6122138080678088, -1.1167380227846502, 1.6428934238255213, 3.100175172316881], 0.5, 0.5, 0.002, 0.2, 100)

2025-07-07 16:33:16,689 - gym_custom_envs_real_ur_drivers_URBasic_realTimeClientEvent - INFO - Program send to Robot:
servoj([0.012271846303085088, -1.5569904997192656, -1.6137324490478158, -1.115219372692779, 1.6428934238255213, 3.100175172316881], 0.5, 0.5, 0.002, 0.2, 100)

2025-07-07 16:33:16,699 - gym_custom_envs_real_ur_drivers_URBasic_realTimeClientEvent - INFO - Program send to Robot:
servoj([0.012271846303085088, -1.5569904997040793, -1.6137476354576157, -1.1152041861918605, 1.6428934238255213, 3.100175172316881], 0.5, 0.5, 0.002, 0.2, 100)

2025-07-07 16:33:16,708 - gym_custom_envs_real_ur_drivers_URBasic_realTimeClientEvent - INFO - Program send to Robot:
servoj([0.012271846303085088, -1.5585091406839342, -1.6122291463417067, -1.1152040343268512, 1.6428934238255213, 3.098656531336874], 0.5, 0.5, 0.002, 0.2, 100)

2025-07-07 16:33:16,715 - gym_custom_envs_real_ur_drivers_URBasic_realTimeClientEvent - INFO - Program send to Robot:
servoj([0.012271846303085088, -1.5585243270937328, -1.6122139614505477, -1.1152040328082011, 1.6428934238255213, 3.098641344927074], 0.5, 0.5, 0.002, 0.2, 100)

2025-07-07 16:33:16,731 - gym_custom_envs_real_ur_drivers_URBasic_realTimeClientEvent - INFO - Program send to Robot:
servoj([0.012271846303085088, -1.5585244789578308, -1.612213809601636, -1.1152040327930146, 1.6428934238255213, 3.098641193062976], 0.5, 0.5, 0.002, 0.2, 100)

2025-07-07 16:33:16,738 - gym_custom_envs_real_ur_drivers_URBasic_realTimeClientEvent - INFO - Program send to Robot:
servoj([0.012271846303085088, -1.557005839496465, -1.613732449063154, -1.1152040327928627, 1.6428934238255213, 3.098641191544335], 0.5, 0.5, 0.002, 0.2, 100)

2025-07-07 16:33:16,759 - gym_custom_envs_real_ur_drivers_URBasic_realTimeClientEvent - INFO - Program send to Robot:
servoj([0.012271846303085088, -1.5569906531018514, -1.6137476354577691, -1.1152040327928612, 1.6428934238255213, 3.0986411915291487], 0.5, 0.5, 0.002, 0.2, 100)

2025-07-07 16:33:16,763 - gym_custom_envs_real_ur_drivers_URBasic_realTimeClientEvent - INFO - Program send to Robot:
servoj([0.012271846303085088, -1.556990501237905, -1.6137477873217152, -1.1152040327928612, 1.6428934238255213, 3.098641191528997], 0.5, 0.5, 0.002, 0.2, 100)

2025-07-07 16:33:16,783 - gym_custom_envs_real_ur_drivers_URBasic_realTimeClientEvent - INFO - Program send to Robot:
servoj([0.012271846303085088, -1.5569904997192656, -1.6137477888403546, -1.1136853918128542, 1.6428934238255213, 3.0956039095689816], 0.5, 0.5, 0.002, 0.2, 100)

2025-07-07 16:33:16,787 - gym_custom_envs_real_ur_drivers_URBasic_realTimeClientEvent - INFO - Program send to Robot:
servoj([0.012271846303085088, -1.5569904997040793, -1.6137477888555412, -1.113670205403054, 1.6428934238255213, 3.0955735367493817], 0.5, 0.5, 0.002, 0.2, 100)

2025-07-07 16:33:16,813 - gym_custom_envs_real_ur_drivers_URBasic_realTimeClientEvent - INFO - Program send to Robot:
servoj([0.012271846303085088, -1.5569904997039274, -1.613747788855693, -1.1106327715789426, 1.6444120648055283, 3.092535951061172], 0.5, 0.5, 0.002, 0.2, 100)

2025-07-07 16:33:16,818 - gym_custom_envs_real_ur_drivers_URBasic_realTimeClientEvent - INFO - Program send to Robot:
servoj([0.012271846303085088, -1.556990499703926, -1.6137477888556946, -1.1106023972407015, 1.6444272512153282, 3.09250557520429], 0.5, 0.5, 0.002, 0.2, 100)

2025-07-07 16:33:16,831 - gym_custom_envs_real_ur_drivers_URBasic_realTimeClientEvent - INFO - Program send to Robot:
servoj([0.012271846303085088, -1.556990499703926, -1.6137477888556946, -1.110602093497319, 1.6444274030794261, 3.092505271445721], 0.5, 0.5, 0.002, 0.2, 100)

2025-07-07 16:33:16,843 - gym_custom_envs_real_ur_drivers_URBasic_realTimeClientEvent - INFO - Program send to Robot:
servoj([0.010753205323078142, -1.556990499703926, -1.6122291478756876, -1.1030088855598514, 1.6444274045980671, 3.0909866274281286], 0.5, 0.5, 0.002, 0.2, 100)

2025-07-07 16:33:16,856 - gym_custom_envs_real_ur_drivers_URBasic_realTimeClientEvent - INFO - Program send to Robot:
servoj([0.010738018913278073, -1.556990499703926, -1.6122139614658875, -1.1029329534804768, 1.6444274046132537, 3.090971440987953], 0.5, 0.5, 0.002, 0.2, 100)

2025-07-07 16:33:16,859 - gym_custom_envs_real_ur_drivers_URBasic_realTimeClientEvent - INFO - Program send to Robot:
servoj([0.010737867049180073, -1.556990499703926, -1.6122138096017895, -1.102932194159683, 1.6444274046134055, 3.090971289123551], 0.5, 0.5, 0.002, 0.2, 100)

2025-07-07 16:33:16,879 - gym_custom_envs_real_ur_drivers_URBasic_realTimeClientEvent - INFO - Program send to Robot:
servoj([0.010737865530539093, -1.555471858723919, -1.6122138080831485, -1.0816712128463801, 1.644427404613407, 3.0864153646648864], 0.5, 0.5, 0.002, 0.2, 100)

2025-07-07 16:33:16,883 - gym_custom_envs_real_ur_drivers_URBasic_realTimeClientEvent - INFO - Program send to Robot:
servoj([0.010737865515352683, -1.5554566723141188, -1.612213808067962, -1.0814586030332471, 1.644427404613407, 3.0863698054202997], 0.5, 0.5, 0.002, 0.2, 100)

2025-07-07 16:33:16,902 - gym_custom_envs_real_ur_drivers_URBasic_realTimeClientEvent - INFO - Program send to Robot:
servoj([0.010737865515200819, -1.5524192384900073, -1.6122138080678101, -1.0480463753749667, 1.644427404613407, 3.0818134268878334], 0.5, 0.5, 0.002, 0.2, 100)

2025-07-07 16:33:16,907 - gym_custom_envs_real_ur_drivers_URBasic_realTimeClientEvent - INFO - Program send to Robot:
servoj([0.0107378655151993, -1.5523888641517662, -1.6122138080678088, -1.0477122530983838, 1.644427404613407, 3.0817678631025087], 0.5, 0.5, 0.002, 0.2, 100)

2025-07-07 16:33:16,927 - gym_custom_envs_real_ur_drivers_URBasic_realTimeClientEvent - INFO - Program send to Robot:
servoj([0.010737865515199285, -1.5523885604083838, -1.6122138080678088, -1.047708911875618, 1.644427404613407, 3.0817674074646555], 0.5, 0.5, 0.002, 0.2, 100)

2025-07-07 16:33:16,931 - gym_custom_envs_real_ur_drivers_URBasic_realTimeClientEvent - INFO - Program send to Robot:
servoj([0.010737865515199285, -1.5508699163909432, -1.6137324490478158, -1.0006310080831797, 1.644427404613407, 3.081767402908277], 0.5, 0.5, 0.002, 0.2, 100)

2025-07-07 16:33:16,950 - gym_custom_envs_real_ur_drivers_URBasic_realTimeClientEvent - INFO - Program send to Robot:
servoj([0.010737865515199285, -1.550854729950769, -1.6137476354576157, -1.0001602290452554, 1.644427404613407, 3.081767402862713], 0.5, 0.5, 0.002, 0.2, 100)

2025-07-07 16:33:16,954 - gym_custom_envs_real_ur_drivers_URBasic_realTimeClientEvent - INFO - Program send to Robot:
servoj([0.010737865515199285, -1.5508545780863672, -1.6137477873217136, -1.0001555212548763, 1.644427404613407, 3.0817674028622575], 0.5, 0.5, 0.002, 0.2, 100)

2025-07-07 16:33:16,975 - gym_custom_envs_real_ur_drivers_URBasic_realTimeClientEvent - INFO - Program send to Robot:
servoj([0.010737865515199285, -1.550854576567723, -1.6152664298203616, -0.9439657579167215, 1.644427404613407, 3.081767402862253], 0.5, 0.5, 0.002, 0.2, 100)

2025-07-07 16:33:16,979 - gym_custom_envs_real_ur_drivers_URBasic_realTimeClientEvent - INFO - Program send to Robot:
servoj([0.010737865515199285, -1.5508545765525366, -1.6152816162453483, -0.94340386028334, 1.644427404613407, 3.081767402862253], 0.5, 0.5, 0.002, 0.2, 100)

2025-07-07 16:33:16,998 - gym_custom_envs_real_ur_drivers_URBasic_realTimeClientEvent - INFO - Program send to Robot:
servoj([0.00921922453519278, -1.5508545765523847, -1.6183190500696112, -0.8826526021067346, 1.644427404613407, 3.081767402862253], 0.5, 0.5, 0.002, 0.2, 100)

2025-07-07 16:33:17,006 - gym_custom_envs_real_ur_drivers_URBasic_realTimeClientEvent - INFO - Program send to Robot:
servoj([0.009204038125392715, -1.5508545765523833, -1.6183494244078538, -0.8820450895249685, 1.644427404613407, 3.081767402862253], 0.5, 0.5, 0.002, 0.2, 100)

2025-07-07 16:33:17,011 - gym_custom_envs_real_ur_drivers_URBasic_realTimeClientEvent - INFO - Program send to Robot:
servoj([0.009203886261294715, -1.5508545765523831, -1.6183497281512362, -0.8820390143991509, 1.644427404613407, 3.081767402862253], 0.5, 0.5, 0.002, 0.2, 100)

2025-07-07 16:33:17,029 - gym_custom_envs_real_ur_drivers_URBasic_realTimeClientEvent - INFO - Program send to Robot:
servoj([0.009203884742653734, -1.5508545765523831, -1.619868372168677, -0.8212933144476214, 1.644427404613407, 3.08328604384226], 0.5, 0.5, 0.002, 0.2, 100)

2025-07-07 16:33:17,035 - gym_custom_envs_real_ur_drivers_URBasic_realTimeClientEvent - INFO - Program send to Robot:
servoj([0.009203884727467325, -1.5508545765523831, -1.6198835586088514, -0.8206858574481062, 1.644427404613407, 3.0833012302520597], 0.5, 0.5, 0.002, 0.2, 100)

2025-07-07 16:33:17,046 - gym_custom_envs_real_ur_drivers_URBasic_realTimeClientEvent - INFO - Program send to Robot:
servoj([0.00920388472731546, -1.5508545765523831, -1.619883710473253, -0.820679782878111, 1.644427404613407, 3.083301382116158], 0.5, 0.5, 0.002, 0.2, 100)

2025-07-07 16:33:17,059 - gym_custom_envs_real_ur_drivers_URBasic_realTimeClientEvent - INFO - Program send to Robot:
servoj([0.009203884727313942, -1.5508545765523831, -1.6183650710118902, -0.7644900058721599, 1.644427404613407, 3.0833013836347987], 0.5, 0.5, 0.002, 0.2, 100)

2025-07-07 16:33:17,070 - gym_custom_envs_real_ur_drivers_URBasic_realTimeClientEvent - INFO - Program send to Robot:
servoj([0.009203884727313927, -1.5508545765523831, -1.6183498846172766, -0.7639281081021004, 1.644427404613407, 3.083301383649985], 0.5, 0.5, 0.002, 0.2, 100)

2025-07-07 16:33:17,075 - gym_custom_envs_real_ur_drivers_URBasic_realTimeClientEvent - INFO - Program send to Robot:
servoj([0.009203884727313927, -1.5508545765523831, -1.6183497327533305, -0.7639224891243998, 1.644427404613407, 3.083301383650137], 0.5, 0.5, 0.002, 0.2, 100)

2025-07-07 16:33:17,083 - gym_custom_envs_real_ur_drivers_URBasic_realTimeClientEvent - INFO - Program send to Robot:
servoj([0.009203884727313927, -1.5508545765523831, -1.6183497312346908, -0.7639224329346228, 1.644427404613407, 3.083301383650139], 0.5, 0.5, 0.002, 0.2, 100)

2025-07-07 16:33:17,103 - gym_custom_envs_real_ur_drivers_URBasic_realTimeClientEvent - INFO - Program send to Robot:
servoj([0.009203884727313927, -1.5508545765523831, -1.6183497312195045, -0.7138072800325012, 1.644427404613407, 3.084820024630146], 0.5, 0.5, 0.002, 0.2, 100)

2025-07-07 16:33:17,107 - gym_custom_envs_real_ur_drivers_URBasic_realTimeClientEvent - INFO - Program send to Robot:
servoj([0.009203884727313927, -1.5508545765523831, -1.6183497312193527, -0.7133061285034799, 1.644427404613407, 3.084835211039946], 0.5, 0.5, 0.002, 0.2, 100)

2025-07-07 16:33:17,123 - gym_custom_envs_real_ur_drivers_URBasic_realTimeClientEvent - INFO - Program send to Robot:
servoj([0.010722525707320432, -1.5508545765523831, -1.615312449259338, -0.6738164515080135, 1.644427404613407, 3.0848353629040437], 0.5, 0.5, 0.002, 0.2, 100)

2025-07-07 16:33:17,131 - gym_custom_envs_real_ur_drivers_URBasic_realTimeClientEvent - INFO - Program send to Robot:
servoj([0.010737712117120496, -1.5508545765523831, -1.615282076439738, -0.6734215547380589, 1.644427404613407, 3.084835364422685], 0.5, 0.5, 0.002, 0.2, 100)

2025-07-07 16:33:17,143 - gym_custom_envs_real_ur_drivers_URBasic_realTimeClientEvent - INFO - Program send to Robot:
servoj([0.010737863981218497, -1.5508545765523831, -1.615281772711542, -0.6734176057703594, 1.644427404613407, 3.0848353644378714], 0.5, 0.5, 0.002, 0.2, 100)

2025-07-07 16:33:17,155 - gym_custom_envs_real_ur_drivers_URBasic_realTimeClientEvent - INFO - Program send to Robot:
servoj([0.010737865499859478, -1.5508545765523831, -1.613763128694253, -0.6460820286405599, 1.6429087636334, 3.0848353644380233], 0.5, 0.5, 0.002, 0.2, 100)

2025-07-07 16:33:17,166 - gym_custom_envs_real_ur_drivers_URBasic_realTimeClientEvent - INFO - Program send to Robot:
servoj([0.010737865515045887, -1.5508545765523831, -1.6137479422540801, -0.6458086728692619, 1.6428935772236, 3.0848353644380246], 0.5, 0.5, 0.002, 0.2, 100)

2025-07-07 16:33:17,171 - gym_custom_envs_real_ur_drivers_URBasic_realTimeClientEvent - INFO - Program send to Robot:
servoj([0.01073786551519775, -1.5508545765523831, -1.6137477903896784, -0.645805939311549, 1.642893425359502, 3.0848353644380246], 0.5, 0.5, 0.002, 0.2, 100)

2025-07-07 16:33:17,179 - gym_custom_envs_real_ur_drivers_URBasic_realTimeClientEvent - INFO - Program send to Robot:
servoj([0.01073786551519927, -1.5508545765523831, -1.6137477888710343, -0.6458059119759718, 1.642893423840861, 3.0848353644380246], 0.5, 0.5, 0.002, 0.2, 100)

2025-07-07 16:33:17,195 - gym_custom_envs_real_ur_drivers_URBasic_realTimeClientEvent - INFO - Program send to Robot:
servoj([0.00921922453519278, -1.5508545765523831, -1.6107105068958343, -0.6306195019025483, 1.6428934238256745, 3.0848353644380246], 0.5, 0.5, 0.002, 0.2, 100)

2025-07-07 16:33:17,202 - gym_custom_envs_real_ur_drivers_URBasic_realTimeClientEvent - INFO - Program send to Robot:
servoj([0.009204038125392715, -1.5508545765523831, -1.6106801340760821, -0.6304676378018141, 1.6428934238255228, 3.0848353644380246], 0.5, 0.5, 0.002, 0.2, 100)

2025-07-07 16:33:17,214 - gym_custom_envs_real_ur_drivers_URBasic_realTimeClientEvent - INFO - Program send to Robot:
servoj([0.009203886261294715, -1.5508545765523831, -1.6106798303478846, -0.6304661191608067, 1.6428934238255213, 3.0848353644380246], 0.5, 0.5, 0.002, 0.2, 100)

2025-07-07 16:33:17,227 - gym_custom_envs_real_ur_drivers_URBasic_realTimeClientEvent - INFO - Program send to Robot:
servoj([0.010722525722660239, -1.5508545765523831, -1.6061239043705826, -0.6289474629943899, 1.6428934238255213, 3.0833167234580174], 0.5, 0.5, 0.002, 0.2, 100)

2025-07-07 16:33:17,239 - gym_custom_envs_real_ur_drivers_URBasic_realTimeClientEvent - INFO - Program send to Robot:
servoj([0.010737712117273894, -1.5508545765523831, -1.6060783451108096, -0.6289322764327256, 1.6428934238255213, 3.0833015370482175], 0.5, 0.5, 0.002, 0.2, 100)

2025-07-07 16:33:17,243 - gym_custom_envs_real_ur_drivers_URBasic_realTimeClientEvent - INFO - Program send to Robot:
servoj([0.01073786398122003, -1.5508545765523831, -1.606077889518212, -0.628932124567109, 1.6428934238255213, 3.0833013851841193], 0.5, 0.5, 0.002, 0.2, 100)

2025-07-07 16:33:17,262 - gym_custom_envs_real_ur_drivers_URBasic_realTimeClientEvent - INFO - Program send to Robot:
servoj([0.009219224519852987, -1.5508545765523831, -1.600003321042259, -0.6304507640284597, 1.6428934238255213, 3.0833013836654786], 0.5, 0.5, 0.002, 0.2, 100)

2025-07-07 16:33:17,266 - gym_custom_envs_real_ur_drivers_URBasic_realTimeClientEvent - INFO - Program send to Robot:
servoj([0.009204038125239317, -1.5508545765523831, -1.5999425753574996, -0.6304659504230732, 1.6428934238255213, 3.083301383650292], 0.5, 0.5, 0.002, 0.2, 100)

2025-07-07 16:33:17,285 - gym_custom_envs_real_ur_drivers_URBasic_realTimeClientEvent - INFO - Program send to Robot:
servoj([0.010722527241299686, -1.5508545765523831, -1.596904685940638, -0.6304661022870194, 1.6428934238255213, 3.08330138365014], 0.5, 0.5, 0.002, 0.2, 100)

2025-07-07 16:33:17,293 - gym_custom_envs_real_ur_drivers_URBasic_realTimeClientEvent - INFO - Program send to Robot:
servoj([0.01073771213246029, -1.5508545765523831, -1.5968743070464695, -0.6304661038056588, 1.6428934238255213, 3.083301383650139], 0.5, 0.5, 0.002, 0.2, 100)

2025-07-07 16:33:17,299 - gym_custom_envs_real_ur_drivers_URBasic_realTimeClientEvent - INFO - Program send to Robot:
servoj([0.010737863981371895, -1.5508545765523831, -1.5968740032575277, -0.6304661038208452, 1.6428934238255213, 3.083301383650139], 0.5, 0.5, 0.002, 0.2, 100)

2025-07-07 16:33:17,317 - gym_custom_envs_real_ur_drivers_URBasic_realTimeClientEvent - INFO - Program send to Robot:
servoj([0.010737865499861011, -1.5508545765523831, -1.5953553592396312, -0.6304661038209971, 1.6428934238255213, 3.081782742670132], 0.5, 0.5, 0.002, 0.2, 100)

2025-07-07 16:33:17,322 - gym_custom_envs_real_ur_drivers_URBasic_realTimeClientEvent - INFO - Program send to Robot:
servoj([0.010737865515045903, -1.5508545765523831, -1.5953401727994523, -0.6304661038209985, 1.6428934238255213, 3.0817675562603317], 0.5, 0.5, 0.002, 0.2, 100)

2025-07-07 16:33:17,333 - gym_custom_envs_real_ur_drivers_URBasic_realTimeClientEvent - INFO - Program send to Robot:
servoj([0.010737865515197752, -1.5508545765523831, -1.5953400209350506, -0.6304661038209987, 1.6428934238255213, 3.081767404396234], 0.5, 0.5, 0.002, 0.2, 100)

2025-07-07 16:33:17,347 - gym_custom_envs_real_ur_drivers_URBasic_realTimeClientEvent - INFO - Program send to Robot:
servoj([0.009219224535192765, -1.5508545765523831, -1.5938213784363995, -0.6304661038209987, 1.6428934238255213, 3.080248761897586], 0.5, 0.5, 0.002, 0.2, 100)

2025-07-07 16:33:17,358 - gym_custom_envs_real_ur_drivers_URBasic_realTimeClientEvent - INFO - Program send to Robot:
servoj([0.009204038125392715, -1.5508545765523831, -1.593806192011413, -0.6304661038209987, 1.6428934238255213, 3.0802335754725996], 0.5, 0.5, 0.002, 0.2, 100)

2025-07-07 16:33:17,363 - gym_custom_envs_real_ur_drivers_URBasic_realTimeClientEvent - INFO - Program send to Robot:
servoj([0.009203886261294715, -1.5508545765523831, -1.5938060401471632, -0.6304661038209987, 1.6428934238255213, 3.08023342360835], 0.5, 0.5, 0.002, 0.2, 100)

2025-07-07 16:33:17,384 - gym_custom_envs_real_ur_drivers_URBasic_realTimeClientEvent - INFO - Program send to Robot:
servoj([0.009203884742653734, -1.5523732175323899, -1.5938060386285207, -0.6335033857810122, 1.6459307057855352, 3.0787147811097006], 0.5, 0.5, 0.002, 0.2, 100)

2025-07-07 16:33:17,387 - gym_custom_envs_real_ur_drivers_URBasic_realTimeClientEvent - INFO - Program send to Robot:
servoj([0.009203884727467325, -1.55238840394219, -1.5938060386133344, -0.6335337586006122, 1.6459610786051353, 3.0786995946847138], 0.5, 0.5, 0.002, 0.2, 100)

2025-07-07 16:33:17,407 - gym_custom_envs_real_ur_drivers_URBasic_realTimeClientEvent - INFO - Program send to Robot:
servoj([0.00920388472731546, -1.552388555806288, -1.5938060386131825, -0.6335340623288083, 1.6459613823333312, 3.078699442820464], 0.5, 0.5, 0.002, 0.2, 100)

2025-07-07 16:33:17,411 - gym_custom_envs_real_ur_drivers_URBasic_realTimeClientEvent - INFO - Program send to Robot:
servoj([0.009203884727313942, -1.552388557324929, -1.596843320573195, -0.641127270266124, 1.6474800263506202, 3.0786994413018216], 0.5, 0.5, 0.002, 0.2, 100)

2025-07-07 16:33:17,431 - gym_custom_envs_real_ur_drivers_URBasic_realTimeClientEvent - INFO - Program send to Robot:
servoj([0.009203884727313927, -1.5523885573401155, -1.596873693392795, -0.6412032023454972, 1.6474952127907931, 3.078699441286635], 0.5, 0.5, 0.002, 0.2, 100)

2025-07-07 16:33:17,434 - gym_custom_envs_real_ur_drivers_URBasic_realTimeClientEvent - INFO - Program send to Robot:
servoj([0.009203884727313927, -1.5523885573402674, -1.5968739971209909, -0.6412039616662909, 1.6474953646551949, 3.078699441286483], 0.5, 0.5, 0.002, 0.2, 100)

2025-07-07 16:33:17,455 - gym_custom_envs_real_ur_drivers_URBasic_realTimeClientEvent - INFO - Program send to Robot:
servoj([0.009203884727313927, -1.552388557340269, -1.6029485640782997, -0.6594276610195805, 1.647495366173839, 3.0756621593264684], 0.5, 0.5, 0.002, 0.2, 100)

2025-07-07 16:33:17,459 - gym_custom_envs_real_ur_drivers_URBasic_realTimeClientEvent - INFO - Program send to Robot:
servoj([0.009203884727313927, -1.552388557340269, -1.6030093097478728, -0.6596098980131134, 1.6474953661890253, 3.075631786506868], 0.5, 0.5, 0.002, 0.2, 100)

2025-07-07 16:33:17,480 - gym_custom_envs_real_ur_drivers_URBasic_realTimeClientEvent - INFO - Program send to Robot:
servoj([0.009203884727313927, -1.5554258393002824, -1.6060471991645826, -0.6990963858632249, 1.6490140071691841, 3.072594200818658], 0.5, 0.5, 0.002, 0.2, 100)

2025-07-07 16:33:17,483 - gym_custom_envs_real_ur_drivers_URBasic_realTimeClientEvent - INFO - Program send to Robot:
servoj([0.009203884727313927, -1.5554562121198825, -1.6060775780587497, -0.699491250741726, 1.6490291935789858, 3.072563824961776], 0.5, 0.5, 0.002, 0.2, 100)

2025-07-07 16:33:17,505 - gym_custom_envs_real_ur_drivers_URBasic_realTimeClientEvent - INFO - Program send to Robot:
servoj([0.009203884727313927, -1.5554565158480784, -1.6045592408676843, -0.7587221976107756, 1.6490293454430838, 3.0695262392431943], 0.5, 0.5, 0.002, 0.2, 100)

2025-07-07 16:33:17,515 - gym_custom_envs_real_ur_drivers_URBasic_realTimeClientEvent - INFO - Program send to Robot:
servoj([0.009203884727313927, -1.5554565188853604, -1.6045440574957737, -0.7593145070794661, 1.6490293469617248, 3.0694958633860083], 0.5, 0.5, 0.002, 0.2, 100)

2025-07-07 16:33:17,523 - gym_custom_envs_real_ur_drivers_URBasic_realTimeClientEvent - INFO - Program send to Robot:
servoj([0.009203884727313927, -1.5554565189157332, -1.6045439056620545, -0.7593204301741531, 1.649029346976911, 3.0694955596274367], 0.5, 0.5, 0.002, 0.2, 100)

2025-07-07 16:33:17,530 - gym_custom_envs_real_ur_drivers_URBasic_realTimeClientEvent - INFO - Program send to Robot:
servoj([0.009203884727313927, -1.555456518916037, -1.6045439041437173, -0.7593204894050999, 1.649029346977063, 3.069495556589851], 0.5, 0.5, 0.002, 0.2, 100)

2025-07-07 16:33:17,552 - gym_custom_envs_real_ur_drivers_URBasic_realTimeClientEvent - INFO - Program send to Robot:
servoj([0.009203884727313927, -1.55545651891604, -1.604543904128534, -0.8322152570377352, 1.6475107059970575, 3.069495556559475], 0.5, 0.5, 0.002, 0.2, 100)

2025-07-07 16:33:17,555 - gym_custom_envs_real_ur_drivers_URBasic_realTimeClientEvent - INFO - Program send to Robot:
servoj([0.009203884727313927, -1.55545651891604, -1.6045439041283822, -0.8329442047140616, 1.6474955195872576, 3.069495556559171], 0.5, 0.5, 0.002, 0.2, 100)

2025-07-07 16:33:17,576 - gym_custom_envs_real_ur_drivers_URBasic_realTimeClientEvent - INFO - Program send to Robot:
servoj([0.009203884727313927, -1.55545651891604, -1.6045439041283807, -0.9058462612311502, 1.6474953677231594, 3.069495556559168], 0.5, 0.5, 0.002, 0.2, 100)

2025-07-07 16:33:17,579 - gym_custom_envs_real_ur_drivers_URBasic_realTimeClientEvent - INFO - Program send to Robot:
servoj([0.009203884727313927, -1.55545651891604, -1.6045439041283807, -0.9065752817963211, 1.6474953662045184, 3.069495556559168], 0.5, 0.5, 0.002, 0.2, 100)

2025-07-07 16:33:17,599 - gym_custom_envs_real_ur_drivers_URBasic_realTimeClientEvent - INFO - Program send to Robot:
servoj([0.009203884727313927, -1.55545651891604, -1.6045439041283807, -0.9065825720019728, 1.6474953661893321, 3.069495556559168], 0.5, 0.5, 0.002, 0.2, 100)

2025-07-07 16:33:17,602 - gym_custom_envs_real_ur_drivers_URBasic_realTimeClientEvent - INFO - Program send to Robot:
servoj([0.009203884727313927, -1.556975159896047, -1.6045439041283807, -0.9809960529243621, 1.6474953661891802, 3.069495556559168], 0.5, 0.5, 0.002, 0.2, 100)

2025-07-07 16:33:17,625 - gym_custom_envs_real_ur_drivers_URBasic_realTimeClientEvent - INFO - Program send to Robot:
servoj([0.009203884727313927, -1.5569903463058472, -1.6045439041283807, -0.9817401877335861, 1.6474953661891787, 3.069495556559168], 0.5, 0.5, 0.002, 0.2, 100)

2025-07-07 16:33:17,635 - gym_custom_envs_real_ur_drivers_URBasic_realTimeClientEvent - INFO - Program send to Robot:
servoj([0.009203884727313927, -1.5569904981699452, -1.6045439041283807, -1.0500864731819832, 1.6474953661891787, 3.069495556559168], 0.5, 0.5, 0.002, 0.2, 100)

2025-07-07 16:33:17,644 - gym_custom_envs_real_ur_drivers_URBasic_realTimeClientEvent - INFO - Program send to Robot:
servoj([0.009203884727313927, -1.5569904996885862, -1.6045439041283807, -1.0507699360364673, 1.6474953661891787, 3.069495556559168], 0.5, 0.5, 0.002, 0.2, 100)

2025-07-07 16:33:17,652 - gym_custom_envs_real_ur_drivers_URBasic_realTimeClientEvent - INFO - Program send to Robot:
servoj([0.009203884727313927, -1.5569904997037725, -1.6045439041283807, -1.0507767706650122, 1.6474953661891787, 3.069495556559168], 0.5, 0.5, 0.002, 0.2, 100)

2025-07-07 16:33:17,667 - gym_custom_envs_real_ur_drivers_URBasic_realTimeClientEvent - INFO - Program send to Robot:
servoj([0.009203884727313927, -1.5569904997039243, -1.6045439041283807, -1.1145597601715826, 1.6490140071691857, 3.069495556559168], 0.5, 0.5, 0.002, 0.2, 100)

2025-07-07 16:33:17,675 - gym_custom_envs_real_ur_drivers_URBasic_realTimeClientEvent - INFO - Program send to Robot:
servoj([0.009203884727313927, -1.556990499703926, -1.6045439041283807, -1.1151975900666484, 1.6490291935789858, 3.069495556559168], 0.5, 0.5, 0.002, 0.2, 100)

2025-07-07 16:33:17,692 - gym_custom_envs_real_ur_drivers_URBasic_realTimeClientEvent - INFO - Program send to Robot:
servoj([0.009203884727313927, -1.556990499703926, -1.6045439041283807, -1.115203968365599, 1.6490293454430838, 3.069495556559168], 0.5, 0.5, 0.002, 0.2, 100)

2025-07-07 16:33:17,699 - gym_custom_envs_real_ur_drivers_URBasic_realTimeClientEvent - INFO - Program send to Robot:
servoj([0.009203884727313927, -1.5585091406839326, -1.6045439041283807, -1.1789869533088735, 1.6475107059817178, 3.069495556559168], 0.5, 0.5, 0.002, 0.2, 100)

2025-07-07 16:33:17,716 - gym_custom_envs_real_ur_drivers_URBasic_realTimeClientEvent - INFO - Program send to Robot:
servoj([0.009203884727313927, -1.5585243270937328, -1.6045439041283807, -1.1796247831583062, 1.6474955195871042, 3.069495556559168], 0.5, 0.5, 0.002, 0.2, 100)

2025-07-07 16:33:17,722 - gym_custom_envs_real_ur_drivers_URBasic_realTimeClientEvent - INFO - Program send to Robot:
servoj([0.009203884727313927, -1.5585244789578308, -1.6045439041283807, -1.1796311614568007, 1.6474953677231579, 3.069495556559168], 0.5, 0.5, 0.002, 0.2, 100)

2025-07-07 16:33:17,739 - gym_custom_envs_real_ur_drivers_URBasic_realTimeClientEvent - INFO - Program send to Robot:
servoj([0.009203884727313927, -1.5585244804764717, -1.6045439041283807, -1.2418955054200636, 1.6474953662045184, 3.069495556559168], 0.5, 0.5, 0.002, 0.2, 100)

2025-07-07 16:33:17,756 - gym_custom_envs_real_ur_drivers_URBasic_realTimeClientEvent - INFO - Program send to Robot:
servoj([0.009203884727313927, -1.558524480491658, -1.6045439041283807, -1.2425181488596961, 1.6474953661893321, 3.069495556559168], 0.5, 0.5, 0.002, 0.2, 100)

2025-07-07 16:33:17,763 - gym_custom_envs_real_ur_drivers_URBasic_realTimeClientEvent - INFO - Program send to Robot:
servoj([0.009203884727313927, -1.55852448049181, -1.6045439041283807, -1.3002327325343503, 1.6459767252091733, 3.069495556559168], 0.5, 0.5, 0.002, 0.2, 100)

2025-07-07 16:33:17,771 - gym_custom_envs_real_ur_drivers_URBasic_realTimeClientEvent - INFO - Program send to Robot:
servoj([0.009203884727313927, -1.5585244804918115, -1.6045439041283807, -1.3008098783710969, 1.6459615387993716, 3.069495556559168], 0.5, 0.5, 0.002, 0.2, 100)

2025-07-07 16:33:17,779 - gym_custom_envs_real_ur_drivers_URBasic_realTimeClientEvent - INFO - Program send to Robot:
servoj([0.009203884727313927, -1.5585244804918115, -1.6045439041283807, -1.3008156498294643, 1.6459613869352736, 3.069495556559168], 0.5, 0.5, 0.002, 0.2, 100)

2025-07-07 16:33:17,795 - gym_custom_envs_real_ur_drivers_URBasic_realTimeClientEvent - INFO - Program send to Robot:
servoj([0.009203884727313927, -1.5585244804918115, -1.6045439041283807, -1.3524495008642787, 1.6459613854166326, 3.069495556559168], 0.5, 0.5, 0.002, 0.2, 100)

2025-07-07 16:33:17,804 - gym_custom_envs_real_ur_drivers_URBasic_realTimeClientEvent - INFO - Program send to Robot:
servoj([0.009203884727313927, -1.5585244804918115, -1.6045439041283807, -1.3529658393746269, 1.6459613854014463, 3.069495556559168], 0.5, 0.5, 0.002, 0.2, 100)

2025-07-07 16:33:17,810 - gym_custom_envs_real_ur_drivers_URBasic_realTimeClientEvent - INFO - Program send to Robot:
servoj([0.009203884727313927, -1.5585244804918115, -1.6045439041283807, -1.3529710027597304, 1.6459613854012944, 3.069495556559168], 0.5, 0.5, 0.002, 0.2, 100)

2025-07-07 16:33:17,827 - gym_custom_envs_real_ur_drivers_URBasic_realTimeClientEvent - INFO - Program send to Robot:
servoj([0.009203884727313927, -1.5585244804918115, -1.6045439041283807, -1.3970116428137782, 1.6459613854012929, 3.069495556559168], 0.5, 0.5, 0.002, 0.2, 100)

2025-07-07 16:33:17,834 - gym_custom_envs_real_ur_drivers_URBasic_realTimeClientEvent - INFO - Program send to Robot:
servoj([0.009203884727313927, -1.5585244804918115, -1.6045439041283807, -1.3974520492143188, 1.6459613854012929, 3.069495556559168], 0.5, 0.5, 0.002, 0.2, 100)

2025-07-07 16:33:17,843 - gym_custom_envs_real_ur_drivers_URBasic_realTimeClientEvent - INFO - Program send to Robot:
servoj([0.009203884727313927, -1.5585244804918115, -1.6045439041283807, -1.397456453278324, 1.6459613854012929, 3.069495556559168], 0.5, 0.5, 0.002, 0.2, 100)

2025-07-07 16:33:17,852 - gym_custom_envs_real_ur_drivers_URBasic_realTimeClientEvent - INFO - Program send to Robot:
servoj([0.009203884727313927, -1.5585244804918115, -1.6045439041283807, -1.3974564973189643, 1.6459613854012929, 3.069495556559168], 0.5, 0.5, 0.002, 0.2, 100)

2025-07-07 16:33:17,868 - gym_custom_envs_real_ur_drivers_URBasic_realTimeClientEvent - INFO - Program send to Robot:
servoj([0.009203884727313927, -1.5585244804918115, -1.6045439041283807, -1.4339038812795335, 1.644442744421286, 3.069495556559168], 0.5, 0.5, 0.002, 0.2, 100)

2025-07-07 16:33:17,878 - gym_custom_envs_real_ur_drivers_URBasic_realTimeClientEvent - INFO - Program send to Robot:
servoj([0.009203884727313927, -1.5585244804918115, -1.6045439041283807, -1.434268355119139, 1.6444275580114858, 3.069495556559168], 0.5, 0.5, 0.002, 0.2, 100)

2025-07-07 16:33:17,883 - gym_custom_envs_real_ur_drivers_URBasic_realTimeClientEvent - INFO - Program send to Robot:
servoj([0.009203884727313927, -1.5585244804918115, -1.6045439041283807, -1.4342719998575353, 1.6444274061473878, 3.069495556559168], 0.5, 0.5, 0.002, 0.2, 100)

2025-07-07 16:33:17,901 - gym_custom_envs_real_ur_drivers_URBasic_realTimeClientEvent - INFO - Program send to Robot:
servoj([0.009203884727313927, -1.5600431214718182, -1.6045439041283807, -1.4661634968850614, 1.6444274046287468, 3.0710141975391743], 0.5, 0.5, 0.002, 0.2, 100)

2025-07-07 16:33:17,907 - gym_custom_envs_real_ur_drivers_URBasic_realTimeClientEvent - INFO - Program send to Robot:
servoj([0.009203884727313927, -1.5600583078816184, -1.6045439041283807, -1.4664824118553368, 1.6444274046135605, 3.0710293839489746], 0.5, 0.5, 0.002, 0.2, 100)

2025-07-07 16:33:17,918 - gym_custom_envs_real_ur_drivers_URBasic_realTimeClientEvent - INFO - Program send to Robot:
servoj([0.009203884727313927, -1.5600584597457163, -1.6045439041283807, -1.4664856010050396, 1.6444274046134086, 3.0710295358130724], 0.5, 0.5, 0.002, 0.2, 100)

2025-07-07 16:33:17,931 - gym_custom_envs_real_ur_drivers_URBasic_realTimeClientEvent - INFO - Program send to Robot:
servoj([0.010722525707320432, -1.5600584612643573, -1.6045439041283807, -1.4907838885766451, 1.644427404613407, 3.0710295373317136], 0.5, 0.5, 0.002, 0.2, 100)

2025-07-07 16:33:17,942 - gym_custom_envs_real_ur_drivers_URBasic_realTimeClientEvent - INFO - Program send to Robot:
servoj([0.010737712117120496, -1.5600584612795438, -1.6045439041283807, -1.4910268714523611, 1.644427404613407, 3.0710295373469], 0.5, 0.5, 0.002, 0.2, 100)

2025-07-07 16:33:17,949 - gym_custom_envs_real_ur_drivers_URBasic_realTimeClientEvent - INFO - Program send to Robot:
servoj([0.010737863981218497, -1.5600584612796955, -1.6045439041283807, -1.4910293012811184, 1.644427404613407, 3.0710295373470515], 0.5, 0.5, 0.002, 0.2, 100)

2025-07-07 16:33:17,955 - gym_custom_envs_real_ur_drivers_URBasic_realTimeClientEvent - INFO - Program send to Robot:
servoj([0.010737865499859478, -1.5615771022597036, -1.6045439041283807, -1.5138089402795076, 1.6429087636334, 3.0710295373470533], 0.5, 0.5, 0.002, 0.2, 100)

2025-07-07 16:33:17,974 - gym_custom_envs_real_ur_drivers_URBasic_realTimeClientEvent - INFO - Program send to Robot:
servoj([0.010737865515045887, -1.5615922886695037, -1.6045439041283807, -1.5140367366694916, 1.6428935772236, 3.0710295373470533], 0.5, 0.5, 0.002, 0.2, 100)

2025-07-07 16:33:17,980 - gym_custom_envs_real_ur_drivers_URBasic_realTimeClientEvent - INFO - Program send to Robot:
servoj([0.01073786551519775, -1.5615924405336017, -1.6045439041283807, -1.5140390146333915, 1.642893425359502, 3.0710295373470533], 0.5, 0.5, 0.002, 0.2, 100)

2025-07-07 16:33:17,989 - gym_custom_envs_real_ur_drivers_URBasic_realTimeClientEvent - INFO - Program send to Robot:
servoj([0.01073786551519927, -1.5615924420522427, -1.6045439041283807, -1.5261881652530846, 1.641374782860855, 3.07254817832706], 0.5, 0.5, 0.002, 0.2, 100)

2025-07-07 16:33:18,002 - gym_custom_envs_real_ur_drivers_URBasic_realTimeClientEvent - INFO - Program send to Robot:
servoj([0.010737865515199285, -1.5615924420674292, -1.6045439041283807, -1.5263096567592818, 1.6413595964358685, 3.07256336473686], 0.5, 0.5, 0.002, 0.2, 100)

2025-07-07 16:33:18,014 - gym_custom_envs_real_ur_drivers_URBasic_realTimeClientEvent - INFO - Program send to Robot:
servoj([0.010737865515199285, -1.561592442067581, -1.6045439041283807, -1.5263108716743436, 1.6413594445716186, 3.072563516600958], 0.5, 0.5, 0.002, 0.2, 100)

2025-07-07 16:33:18,018 - gym_custom_envs_real_ur_drivers_URBasic_realTimeClientEvent - INFO - Program send to Robot:
servoj([0.010737865515199285, -1.5615924420675824, -1.6045439041283807, -1.533904088723528, 1.6368035201129554, 3.071044877139592], 0.5, 0.5, 0.002, 0.2, 100)

