2025-07-07 17:24:43,358 - gym_custom_envs_real_ur_drivers_URBasic_robotModelEvent - INFO - Init done
2025-07-07 17:24:43,859 - gym_custom_envs_real_ur_drivers_URBasic_realTimeClientEvent - INFO - Connected
2025-07-07 17:24:43,859 - gym_custom_envs_real_ur_drivers_URBasic_realTimeClientEvent - INFO - RT_CLient constructor done
2025-07-07 17:24:43,861 - gym_custom_envs_real_ur_drivers_URBasic_dataLogEvent - INFO - Data logging (not event logging) is disabled
2025-07-07 17:24:43,861 - gym_custom_envs_real_ur_drivers_URBasic_dataLogEvent - INFO - DataLog is stopped
2025-07-07 17:24:43,861 - gym_custom_envs_real_ur_drivers_URBasic_dataLogEvent - INFO - DataLog constructor done
2025-07-07 17:24:43,863 - gym_custom_envs_real_ur_drivers_URBasic_rtdeEvent - INFO - RTDE constructor done
2025-07-07 17:24:44,177 - gym_custom_envs_real_ur_drivers_URBasic_rtdeEvent - INFO - Controller version: 3.3.1-60
2025-07-07 17:24:44,182 - gym_custom_envs_real_ur_drivers_URBasic_rtdeEvent - INFO - RTDE started
2025-07-07 17:24:44,365 - gym_custom_envs_real_ur_drivers_URBasic_dashboardEvent - INFO - Connected
2025-07-07 17:24:44,365 - gym_custom_envs_real_ur_drivers_URBasic_dashboardEvent - INFO - UR Dashboard respond Connected: Universal Robots Dashboard Server
2025-07-07 17:24:44,366 - gym_custom_envs_real_ur_drivers_URBasic_dashboardEvent - INFO - Dashboard server constructor done
2025-07-07 17:24:44,366 - gym_custom_envs_real_ur_drivers_URBasic_robotConnectorEvent - INFO - Init done
2025-07-07 17:24:44,366 - gym_custom_envs_real_ur_drivers_URBasic_urScriptEvent - INFO - Init done!!!
2025-07-07 17:24:44,380 - gym_custom_envs_real_ur_drivers_URBasic_urScriptExtEvent - INFO - Init done
2025-07-07 17:24:46,055 - gym_custom_envs_real_ur_interfaceEvent - INFO - [] init done
2025-07-07 17:24:46,055 - gym_custom_envs_real_ur_drivers_URBasic_realTimeClientEvent - INFO - Program send to Robot:
end_freedrive_mode()

2025-07-07 17:24:48,028 - gym_custom_envs_real_ur_drivers_URBasic_realTimeClientEvent - INFO - Program send to Robot:
servoj([-0.08167121526182518, -1.657640568410055, -1.5589969470747018, -1.503984003192, 1.688777009437576, 3.016403231580975], 0.5, 0.5, 0.04, 0.05, 300)

2025-07-07 17:24:48,045 - gym_custom_envs_real_ur_drivers_URBasic_realTimeClientEvent - INFO - Program send to Robot:
servoj([-0.08159510510883088, -1.6576048056231898, -1.5566103692974296, -1.5050682291067519, 1.6897208692888834, 3.018576494368422], 0.5, 0.5, 0.04, 0.05, 300)

2025-07-07 17:24:48,061 - gym_custom_envs_real_ur_drivers_URBasic_realTimeClientEvent - INFO - Program send to Robot:
servoj([-0.08159312320297243, -1.6576286474811, -1.556562649014443, -1.5051010859023406, 1.689746434050456, 3.018612824122428], 0.5, 0.5, 0.04, 0.05, 300)

2025-07-07 17:24:48,076 - gym_custom_envs_real_ur_drivers_URBasic_realTimeClientEvent - INFO - Program send to Robot:
servoj([-0.08167078771964252, -1.6576048056231898, -1.55899133345457, -1.5039708367234887, 1.6887657702341414, 3.017749766824329], 0.5, 0.5, 0.04, 0.05, 300)

2025-07-07 17:24:48,092 - gym_custom_envs_real_ur_drivers_URBasic_realTimeClientEvent - INFO - Program send to Robot:
servoj([-0.0816651712735875, -1.6576768080340785, -1.558968384019935, -1.5040114229852706, 1.6887982026207744, 3.0177738319343925], 0.5, 0.5, 0.04, 0.05, 300)

2025-07-07 17:24:48,109 - gym_custom_envs_real_ur_drivers_URBasic_realTimeClientEvent - INFO - Program send to Robot:
servoj([-0.08159332519322048, -1.6576167265521449, -1.5579776272954418, -1.5050783925584619, 1.6883505245122519, 3.0185938849253904], 0.5, 0.5, 0.04, 0.05, 300)

2025-07-07 17:24:48,125 - gym_custom_envs_real_ur_drivers_URBasic_realTimeClientEvent - INFO - Program send to Robot:
servoj([-0.08159006670361377, -1.6576887289630335, -1.557914111501851, -1.5051497885370555, 1.6883974144887637, 3.018651154186266], 0.5, 0.5, 0.04, 0.05, 300)

2025-07-07 17:24:48,140 - gym_custom_envs_real_ur_drivers_URBasic_realTimeClientEvent - INFO - Program send to Robot:
servoj([-0.08157865213580946, -1.6578689734088343, -1.5577781820717291, -1.5052984215881144, 1.6885147461334027, 3.0187669216858857], 0.5, 0.5, 0.04, 0.05, 300)

2025-07-07 17:24:48,156 - gym_custom_envs_real_ur_drivers_URBasic_realTimeClientEvent - INFO - Program send to Robot:
servoj([-0.08156934099162062, -1.6581321875201624, -1.5575759823820083, -1.505511257929871, 1.6886960523615262, 3.0189269145372286], 0.5, 0.5, 0.04, 0.05, 300)

2025-07-07 17:24:48,172 - gym_custom_envs_real_ur_drivers_URBasic_realTimeClientEvent - INFO - Program send to Robot:
servoj([-0.0815393596348867, -1.6586838881122035, -1.5571527316903382, -1.5059705563418377, 1.6890802366054147, 3.0206749967304014], 0.5, 0.5, 0.04, 0.05, 300)

2025-07-07 17:24:48,188 - gym_custom_envs_real_ur_drivers_URBasic_realTimeClientEvent - INFO - Program send to Robot:
servoj([-0.0814897699121003, -1.6595221678363246, -1.5564978408982035, -1.506668014393032, 1.6896689392012778, 3.0212518049400803], 0.5, 0.5, 0.04, 0.05, 300)

2025-07-07 17:24:48,204 - gym_custom_envs_real_ur_drivers_URBasic_realTimeClientEvent - INFO - Program send to Robot:
servoj([-0.08291527583916984, -1.6608768622027796, -1.5565422788059171, -1.506610859350963, 1.689626520938418, 3.0226281094879037], 0.5, 0.5, 0.04, 0.05, 300)

2025-07-07 17:24:48,220 - gym_custom_envs_real_ur_drivers_URBasic_realTimeClientEvent - INFO - Program send to Robot:
servoj([-0.08287101357792427, -1.662950627003805, -1.5549894464138598, -1.5082856424146367, 1.6910212163678549, 3.0240440802267736], 0.5, 0.5, 0.04, 0.05, 300)

2025-07-07 17:24:48,236 - gym_custom_envs_real_ur_drivers_URBasic_realTimeClientEvent - INFO - Program send to Robot:
servoj([-0.08283496101184366, -1.6628505123419328, -1.5539225381281545, -1.509437095279471, 1.6904621680578558, 3.0250101121763504], 0.5, 0.5, 0.04, 0.05, 300)

2025-07-07 17:24:48,252 - gym_custom_envs_real_ur_drivers_URBasic_realTimeClientEvent - INFO - Program send to Robot:
servoj([-0.08283496253048464, -1.662835327450774, -1.5539225381281545, -1.509437095279471, 1.6904469816480556, 3.025010113695143], 0.5, 0.5, 0.04, 0.05, 300)

2025-07-07 17:24:48,276 - gym_custom_envs_real_ur_drivers_URBasic_realTimeClientEvent - INFO - Program send to Robot:
servoj([-0.08283496254567105, -1.6628351756018622, -1.5539225381281545, -1.509437095279471, 1.6889281888039507, 3.025010113710331], 0.5, 0.5, 0.04, 0.05, 300)

2025-07-07 17:24:48,292 - gym_custom_envs_real_ur_drivers_URBasic_realTimeClientEvent - INFO - Program send to Robot:
servoj([-0.0858722445058368, -1.6628351740833731, -1.5539225381281545, -1.509437095279471, 1.6873943598955026, 3.025010113710483], 0.5, 0.5, 0.04, 0.05, 300)

2025-07-07 17:24:48,307 - gym_custom_envs_real_ur_drivers_URBasic_realTimeClientEvent - INFO - Program send to Robot:
servoj([-0.08590261732543847, -1.6628351740681881, -1.5539225381281545, -1.509437095279471, 1.6873790216064182, 3.0250101137104846], 0.5, 0.5, 0.04, 0.05, 300)

2025-07-07 17:24:48,324 - gym_custom_envs_real_ur_drivers_URBasic_realTimeClientEvent - INFO - Program send to Robot:
servoj([-0.08742156203364099, -1.6628351740680365, -1.5539225381281545, -1.509437095279471, 1.6858602272435204, 3.0250101137104846], 0.5, 0.5, 0.04, 0.05, 300)

2025-07-07 17:24:48,340 - gym_custom_envs_real_ur_drivers_URBasic_realTimeClientEvent - INFO - Program send to Robot:
servoj([-0.08743675148072301, -1.662835174068035, -1.5539225381281545, -1.509437095279471, 1.6858450392998914, 3.0250101137104846], 0.5, 0.5, 0.04, 0.05, 300)

2025-07-07 17:24:48,356 - gym_custom_envs_real_ur_drivers_URBasic_realTimeClientEvent - INFO - Program send to Robot:
servoj([-0.08743690337519383, -1.662835174068035, -1.5539225381281545, -1.509437095279471, 1.684326246440449, 3.0250101137104846], 0.5, 0.5, 0.04, 0.05, 300)

2025-07-07 17:24:48,372 - gym_custom_envs_real_ur_drivers_URBasic_realTimeClientEvent - INFO - Program send to Robot:
servoj([-0.08743690489413855, -1.662835174068035, -1.5539225381281545, -1.509437095279471, 1.6843110585118546, 3.0250101137104846], 0.5, 0.5, 0.04, 0.05, 300)

2025-07-07 17:24:48,396 - gym_custom_envs_real_ur_drivers_URBasic_realTimeClientEvent - INFO - Program send to Robot:
servoj([-0.087436904909328, -1.662835174068035, -1.5539225381281545, -1.509437095279471, 1.6843109066325685, 3.0250101137104846], 0.5, 0.5, 0.04, 0.05, 300)

2025-07-07 17:24:48,412 - gym_custom_envs_real_ur_drivers_URBasic_realTimeClientEvent - INFO - Program send to Robot:
servoj([-0.08743690490947989, -1.662835174068035, -1.5539225381281545, -1.509437095279471, 1.6843109051137757, 3.0250101137104846], 0.5, 0.5, 0.04, 0.05, 300)

2025-07-07 17:24:48,428 - gym_custom_envs_real_ur_drivers_URBasic_realTimeClientEvent - INFO - Program send to Robot:
servoj([-0.08895554588948834, -1.662835174068035, -1.5554411791081615, -1.509437095279471, 1.6843109050985878, 3.0250101137104846], 0.5, 0.5, 0.04, 0.05, 300)

2025-07-07 17:24:48,445 - gym_custom_envs_real_ur_drivers_URBasic_realTimeClientEvent - INFO - Program send to Robot:
servoj([-0.08897088416338643, -1.662835174068035, -1.5554565173820596, -1.509437095279471, 1.6843109050984344, 3.0250101137104846], 0.5, 0.5, 0.04, 0.05, 300)

2025-07-07 17:24:48,460 - gym_custom_envs_real_ur_drivers_URBasic_realTimeClientEvent - INFO - Program send to Robot:
servoj([-0.08745224470202047, -1.662835174068035, -1.5554565189007006, -1.509437095279471, 1.6843109050984344, 3.023491472730478], 0.5, 0.5, 0.04, 0.05, 300)

2025-07-07 17:24:48,469 - gym_custom_envs_real_ur_drivers_URBasic_realTimeClientEvent - INFO - Program send to Robot:
servoj([-0.0874370583074068, -1.662835174068035, -1.5554565189158869, -1.509437095279471, 1.6843109050984344, 3.0234762863206774], 0.5, 0.5, 0.04, 0.05, 300)

2025-07-07 17:24:48,485 - gym_custom_envs_real_ur_drivers_URBasic_realTimeClientEvent - INFO - Program send to Robot:
servoj([-0.08895554742346762, -1.664353815048042, -1.5554565189160388, -1.509437095279471, 1.6843109050984344, 3.0234761344565797], 0.5, 0.5, 0.04, 0.05, 300)

2025-07-07 17:24:48,492 - gym_custom_envs_real_ur_drivers_URBasic_realTimeClientEvent - INFO - Program send to Robot:
servoj([-0.08897073231462822, -1.6643690014578418, -1.5554565189160403, -1.509437095279471, 1.6843109050984344, 3.0234761329379385], 0.5, 0.5, 0.04, 0.05, 300)

2025-07-07 17:24:48,500 - gym_custom_envs_real_ur_drivers_URBasic_realTimeClientEvent - INFO - Program send to Robot:
servoj([-0.08897088416353982, -1.6643691533219398, -1.5554565189160403, -1.509437095279471, 1.6843109050984344, 3.0234761329227524], 0.5, 0.5, 0.04, 0.05, 300)

2025-07-07 17:24:48,508 - gym_custom_envs_real_ur_drivers_URBasic_realTimeClientEvent - INFO - Program send to Robot:
servoj([-0.08897088568202895, -1.6643691548405808, -1.5554565189160403, -1.509437095279471, 1.6843109050984344, 3.0234761329226005], 0.5, 0.5, 0.04, 0.05, 300)

2025-07-07 17:24:48,524 - gym_custom_envs_real_ur_drivers_URBasic_realTimeClientEvent - INFO - Program send to Robot:
servoj([-0.08745224471720689, -1.6628505138757603, -1.5554565189160403, -1.509437095279471, 1.6858295460784405, 3.0234761329225988], 0.5, 0.5, 0.04, 0.05, 300)

2025-07-07 17:24:48,532 - gym_custom_envs_real_ur_drivers_URBasic_realTimeClientEvent - INFO - Program send to Robot:
servoj([-0.08743705830755867, -1.662835327466112, -1.5554565189160403, -1.509437095279471, 1.6858447324882404, 3.0234761329225988], 0.5, 0.5, 0.04, 0.05, 300)

2025-07-07 17:24:48,540 - gym_custom_envs_real_ur_drivers_URBasic_realTimeClientEvent - INFO - Program send to Robot:
servoj([-0.08743690644346219, -1.6628351756020157, -1.5554565189160403, -1.509437095279471, 1.6858448843523386, 3.0234761329225988], 0.5, 0.5, 0.04, 0.05, 300)

2025-07-07 17:24:48,548 - gym_custom_envs_real_ur_drivers_URBasic_realTimeClientEvent - INFO - Program send to Robot:
servoj([-0.08895554590482817, -1.6628351740833747, -1.5554565189160403, -1.509437095279471, 1.6843262448909735, 3.0234761329225988], 0.5, 0.5, 0.04, 0.05, 300)

2025-07-07 17:24:48,564 - gym_custom_envs_real_ur_drivers_URBasic_realTimeClientEvent - INFO - Program send to Robot:
servoj([-0.08897073229944183, -1.6628351740681881, -1.5554565189160403, -1.509437095279471, 1.6843110584963596, 3.0234761329225988], 0.5, 0.5, 0.04, 0.05, 300)

2025-07-07 17:24:48,572 - gym_custom_envs_real_ur_drivers_URBasic_realTimeClientEvent - INFO - Program send to Robot:
servoj([-0.08897088416338796, -1.6628351740680365, -1.5554565189160403, -1.509437095279471, 1.6843109066324136, 3.0234761329225988], 0.5, 0.5, 0.04, 0.05, 300)

2025-07-07 17:24:48,580 - gym_custom_envs_real_ur_drivers_URBasic_realTimeClientEvent - INFO - Program send to Robot:
servoj([-0.08897088568202742, -1.662835174068035, -1.5554565189160403, -1.509437095279471, 1.6858295460937802, 3.0234761329225988], 0.5, 0.5, 0.04, 0.05, 300)

2025-07-07 17:24:48,588 - gym_custom_envs_real_ur_drivers_URBasic_realTimeClientEvent - INFO - Program send to Robot:
servoj([-0.08897088569721381, -1.662835174068035, -1.5554565189160403, -1.509437095279471, 1.6858447324883938, 3.0234761329225988], 0.5, 0.5, 0.04, 0.05, 300)

2025-07-07 17:24:48,604 - gym_custom_envs_real_ur_drivers_URBasic_realTimeClientEvent - INFO - Program send to Robot:
servoj([-0.08897088569736568, -1.662835174068035, -1.5554565189160403, -1.509437095279471, 1.6858448843523401, 3.0234761329225988], 0.5, 0.5, 0.04, 0.05, 300)

2025-07-07 17:24:48,612 - gym_custom_envs_real_ur_drivers_URBasic_realTimeClientEvent - INFO - Program send to Robot:
servoj([-0.08745224471736027, -1.662835174068035, -1.5554565189160403, -1.509437095279471, 1.6858448858709796, 3.0234761329225988], 0.5, 0.5, 0.04, 0.05, 300)

2025-07-07 17:24:48,620 - gym_custom_envs_real_ur_drivers_URBasic_realTimeClientEvent - INFO - Program send to Robot:
servoj([-0.08743705830756021, -1.662835174068035, -1.5554565189160403, -1.509437095279471, 1.6858448858861659, 3.0234761329225988], 0.5, 0.5, 0.04, 0.05, 300)

2025-07-07 17:24:48,636 - gym_custom_envs_real_ur_drivers_URBasic_realTimeClientEvent - INFO - Program send to Robot:
servoj([-0.0874369064434622, -1.662835174068035, -1.5554565189160403, -1.509437095279471, 1.6858448858863178, 3.0234761329225988], 0.5, 0.5, 0.04, 0.05, 300)

2025-07-07 17:24:48,644 - gym_custom_envs_real_ur_drivers_URBasic_realTimeClientEvent - INFO - Program send to Robot:
servoj([-0.08895554590482817, -1.662835174068035, -1.5554565189160403, -1.509437095279471, 1.6858448858863193, 3.0234761329225988], 0.5, 0.5, 0.04, 0.05, 300)

2025-07-07 17:24:48,652 - gym_custom_envs_real_ur_drivers_URBasic_realTimeClientEvent - INFO - Program send to Robot:
servoj([-0.08897073229944183, -1.662835174068035, -1.5554565189160403, -1.509437095279471, 1.6858448858863193, 3.0234761329225988], 0.5, 0.5, 0.04, 0.05, 300)

2025-07-07 17:24:48,660 - gym_custom_envs_real_ur_drivers_URBasic_realTimeClientEvent - INFO - Program send to Robot:
servoj([-0.08897088416338796, -1.662835174068035, -1.5554565189160403, -1.509437095279471, 1.6858448858863193, 3.0234761329225988], 0.5, 0.5, 0.04, 0.05, 300)

2025-07-07 17:24:48,676 - gym_custom_envs_real_ur_drivers_URBasic_realTimeClientEvent - INFO - Program send to Robot:
servoj([-0.08897088568202742, -1.662835174068035, -1.5554565189160403, -1.509437095279471, 1.6858448858863193, 3.0234761329225988], 0.5, 0.5, 0.04, 0.05, 300)

2025-07-07 17:24:48,683 - gym_custom_envs_real_ur_drivers_URBasic_realTimeClientEvent - INFO - Program send to Robot:
servoj([-0.08897088569721381, -1.662835174068035, -1.5554565189160403, -1.509437095279471, 1.6858448858863193, 3.0234761329225988], 0.5, 0.5, 0.04, 0.05, 300)

2025-07-07 17:24:48,691 - gym_custom_envs_real_ur_drivers_URBasic_realTimeClientEvent - INFO - Program send to Robot:
servoj([-0.08897088569736568, -1.662835174068035, -1.5554565189160403, -1.509437095279471, 1.6858448858863193, 3.0234761329225988], 0.5, 0.5, 0.04, 0.05, 300)

2025-07-07 17:24:48,699 - gym_custom_envs_real_ur_drivers_URBasic_realTimeClientEvent - INFO - Program send to Robot:
servoj([-0.0889708856973672, -1.662835174068035, -1.5554565189160403, -1.509437095279471, 1.6858448858863193, 3.0234761329225988], 0.5, 0.5, 0.04, 0.05, 300)

2025-07-07 17:24:48,716 - gym_custom_envs_real_ur_drivers_URBasic_realTimeClientEvent - INFO - Program send to Robot:
servoj([-0.08897088569736722, -1.662835174068035, -1.5554565189160403, -1.509437095279471, 1.6858448858863193, 3.0234761329225988], 0.5, 0.5, 0.04, 0.05, 300)

2025-07-07 17:24:48,724 - gym_custom_envs_real_ur_drivers_URBasic_realTimeClientEvent - INFO - Program send to Robot:
servoj([-0.08897088569736722, -1.662835174068035, -1.5554565189160403, -1.509437095279471, 1.6858448858863193, 3.0234761329225988], 0.5, 0.5, 0.04, 0.05, 300)

2025-07-07 17:24:48,732 - gym_custom_envs_real_ur_drivers_URBasic_realTimeClientEvent - INFO - Program send to Robot:
servoj([-0.08897088569736722, -1.662835174068035, -1.5554565189160403, -1.509437095279471, 1.6858448858863193, 3.0234761329225988], 0.5, 0.5, 0.04, 0.05, 300)

2025-07-07 17:24:48,740 - gym_custom_envs_real_ur_drivers_URBasic_realTimeClientEvent - INFO - Program send to Robot:
servoj([-0.08897088569736722, -1.662835174068035, -1.5554565189160403, -1.509437095279471, 1.6858448858863193, 3.0234761329225988], 0.5, 0.5, 0.04, 0.05, 300)

2025-07-07 17:24:48,757 - gym_custom_envs_real_ur_drivers_URBasic_realTimeClientEvent - INFO - Program send to Robot:
servoj([-0.08897088569736722, -1.662835174068035, -1.5554565189160403, -1.509437095279471, 1.6858448858863193, 3.0234761329225988], 0.5, 0.5, 0.04, 0.05, 300)

2025-07-07 17:24:48,765 - gym_custom_envs_real_ur_drivers_URBasic_realTimeClientEvent - INFO - Program send to Robot:
servoj([-0.08897088569736722, -1.662835174068035, -1.5554565189160403, -1.509437095279471, 1.6858448858863193, 3.0234761329225988], 0.5, 0.5, 0.04, 0.05, 300)

2025-07-07 17:24:48,772 - gym_custom_envs_real_ur_drivers_URBasic_realTimeClientEvent - INFO - Program send to Robot:
servoj([-0.08897088569736722, -1.662835174068035, -1.5554565189160403, -1.509437095279471, 1.6858448858863193, 3.0234761329225988], 0.5, 0.5, 0.04, 0.05, 300)

2025-07-07 17:24:48,780 - gym_custom_envs_real_ur_drivers_URBasic_realTimeClientEvent - INFO - Program send to Robot:
servoj([-0.08897088569736722, -1.662835174068035, -1.5554565189160403, -1.509437095279471, 1.6858448858863193, 3.0234761329225988], 0.5, 0.5, 0.04, 0.05, 300)

2025-07-07 17:24:48,796 - gym_custom_envs_real_ur_drivers_URBasic_realTimeClientEvent - INFO - Program send to Robot:
servoj([-0.08897088569736722, -1.662835174068035, -1.5554565189160403, -1.509437095279471, 1.6858448858863193, 3.0234761329225988], 0.5, 0.5, 0.04, 0.05, 300)

2025-07-07 17:24:48,804 - gym_custom_envs_real_ur_drivers_URBasic_realTimeClientEvent - INFO - Program send to Robot:
servoj([-0.08897088569736722, -1.662835174068035, -1.5554565189160403, -1.5079184542994641, 1.6858448858863193, 3.0234761329225988], 0.5, 0.5, 0.04, 0.05, 300)

2025-07-07 17:24:48,812 - gym_custom_envs_real_ur_drivers_URBasic_realTimeClientEvent - INFO - Program send to Robot:
servoj([-0.08897088569736722, -1.662835174068035, -1.5554565189160403, -1.5079032678896642, 1.6858448858863193, 3.0234761329225988], 0.5, 0.5, 0.04, 0.05, 300)

2025-07-07 17:24:48,828 - gym_custom_envs_real_ur_drivers_URBasic_realTimeClientEvent - INFO - Program send to Robot:
servoj([-0.08897088569736722, -1.662835174068035, -1.5554565189160403, -1.5079031160255663, 1.6858448858863193, 3.0234761329225988], 0.5, 0.5, 0.04, 0.05, 300)

2025-07-07 17:24:48,837 - gym_custom_envs_real_ur_drivers_URBasic_realTimeClientEvent - INFO - Program send to Robot:
servoj([-0.08897088569736722, -1.662835174068035, -1.5554565189160403, -1.5079031145069253, 1.6843262449063132, 3.0234761329225988], 0.5, 0.5, 0.04, 0.05, 300)

2025-07-07 17:24:48,844 - gym_custom_envs_real_ur_drivers_URBasic_realTimeClientEvent - INFO - Program send to Robot:
servoj([-0.08897088569736722, -1.662835174068035, -1.5554565189160403, -1.5079031144917387, 1.684311058496513, 3.0234761329225988], 0.5, 0.5, 0.04, 0.05, 300)

2025-07-07 17:24:48,852 - gym_custom_envs_real_ur_drivers_URBasic_realTimeClientEvent - INFO - Program send to Robot:
servoj([-0.08897088569736722, -1.662835174068035, -1.5554565189160403, -1.5079031144915869, 1.6843109066324151, 3.0234761329225988], 0.5, 0.5, 0.04, 0.05, 300)

2025-07-07 17:24:48,868 - gym_custom_envs_real_ur_drivers_URBasic_realTimeClientEvent - INFO - Program send to Robot:
servoj([-0.08897088569736722, -1.662835174068035, -1.5554565189160403, -1.5079031144915853, 1.6858295460937802, 3.0234761329225988], 0.5, 0.5, 0.04, 0.05, 300)

2025-07-07 17:24:48,877 - gym_custom_envs_real_ur_drivers_URBasic_realTimeClientEvent - INFO - Program send to Robot:
servoj([-0.08897088569736722, -1.662835174068035, -1.5554565189160403, -1.5079031144915853, 1.6858447324883938, 3.0234761329225988], 0.5, 0.5, 0.04, 0.05, 300)

2025-07-07 17:24:48,885 - gym_custom_envs_real_ur_drivers_URBasic_realTimeClientEvent - INFO - Program send to Robot:
servoj([-0.08897088569736722, -1.662835174068035, -1.5554565189160403, -1.5079031144915853, 1.6858448843523401, 3.0234761329225988], 0.5, 0.5, 0.04, 0.05, 300)

2025-07-07 17:24:48,892 - gym_custom_envs_real_ur_drivers_URBasic_realTimeClientEvent - INFO - Program send to Robot:
servoj([-0.08897088569736722, -1.662835174068035, -1.5554565189160403, -1.5079031144915853, 1.6858448858709796, 3.0234761329225988], 0.5, 0.5, 0.04, 0.05, 300)

2025-07-07 17:24:48,908 - gym_custom_envs_real_ur_drivers_URBasic_realTimeClientEvent - INFO - Program send to Robot:
servoj([-0.08897088569736722, -1.662835174068035, -1.5554565189160403, -1.5079031144915853, 1.6858448858861659, 3.0234761329225988], 0.5, 0.5, 0.04, 0.05, 300)

2025-07-07 17:24:48,916 - gym_custom_envs_real_ur_drivers_URBasic_realTimeClientEvent - INFO - Program send to Robot:
servoj([-0.08897088569736722, -1.662835174068035, -1.5554565189160403, -1.5079031144915853, 1.6858448858863178, 3.0234761329225988], 0.5, 0.5, 0.04, 0.05, 300)

2025-07-07 17:24:48,924 - gym_custom_envs_real_ur_drivers_URBasic_realTimeClientEvent - INFO - Program send to Robot:
servoj([-0.08897088569736722, -1.662835174068035, -1.5554565189160403, -1.5079031144915853, 1.6858448858863193, 3.0234761329225988], 0.5, 0.5, 0.04, 0.05, 300)

2025-07-07 17:24:48,940 - gym_custom_envs_real_ur_drivers_URBasic_realTimeClientEvent - INFO - Program send to Robot:
servoj([-0.08897088569736722, -1.662835174068035, -1.5554565189160403, -1.5079031144915853, 1.6843262449063132, 3.0234761329225988], 0.5, 0.5, 0.04, 0.05, 300)

2025-07-07 17:24:48,949 - gym_custom_envs_real_ur_drivers_URBasic_realTimeClientEvent - INFO - Program send to Robot:
servoj([-0.08897088569736722, -1.662835174068035, -1.5554565189160403, -1.5079031144915853, 1.684311058496513, 3.0234761329225988], 0.5, 0.5, 0.04, 0.05, 300)

2025-07-07 17:24:48,957 - gym_custom_envs_real_ur_drivers_URBasic_realTimeClientEvent - INFO - Program send to Robot:
servoj([-0.08897088569736722, -1.662835174068035, -1.5554565189160403, -1.5079031144915853, 1.6843109066324151, 3.0234761329225988], 0.5, 0.5, 0.04, 0.05, 300)

2025-07-07 17:24:48,977 - gym_custom_envs_real_ur_drivers_URBasic_realTimeClientEvent - INFO - Program send to Robot:
servoj([-0.08897088569736722, -1.662835174068035, -1.5554565189160403, -1.5079031144915853, 1.6843109051137741, 3.0234761329225988], 0.5, 0.5, 0.04, 0.05, 300)

2025-07-07 17:24:48,990 - gym_custom_envs_real_ur_drivers_URBasic_realTimeClientEvent - INFO - Program send to Robot:
servoj([-0.08897088569736722, -1.662835174068035, -1.5554565189160403, -1.5079031144915853, 1.6843109050985878, 3.0234761329225988], 0.5, 0.5, 0.04, 0.05, 300)

2025-07-07 17:24:48,997 - gym_custom_envs_real_ur_drivers_URBasic_realTimeClientEvent - INFO - Program send to Robot:
servoj([-0.08745224471736028, -1.662835174068035, -1.5554565189160403, -1.5079031144915853, 1.684310905098436, 3.0234761329225988], 0.5, 0.5, 0.04, 0.05, 300)

2025-07-07 17:24:49,012 - gym_custom_envs_real_ur_drivers_URBasic_realTimeClientEvent - INFO - Program send to Robot:
servoj([-0.08743705830756021, -1.662835174068035, -1.5554565189160403, -1.5079031144915853, 1.6843109050984344, 3.0234761329225988], 0.5, 0.5, 0.04, 0.05, 300)

2025-07-07 17:24:49,021 - gym_custom_envs_real_ur_drivers_URBasic_realTimeClientEvent - INFO - Program send to Robot:
servoj([-0.0874369064434622, -1.662835174068035, -1.5554565189160403, -1.5079031144915853, 1.6843109050984344, 3.0234761329225988], 0.5, 0.5, 0.04, 0.05, 300)

2025-07-07 17:24:49,028 - gym_custom_envs_real_ur_drivers_URBasic_realTimeClientEvent - INFO - Program send to Robot:
servoj([-0.08895554590482817, -1.662835174068035, -1.5554565189160403, -1.5079031144915853, 1.6843109050984344, 3.0234761329225988], 0.5, 0.5, 0.04, 0.05, 300)

2025-07-07 17:24:49,043 - gym_custom_envs_real_ur_drivers_URBasic_realTimeClientEvent - INFO - Program send to Robot:
servoj([-0.08897073229944183, -1.662835174068035, -1.5554565189160403, -1.5079031144915853, 1.6843109050984344, 3.0234761329225988], 0.5, 0.5, 0.04, 0.05, 300)

2025-07-07 17:24:49,051 - gym_custom_envs_real_ur_drivers_URBasic_realTimeClientEvent - INFO - Program send to Robot:
servoj([-0.08897088416338796, -1.662835174068035, -1.5554565189160403, -1.5079031144915853, 1.6843109050984344, 3.0234761329225988], 0.5, 0.5, 0.04, 0.05, 300)

2025-07-07 17:24:49,060 - gym_custom_envs_real_ur_drivers_URBasic_realTimeClientEvent - INFO - Program send to Robot:
servoj([-0.08897088568202742, -1.662835174068035, -1.5554565189160403, -1.5079031144915853, 1.6843109050984344, 3.0234761329225988], 0.5, 0.5, 0.04, 0.05, 300)

2025-07-07 17:24:49,067 - gym_custom_envs_real_ur_drivers_URBasic_realTimeClientEvent - INFO - Program send to Robot:
servoj([-0.08897088569721381, -1.662835174068035, -1.5554565189160403, -1.5079031144915853, 1.6843109050984344, 3.0234761329225988], 0.5, 0.5, 0.04, 0.05, 300)

2025-07-07 17:24:49,084 - gym_custom_envs_real_ur_drivers_URBasic_realTimeClientEvent - INFO - Program send to Robot:
servoj([-0.08897088569736568, -1.662835174068035, -1.5554565189160403, -1.5079031144915853, 1.6843109050984344, 3.0234761329225988], 0.5, 0.5, 0.04, 0.05, 300)

2025-07-07 17:24:49,092 - gym_custom_envs_real_ur_drivers_URBasic_realTimeClientEvent - INFO - Program send to Robot:
servoj([-0.0889708856973672, -1.662835174068035, -1.5554565189160403, -1.5079031144915853, 1.6843109050984344, 3.0234761329225988], 0.5, 0.5, 0.04, 0.05, 300)

2025-07-07 17:24:49,100 - gym_custom_envs_real_ur_drivers_URBasic_realTimeClientEvent - INFO - Program send to Robot:
servoj([-0.08897088569736722, -1.662835174068035, -1.5554565189160403, -1.5079031144915853, 1.6843109050984344, 3.0234761329225988], 0.5, 0.5, 0.04, 0.05, 300)

2025-07-07 17:24:49,108 - gym_custom_envs_real_ur_drivers_URBasic_realTimeClientEvent - INFO - Program send to Robot:
servoj([-0.08897088569736722, -1.662835174068035, -1.5554565189160403, -1.5079031144915853, 1.6843109050984344, 3.0234761329225988], 0.5, 0.5, 0.04, 0.05, 300)

2025-07-07 17:24:49,123 - gym_custom_envs_real_ur_drivers_URBasic_realTimeClientEvent - INFO - Program send to Robot:
servoj([-0.08897088569736722, -1.6613165330880284, -1.5554565189160403, -1.5079031144915853, 1.6843109050984344, 3.0234761329225988], 0.5, 0.5, 0.04, 0.05, 300)

2025-07-07 17:24:49,132 - gym_custom_envs_real_ur_drivers_URBasic_realTimeClientEvent - INFO - Program send to Robot:
servoj([-0.08897088569736722, -1.6613013466782283, -1.5554565189160403, -1.5079031144915853, 1.6843109050984344, 3.0234761329225988], 0.5, 0.5, 0.04, 0.05, 300)

2025-07-07 17:24:49,140 - gym_custom_envs_real_ur_drivers_URBasic_realTimeClientEvent - INFO - Program send to Robot:
servoj([-0.08897088569736722, -1.6613011948141303, -1.5554565189160403, -1.5079031144915853, 1.6843109050984344, 3.0234761329225988], 0.5, 0.5, 0.04, 0.05, 300)

2025-07-07 17:24:49,155 - gym_custom_envs_real_ur_drivers_URBasic_realTimeClientEvent - INFO - Program send to Robot:
servoj([-0.08897088569736722, -1.6597825523154826, -1.5554565189160403, -1.5079031144915853, 1.6843109050984344, 3.0234761329225988], 0.5, 0.5, 0.04, 0.05, 300)

2025-07-07 17:24:49,164 - gym_custom_envs_real_ur_drivers_URBasic_realTimeClientEvent - INFO - Program send to Robot:
servoj([-0.08897088569736722, -1.6597673658904961, -1.5554565189160403, -1.5079031144915853, 1.6843109050984344, 3.0234761329225988], 0.5, 0.5, 0.04, 0.05, 300)

2025-07-07 17:24:49,172 - gym_custom_envs_real_ur_drivers_URBasic_realTimeClientEvent - INFO - Program send to Robot:
servoj([-0.08897088569736722, -1.6597672140262463, -1.5554565189160403, -1.5079031144915853, 1.6843109050984344, 3.0234761329225988], 0.5, 0.5, 0.04, 0.05, 300)

2025-07-07 17:24:49,188 - gym_custom_envs_real_ur_drivers_URBasic_realTimeClientEvent - INFO - Program send to Robot:
servoj([-0.08897088569736722, -1.65672993054759, -1.5554565189160403, -1.5079031144915853, 1.6858295460784405, 3.0234761329225988], 0.5, 0.5, 0.04, 0.05, 300)

2025-07-07 17:24:49,197 - gym_custom_envs_real_ur_drivers_URBasic_realTimeClientEvent - INFO - Program send to Robot:
servoj([-0.08897088569736722, -1.6566995577128034, -1.5554565189160403, -1.5079031144915853, 1.6858447324882404, 3.0234761329225988], 0.5, 0.5, 0.04, 0.05, 300)

2025-07-07 17:24:49,204 - gym_custom_envs_real_ur_drivers_URBasic_realTimeClientEvent - INFO - Program send to Robot:
servoj([-0.08897088569736722, -1.6566992539844556, -1.5554565189160403, -1.5079031144915853, 1.6858448843523386, 3.0234761329225988], 0.5, 0.5, 0.04, 0.05, 300)

2025-07-07 17:24:49,212 - gym_custom_envs_real_ur_drivers_URBasic_realTimeClientEvent - INFO - Program send to Robot:
servoj([-0.08897088569736722, -1.656699250947172, -1.5554565189160403, -1.5079031144915853, 1.6858448858709796, 3.0234761329225988], 0.5, 0.5, 0.04, 0.05, 300)

2025-07-07 17:24:49,229 - gym_custom_envs_real_ur_drivers_URBasic_realTimeClientEvent - INFO - Program send to Robot:
servoj([-0.08897088569736722, -1.6566992509167993, -1.5554565189160403, -1.5079031144915853, 1.6858448858861659, 3.0234761329225988], 0.5, 0.5, 0.04, 0.05, 300)

2025-07-07 17:24:49,236 - gym_custom_envs_real_ur_drivers_URBasic_realTimeClientEvent - INFO - Program send to Robot:
servoj([-0.08897088569736722, -1.6566992509164955, -1.5554565189160403, -1.5079031144915853, 1.6858448858863178, 3.0234761329225988], 0.5, 0.5, 0.04, 0.05, 300)

2025-07-07 17:24:49,244 - gym_custom_envs_real_ur_drivers_URBasic_realTimeClientEvent - INFO - Program send to Robot:
servoj([-0.08897088569736722, -1.6566992509164924, -1.5554565189160403, -1.5079031144915853, 1.6858448858863193, 3.0234761329225988], 0.5, 0.5, 0.04, 0.05, 300)

2025-07-07 17:24:49,252 - gym_custom_envs_real_ur_drivers_URBasic_realTimeClientEvent - INFO - Program send to Robot:
servoj([-0.08897088569736722, -1.6551806099364856, -1.5554565189160403, -1.5079031144915853, 1.6858448858863193, 3.0234761329225988], 0.5, 0.5, 0.04, 0.05, 300)

2025-07-07 17:24:49,268 - gym_custom_envs_real_ur_drivers_URBasic_realTimeClientEvent - INFO - Program send to Robot:
servoj([-0.08897088569736722, -1.6551654235266855, -1.5554565189160403, -1.5079031144915853, 1.6858448858863193, 3.0234761329225988], 0.5, 0.5, 0.04, 0.05, 300)

2025-07-07 17:24:49,276 - gym_custom_envs_real_ur_drivers_URBasic_realTimeClientEvent - INFO - Program send to Robot:
servoj([-0.08897088569736722, -1.6551652716625875, -1.5554565189160403, -1.5079031144915853, 1.6858448858863193, 3.0234761329225988], 0.5, 0.5, 0.04, 0.05, 300)

2025-07-07 17:24:49,284 - gym_custom_envs_real_ur_drivers_URBasic_realTimeClientEvent - INFO - Program send to Robot:
servoj([-0.08897088569736722, -1.6551652701439465, -1.5554565189160403, -1.5079031144915853, 1.6858448858863193, 3.0234761329225988], 0.5, 0.5, 0.04, 0.05, 300)

2025-07-07 17:24:49,299 - gym_custom_envs_real_ur_drivers_URBasic_realTimeClientEvent - INFO - Program send to Robot:
servoj([-0.08897088569736722, -1.6551652701287602, -1.5554565189160403, -1.5079031144915853, 1.6858448858863193, 3.0234761329225988], 0.5, 0.5, 0.04, 0.05, 300)

2025-07-07 17:24:49,308 - gym_custom_envs_real_ur_drivers_URBasic_realTimeClientEvent - INFO - Program send to Robot:
servoj([-0.08897088569736722, -1.6551652701286084, -1.5554565189160403, -1.5079031144915853, 1.6858448858863193, 3.0234761329225988], 0.5, 0.5, 0.04, 0.05, 300)

2025-07-07 17:24:49,316 - gym_custom_envs_real_ur_drivers_URBasic_realTimeClientEvent - INFO - Program send to Robot:
servoj([-0.08897088569736722, -1.6551652701286068, -1.5554565189160403, -1.5079031144915853, 1.6858448858863193, 3.0234761329225988], 0.5, 0.5, 0.04, 0.05, 300)

2025-07-07 17:24:49,324 - gym_custom_envs_real_ur_drivers_URBasic_realTimeClientEvent - INFO - Program send to Robot:
servoj([-0.08897088569736722, -1.6551652701286068, -1.5554565189160403, -1.5079031144915853, 1.6858448858863193, 3.0234761329225988], 0.5, 0.5, 0.04, 0.05, 300)

2025-07-07 17:24:49,340 - gym_custom_envs_real_ur_drivers_URBasic_realTimeClientEvent - INFO - Program send to Robot:
servoj([-0.08897088569736722, -1.6551652701286068, -1.5554565189160403, -1.5079031144915853, 1.6858448858863193, 3.0234761329225988], 0.5, 0.5, 0.04, 0.05, 300)

2025-07-07 17:24:49,348 - gym_custom_envs_real_ur_drivers_URBasic_realTimeClientEvent - INFO - Program send to Robot:
servoj([-0.08897088569736722, -1.6536466291486, -1.5554565189160403, -1.5079031144915853, 1.6858448858863193, 3.0234761329225988], 0.5, 0.5, 0.04, 0.05, 300)

2025-07-07 17:24:49,356 - gym_custom_envs_real_ur_drivers_URBasic_realTimeClientEvent - INFO - Program send to Robot:
servoj([-0.08897088569736722, -1.6536314427388, -1.5554565189160403, -1.5079031144915853, 1.6858448858863193, 3.0234761329225988], 0.5, 0.5, 0.04, 0.05, 300)

2025-07-07 17:24:49,372 - gym_custom_envs_real_ur_drivers_URBasic_realTimeClientEvent - INFO - Program send to Robot:
servoj([-0.08897088569736722, -1.653631290874702, -1.5554565189160403, -1.5079031144915853, 1.6858448858863193, 3.0234761329225988], 0.5, 0.5, 0.04, 0.05, 300)

2025-07-07 17:24:49,380 - gym_custom_envs_real_ur_drivers_URBasic_realTimeClientEvent - INFO - Program send to Robot:
servoj([-0.08897088569736722, -1.653631289356061, -1.5554565189160403, -1.5079031144915853, 1.6858448858863193, 3.0234761329225988], 0.5, 0.5, 0.04, 0.05, 300)

2025-07-07 17:24:49,388 - gym_custom_envs_real_ur_drivers_URBasic_realTimeClientEvent - INFO - Program send to Robot:
servoj([-0.08897088569736722, -1.6536312893408747, -1.5554565189160403, -1.5079031144915853, 1.6858448858863193, 3.0234761329225988], 0.5, 0.5, 0.04, 0.05, 300)

2025-07-07 17:24:49,404 - gym_custom_envs_real_ur_drivers_URBasic_realTimeClientEvent - INFO - Program send to Robot:
servoj([-0.08897088569736722, -1.6536312893407228, -1.5554565189160403, -1.5079031144915853, 1.6858448858863193, 3.0234761329225988], 0.5, 0.5, 0.04, 0.05, 300)

2025-07-07 17:24:49,412 - gym_custom_envs_real_ur_drivers_URBasic_realTimeClientEvent - INFO - Program send to Robot:
servoj([-0.08897088569736722, -1.6536312893407212, -1.5554565189160403, -1.5079031144915853, 1.6843262449063132, 3.0234761329225988], 0.5, 0.5, 0.04, 0.05, 300)

2025-07-07 17:24:49,420 - gym_custom_envs_real_ur_drivers_URBasic_realTimeClientEvent - INFO - Program send to Robot:
servoj([-0.08897088569736722, -1.6536312893407212, -1.5554565189160403, -1.5079031144915853, 1.684311058496513, 3.0234761329225988], 0.5, 0.5, 0.04, 0.05, 300)

2025-07-07 17:24:49,428 - gym_custom_envs_real_ur_drivers_URBasic_realTimeClientEvent - INFO - Program send to Robot:
servoj([-0.08897088569736722, -1.6536312893407212, -1.5554565189160403, -1.5079031144915853, 1.6843109066324151, 3.0234761329225988], 0.5, 0.5, 0.04, 0.05, 300)

2025-07-07 17:24:49,444 - gym_custom_envs_real_ur_drivers_URBasic_realTimeClientEvent - INFO - Program send to Robot:
servoj([-0.08897088569736722, -1.6536312893407212, -1.5539378779360333, -1.5079031144915853, 1.6843109051137741, 3.0234761329225988], 0.5, 0.5, 0.04, 0.05, 300)

2025-07-07 17:24:49,452 - gym_custom_envs_real_ur_drivers_URBasic_realTimeClientEvent - INFO - Program send to Robot:
servoj([-0.08897088569736722, -1.6536312893407212, -1.5539226915262332, -1.5079031144915853, 1.6843109050985878, 3.0234761329225988], 0.5, 0.5, 0.04, 0.05, 300)

2025-07-07 17:24:49,460 - gym_custom_envs_real_ur_drivers_URBasic_realTimeClientEvent - INFO - Program send to Robot:
servoj([-0.08897088569736722, -1.6536312893407212, -1.5539225396621352, -1.5079031144915853, 1.684310905098436, 3.0234761329225988], 0.5, 0.5, 0.04, 0.05, 300)

2025-07-07 17:24:49,468 - gym_custom_envs_real_ur_drivers_URBasic_realTimeClientEvent - INFO - Program send to Robot:
servoj([-0.08897088569736722, -1.6536312893407212, -1.5539225381434942, -1.5079031144915853, 1.6843109050984344, 3.0234761329225988], 0.5, 0.5, 0.04, 0.05, 300)

2025-07-07 17:24:49,484 - gym_custom_envs_real_ur_drivers_URBasic_realTimeClientEvent - INFO - Program send to Robot:
servoj([-0.08897088569736722, -1.6536312893407212, -1.553922538128308, -1.5079031144915853, 1.6843109050984344, 3.0234761329225988], 0.5, 0.5, 0.04, 0.05, 300)

2025-07-07 17:24:49,492 - gym_custom_envs_real_ur_drivers_URBasic_realTimeClientEvent - INFO - Program send to Robot:
servoj([-0.08897088569736722, -1.6536312893407212, -1.553922538128156, -1.5079031144915853, 1.6843109050984344, 3.0234761329225988], 0.5, 0.5, 0.04, 0.05, 300)

2025-07-07 17:24:49,501 - gym_custom_envs_real_ur_drivers_URBasic_realTimeClientEvent - INFO - Program send to Robot:
servoj([-0.08897088569736722, -1.6536312893407212, -1.5539225381281545, -1.5079031144915853, 1.6843109050984344, 3.0234761329225988], 0.5, 0.5, 0.04, 0.05, 300)

2025-07-07 17:24:49,516 - gym_custom_envs_real_ur_drivers_URBasic_realTimeClientEvent - INFO - Program send to Robot:
servoj([-0.08897088569736722, -1.6536312893407212, -1.5539225381281545, -1.5079031144915853, 1.6843109050984344, 3.0234761329225988], 0.5, 0.5, 0.04, 0.05, 300)

2025-07-07 17:24:49,524 - gym_custom_envs_real_ur_drivers_URBasic_realTimeClientEvent - INFO - Program send to Robot:
servoj([-0.08897088569736722, -1.6536312893407212, -1.5539225381281545, -1.5079031144915853, 1.6843109050984344, 3.0234761329225988], 0.5, 0.5, 0.04, 0.05, 300)

2025-07-07 17:24:49,532 - gym_custom_envs_real_ur_drivers_URBasic_realTimeClientEvent - INFO - Program send to Robot:
servoj([-0.08897088569736722, -1.6536312893407212, -1.5539225381281545, -1.5079031144915853, 1.6843109050984344, 3.0234761329225988], 0.5, 0.5, 0.04, 0.05, 300)

2025-07-07 17:24:49,548 - gym_custom_envs_real_ur_drivers_URBasic_realTimeClientEvent - INFO - Program send to Robot:
servoj([-0.08897088569736722, -1.6536312893407212, -1.5539225381281545, -1.5079031144915853, 1.6843109050984344, 3.0234761329225988], 0.5, 0.5, 0.04, 0.05, 300)

2025-07-07 17:24:49,555 - gym_custom_envs_real_ur_drivers_URBasic_realTimeClientEvent - INFO - Program send to Robot:
servoj([-0.08897088569736722, -1.6536312893407212, -1.5539225381281545, -1.5079031144915853, 1.6843109050984344, 3.0234761329225988], 0.5, 0.5, 0.04, 0.05, 300)

2025-07-07 17:24:49,564 - gym_custom_envs_real_ur_drivers_URBasic_realTimeClientEvent - INFO - Program send to Robot:
servoj([-0.08897088569736722, -1.6536312893407212, -1.5539225381281545, -1.5079031144915853, 1.6843109050984344, 3.0234761329225988], 0.5, 0.5, 0.04, 0.05, 300)

2025-07-07 17:24:49,572 - gym_custom_envs_real_ur_drivers_URBasic_realTimeClientEvent - INFO - Program send to Robot:
servoj([-0.08897088569736722, -1.6536312893407212, -1.5539225381281545, -1.5079031144915853, 1.6843109050984344, 3.0234761329225988], 0.5, 0.5, 0.04, 0.05, 300)

2025-07-07 17:24:49,588 - gym_custom_envs_real_ur_drivers_URBasic_realTimeClientEvent - INFO - Program send to Robot:
servoj([-0.08897088569736722, -1.6536312893407212, -1.5539225381281545, -1.5079031144915853, 1.6843109050984344, 3.0234761329225988], 0.5, 0.5, 0.04, 0.05, 300)

2025-07-07 17:24:49,596 - gym_custom_envs_real_ur_drivers_URBasic_realTimeClientEvent - INFO - Program send to Robot:
servoj([-0.08897088569736722, -1.6536312893407212, -1.5539225381281545, -1.5079031144915853, 1.6843109050984344, 3.0234761329225988], 0.5, 0.5, 0.04, 0.05, 300)

2025-07-07 17:24:49,604 - gym_custom_envs_real_ur_drivers_URBasic_realTimeClientEvent - INFO - Program send to Robot:
servoj([-0.08897088569736722, -1.6536312893407212, -1.5539225381281545, -1.5079031144915853, 1.6843109050984344, 3.0234761329225988], 0.5, 0.5, 0.04, 0.05, 300)

2025-07-07 17:24:49,620 - gym_custom_envs_real_ur_drivers_URBasic_realTimeClientEvent - INFO - Program send to Robot:
servoj([-0.08897088569736722, -1.6536312893407212, -1.5539225381281545, -1.5079031144915853, 1.6843109050984344, 3.0234761329225988], 0.5, 0.5, 0.04, 0.05, 300)

2025-07-07 17:24:49,629 - gym_custom_envs_real_ur_drivers_URBasic_realTimeClientEvent - INFO - Program send to Robot:
servoj([-0.08897088569736722, -1.6536312893407212, -1.5539225381281545, -1.5079031144915853, 1.6843109050984344, 3.0234761329225988], 0.5, 0.5, 0.04, 0.05, 300)

2025-07-07 17:24:49,636 - gym_custom_envs_real_ur_drivers_URBasic_realTimeClientEvent - INFO - Program send to Robot:
servoj([-0.08897088569736722, -1.6536312893407212, -1.5539225381281545, -1.5079031144915853, 1.6858295460784405, 3.0234761329225988], 0.5, 0.5, 0.04, 0.05, 300)

2025-07-07 17:24:49,652 - gym_custom_envs_real_ur_drivers_URBasic_realTimeClientEvent - INFO - Program send to Robot:
servoj([-0.08897088569736722, -1.6536312893407212, -1.5539225381281545, -1.5079031144915853, 1.6858447324882404, 3.0234761329225988], 0.5, 0.5, 0.04, 0.05, 300)

2025-07-07 17:24:49,660 - gym_custom_envs_real_ur_drivers_URBasic_realTimeClientEvent - INFO - Program send to Robot:
servoj([-0.08897088569736722, -1.6536312893407212, -1.5539225381281545, -1.5079031144915853, 1.6858448843523386, 3.0234761329225988], 0.5, 0.5, 0.04, 0.05, 300)

2025-07-07 17:24:49,676 - gym_custom_envs_real_ur_drivers_URBasic_realTimeClientEvent - INFO - Program send to Robot:
servoj([-0.08897088569736722, -1.6536312893407212, -1.5539225381281545, -1.5079031144915853, 1.6843262448909735, 3.0234761329225988], 0.5, 0.5, 0.04, 0.05, 300)

2025-07-07 17:24:49,684 - gym_custom_envs_real_ur_drivers_URBasic_realTimeClientEvent - INFO - Program send to Robot:
servoj([-0.08897088569736722, -1.6536312893407212, -1.5539225381281545, -1.5079031144915853, 1.6843110584963596, 3.0234761329225988], 0.5, 0.5, 0.04, 0.05, 300)

2025-07-07 17:24:49,699 - gym_custom_envs_real_ur_drivers_URBasic_realTimeClientEvent - INFO - Program send to Robot:
servoj([-0.08897088569736722, -1.6536312893407212, -1.5539225381281545, -1.5079031144915853, 1.6843109066324136, 3.0234761329225988], 0.5, 0.5, 0.04, 0.05, 300)

2025-07-07 17:24:49,708 - gym_custom_envs_real_ur_drivers_URBasic_realTimeClientEvent - INFO - Program send to Robot:
servoj([-0.08897088569736722, -1.6536312893407212, -1.5539225381281545, -1.5079031144915853, 1.6843109051137741, 3.0234761329225988], 0.5, 0.5, 0.04, 0.05, 300)

2025-07-07 17:24:49,723 - gym_custom_envs_real_ur_drivers_URBasic_realTimeClientEvent - INFO - Program send to Robot:
servoj([-0.08897088569736722, -1.6536312893407212, -1.5539225381281545, -1.5079031144915853, 1.6843109050985878, 3.0234761329225988], 0.5, 0.5, 0.04, 0.05, 300)

2025-07-07 17:24:49,732 - gym_custom_envs_real_ur_drivers_URBasic_realTimeClientEvent - INFO - Program send to Robot:
servoj([-0.08897088569736722, -1.6536312893407212, -1.5539225381281545, -1.5079031144915853, 1.685829546078442, 3.0234761329225988], 0.5, 0.5, 0.04, 0.05, 300)

2025-07-07 17:24:49,749 - gym_custom_envs_real_ur_drivers_URBasic_realTimeClientEvent - INFO - Program send to Robot:
servoj([-0.08897088569736722, -1.6536312893407212, -1.5539225381281545, -1.5079031144915853, 1.6858447324882406, 3.0234761329225988], 0.5, 0.5, 0.04, 0.05, 300)

2025-07-07 17:24:49,756 - gym_custom_envs_real_ur_drivers_URBasic_realTimeClientEvent - INFO - Program send to Robot:
servoj([-0.08897088569736722, -1.6536312893407212, -1.5539225381281545, -1.5079031144915853, 1.6858448843523386, 3.0234761329225988], 0.5, 0.5, 0.04, 0.05, 300)

2025-07-07 17:24:49,772 - gym_custom_envs_real_ur_drivers_URBasic_realTimeClientEvent - INFO - Program send to Robot:
servoj([-0.08897088569736722, -1.6536312893407212, -1.5539225381281545, -1.5079031144915853, 1.6843262448909735, 3.0234761329225988], 0.5, 0.5, 0.04, 0.05, 300)

2025-07-07 17:24:49,780 - gym_custom_envs_real_ur_drivers_URBasic_realTimeClientEvent - INFO - Program send to Robot:
servoj([-0.08897088569736722, -1.6536312893407212, -1.5539225381281545, -1.5079031144915853, 1.6843110584963596, 3.0234761329225988], 0.5, 0.5, 0.04, 0.05, 300)

2025-07-07 17:24:49,796 - gym_custom_envs_real_ur_drivers_URBasic_realTimeClientEvent - INFO - Program send to Robot:
servoj([-0.08897088569736722, -1.6536312893407212, -1.5539225381281545, -1.5079031144915853, 1.6843109066324136, 3.0234761329225988], 0.5, 0.5, 0.04, 0.05, 300)

2025-07-07 17:24:49,804 - gym_custom_envs_real_ur_drivers_URBasic_realTimeClientEvent - INFO - Program send to Robot:
servoj([-0.08897088569736722, -1.6536312893407212, -1.5539225381281545, -1.5079031144915853, 1.6843109051137741, 3.0234761329225988], 0.5, 0.5, 0.04, 0.05, 300)

2025-07-07 17:24:49,820 - gym_custom_envs_real_ur_drivers_URBasic_realTimeClientEvent - INFO - Program send to Robot:
servoj([-0.08897088569736722, -1.6536312893407212, -1.5539225381281545, -1.5079031144915853, 1.6843109050985878, 3.0234761329225988], 0.5, 0.5, 0.04, 0.05, 300)

2025-07-07 17:24:49,828 - gym_custom_envs_real_ur_drivers_URBasic_realTimeClientEvent - INFO - Program send to Robot:
servoj([-0.08897088569736722, -1.6536312893407212, -1.5539225381281545, -1.5079031144915853, 1.684310905098436, 3.0234761329225988], 0.5, 0.5, 0.04, 0.05, 300)

2025-07-07 17:24:49,836 - gym_custom_envs_real_ur_drivers_URBasic_realTimeClientEvent - INFO - Program send to Robot:
servoj([-0.08897088569736722, -1.6536312893407212, -1.5539225381281545, -1.5079031144915853, 1.6843109050984344, 3.0234761329225988], 0.5, 0.5, 0.04, 0.05, 300)

2025-07-07 17:24:49,852 - gym_custom_envs_real_ur_drivers_URBasic_realTimeClientEvent - INFO - Program send to Robot:
servoj([-0.08897088569736722, -1.6536312893407212, -1.5539225381281545, -1.5079031144915853, 1.6843109050984344, 3.0234761329225988], 0.5, 0.5, 0.04, 0.05, 300)

2025-07-07 17:24:49,860 - gym_custom_envs_real_ur_drivers_URBasic_realTimeClientEvent - INFO - Program send to Robot:
servoj([-0.08897088569736722, -1.6536312893407212, -1.5539225381281545, -1.5079031144915853, 1.6843109050984344, 3.0234761329225988], 0.5, 0.5, 0.04, 0.05, 300)

2025-07-07 17:24:49,868 - gym_custom_envs_real_ur_drivers_URBasic_realTimeClientEvent - INFO - Program send to Robot:
servoj([-0.08897088569736722, -1.6536312893407212, -1.5539225381281545, -1.5079031144915853, 1.6843109050984344, 3.0234761329225988], 0.5, 0.5, 0.04, 0.05, 300)

2025-07-07 17:24:49,884 - gym_custom_envs_real_ur_drivers_URBasic_realTimeClientEvent - INFO - Program send to Robot:
servoj([-0.08897088569736722, -1.6536312893407212, -1.5539225381281545, -1.5079031144915853, 1.6843109050984344, 3.0234761329225988], 0.5, 0.5, 0.04, 0.05, 300)

2025-07-07 17:24:49,892 - gym_custom_envs_real_ur_drivers_URBasic_realTimeClientEvent - INFO - Program send to Robot:
servoj([-0.08897088569736722, -1.6536312893407212, -1.5539225381281545, -1.5079031144915853, 1.6843109050984344, 3.0234761329225988], 0.5, 0.5, 0.04, 0.05, 300)

2025-07-07 17:24:49,900 - gym_custom_envs_real_ur_drivers_URBasic_realTimeClientEvent - INFO - Program send to Robot:
servoj([-0.08897088569736722, -1.6536312893407212, -1.5539225381281545, -1.5079031144915853, 1.6843109050984344, 3.0234761329225988], 0.5, 0.5, 0.04, 0.05, 300)

2025-07-07 17:24:49,916 - gym_custom_envs_real_ur_drivers_URBasic_realTimeClientEvent - INFO - Program send to Robot:
servoj([-0.08897088569736722, -1.6536312893407212, -1.5539225381281545, -1.5079031144915853, 1.6843109050984344, 3.0234761329225988], 0.5, 0.5, 0.04, 0.05, 300)

2025-07-07 17:24:49,924 - gym_custom_envs_real_ur_drivers_URBasic_realTimeClientEvent - INFO - Program send to Robot:
servoj([-0.08897088569736722, -1.6536312893407212, -1.5539225381281545, -1.5079031144915853, 1.6843109050984344, 3.0234761329225988], 0.5, 0.5, 0.04, 0.05, 300)

2025-07-07 17:24:49,932 - gym_custom_envs_real_ur_drivers_URBasic_realTimeClientEvent - INFO - Program send to Robot:
servoj([-0.08897088569736722, -1.6536312893407212, -1.5539225381281545, -1.5079031144915853, 1.6843109050984344, 3.0234761329225988], 0.5, 0.5, 0.04, 0.05, 300)

2025-07-07 17:24:49,947 - gym_custom_envs_real_ur_drivers_URBasic_realTimeClientEvent - INFO - Program send to Robot:
servoj([-0.08897088569736722, -1.6536312893407212, -1.5539225381281545, -1.5079031144915853, 1.6843109050984344, 3.0234761329225988], 0.5, 0.5, 0.04, 0.05, 300)

2025-07-07 17:24:49,956 - gym_custom_envs_real_ur_drivers_URBasic_realTimeClientEvent - INFO - Program send to Robot:
servoj([-0.08897088569736722, -1.6536312893407212, -1.5554411791081615, -1.5079031144915853, 1.6843109050984344, 3.0234761329225988], 0.5, 0.5, 0.04, 0.05, 300)

2025-07-07 17:24:49,964 - gym_custom_envs_real_ur_drivers_URBasic_realTimeClientEvent - INFO - Program send to Robot:
servoj([-0.08897088569736722, -1.6536312893407212, -1.5554563655179614, -1.5079031144915853, 1.6843109050984344, 3.0234761329225988], 0.5, 0.5, 0.04, 0.05, 300)

2025-07-07 17:24:49,979 - gym_custom_envs_real_ur_drivers_URBasic_realTimeClientEvent - INFO - Program send to Robot:
servoj([-0.08897088569736722, -1.6536312893407212, -1.5554565173820596, -1.5079031144915853, 1.6843109050984344, 3.0234761329225988], 0.5, 0.5, 0.04, 0.05, 300)

2025-07-07 17:24:49,987 - gym_custom_envs_real_ur_drivers_URBasic_realTimeClientEvent - INFO - Program send to Robot:
servoj([-0.08897088569736722, -1.6536312893407212, -1.5554565189007006, -1.5079031144915853, 1.6843109050984344, 3.0234761329225988], 0.5, 0.5, 0.04, 0.05, 300)

2025-07-07 17:24:49,996 - gym_custom_envs_real_ur_drivers_URBasic_realTimeClientEvent - INFO - Program send to Robot:
servoj([-0.08897088569736722, -1.6536312893407212, -1.5554565189158869, -1.5079031144915853, 1.6843109050984344, 3.0234761329225988], 0.5, 0.5, 0.04, 0.05, 300)

2025-07-07 17:24:50,004 - gym_custom_envs_real_ur_drivers_URBasic_realTimeClientEvent - INFO - Program send to Robot:
servoj([-0.08897088569736722, -1.6536312893407212, -1.5554565189160388, -1.5079031144915853, 1.6843109050984344, 3.0234761329225988], 0.5, 0.5, 0.04, 0.05, 300)

2025-07-07 17:24:50,020 - gym_custom_envs_real_ur_drivers_URBasic_realTimeClientEvent - INFO - Program send to Robot:
servoj([-0.08897088569736722, -1.6536312893407212, -1.5554565189160403, -1.5079031144915853, 1.6843109050984344, 3.0234761329225988], 0.5, 0.5, 0.04, 0.05, 300)

2025-07-07 17:24:50,027 - gym_custom_envs_real_ur_drivers_URBasic_realTimeClientEvent - INFO - Program send to Robot:
servoj([-0.08897088569736722, -1.6536312893407212, -1.5554565189160403, -1.5079031144915853, 1.6843109050984344, 3.0234761329225988], 0.5, 0.5, 0.04, 0.05, 300)

2025-07-07 17:24:50,035 - gym_custom_envs_real_ur_drivers_URBasic_realTimeClientEvent - INFO - Program send to Robot:
servoj([-0.08897088569736722, -1.6536312893407212, -1.5554565189160403, -1.5079031144915853, 1.6843109050984344, 3.0234761329225988], 0.5, 0.5, 0.04, 0.05, 300)

2025-07-07 17:24:50,043 - gym_custom_envs_real_ur_drivers_URBasic_realTimeClientEvent - INFO - Program send to Robot:
servoj([-0.08897088569736722, -1.6536312893407212, -1.5554565189160403, -1.5079031144915853, 1.6843109050984344, 3.0234761329225988], 0.5, 0.5, 0.04, 0.05, 300)

2025-07-07 17:24:50,060 - gym_custom_envs_real_ur_drivers_URBasic_realTimeClientEvent - INFO - Program send to Robot:
servoj([-0.08897088569736722, -1.6536312893407212, -1.5539378779360333, -1.5079031144915853, 1.6843109050984344, 3.0234761329225988], 0.5, 0.5, 0.04, 0.05, 300)

2025-07-07 17:24:50,068 - gym_custom_envs_real_ur_drivers_URBasic_realTimeClientEvent - INFO - Program send to Robot:
servoj([-0.08897088569736722, -1.6536312893407212, -1.5539226915262332, -1.5079031144915853, 1.6843109050984344, 3.0234761329225988], 0.5, 0.5, 0.04, 0.05, 300)

2025-07-07 17:24:50,076 - gym_custom_envs_real_ur_drivers_URBasic_realTimeClientEvent - INFO - Program send to Robot:
servoj([-0.08897088569736722, -1.6536312893407212, -1.5539225396621352, -1.5079031144915853, 1.6843109050984344, 3.0234761329225988], 0.5, 0.5, 0.04, 0.05, 300)

2025-07-07 17:24:50,091 - gym_custom_envs_real_ur_drivers_URBasic_realTimeClientEvent - INFO - Program send to Robot:
servoj([-0.08897088569736722, -1.6536312893407212, -1.5539225381434942, -1.5079031144915853, 1.6843109050984344, 3.0234761329225988], 0.5, 0.5, 0.04, 0.05, 300)

2025-07-07 17:24:50,100 - gym_custom_envs_real_ur_drivers_URBasic_realTimeClientEvent - INFO - Program send to Robot:
servoj([-0.08897088569736722, -1.6536312893407212, -1.553922538128308, -1.5079031144915853, 1.6843109050984344, 3.0234761329225988], 0.5, 0.5, 0.04, 0.05, 300)

2025-07-07 17:24:50,108 - gym_custom_envs_real_ur_drivers_URBasic_realTimeClientEvent - INFO - Program send to Robot:
servoj([-0.08897088569736722, -1.6536312893407212, -1.553922538128156, -1.5079031144915853, 1.6843109050984344, 3.0234761329225988], 0.5, 0.5, 0.04, 0.05, 300)

2025-07-07 17:24:50,116 - gym_custom_envs_real_ur_drivers_URBasic_realTimeClientEvent - INFO - Program send to Robot:
servoj([-0.08897088569736722, -1.6536312893407212, -1.5554411791081615, -1.5079031144915853, 1.6843109050984344, 3.0234761329225988], 0.5, 0.5, 0.04, 0.05, 300)

2025-07-07 17:24:50,132 - gym_custom_envs_real_ur_drivers_URBasic_realTimeClientEvent - INFO - Program send to Robot:
servoj([-0.08897088569736722, -1.6536312893407212, -1.5554563655179614, -1.5079031144915853, 1.6843109050984344, 3.0234761329225988], 0.5, 0.5, 0.04, 0.05, 300)

2025-07-07 17:24:50,140 - gym_custom_envs_real_ur_drivers_URBasic_realTimeClientEvent - INFO - Program send to Robot:
servoj([-0.08897088569736722, -1.6536312893407212, -1.5554565173820596, -1.5079031144915853, 1.6843109050984344, 3.0234761329225988], 0.5, 0.5, 0.04, 0.05, 300)

2025-07-07 17:24:50,156 - gym_custom_envs_real_ur_drivers_URBasic_realTimeClientEvent - INFO - Program send to Robot:
servoj([-0.08897088569736722, -1.6536312893407212, -1.5539378779206936, -1.5079031144915853, 1.6843109050984344, 3.0234761329225988], 0.5, 0.5, 0.04, 0.05, 300)

2025-07-07 17:24:50,164 - gym_custom_envs_real_ur_drivers_URBasic_realTimeClientEvent - INFO - Program send to Robot:
servoj([-0.08897088569736722, -1.6536312893407212, -1.5539226915260798, -1.5079031144915853, 1.6843109050984344, 3.0234761329225988], 0.5, 0.5, 0.04, 0.05, 300)

2025-07-07 17:24:50,172 - gym_custom_envs_real_ur_drivers_URBasic_realTimeClientEvent - INFO - Program send to Robot:
servoj([-0.08897088569736722, -1.6536312893407212, -1.5539225396621337, -1.5079031144915853, 1.6843109050984344, 3.0234761329225988], 0.5, 0.5, 0.04, 0.05, 300)

2025-07-07 17:24:50,189 - gym_custom_envs_real_ur_drivers_URBasic_realTimeClientEvent - INFO - Program send to Robot:
servoj([-0.08897088569736722, -1.6536312893407212, -1.5539225381434942, -1.5079031144915853, 1.6843109050984344, 3.0234761329225988], 0.5, 0.5, 0.04, 0.05, 300)

2025-07-07 17:24:50,196 - gym_custom_envs_real_ur_drivers_URBasic_realTimeClientEvent - INFO - Program send to Robot:
servoj([-0.08897088569736722, -1.6536312893407212, -1.553922538128308, -1.5079031144915853, 1.6843109050984344, 3.0234761329225988], 0.5, 0.5, 0.04, 0.05, 300)

2025-07-07 17:24:50,212 - gym_custom_envs_real_ur_drivers_URBasic_realTimeClientEvent - INFO - Program send to Robot:
servoj([-0.08897088569736722, -1.6536312893407212, -1.553922538128156, -1.5079031144915853, 1.6843109050984344, 3.0234761329225988], 0.5, 0.5, 0.04, 0.05, 300)

2025-07-07 17:24:50,220 - gym_custom_envs_real_ur_drivers_URBasic_realTimeClientEvent - INFO - Program send to Robot:
servoj([-0.08897088569736722, -1.6536312893407212, -1.5539225381281545, -1.5079031144915853, 1.6843109050984344, 3.0234761329225988], 0.5, 0.5, 0.04, 0.05, 300)

2025-07-07 17:24:50,228 - gym_custom_envs_real_ur_drivers_URBasic_realTimeClientEvent - INFO - Program send to Robot:
servoj([-0.08897088569736722, -1.6536312893407212, -1.5539225381281545, -1.5079031144915853, 1.6843109050984344, 3.0234761329225988], 0.5, 0.5, 0.04, 0.05, 300)

2025-07-07 17:24:50,236 - gym_custom_envs_real_ur_drivers_URBasic_realTimeClientEvent - INFO - Program send to Robot:
servoj([-0.08897088569736722, -1.6536312893407212, -1.5539225381281545, -1.5079031144915853, 1.6843109050984344, 3.0234761329225988], 0.5, 0.5, 0.04, 0.05, 300)

2025-07-07 17:24:50,251 - gym_custom_envs_real_ur_drivers_URBasic_realTimeClientEvent - INFO - Program send to Robot:
servoj([-0.08897088569736722, -1.6536312893407212, -1.5554411791081615, -1.5079031144915853, 1.6843109050984344, 3.0234761329225988], 0.5, 0.5, 0.04, 0.05, 300)

2025-07-07 17:24:50,260 - gym_custom_envs_real_ur_drivers_URBasic_realTimeClientEvent - INFO - Program send to Robot:
servoj([-0.08897088569736722, -1.6536312893407212, -1.5554563655179614, -1.5079031144915853, 1.6843109050984344, 3.0234761329225988], 0.5, 0.5, 0.04, 0.05, 300)

2025-07-07 17:24:50,275 - gym_custom_envs_real_ur_drivers_URBasic_realTimeClientEvent - INFO - Program send to Robot:
servoj([-0.08897088569736722, -1.6521126483607143, -1.5539378764020526, -1.5079031144915853, 1.6843109050984344, 3.0234761329225988], 0.5, 0.5, 0.04, 0.05, 300)

2025-07-07 17:24:50,284 - gym_custom_envs_real_ur_drivers_URBasic_realTimeClientEvent - INFO - Program send to Robot:
servoj([-0.08897088569736722, -1.6520974619509141, -1.5539226915108935, -1.5079031144915853, 1.6843109050984344, 3.0234761329225988], 0.5, 0.5, 0.04, 0.05, 300)

2025-07-07 17:24:50,299 - gym_custom_envs_real_ur_drivers_URBasic_realTimeClientEvent - INFO - Program send to Robot:
servoj([-0.08897088569736722, -1.6520973100868162, -1.5539225396619818, -1.5079031144915853, 1.6843109050984344, 3.0234761329225988], 0.5, 0.5, 0.04, 0.05, 300)

2025-07-07 17:24:50,308 - gym_custom_envs_real_ur_drivers_URBasic_realTimeClientEvent - INFO - Program send to Robot:
servoj([-0.08897088569736722, -1.6520973085681752, -1.5539225381434927, -1.5079031144915853, 1.6843109050984344, 3.0234761329225988], 0.5, 0.5, 0.04, 0.05, 300)

2025-07-07 17:24:50,324 - gym_custom_envs_real_ur_drivers_URBasic_realTimeClientEvent - INFO - Program send to Robot:
servoj([-0.08897088569736722, -1.6520973085529886, -1.553922538128308, -1.5079031144915853, 1.6843109050984344, 3.0234761329225988], 0.5, 0.5, 0.04, 0.05, 300)

2025-07-07 17:24:50,337 - gym_custom_envs_real_ur_drivers_URBasic_realTimeClientEvent - INFO - Program send to Robot:
servoj([-0.08897088569736722, -1.6520973085528368, -1.553922538128156, -1.5079031144915853, 1.6843109050984344, 3.0234761329225988], 0.5, 0.5, 0.04, 0.05, 300)

2025-07-07 17:24:50,348 - gym_custom_envs_real_ur_drivers_URBasic_realTimeClientEvent - INFO - Program send to Robot:
servoj([-0.08897088569736722, -1.650578667572829, -1.5554411791081615, -1.5079031144915853, 1.6843109050984344, 3.0234761329225988], 0.5, 0.5, 0.04, 0.05, 300)

2025-07-07 17:24:50,364 - gym_custom_envs_real_ur_drivers_URBasic_realTimeClientEvent - INFO - Program send to Robot:
servoj([-0.08897088569736722, -1.6505634811630288, -1.5554563655179614, -1.5079031144915853, 1.6843109050984344, 3.0234761329225988], 0.5, 0.5, 0.04, 0.05, 300)

2025-07-07 17:24:50,371 - gym_custom_envs_real_ur_drivers_URBasic_realTimeClientEvent - INFO - Program send to Robot:
servoj([-0.08897088569736722, -1.6475260473389173, -1.5554565173820596, -1.5079031144915853, 1.6843109050984344, 3.0234761329225988], 0.5, 0.5, 0.04, 0.05, 300)

2025-07-07 17:24:50,379 - gym_custom_envs_real_ur_drivers_URBasic_realTimeClientEvent - INFO - Program send to Robot:
servoj([-0.08897088569736722, -1.647495673000676, -1.5554565189007006, -1.5079031144915853, 1.6843109050984344, 3.0234761329225988], 0.5, 0.5, 0.04, 0.05, 300)

2025-07-07 17:24:50,388 - gym_custom_envs_real_ur_drivers_URBasic_realTimeClientEvent - INFO - Program send to Robot:
servoj([-0.08897088569736722, -1.6474953692572938, -1.5554565189158869, -1.5079031144915853, 1.6843109050984344, 3.0234761329225988], 0.5, 0.5, 0.04, 0.05, 300)

2025-07-07 17:24:50,404 - gym_custom_envs_real_ur_drivers_URBasic_realTimeClientEvent - INFO - Program send to Robot:
servoj([-0.08897088569736722, -1.645976725239853, -1.5539378779360318, -1.5079031144915853, 1.6827922641184274, 3.0234761329225988], 0.5, 0.5, 0.04, 0.05, 300)

2025-07-07 17:24:50,412 - gym_custom_envs_real_ur_drivers_URBasic_realTimeClientEvent - INFO - Program send to Robot:
servoj([-0.08897088569736722, -1.6459615387996784, -1.5539226915262332, -1.5079031144915853, 1.6827770777086273, 3.0234761329225988], 0.5, 0.5, 0.04, 0.05, 300)

2025-07-07 17:24:50,420 - gym_custom_envs_real_ur_drivers_URBasic_realTimeClientEvent - INFO - Program send to Robot:
servoj([-0.08897088569736722, -1.6459613869352767, -1.5539225396621352, -1.5079031144915853, 1.6827769258445293, 3.0234761329225988], 0.5, 0.5, 0.04, 0.05, 300)

2025-07-07 17:24:50,428 - gym_custom_envs_real_ur_drivers_URBasic_realTimeClientEvent - INFO - Program send to Robot:
servoj([-0.08897088569736722, -1.6459613854166326, -1.5539225381434942, -1.5079031144915853, 1.6827769243258883, 3.0234761329225988], 0.5, 0.5, 0.04, 0.05, 300)

2025-07-07 17:24:50,444 - gym_custom_envs_real_ur_drivers_URBasic_realTimeClientEvent - INFO - Program send to Robot:
servoj([-0.08897088569736722, -1.6459613854014463, -1.555441179108315, -1.5079031144915853, 1.6827769243107018, 3.0234761329225988], 0.5, 0.5, 0.04, 0.05, 300)

2025-07-07 17:24:50,460 - gym_custom_envs_real_ur_drivers_URBasic_realTimeClientEvent - INFO - Program send to Robot:
servoj([-0.08897088569736722, -1.6459613854012944, -1.555456365517963, -1.5079031144915853, 1.6827769243105501, 3.0234761329225988], 0.5, 0.5, 0.04, 0.05, 300)

2025-07-07 17:24:50,468 - gym_custom_envs_real_ur_drivers_URBasic_realTimeClientEvent - INFO - Program send to Robot:
servoj([-0.08897088569736722, -1.6459613854012929, -1.5554565173820596, -1.5079031144915853, 1.6827769243105486, 3.0234761329225988], 0.5, 0.5, 0.04, 0.05, 300)

2025-07-07 17:24:50,476 - gym_custom_envs_real_ur_drivers_URBasic_realTimeClientEvent - INFO - Program send to Robot:
servoj([-0.08897088569736722, -1.6459613854012929, -1.5554565189007006, -1.5079031144915853, 1.6827769243105486, 3.0234761329225988], 0.5, 0.5, 0.04, 0.05, 300)

2025-07-07 17:24:50,484 - gym_custom_envs_real_ur_drivers_URBasic_realTimeClientEvent - INFO - Program send to Robot:
servoj([-0.08897088569736722, -1.6459613854012929, -1.5554565189158869, -1.5079031144915853, 1.6827769243105486, 3.0234761329225988], 0.5, 0.5, 0.04, 0.05, 300)

2025-07-07 17:24:50,500 - gym_custom_envs_real_ur_drivers_URBasic_realTimeClientEvent - INFO - Program send to Robot:
servoj([-0.08897088569736722, -1.6459613854012929, -1.5554565189160388, -1.5079031144915853, 1.6827769243105486, 3.0234761329225988], 0.5, 0.5, 0.04, 0.05, 300)

2025-07-07 17:24:50,508 - gym_custom_envs_real_ur_drivers_URBasic_realTimeClientEvent - INFO - Program send to Robot:
servoj([-0.08897088569736722, -1.6459613854012929, -1.5554565189160403, -1.5079031144915853, 1.6827769243105486, 3.0234761329225988], 0.5, 0.5, 0.04, 0.05, 300)

2025-07-07 17:24:50,517 - gym_custom_envs_real_ur_drivers_URBasic_realTimeClientEvent - INFO - Program send to Robot:
servoj([-0.08897088569736722, -1.6459613854012929, -1.5554565189160403, -1.5079031144915853, 1.6827769243105486, 3.0234761329225988], 0.5, 0.5, 0.04, 0.05, 300)

2025-07-07 17:24:50,524 - gym_custom_envs_real_ur_drivers_URBasic_realTimeClientEvent - INFO - Program send to Robot:
servoj([-0.08897088569736722, -1.6459613854012929, -1.5554565189160403, -1.5079031144915853, 1.6827769243105486, 3.0234761329225988], 0.5, 0.5, 0.04, 0.05, 300)

2025-07-07 17:24:50,544 - gym_custom_envs_real_ur_drivers_URBasic_realTimeClientEvent - INFO - Program send to Robot:
servoj([-0.08897088569736722, -1.6459613854012929, -1.5539378779360333, -1.5079031144915853, 1.6812582833305418, 3.0219574919425916], 0.5, 0.5, 0.04, 0.05, 300)

2025-07-07 17:24:50,559 - gym_custom_envs_real_ur_drivers_URBasic_realTimeClientEvent - INFO - Program send to Robot:
servoj([-0.08897088569736722, -1.6459613854012929, -1.5539226915262332, -1.5079031144915853, 1.6812430969207417, 3.0219423055327916], 0.5, 0.5, 0.04, 0.05, 300)

2025-07-07 17:24:50,564 - gym_custom_envs_real_ur_drivers_URBasic_realTimeClientEvent - INFO - Program send to Robot:
servoj([-0.08897088569736722, -1.6459613854012929, -1.5539225396621352, -1.5079031144915853, 1.6812429450566437, 3.0219421536686935], 0.5, 0.5, 0.04, 0.05, 300)

2025-07-07 17:24:50,572 - gym_custom_envs_real_ur_drivers_URBasic_realTimeClientEvent - INFO - Program send to Robot:
servoj([-0.08897088569736722, -1.6459613854012929, -1.5539225381434942, -1.5079031144915853, 1.6812429435380027, 3.0219421521500527], 0.5, 0.5, 0.04, 0.05, 300)

2025-07-07 17:24:50,588 - gym_custom_envs_real_ur_drivers_URBasic_realTimeClientEvent - INFO - Program send to Robot:
servoj([-0.08897088569736722, -1.6459613854012929, -1.553922538128308, -1.5079031144915853, 1.6812429435228162, 3.021942152134866], 0.5, 0.5, 0.04, 0.05, 300)

2025-07-07 17:24:50,596 - gym_custom_envs_real_ur_drivers_URBasic_realTimeClientEvent - INFO - Program send to Robot:
servoj([-0.08897088569736722, -1.6459613854012929, -1.555441179108163, -1.5079031144915853, 1.6812429435226643, 3.0219421521347143], 0.5, 0.5, 0.04, 0.05, 300)

2025-07-07 17:24:50,612 - gym_custom_envs_real_ur_drivers_URBasic_realTimeClientEvent - INFO - Program send to Robot:
servoj([-0.08897088569736722, -1.6459613854012929, -1.5554563655179616, -1.5079031144915853, 1.681242943522663, 3.021942152134713], 0.5, 0.5, 0.04, 0.05, 300)

2025-07-07 17:24:50,620 - gym_custom_envs_real_ur_drivers_URBasic_realTimeClientEvent - INFO - Program send to Robot:
servoj([-0.08897088569736722, -1.6459613854012929, -1.5554565173820596, -1.5079031144915853, 1.6812429435226628, 3.021942152134713], 0.5, 0.5, 0.04, 0.05, 300)

2025-07-07 17:24:50,636 - gym_custom_envs_real_ur_drivers_URBasic_realTimeClientEvent - INFO - Program send to Robot:
servoj([-0.08897088569736722, -1.6459613854012929, -1.5539378779206936, -1.5079031144915853, 1.6812429435226628, 3.021942152134713], 0.5, 0.5, 0.04, 0.05, 300)

2025-07-07 17:24:50,644 - gym_custom_envs_real_ur_drivers_URBasic_realTimeClientEvent - INFO - Program send to Robot:
servoj([-0.08897088569736722, -1.6459613854012929, -1.5539226915260798, -1.5079031144915853, 1.6812429435226628, 3.021942152134713], 0.5, 0.5, 0.04, 0.05, 300)

2025-07-07 17:24:50,660 - gym_custom_envs_real_ur_drivers_URBasic_realTimeClientEvent - INFO - Program send to Robot:
servoj([-0.08897088569736722, -1.6459613854012929, -1.5554411806421407, -1.5079031144915853, 1.6812429435226628, 3.021942152134713], 0.5, 0.5, 0.04, 0.05, 300)

2025-07-07 17:24:50,668 - gym_custom_envs_real_ur_drivers_URBasic_realTimeClientEvent - INFO - Program send to Robot:
servoj([-0.08897088569736722, -1.6459613854012929, -1.5554563655333014, -1.5079031144915853, 1.6812429435226628, 3.021942152134713], 0.5, 0.5, 0.04, 0.05, 300)

2025-07-07 17:24:50,689 - gym_custom_envs_real_ur_drivers_URBasic_realTimeClientEvent - INFO - Program send to Robot:
servoj([-0.08897088569736722, -1.6459613854012929, -1.5554565173822128, -1.5079031144915853, 1.6812429435226628, 3.021942152134713], 0.5, 0.5, 0.04, 0.05, 300)

2025-07-07 17:24:50,696 - gym_custom_envs_real_ur_drivers_URBasic_realTimeClientEvent - INFO - Program send to Robot:
servoj([-0.08897088569736722, -1.6459613854012929, -1.555456518900702, -1.5079031144915853, 1.6812429435226628, 3.021942152134713], 0.5, 0.5, 0.04, 0.05, 300)

2025-07-07 17:24:50,707 - gym_custom_envs_real_ur_drivers_URBasic_realTimeClientEvent - INFO - Program send to Robot:
servoj([-0.08897088569736722, -1.6459613854012929, -1.5554565189158869, -1.5079031144915853, 1.6812429435226628, 3.021942152134713], 0.5, 0.5, 0.04, 0.05, 300)

2025-07-07 17:24:50,716 - gym_custom_envs_real_ur_drivers_URBasic_realTimeClientEvent - INFO - Program send to Robot:
servoj([-0.08897088569736722, -1.6459613854012929, -1.5554565189160388, -1.5079031144915853, 1.6812429435226628, 3.021942152134713], 0.5, 0.5, 0.04, 0.05, 300)

2025-07-07 17:24:50,732 - gym_custom_envs_real_ur_drivers_URBasic_realTimeClientEvent - INFO - Program send to Robot:
servoj([-0.08897088569736722, -1.6459613854012929, -1.5554565189160403, -1.5079031144915853, 1.6812429435226628, 3.021942152134713], 0.5, 0.5, 0.04, 0.05, 300)

2025-07-07 17:24:50,740 - gym_custom_envs_real_ur_drivers_URBasic_realTimeClientEvent - INFO - Program send to Robot:
servoj([-0.08897088569736722, -1.6459613854012929, -1.5554565189160403, -1.5079031144915853, 1.6812429435226628, 3.021942152134713], 0.5, 0.5, 0.04, 0.05, 300)

2025-07-07 17:24:50,756 - gym_custom_envs_real_ur_drivers_URBasic_realTimeClientEvent - INFO - Program send to Robot:
servoj([-0.08897088569736722, -1.6459613854012929, -1.5554565189160403, -1.5079031144915853, 1.6812429435226628, 3.021942152134713], 0.5, 0.5, 0.04, 0.05, 300)

2025-07-07 17:24:50,764 - gym_custom_envs_real_ur_drivers_URBasic_realTimeClientEvent - INFO - Program send to Robot:
servoj([-0.08897088569736722, -1.6459613854012929, -1.5554565189160403, -1.5079031144915853, 1.6812429435226628, 3.021942152134713], 0.5, 0.5, 0.04, 0.05, 300)

2025-07-07 17:24:50,780 - gym_custom_envs_real_ur_drivers_URBasic_realTimeClientEvent - INFO - Program send to Robot:
servoj([-0.08897088569736722, -1.6459613854012929, -1.5554565189160403, -1.5079031144915853, 1.6812429435226628, 3.021942152134713], 0.5, 0.5, 0.04, 0.05, 300)

2025-07-07 17:24:50,788 - gym_custom_envs_real_ur_drivers_URBasic_realTimeClientEvent - INFO - Program send to Robot:
servoj([-0.08897088569736722, -1.6459613854012929, -1.5554565189160403, -1.5079031144915853, 1.6827615845026695, 3.021942152134713], 0.5, 0.5, 0.04, 0.05, 300)

2025-07-07 17:24:50,805 - gym_custom_envs_real_ur_drivers_URBasic_realTimeClientEvent - INFO - Program send to Robot:
servoj([-0.08897088569736722, -1.6459613854012929, -1.5554565189160403, -1.5079031144915853, 1.6827767709124697, 3.021942152134713], 0.5, 0.5, 0.04, 0.05, 300)

2025-07-07 17:24:50,821 - gym_custom_envs_real_ur_drivers_URBasic_realTimeClientEvent - INFO - Program send to Robot:
servoj([-0.08897088569736722, -1.6459613854012929, -1.5554565189160403, -1.5079031144915853, 1.6827769227765677, 3.021942152134713], 0.5, 0.5, 0.04, 0.05, 300)

2025-07-07 17:24:50,827 - gym_custom_envs_real_ur_drivers_URBasic_realTimeClientEvent - INFO - Program send to Robot:
servoj([-0.08897088569736722, -1.6459613854012929, -1.5554565189160403, -1.5079031144915853, 1.6827769242952086, 3.021942152134713], 0.5, 0.5, 0.04, 0.05, 300)

2025-07-07 17:24:50,835 - gym_custom_envs_real_ur_drivers_URBasic_realTimeClientEvent - INFO - Program send to Robot:
servoj([-0.08897088569736722, -1.6459613854012929, -1.5554565189160403, -1.5079031144915853, 1.6827769243103952, 3.021942152134713], 0.5, 0.5, 0.04, 0.05, 300)

2025-07-07 17:24:50,843 - gym_custom_envs_real_ur_drivers_URBasic_realTimeClientEvent - INFO - Program send to Robot:
servoj([-0.08897088569736722, -1.6459613854012929, -1.5554565189160403, -1.5079031144915853, 1.682776924310547, 3.021942152134713], 0.5, 0.5, 0.04, 0.05, 300)

2025-07-07 17:24:50,860 - gym_custom_envs_real_ur_drivers_URBasic_realTimeClientEvent - INFO - Program send to Robot:
servoj([-0.08897088569736722, -1.6459613854012929, -1.5554565189160403, -1.5079031144915853, 1.6827769243105486, 3.021942152134713], 0.5, 0.5, 0.04, 0.05, 300)

2025-07-07 17:24:50,868 - gym_custom_envs_real_ur_drivers_URBasic_realTimeClientEvent - INFO - Program send to Robot:
servoj([-0.08897088569736722, -1.6459613854012929, -1.5554565189160403, -1.5079031144915853, 1.6827769243105486, 3.021942152134713], 0.5, 0.5, 0.04, 0.05, 300)

2025-07-07 17:24:50,876 - gym_custom_envs_real_ur_drivers_URBasic_realTimeClientEvent - INFO - Program send to Robot:
servoj([-0.08897088569736722, -1.6459613854012929, -1.5554565189160403, -1.5079031144915853, 1.6827769243105486, 3.021942152134713], 0.5, 0.5, 0.04, 0.05, 300)

2025-07-07 17:24:50,884 - gym_custom_envs_real_ur_drivers_URBasic_realTimeClientEvent - INFO - Program send to Robot:
servoj([-0.08897088569736722, -1.6459613854012929, -1.5554565189160403, -1.5079031144915853, 1.6842955652905556, 3.021942152134713], 0.5, 0.5, 0.04, 0.05, 300)

2025-07-07 17:24:50,900 - gym_custom_envs_real_ur_drivers_URBasic_realTimeClientEvent - INFO - Program send to Robot:
servoj([-0.08897088569736722, -1.6459613854012929, -1.5554565189160403, -1.5079031144915853, 1.6843107517003555, 3.021942152134713], 0.5, 0.5, 0.04, 0.05, 300)

2025-07-07 17:24:50,907 - gym_custom_envs_real_ur_drivers_URBasic_realTimeClientEvent - INFO - Program send to Robot:
servoj([-0.08897088569736722, -1.6459613854012929, -1.5554565189160403, -1.5079031144915853, 1.6843109035644535, 3.021942152134713], 0.5, 0.5, 0.04, 0.05, 300)

2025-07-07 17:24:50,917 - gym_custom_envs_real_ur_drivers_URBasic_realTimeClientEvent - INFO - Program send to Robot:
servoj([-0.08897088569736722, -1.6444427444212861, -1.5554565189160403, -1.5079031144915853, 1.6843109050830944, 3.021942152134713], 0.5, 0.5, 0.04, 0.05, 300)

2025-07-07 17:24:50,925 - gym_custom_envs_real_ur_drivers_URBasic_realTimeClientEvent - INFO - Program send to Robot:
servoj([-0.08897088569736722, -1.644427558011486, -1.5554565189160403, -1.5079031144915853, 1.684310905098281, 3.021942152134713], 0.5, 0.5, 0.04, 0.05, 300)

2025-07-07 17:24:50,940 - gym_custom_envs_real_ur_drivers_URBasic_realTimeClientEvent - INFO - Program send to Robot:
servoj([-0.08897088569736722, -1.644427406147388, -1.5554565189160403, -1.5079031144915853, 1.6843109050984328, 3.021942152134713], 0.5, 0.5, 0.04, 0.05, 300)

2025-07-07 17:24:50,947 - gym_custom_envs_real_ur_drivers_URBasic_realTimeClientEvent - INFO - Program send to Robot:
servoj([-0.08897088569736722, -1.644427404628747, -1.5539378779360333, -1.5079031144915853, 1.6843109050984344, 3.021942152134713], 0.5, 0.5, 0.04, 0.05, 300)

2025-07-07 17:24:50,956 - gym_custom_envs_real_ur_drivers_URBasic_realTimeClientEvent - INFO - Program send to Robot:
servoj([-0.08897088569736722, -1.6444274046135607, -1.5539226915262332, -1.5079031144915853, 1.6843109050984344, 3.021942152134713], 0.5, 0.5, 0.04, 0.05, 300)

2025-07-07 17:24:50,972 - gym_custom_envs_real_ur_drivers_URBasic_realTimeClientEvent - INFO - Program send to Robot:
servoj([-0.08897088569736722, -1.6444274046134089, -1.5539225396621352, -1.5079031144915853, 1.6843109050984344, 3.021942152134713], 0.5, 0.5, 0.04, 0.05, 300)

2025-07-07 17:24:50,980 - gym_custom_envs_real_ur_drivers_URBasic_realTimeClientEvent - INFO - Program send to Robot:
servoj([-0.08897088569736722, -1.6429087636334005, -1.5539225381434942, -1.5079031144915853, 1.6843109050984344, 3.021942152134713], 0.5, 0.5, 0.04, 0.05, 300)

2025-07-07 17:24:50,995 - gym_custom_envs_real_ur_drivers_URBasic_realTimeClientEvent - INFO - Program send to Robot:
servoj([-0.08897088569736722, -1.6428935772236004, -1.553922538128308, -1.5079031144915853, 1.6843109050984344, 3.021942152134713], 0.5, 0.5, 0.04, 0.05, 300)

2025-07-07 17:24:51,004 - gym_custom_envs_real_ur_drivers_URBasic_realTimeClientEvent - INFO - Program send to Robot:
servoj([-0.08897088569736722, -1.6428934253595024, -1.553922538128156, -1.5079031144915853, 1.6843109050984344, 3.021942152134713], 0.5, 0.5, 0.04, 0.05, 300)

2025-07-07 17:24:51,021 - gym_custom_envs_real_ur_drivers_URBasic_realTimeClientEvent - INFO - Program send to Robot:
servoj([-0.08897088569736722, -1.639856141880848, -1.5554411791081615, -1.5079031144915853, 1.6843109050984344, 3.021942152134713], 0.5, 0.5, 0.04, 0.05, 300)

2025-07-07 17:24:51,029 - gym_custom_envs_real_ur_drivers_URBasic_realTimeClientEvent - INFO - Program send to Robot:
servoj([-0.08897088569736722, -1.6398257690460614, -1.5554563655179614, -1.5079031144915853, 1.6843109050984344, 3.021942152134713], 0.5, 0.5, 0.04, 0.05, 300)

2025-07-07 17:24:51,044 - gym_custom_envs_real_ur_drivers_URBasic_realTimeClientEvent - INFO - Program send to Robot:
servoj([-0.08897088569736722, -1.6367881833577, -1.5554565173820596, -1.5079031144915853, 1.6843109050984344, 3.021942152134713], 0.5, 0.5, 0.04, 0.05, 300)

2025-07-07 17:24:51,052 - gym_custom_envs_real_ur_drivers_URBasic_realTimeClientEvent - INFO - Program send to Robot:
servoj([-0.08897088569736722, -1.6367578075008165, -1.5554565189007006, -1.5079031144915853, 1.6843109050984344, 3.021942152134713], 0.5, 0.5, 0.04, 0.05, 300)

2025-07-07 17:24:51,067 - gym_custom_envs_real_ur_drivers_URBasic_realTimeClientEvent - INFO - Program send to Robot:
servoj([-0.08897088569736722, -1.6367575037422475, -1.5554565189158869, -1.5079031144915853, 1.6843109050984344, 3.021942152134713], 0.5, 0.5, 0.04, 0.05, 300)

2025-07-07 17:24:51,076 - gym_custom_envs_real_ur_drivers_URBasic_realTimeClientEvent - INFO - Program send to Robot:
servoj([-0.08897088569736722, -1.636757500704662, -1.5554565189160388, -1.5079031144915853, 1.6843109050984344, 3.021942152134713], 0.5, 0.5, 0.04, 0.05, 300)

2025-07-07 17:24:51,084 - gym_custom_envs_real_ur_drivers_URBasic_realTimeClientEvent - INFO - Program send to Robot:
servoj([-0.08897088569736722, -1.636757500674286, -1.5554565189160403, -1.5079031144915853, 1.6843109050984344, 3.021942152134713], 0.5, 0.5, 0.04, 0.05, 300)

2025-07-07 17:24:51,100 - gym_custom_envs_real_ur_drivers_URBasic_realTimeClientEvent - INFO - Program send to Robot:
servoj([-0.08897088569736722, -1.6367575006739823, -1.5554565189160403, -1.5079031144915853, 1.6843109050984344, 3.021942152134713], 0.5, 0.5, 0.04, 0.05, 300)

2025-07-07 17:24:51,108 - gym_custom_envs_real_ur_drivers_URBasic_realTimeClientEvent - INFO - Program send to Robot:
servoj([-0.08897088569736722, -1.6352388596939722, -1.5554565189160403, -1.5079031144915853, 1.6858295460784405, 3.021942152134713], 0.5, 0.5, 0.04, 0.05, 300)

2025-07-07 17:24:51,115 - gym_custom_envs_real_ur_drivers_URBasic_realTimeClientEvent - INFO - Program send to Robot:
servoj([-0.08897088569736722, -1.635223673284172, -1.5554565189160403, -1.5079031144915853, 1.6858447324882404, 3.021942152134713], 0.5, 0.5, 0.04, 0.05, 300)

2025-07-07 17:24:51,133 - gym_custom_envs_real_ur_drivers_URBasic_realTimeClientEvent - INFO - Program send to Robot:
servoj([-0.08897088569736722, -1.635223521420074, -1.5554565189160403, -1.5079031144915853, 1.6858448843523386, 3.021942152134713], 0.5, 0.5, 0.04, 0.05, 300)

2025-07-07 17:24:51,140 - gym_custom_envs_real_ur_drivers_URBasic_realTimeClientEvent - INFO - Program send to Robot:
servoj([-0.08897088569736722, -1.635223519901433, -1.5554565189160403, -1.509421755471592, 1.6858448858709796, 3.021942152134713], 0.5, 0.5, 0.04, 0.05, 300)

2025-07-07 17:24:51,148 - gym_custom_envs_real_ur_drivers_URBasic_realTimeClientEvent - INFO - Program send to Robot:
servoj([-0.08897088569736722, -1.6352235198862468, -1.5554565189160403, -1.5094369418813922, 1.6858448858861659, 3.021942152134713], 0.5, 0.5, 0.04, 0.05, 300)

2025-07-07 17:24:51,164 - gym_custom_envs_real_ur_drivers_URBasic_realTimeClientEvent - INFO - Program send to Robot:
servoj([-0.08897088569736722, -1.635223519886095, -1.5554565189160403, -1.5094370937454902, 1.6858448858863178, 3.021942152134713], 0.5, 0.5, 0.04, 0.05, 300)

2025-07-07 17:24:51,172 - gym_custom_envs_real_ur_drivers_URBasic_realTimeClientEvent - INFO - Program send to Robot:
servoj([-0.08897088569736722, -1.6352235198860934, -1.5554565189160403, -1.5079184542841244, 1.6858448858863193, 3.021942152134713], 0.5, 0.5, 0.04, 0.05, 300)

2025-07-07 17:24:51,180 - gym_custom_envs_real_ur_drivers_URBasic_realTimeClientEvent - INFO - Program send to Robot:
servoj([-0.08897088569736722, -1.6352235198860934, -1.5554565189160403, -1.5079032678895108, 1.6858448858863193, 3.021942152134713], 0.5, 0.5, 0.04, 0.05, 300)

2025-07-07 17:24:51,195 - gym_custom_envs_real_ur_drivers_URBasic_realTimeClientEvent - INFO - Program send to Robot:
servoj([-0.08897088569736722, -1.6352235198860934, -1.5554565189160403, -1.5079031160255647, 1.6858448858863193, 3.021942152134713], 0.5, 0.5, 0.04, 0.05, 300)

2025-07-07 17:24:51,204 - gym_custom_envs_real_ur_drivers_URBasic_realTimeClientEvent - INFO - Program send to Robot:
servoj([-0.08897088569736722, -1.6352235198860934, -1.5554565189160403, -1.507903114506925, 1.6858448858863193, 3.021942152134713], 0.5, 0.5, 0.04, 0.05, 300)

2025-07-07 17:24:51,212 - gym_custom_envs_real_ur_drivers_URBasic_realTimeClientEvent - INFO - Program send to Robot:
servoj([-0.08897088569736722, -1.6352235198860934, -1.5554565189160403, -1.5079031144917387, 1.6858448858863193, 3.021942152134713], 0.5, 0.5, 0.04, 0.05, 300)

2025-07-07 17:24:51,227 - gym_custom_envs_real_ur_drivers_URBasic_realTimeClientEvent - INFO - Program send to Robot:
servoj([-0.08897088569736722, -1.6352235198860934, -1.5554565189160403, -1.5079031144915869, 1.6858448858863193, 3.021942152134713], 0.5, 0.5, 0.04, 0.05, 300)

2025-07-07 17:24:51,235 - gym_custom_envs_real_ur_drivers_URBasic_realTimeClientEvent - INFO - Program send to Robot:
servoj([-0.08897088569736722, -1.6352235198860934, -1.5554565189160403, -1.5079031144915853, 1.6858448858863193, 3.021942152134713], 0.5, 0.5, 0.04, 0.05, 300)

2025-07-07 17:24:51,244 - gym_custom_envs_real_ur_drivers_URBasic_realTimeClientEvent - INFO - Program send to Robot:
servoj([-0.08897088569736722, -1.6352235198860934, -1.5554565189160403, -1.5079031144915853, 1.6858448858863193, 3.021942152134713], 0.5, 0.5, 0.04, 0.05, 300)

2025-07-07 17:24:51,252 - gym_custom_envs_real_ur_drivers_URBasic_realTimeClientEvent - INFO - Program send to Robot:
servoj([-0.08897088569736722, -1.6352235198860934, -1.5554565189160403, -1.5079031144915853, 1.6858448858863193, 3.021942152134713], 0.5, 0.5, 0.04, 0.05, 300)

2025-07-07 17:24:51,268 - gym_custom_envs_real_ur_drivers_URBasic_realTimeClientEvent - INFO - Program send to Robot:
servoj([-0.08897088569736722, -1.6352235198860934, -1.5554565189160403, -1.5079031144915853, 1.6858448858863193, 3.021942152134713], 0.5, 0.5, 0.04, 0.05, 300)

2025-07-07 17:24:51,276 - gym_custom_envs_real_ur_drivers_URBasic_realTimeClientEvent - INFO - Program send to Robot:
servoj([-0.08897088569736722, -1.6352235198860934, -1.5554565189160403, -1.5079031144915853, 1.6858448858863193, 3.021942152134713], 0.5, 0.5, 0.04, 0.05, 300)

2025-07-07 17:24:51,284 - gym_custom_envs_real_ur_drivers_URBasic_realTimeClientEvent - INFO - Program send to Robot:
servoj([-0.08897088569736722, -1.6352235198860934, -1.5554565189160403, -1.5079031144915853, 1.6858448858863193, 3.021942152134713], 0.5, 0.5, 0.04, 0.05, 300)

2025-07-07 17:24:51,292 - gym_custom_envs_real_ur_drivers_URBasic_realTimeClientEvent - INFO - Program send to Robot:
servoj([-0.08897088569736722, -1.6352235198860934, -1.5554565189160403, -1.5079031144915853, 1.6858448858863193, 3.021942152134713], 0.5, 0.5, 0.04, 0.05, 300)

2025-07-07 17:24:51,308 - gym_custom_envs_real_ur_drivers_URBasic_realTimeClientEvent - INFO - Program send to Robot:
servoj([-0.08897088569736722, -1.6352235198860934, -1.5554565189160403, -1.5079031144915853, 1.6858448858863193, 3.021942152134713], 0.5, 0.5, 0.04, 0.05, 300)

2025-07-07 17:24:51,316 - gym_custom_envs_real_ur_drivers_URBasic_realTimeClientEvent - INFO - Program send to Robot:
servoj([-0.08897088569736722, -1.6352235198860934, -1.5554565189160403, -1.5079031144915853, 1.6858448858863193, 3.021942152134713], 0.5, 0.5, 0.04, 0.05, 300)

2025-07-07 17:24:51,324 - gym_custom_envs_real_ur_drivers_URBasic_realTimeClientEvent - INFO - Program send to Robot:
servoj([-0.08897088569736722, -1.6352235198860934, -1.5554565189160403, -1.5079031144915853, 1.6858448858863193, 3.021942152134713], 0.5, 0.5, 0.04, 0.05, 300)

2025-07-07 17:24:51,339 - gym_custom_envs_real_ur_drivers_URBasic_realTimeClientEvent - INFO - Program send to Robot:
servoj([-0.08897088569736722, -1.6352235198860934, -1.5554565189160403, -1.5079031144915853, 1.6843262449063132, 3.021942152134713], 0.5, 0.5, 0.04, 0.05, 300)

2025-07-07 17:24:51,348 - gym_custom_envs_real_ur_drivers_URBasic_realTimeClientEvent - INFO - Program send to Robot:
servoj([-0.08897088569736722, -1.6352235198860934, -1.5554565189160403, -1.5079031144915853, 1.684311058496513, 3.021942152134713], 0.5, 0.5, 0.04, 0.05, 300)

2025-07-07 17:24:51,356 - gym_custom_envs_real_ur_drivers_URBasic_realTimeClientEvent - INFO - Program send to Robot:
servoj([-0.08897088569736722, -1.6352235198860934, -1.5554565189160403, -1.5079031144915853, 1.6843109066324151, 3.021942152134713], 0.5, 0.5, 0.04, 0.05, 300)

2025-07-07 17:24:51,371 - gym_custom_envs_real_ur_drivers_URBasic_realTimeClientEvent - INFO - Program send to Robot:
servoj([-0.08897088569736722, -1.6352235198860934, -1.5554565189160403, -1.5079031144915853, 1.6843109051137741, 3.021942152134713], 0.5, 0.5, 0.04, 0.05, 300)

2025-07-07 17:24:51,379 - gym_custom_envs_real_ur_drivers_URBasic_realTimeClientEvent - INFO - Program send to Robot:
servoj([-0.08897088569736722, -1.6352235198860934, -1.5554565189160403, -1.5079031144915853, 1.6843109050985878, 3.021942152134713], 0.5, 0.5, 0.04, 0.05, 300)

2025-07-07 17:24:51,388 - gym_custom_envs_real_ur_drivers_URBasic_realTimeClientEvent - INFO - Program send to Robot:
servoj([-0.08897088569736722, -1.6352235198860934, -1.5554565189160403, -1.5079031144915853, 1.684310905098436, 3.021942152134713], 0.5, 0.5, 0.04, 0.05, 300)

2025-07-07 17:24:51,396 - gym_custom_envs_real_ur_drivers_URBasic_realTimeClientEvent - INFO - Program send to Robot:
servoj([-0.08897088569736722, -1.6352235198860934, -1.5554565189160403, -1.5079031144915853, 1.6827922641184274, 3.021942152134713], 0.5, 0.5, 0.04, 0.05, 300)

2025-07-07 17:24:51,412 - gym_custom_envs_real_ur_drivers_URBasic_realTimeClientEvent - INFO - Program send to Robot:
servoj([-0.08897088569736722, -1.6352235198860934, -1.5554565189160403, -1.5079031144915853, 1.6827770777086273, 3.021942152134713], 0.5, 0.5, 0.04, 0.05, 300)

2025-07-07 17:24:51,420 - gym_custom_envs_real_ur_drivers_URBasic_realTimeClientEvent - INFO - Program send to Robot:
servoj([-0.08897088569736722, -1.6352235198860934, -1.5554565189160403, -1.5079031144915853, 1.6827769258445293, 3.021942152134713], 0.5, 0.5, 0.04, 0.05, 300)

2025-07-07 17:24:51,428 - gym_custom_envs_real_ur_drivers_URBasic_realTimeClientEvent - INFO - Program send to Robot:
servoj([-0.08897088569736722, -1.6352235198860934, -1.5554565189160403, -1.5079031144915853, 1.6827769243258883, 3.021942152134713], 0.5, 0.5, 0.04, 0.05, 300)

2025-07-07 17:24:51,436 - gym_custom_envs_real_ur_drivers_URBasic_realTimeClientEvent - INFO - Program send to Robot:
servoj([-0.08897088569736722, -1.6352235198860934, -1.5554565189160403, -1.5079031144915853, 1.6827769243107018, 3.021942152134713], 0.5, 0.5, 0.04, 0.05, 300)

2025-07-07 17:24:51,454 - gym_custom_envs_real_ur_drivers_URBasic_realTimeClientEvent - INFO - Program send to Robot:
servoj([-0.08897088569736722, -1.6352235198860934, -1.5554565189160403, -1.5079031144915853, 1.6827769243105501, 3.021942152134713], 0.5, 0.5, 0.04, 0.05, 300)

2025-07-07 17:24:51,460 - gym_custom_envs_real_ur_drivers_URBasic_realTimeClientEvent - INFO - Program send to Robot:
servoj([-0.08897088569736722, -1.6352235198860934, -1.5554565189160403, -1.5079031144915853, 1.6827769243105486, 3.021942152134713], 0.5, 0.5, 0.04, 0.05, 300)

2025-07-07 17:24:51,468 - gym_custom_envs_real_ur_drivers_URBasic_realTimeClientEvent - INFO - Program send to Robot:
servoj([-0.08897088569736722, -1.6352235198860934, -1.5554565189160403, -1.5079031144915853, 1.6827769243105486, 3.021942152134713], 0.5, 0.5, 0.04, 0.05, 300)

2025-07-07 17:24:51,484 - gym_custom_envs_real_ur_drivers_URBasic_realTimeClientEvent - INFO - Program send to Robot:
servoj([-0.08897088569736722, -1.6352235198860934, -1.5554565189160403, -1.5079031144915853, 1.6827769243105486, 3.021942152134713], 0.5, 0.5, 0.04, 0.05, 300)

2025-07-07 17:24:51,492 - gym_custom_envs_real_ur_drivers_URBasic_realTimeClientEvent - INFO - Program send to Robot:
servoj([-0.08897088569736722, -1.6352235198860934, -1.5554565189160403, -1.5079031144915853, 1.6827769243105486, 3.021942152134713], 0.5, 0.5, 0.04, 0.05, 300)

2025-07-07 17:24:51,500 - gym_custom_envs_real_ur_drivers_URBasic_realTimeClientEvent - INFO - Program send to Robot:
servoj([-0.08897088569736722, -1.6352235198860934, -1.5554565189160403, -1.5079031144915853, 1.6827769243105486, 3.021942152134713], 0.5, 0.5, 0.04, 0.05, 300)

2025-07-07 17:24:51,508 - gym_custom_envs_real_ur_drivers_URBasic_realTimeClientEvent - INFO - Program send to Robot:
servoj([-0.08897088569736722, -1.6352235198860934, -1.5554565189160403, -1.5079031144915853, 1.6827769243105486, 3.021942152134713], 0.5, 0.5, 0.04, 0.05, 300)

2025-07-07 17:24:51,524 - gym_custom_envs_real_ur_drivers_URBasic_realTimeClientEvent - INFO - Program send to Robot:
servoj([-0.08897088569736722, -1.6352235198860934, -1.5554565189160403, -1.5079031144915853, 1.6827769243105486, 3.021942152134713], 0.5, 0.5, 0.04, 0.05, 300)

2025-07-07 17:24:51,531 - gym_custom_envs_real_ur_drivers_URBasic_realTimeClientEvent - INFO - Program send to Robot:
servoj([-0.08897088569736722, -1.6352235198860934, -1.5554565189160403, -1.5079031144915853, 1.6827769243105486, 3.021942152134713], 0.5, 0.5, 0.04, 0.05, 300)

2025-07-07 17:24:51,539 - gym_custom_envs_real_ur_drivers_URBasic_realTimeClientEvent - INFO - Program send to Robot:
servoj([-0.08897088569736722, -1.6352235198860934, -1.5554565189160403, -1.5079031144915853, 1.6827769243105486, 3.021942152134713], 0.5, 0.5, 0.04, 0.05, 300)

2025-07-07 17:24:51,556 - gym_custom_envs_real_ur_drivers_URBasic_realTimeClientEvent - INFO - Program send to Robot:
servoj([-0.08897088569736722, -1.6352235198860934, -1.5554565189160403, -1.5079031144915853, 1.6827769243105486, 3.021942152134713], 0.5, 0.5, 0.04, 0.05, 300)

2025-07-07 17:24:51,564 - gym_custom_envs_real_ur_drivers_URBasic_realTimeClientEvent - INFO - Program send to Robot:
servoj([-0.08897088569736722, -1.6352235198860934, -1.5554565189160403, -1.5079031144915853, 1.6827769243105486, 3.021942152134713], 0.5, 0.5, 0.04, 0.05, 300)

2025-07-07 17:24:51,572 - gym_custom_envs_real_ur_drivers_URBasic_realTimeClientEvent - INFO - Program send to Robot:
servoj([-0.08897088569736722, -1.6352235198860934, -1.5554565189160403, -1.5079031144915853, 1.6827769243105486, 3.021942152134713], 0.5, 0.5, 0.04, 0.05, 300)

2025-07-07 17:24:51,580 - gym_custom_envs_real_ur_drivers_URBasic_realTimeClientEvent - INFO - Program send to Robot:
servoj([-0.08897088569736722, -1.6352235198860934, -1.5554565189160403, -1.5079031144915853, 1.6827769243105486, 3.021942152134713], 0.5, 0.5, 0.04, 0.05, 300)

2025-07-07 17:24:51,597 - gym_custom_envs_real_ur_drivers_URBasic_realTimeClientEvent - INFO - Program send to Robot:
servoj([-0.08897088569736722, -1.6352235198860934, -1.5554565189160403, -1.5079031144915853, 1.6827769243105486, 3.021942152134713], 0.5, 0.5, 0.04, 0.05, 300)

2025-07-07 17:24:51,604 - gym_custom_envs_real_ur_drivers_URBasic_realTimeClientEvent - INFO - Program send to Robot:
servoj([-0.08897088569736722, -1.6352235198860934, -1.5554565189160403, -1.5079031144915853, 1.6827769243105486, 3.021942152134713], 0.5, 0.5, 0.04, 0.05, 300)

2025-07-07 17:24:51,612 - gym_custom_envs_real_ur_drivers_URBasic_realTimeClientEvent - INFO - Program send to Robot:
servoj([-0.08897088569736722, -1.6352235198860934, -1.5554565189160403, -1.5079031144915853, 1.6827769243105486, 3.021942152134713], 0.5, 0.5, 0.04, 0.05, 300)

2025-07-07 17:24:51,628 - gym_custom_envs_real_ur_drivers_URBasic_realTimeClientEvent - INFO - Program send to Robot:
servoj([-0.08897088569736722, -1.6352235198860934, -1.5554565189160403, -1.5079031144915853, 1.6827769243105486, 3.021942152134713], 0.5, 0.5, 0.04, 0.05, 300)

2025-07-07 17:24:51,635 - gym_custom_envs_real_ur_drivers_URBasic_realTimeClientEvent - INFO - Program send to Robot:
servoj([-0.08897088569736722, -1.6352235198860934, -1.5554565189160403, -1.5079031144915853, 1.6827769243105486, 3.021942152134713], 0.5, 0.5, 0.04, 0.05, 300)

2025-07-07 17:24:51,644 - gym_custom_envs_real_ur_drivers_URBasic_realTimeClientEvent - INFO - Program send to Robot:
servoj([-0.08897088569736722, -1.6352235198860934, -1.5554565189160403, -1.5079031144915853, 1.6827769243105486, 3.021942152134713], 0.5, 0.5, 0.04, 0.05, 300)

2025-07-07 17:24:51,651 - gym_custom_envs_real_ur_drivers_URBasic_realTimeClientEvent - INFO - Program send to Robot:
servoj([-0.08897088569736722, -1.6352235198860934, -1.5569751598960473, -1.5079031144915853, 1.6812582833305418, 3.021942152134713], 0.5, 0.5, 0.04, 0.05, 300)

2025-07-07 17:24:51,668 - gym_custom_envs_real_ur_drivers_URBasic_realTimeClientEvent - INFO - Program send to Robot:
servoj([-0.08897088569736722, -1.6352235198860934, -1.5569903463058474, -1.5079031144915853, 1.6812430969207417, 3.021942152134713], 0.5, 0.5, 0.04, 0.05, 300)

2025-07-07 17:24:51,676 - gym_custom_envs_real_ur_drivers_URBasic_realTimeClientEvent - INFO - Program send to Robot:
servoj([-0.08897088569736722, -1.6352235198860934, -1.5569904981699454, -1.5079031144915853, 1.6812429450566437, 3.021942152134713], 0.5, 0.5, 0.04, 0.05, 300)

2025-07-07 17:24:51,684 - gym_custom_envs_real_ur_drivers_URBasic_realTimeClientEvent - INFO - Program send to Robot:
servoj([-0.08897088569736722, -1.6352235198860934, -1.5569904996885864, -1.5079031144915853, 1.6812429435380027, 3.021942152134713], 0.5, 0.5, 0.04, 0.05, 300)

2025-07-07 17:24:51,692 - gym_custom_envs_real_ur_drivers_URBasic_realTimeClientEvent - INFO - Program send to Robot:
servoj([-0.08897088569736722, -1.6352235198860934, -1.5569904997037727, -1.5079031144915853, 1.6812429435228162, 3.021942152134713], 0.5, 0.5, 0.04, 0.05, 300)

2025-07-07 17:24:51,708 - gym_custom_envs_real_ur_drivers_URBasic_realTimeClientEvent - INFO - Program send to Robot:
servoj([-0.08897088569736722, -1.6352235198860934, -1.5569904997039246, -1.5079031144915853, 1.6812429435226643, 3.021942152134713], 0.5, 0.5, 0.04, 0.05, 300)

2025-07-07 17:24:51,716 - gym_custom_envs_real_ur_drivers_URBasic_realTimeClientEvent - INFO - Program send to Robot:
servoj([-0.08897088569736722, -1.6352235198860934, -1.5585091406839322, -1.5079031144915853, 1.681242943522663, 3.021942152134713], 0.5, 0.5, 0.04, 0.05, 300)

2025-07-07 17:24:51,724 - gym_custom_envs_real_ur_drivers_URBasic_realTimeClientEvent - INFO - Program send to Robot:
servoj([-0.08897088569736722, -1.6352235198860934, -1.5585243270937323, -1.5079031144915853, 1.6812429435226628, 3.021942152134713], 0.5, 0.5, 0.04, 0.05, 300)

2025-07-07 17:24:51,732 - gym_custom_envs_real_ur_drivers_URBasic_realTimeClientEvent - INFO - Program send to Robot:
servoj([-0.08897088569736722, -1.6352235198860934, -1.5585244789578303, -1.5079031144915853, 1.6812429435226628, 3.021942152134713], 0.5, 0.5, 0.04, 0.05, 300)

2025-07-07 17:24:51,748 - gym_custom_envs_real_ur_drivers_URBasic_realTimeClientEvent - INFO - Program send to Robot:
servoj([-0.08897088569736722, -1.6352235198860934, -1.5585244804764713, -1.5079031144915853, 1.6812429435226628, 3.021942152134713], 0.5, 0.5, 0.04, 0.05, 300)

2025-07-07 17:24:51,756 - gym_custom_envs_real_ur_drivers_URBasic_realTimeClientEvent - INFO - Program send to Robot:
servoj([-0.08897088569736722, -1.6352235198860934, -1.5585244804916576, -1.5079031144915853, 1.6812429435226628, 3.021942152134713], 0.5, 0.5, 0.04, 0.05, 300)

2025-07-07 17:24:51,764 - gym_custom_envs_real_ur_drivers_URBasic_realTimeClientEvent - INFO - Program send to Robot:
servoj([-0.08897088569736722, -1.6352235198860934, -1.5585244804918095, -1.5079031144915853, 1.6812429435226628, 3.021942152134713], 0.5, 0.5, 0.04, 0.05, 300)

2025-07-07 17:24:51,772 - gym_custom_envs_real_ur_drivers_URBasic_realTimeClientEvent - INFO - Program send to Robot:
servoj([-0.08897088569736722, -1.6352235198860934, -1.558524480491811, -1.5079031144915853, 1.6812429435226628, 3.021942152134713], 0.5, 0.5, 0.04, 0.05, 300)

2025-07-07 17:24:51,788 - gym_custom_envs_real_ur_drivers_URBasic_realTimeClientEvent - INFO - Program send to Robot:
servoj([-0.08897088569736722, -1.6352235198860934, -1.558524480491811, -1.5079031144915853, 1.6812429435226628, 3.021942152134713], 0.5, 0.5, 0.04, 0.05, 300)

2025-07-07 17:24:51,796 - gym_custom_envs_real_ur_drivers_URBasic_realTimeClientEvent - INFO - Program send to Robot:
servoj([-0.08897088569736722, -1.6352235198860934, -1.558524480491811, -1.5079031144915853, 1.6812429435226628, 3.021942152134713], 0.5, 0.5, 0.04, 0.05, 300)

2025-07-07 17:24:51,803 - gym_custom_envs_real_ur_drivers_URBasic_realTimeClientEvent - INFO - Program send to Robot:
servoj([-0.08897088569736722, -1.6352235198860934, -1.558524480491811, -1.5079031144915853, 1.6812429435226628, 3.021942152134713], 0.5, 0.5, 0.04, 0.05, 300)

2025-07-07 17:24:51,820 - gym_custom_envs_real_ur_drivers_URBasic_realTimeClientEvent - INFO - Program send to Robot:
servoj([-0.08897088569736722, -1.6352235198860934, -1.558524480491811, -1.5079031144915853, 1.6812429435226628, 3.021942152134713], 0.5, 0.5, 0.04, 0.05, 300)

2025-07-07 17:24:51,828 - gym_custom_envs_real_ur_drivers_URBasic_realTimeClientEvent - INFO - Program send to Robot:
servoj([-0.08897088569736722, -1.6352235198860934, -1.558524480491811, -1.5079031144915853, 1.6812429435226628, 3.021942152134713], 0.5, 0.5, 0.04, 0.05, 300)

2025-07-07 17:24:51,836 - gym_custom_envs_real_ur_drivers_URBasic_realTimeClientEvent - INFO - Program send to Robot:
servoj([-0.08897088569736722, -1.6352235198860934, -1.558524480491811, -1.5079031144915853, 1.6812429435226628, 3.021942152134713], 0.5, 0.5, 0.04, 0.05, 300)

2025-07-07 17:24:51,844 - gym_custom_envs_real_ur_drivers_URBasic_realTimeClientEvent - INFO - Program send to Robot:
servoj([-0.08897088569736722, -1.6352235198860934, -1.558524480491811, -1.5079031144915853, 1.6812429435226628, 3.021942152134713], 0.5, 0.5, 0.04, 0.05, 300)

2025-07-07 17:24:51,859 - gym_custom_envs_real_ur_drivers_URBasic_realTimeClientEvent - INFO - Program send to Robot:
servoj([-0.08897088569736722, -1.6352235198860934, -1.558524480491811, -1.5079031144915853, 1.6812429435226628, 3.021942152134713], 0.5, 0.5, 0.04, 0.05, 300)

2025-07-07 17:24:51,868 - gym_custom_envs_real_ur_drivers_URBasic_realTimeClientEvent - INFO - Program send to Robot:
servoj([-0.08897088569736722, -1.6352235198860934, -1.558524480491811, -1.5079031144915853, 1.6812429435226628, 3.021942152134713], 0.5, 0.5, 0.04, 0.05, 300)

2025-07-07 17:24:51,875 - gym_custom_envs_real_ur_drivers_URBasic_realTimeClientEvent - INFO - Program send to Robot:
servoj([-0.08897088569736722, -1.6352235198860934, -1.558524480491811, -1.5079031144915853, 1.6812429435226628, 3.021942152134713], 0.5, 0.5, 0.04, 0.05, 300)

2025-07-07 17:24:51,884 - gym_custom_envs_real_ur_drivers_URBasic_realTimeClientEvent - INFO - Program send to Robot:
servoj([-0.08897088569736722, -1.6352235198860934, -1.558524480491811, -1.5079031144915853, 1.6812429435226628, 3.021942152134713], 0.5, 0.5, 0.04, 0.05, 300)

2025-07-07 17:24:51,900 - gym_custom_envs_real_ur_drivers_URBasic_realTimeClientEvent - INFO - Program send to Robot:
servoj([-0.08897088569736722, -1.6352235198860934, -1.558524480491811, -1.5079031144915853, 1.6812429435226628, 3.021942152134713], 0.5, 0.5, 0.04, 0.05, 300)

2025-07-07 17:24:51,907 - gym_custom_envs_real_ur_drivers_URBasic_realTimeClientEvent - INFO - Program send to Robot:
servoj([-0.08897088569736722, -1.6352235198860934, -1.560043121471818, -1.5079031144915853, 1.6797243025426558, 3.021942152134713], 0.5, 0.5, 0.04, 0.05, 300)

2025-07-07 17:24:51,915 - gym_custom_envs_real_ur_drivers_URBasic_realTimeClientEvent - INFO - Program send to Robot:
