2025-07-07 17:03:14,349 - gym_custom_envs_real_ur_drivers_URBasic_robotModelEvent - INFO - Init done
2025-07-07 17:03:14,850 - gym_custom_envs_real_ur_drivers_URBasic_realTimeClientEvent - INFO - Connected
2025-07-07 17:03:14,850 - gym_custom_envs_real_ur_drivers_URBasic_realTimeClientEvent - INFO - RT_CLient constructor done
2025-07-07 17:03:14,851 - gym_custom_envs_real_ur_drivers_URBasic_dataLogEvent - INFO - Data logging (not event logging) is disabled
2025-07-07 17:03:14,851 - gym_custom_envs_real_ur_drivers_URBasic_dataLogEvent - INFO - DataLog is stopped
2025-07-07 17:03:14,852 - gym_custom_envs_real_ur_drivers_URBasic_dataLogEvent - INFO - DataLog constructor done
2025-07-07 17:03:14,852 - gym_custom_envs_real_ur_drivers_URBasic_rtdeEvent - INFO - RTDE constructor done
2025-07-07 17:03:15,354 - gym_custom_envs_real_ur_drivers_URBasic_dashboardEvent - INFO - Connected
2025-07-07 17:03:15,355 - gym_custom_envs_real_ur_drivers_URBasic_dashboardEvent - INFO - UR Dashboard respond Connected: Universal Robots Dashboard Server
2025-07-07 17:03:15,364 - gym_custom_envs_real_ur_drivers_URBasic_dashboardEvent - INFO - Dashboard server constructor done
2025-07-07 17:03:15,364 - gym_custom_envs_real_ur_drivers_URBasic_robotConnectorEvent - INFO - Init done
2025-07-07 17:03:15,462 - gym_custom_envs_real_ur_drivers_URBasic_rtdeEvent - INFO - Controller version: 3.3.1-60
2025-07-07 17:03:15,466 - gym_custom_envs_real_ur_drivers_URBasic_rtdeEvent - INFO - RTDE started
2025-07-07 17:03:16,365 - gym_custom_envs_real_ur_drivers_URBasic_urScriptEvent - INFO - Init done!!!
2025-07-07 17:03:16,376 - gym_custom_envs_real_ur_drivers_URBasic_urScriptExtEvent - INFO - Init done
2025-07-07 17:03:18,017 - gym_custom_envs_real_ur_interfaceEvent - INFO - [] init done
2025-07-07 17:03:18,017 - gym_custom_envs_real_ur_drivers_URBasic_realTimeClientEvent - INFO - Program send to Robot:
end_freedrive_mode()

2025-07-07 17:03:20,506 - gym_custom_envs_real_ur_drivers_URBasic_realTimeClientEvent - INFO - Program send to Robot:
servoj([-0.026613347128715457, -1.5518371288505894, -1.709736086233166, -1.4163086551795696, 1.6739881805998775, 2.9468873023986815], 0.5, 0.5, 0.01, 0.2, 100)

2025-07-07 17:03:20,521 - gym_custom_envs_real_ur_drivers_URBasic_realTimeClientEvent - INFO - Program send to Robot:
servoj([-0.026582690066492207, -1.5518549297630482, -1.7106342185874843, -1.4163230763014338, 1.6740047995782141, 2.9468751430511473], 0.5, 0.5, 0.01, 0.2, 100)

2025-07-07 17:03:20,537 - gym_custom_envs_real_ur_drivers_URBasic_realTimeClientEvent - INFO - Program send to Robot:
servoj([-0.026582690066492207, -1.5518549297630482, -1.7106344402601348, -1.4163149178263574, 1.6739450557451026, 2.9468751430511473], 0.5, 0.5, 0.01, 0.2, 100)

2025-07-07 17:03:20,554 - gym_custom_envs_real_ur_drivers_URBasic_realTimeClientEvent - INFO - Program send to Robot:
servoj([-0.02662902335395964, -1.5518687531088802, -1.711068413905823, -1.4163420651638103, 1.6739639648526918, 2.9469230651855467], 0.5, 0.5, 0.01, 0.2, 100)

2025-07-07 17:03:20,577 - gym_custom_envs_real_ur_drivers_URBasic_realTimeClientEvent - INFO - Program send to Robot:
servoj([-0.02659307963915237, -1.5518363404186486, -1.7115013957485832, -1.4163281766025264, 1.673971553560539, 2.9468992233276365], 0.5, 0.5, 0.01, 0.2, 100)

2025-07-07 17:03:20,594 - gym_custom_envs_real_ur_drivers_URBasic_realTimeClientEvent - INFO - Program send to Robot:
servoj([-0.026570856265899126, -1.5518456270231527, -1.7114892997501865, -1.416368482314415, 1.673962601100462, 2.9468873023986815], 0.5, 0.5, 0.01, 0.2, 100)

2025-07-07 17:03:20,609 - gym_custom_envs_real_ur_drivers_URBasic_realTimeClientEvent - INFO - Program send to Robot:
servoj([-0.026509718882134672, -1.5518347632308673, -1.7119154834899657, -1.416410384818616, 1.6739895422358966, 2.9469230651855467], 0.5, 0.5, 0.01, 0.2, 100)

2025-07-07 17:03:20,625 - gym_custom_envs_real_ur_drivers_URBasic_realTimeClientEvent - INFO - Program send to Robot:
servoj([-0.02626292547377694, -1.5517433515615038, -1.7119114111535714, -1.4165842003154618, 1.6739892761015374, 2.9471388339996336], 0.5, 0.5, 0.01, 0.2, 100)

2025-07-07 17:03:20,641 - gym_custom_envs_real_ur_drivers_URBasic_realTimeClientEvent - INFO - Program send to Robot:
servoj([-0.02585314313292214, -1.5516357102345346, -1.7118843218395905, -1.4169565398349655, 1.673586358478258, 2.9476054191589354], 0.5, 0.5, 0.01, 0.2, 100)

2025-07-07 17:03:20,657 - gym_custom_envs_real_ur_drivers_URBasic_realTimeClientEvent - INFO - Program send to Robot:
servoj([-0.02514762460241441, -1.5514481461729661, -1.71173549090867, -1.417469305312442, 1.6736944008142602, 2.948371696472168], 0.5, 0.5, 0.01, 0.2, 100)

2025-07-07 17:03:20,673 - gym_custom_envs_real_ur_drivers_URBasic_realTimeClientEvent - INFO - Program send to Robot:
servoj([-0.0245151838385273, -1.5512726188710495, -1.7116218523055302, -1.4179719787543361, 1.6738052412851157, 2.949090051651001], 0.5, 0.5, 0.01, 0.2, 100)

2025-07-07 17:03:20,690 - gym_custom_envs_real_ur_drivers_URBasic_realTimeClientEvent - INFO - Program send to Robot:
servoj([-0.02364951231915665, -1.5510565233033045, -1.7115164360564865, -1.418710109827461, 1.6738898717686166, 2.950036096572876], 0.5, 0.5, 0.01, 0.2, 100)

2025-07-07 17:03:20,706 - gym_custom_envs_real_ur_drivers_URBasic_realTimeClientEvent - INFO - Program send to Robot:
servoj([-0.022753149158668787, -1.5508156747588593, -1.7113945781093907, -1.4193699617934683, 1.6740760325807342, 2.9509697437286375], 0.5, 0.5, 0.01, 0.2, 100)

2025-07-07 17:03:20,721 - gym_custom_envs_real_ur_drivers_URBasic_realTimeClientEvent - INFO - Program send to Robot:
servoj([-0.02149053598215933, -1.5505627764256897, -1.7112804782385955, -1.4204022190744687, 1.674176578805677, 2.9523339748382567], 0.5, 0.5, 0.01, 0.2, 100)

2025-07-07 17:03:20,738 - gym_custom_envs_real_ur_drivers_URBasic_realTimeClientEvent - INFO - Program send to Robot:
servoj([-0.020103194708976924, -1.550223501793222, -1.7110980017970063, -1.4214227060344102, 1.6748915091400618, 2.9537230014801024], 0.5, 0.5, 0.01, 0.2, 100)

2025-07-07 17:03:20,754 - gym_custom_envs_real_ur_drivers_URBasic_realTimeClientEvent - INFO - Program send to Robot:
servoj([-0.018300502785288865, -1.5497859081356475, -1.710929940476223, -1.4227205317549314, 1.6750535054631905, 2.9555666923522947], 0.5, 0.5, 0.01, 0.2, 100)

2025-07-07 17:03:20,769 - gym_custom_envs_real_ur_drivers_URBasic_realTimeClientEvent - INFO - Program send to Robot:
servoj([-0.016643081308896655, -1.54938001273049, -1.7112368608360762, -1.4239970141762797, 1.6753573075743766, 2.9573145389556883], 0.5, 0.5, 0.01, 0.2, 100)

2025-07-07 17:03:20,788 - gym_custom_envs_real_ur_drivers_URBasic_realTimeClientEvent - INFO - Program send to Robot:
servoj([-0.014679698850859645, -1.5488650552133627, -1.7109967871258558, -1.4254637087317092, 1.675521844105053, 2.959313678741455], 0.5, 0.5, 0.01, 0.2, 100)

2025-07-07 17:03:20,804 - gym_custom_envs_real_ur_drivers_URBasic_realTimeClientEvent - INFO - Program send to Robot:
servoj([-0.012769897949822417, -1.5484486167969098, -1.711255201120213, -1.4269082043033239, 1.6757987560698557, 2.96121768951416], 0.5, 0.5, 0.01, 0.2, 100)

2025-07-07 17:03:20,817 - gym_custom_envs_real_ur_drivers_URBasic_realTimeClientEvent - INFO - Program send to Robot:
servoj([-0.010929765346939423, -1.5480241003885855, -1.7109961852987943, -1.428242635489949, 1.676054038599413, 2.9630010604858397], 0.5, 0.5, 0.01, 0.2, 100)

2025-07-07 17:03:20,835 - gym_custom_envs_real_ur_drivers_URBasic_realTimeClientEvent - INFO - Program send to Robot:
servoj([-0.00837327498974074, -1.547506723081858, -1.7111887031360373, -1.4298306089718489, 1.676292903592038, 2.965168523788452], 0.5, 0.5, 0.01, 0.2, 100)

2025-07-07 17:03:20,850 - gym_custom_envs_real_ur_drivers_URBasic_realTimeClientEvent - INFO - Program send to Robot:
servoj([-0.006197803250781425, -1.54698221901923, -1.710814814334705, -1.4315138672229264, 1.676592700285156, 2.9674308776855467], 0.5, 0.5, 0.01, 0.2, 100)

2025-07-07 17:03:20,865 - gym_custom_envs_real_ur_drivers_URBasic_realTimeClientEvent - INFO - Program send to Robot:
servoj([-0.004046322732213892, -1.5464684724416313, -1.7120878358116058, -1.433108109471759, 1.6768753988085097, 2.9696577072143553], 0.5, 0.5, 0.01, 0.2, 100)

2025-07-07 17:03:20,882 - gym_custom_envs_real_ur_drivers_URBasic_realTimeClientEvent - INFO - Program send to Robot:
servoj([-0.0017448707353538637, -1.5459297538981356, -1.7118831773823124, -1.4348204115368106, 1.6771793752695423, 2.9720039844512938], 0.5, 0.5, 0.01, 0.2, 100)

2025-07-07 17:03:20,898 - gym_custom_envs_real_ur_drivers_URBasic_realTimeClientEvent - INFO - Program send to Robot:
servoj([0.0004297641466467772, -1.545411638244065, -1.712192919223831, -1.4364117600805524, 1.6774761209467912, 2.974183130264282], 0.5, 0.5, 0.01, 0.2, 100)

2025-07-07 17:03:20,914 - gym_custom_envs_real_ur_drivers_URBasic_realTimeClientEvent - INFO - Program send to Robot:
servoj([0.09357282806102417, -1.5232429223704418, -1.705786634594392, -1.5079031144915853, 1.6904468282499767, 3.0710295373470533], 0.5, 0.5, 0.01, 0.2, 100)

2025-07-07 17:03:20,923 - gym_custom_envs_real_ur_drivers_URBasic_realTimeClientEvent - INFO - Program send to Robot:
servoj([0.09357282806102418, -1.5232429223704418, -1.7073052770934956, -1.5079031144915853, 1.6904468282499767, 3.0710295373470533], 0.5, 0.5, 0.01, 0.2, 100)

2025-07-07 17:03:20,932 - gym_custom_envs_real_ur_drivers_URBasic_realTimeClientEvent - INFO - Program send to Robot:
servoj([0.09357282806102418, -1.5232429223704418, -1.7073204635184867, -1.5079031144915853, 1.6904468282499767, 3.0710295373470533], 0.5, 0.5, 0.01, 0.2, 100)

2025-07-07 17:03:20,948 - gym_custom_envs_real_ur_drivers_URBasic_realTimeClientEvent - INFO - Program send to Robot:
servoj([0.09357282806102418, -1.5232429223704418, -1.7073206153827365, -1.5079031144915853, 1.6904468282499767, 3.0710295373470533], 0.5, 0.5, 0.01, 0.2, 100)

2025-07-07 17:03:20,956 - gym_custom_envs_real_ur_drivers_URBasic_realTimeClientEvent - INFO - Program send to Robot:
servoj([0.09357282806102418, -1.5232429223704418, -1.708839257881386, -1.5079031144915853, 1.6904468282499767, 3.0710295373470533], 0.5, 0.5, 0.01, 0.2, 100)

2025-07-07 17:03:20,962 - gym_custom_envs_real_ur_drivers_URBasic_realTimeClientEvent - INFO - Program send to Robot:
servoj([0.09357282806102418, -1.5232429223704418, -1.7088544443063725, -1.5079031144915853, 1.6904468282499767, 3.0710295373470533], 0.5, 0.5, 0.01, 0.2, 100)

2025-07-07 17:03:20,977 - gym_custom_envs_real_ur_drivers_URBasic_realTimeClientEvent - INFO - Program send to Robot:
servoj([0.09357282806102418, -1.5232429223704418, -1.7088545961706223, -1.5079031144915853, 1.6904468282499767, 3.0710295373470533], 0.5, 0.5, 0.01, 0.2, 100)

2025-07-07 17:03:20,984 - gym_custom_envs_real_ur_drivers_URBasic_realTimeClientEvent - INFO - Program send to Robot:
servoj([0.09357282806102418, -1.5232429223704418, -1.7088545976892648, -1.5079031144915853, 1.6904468282499767, 3.0710295373470533], 0.5, 0.5, 0.01, 0.2, 100)

2025-07-07 17:03:20,995 - gym_custom_envs_real_ur_drivers_URBasic_realTimeClientEvent - INFO - Program send to Robot:
servoj([0.09357282806102418, -1.5232429223704418, -1.7103732386844572, -1.5079031144915853, 1.6904468282499767, 3.0710295373470533], 0.5, 0.5, 0.01, 0.2, 100)

2025-07-07 17:03:21,009 - gym_custom_envs_real_ur_drivers_URBasic_realTimeClientEvent - INFO - Program send to Robot:
servoj([0.09357282806102418, -1.5232429223704418, -1.7103884250944092, -1.5079031144915853, 1.6904468282499767, 3.0710295373470533], 0.5, 0.5, 0.01, 0.2, 100)

2025-07-07 17:03:21,020 - gym_custom_envs_real_ur_drivers_URBasic_realTimeClientEvent - INFO - Program send to Robot:
servoj([0.09357282806102418, -1.5232429223704418, -1.7103885769585088, -1.5079031144915853, 1.6904468282499767, 3.0710295373470533], 0.5, 0.5, 0.01, 0.2, 100)

2025-07-07 17:03:21,024 - gym_custom_envs_real_ur_drivers_URBasic_realTimeClientEvent - INFO - Program send to Robot:
servoj([0.09357282806102418, -1.5232429223704418, -1.7103885784771498, -1.5079031144915853, 1.6904468282499767, 3.0710295373470533], 0.5, 0.5, 0.01, 0.2, 100)

2025-07-07 17:03:21,033 - gym_custom_envs_real_ur_drivers_URBasic_realTimeClientEvent - INFO - Program send to Robot:
servoj([0.09357282806102418, -1.5232429223704418, -1.7103885784923363, -1.5079031144915853, 1.6904468282499767, 3.0710295373470533], 0.5, 0.5, 0.01, 0.2, 100)

2025-07-07 17:03:21,050 - gym_custom_envs_real_ur_drivers_URBasic_realTimeClientEvent - INFO - Program send to Robot:
servoj([0.09357282806102418, -1.5232429223704418, -1.710388578492488, -1.5079031144915853, 1.6904468282499767, 3.0710295373470533], 0.5, 0.5, 0.01, 0.2, 100)

2025-07-07 17:03:21,057 - gym_custom_envs_real_ur_drivers_URBasic_realTimeClientEvent - INFO - Program send to Robot:
servoj([0.09357282806102418, -1.5232429223704418, -1.7103885784924895, -1.5079031144915853, 1.6904468282499767, 3.0710295373470533], 0.5, 0.5, 0.01, 0.2, 100)

2025-07-07 17:03:21,070 - gym_custom_envs_real_ur_drivers_URBasic_realTimeClientEvent - INFO - Program send to Robot:
servoj([0.09357282806102418, -1.5232429223704418, -1.7103885784924895, -1.5079031144915853, 1.6904468282499767, 3.0710295373470533], 0.5, 0.5, 0.01, 0.2, 100)

2025-07-07 17:03:21,080 - gym_custom_envs_real_ur_drivers_URBasic_realTimeClientEvent - INFO - Program send to Robot:
servoj([0.09357282806102418, -1.5232429223704418, -1.7103885784924895, -1.5079031144915853, 1.6904468282499767, 3.0710295373470533], 0.5, 0.5, 0.01, 0.2, 100)

2025-07-07 17:03:21,093 - gym_custom_envs_real_ur_drivers_URBasic_realTimeClientEvent - INFO - Program send to Robot:
servoj([0.09357282806102418, -1.5232429223704418, -1.7119072194724962, -1.5079031144915853, 1.6904468282499767, 3.0710295373470533], 0.5, 0.5, 0.01, 0.2, 100)

2025-07-07 17:03:21,096 - gym_custom_envs_real_ur_drivers_URBasic_realTimeClientEvent - INFO - Program send to Robot:
servoj([0.09357282806102418, -1.5232429223704418, -1.7119224058822964, -1.5079031144915853, 1.6904468282499767, 3.0710295373470533], 0.5, 0.5, 0.01, 0.2, 100)

2025-07-07 17:03:21,116 - gym_custom_envs_real_ur_drivers_URBasic_realTimeClientEvent - INFO - Program send to Robot:
servoj([0.09357282806102418, -1.5232429223704418, -1.7119225577463943, -1.5079031144915853, 1.6904468282499767, 3.0710295373470533], 0.5, 0.5, 0.01, 0.2, 100)

2025-07-07 17:03:21,123 - gym_custom_envs_real_ur_drivers_URBasic_realTimeClientEvent - INFO - Program send to Robot:
servoj([0.09357282806102418, -1.5232429223704418, -1.7119225592650353, -1.5079031144915853, 1.6904468282499767, 3.0710295373470533], 0.5, 0.5, 0.01, 0.2, 100)

2025-07-07 17:03:21,140 - gym_custom_envs_real_ur_drivers_URBasic_realTimeClientEvent - INFO - Program send to Robot:
servoj([0.09357282806102418, -1.5232429223704418, -1.7119225592802219, -1.5079031144915853, 1.6904468282499767, 3.0710295373470533], 0.5, 0.5, 0.01, 0.2, 100)

2025-07-07 17:03:21,147 - gym_custom_envs_real_ur_drivers_URBasic_realTimeClientEvent - INFO - Program send to Robot:
servoj([0.09357282806102418, -1.5232429223704418, -1.7119225592803737, -1.509421755471592, 1.6904468282499767, 3.0710295373470533], 0.5, 0.5, 0.01, 0.2, 100)

2025-07-07 17:03:21,153 - gym_custom_envs_real_ur_drivers_URBasic_realTimeClientEvent - INFO - Program send to Robot:
servoj([0.09357282806102418, -1.5232429223704418, -1.711922559280375, -1.5094369418813922, 1.6904468282499767, 3.0710295373470533], 0.5, 0.5, 0.01, 0.2, 100)

2025-07-07 17:03:21,168 - gym_custom_envs_real_ur_drivers_URBasic_realTimeClientEvent - INFO - Program send to Robot:
servoj([0.09357282806102418, -1.5232429223704418, -1.7119225592803753, -1.5094370937454902, 1.6904468282499767, 3.0710295373470533], 0.5, 0.5, 0.01, 0.2, 100)

2025-07-07 17:03:21,177 - gym_custom_envs_real_ur_drivers_URBasic_realTimeClientEvent - INFO - Program send to Robot:
servoj([0.09357282806102418, -1.5232429223704418, -1.7119225592803753, -1.5094370952641312, 1.6904468282499767, 3.0710295373470533], 0.5, 0.5, 0.01, 0.2, 100)

2025-07-07 17:03:21,189 - gym_custom_envs_real_ur_drivers_URBasic_realTimeClientEvent - INFO - Program send to Robot:
servoj([0.09357282806102418, -1.5232429223704418, -1.7119225592803753, -1.507918454299311, 1.6904468282499767, 3.0710295373470533], 0.5, 0.5, 0.01, 0.2, 100)

2025-07-07 17:03:21,200 - gym_custom_envs_real_ur_drivers_URBasic_realTimeClientEvent - INFO - Program send to Robot:
servoj([0.09357282806102418, -1.5232429223704418, -1.7119225592803753, -1.5079032678896627, 1.6904468282499767, 3.0710295373470533], 0.5, 0.5, 0.01, 0.2, 100)

2025-07-07 17:03:21,214 - gym_custom_envs_real_ur_drivers_URBasic_realTimeClientEvent - INFO - Program send to Robot:
servoj([0.09357282806102418, -1.5232429223704418, -1.7104039183003685, -1.507903116025566, 1.6904468282499767, 3.0710295373470533], 0.5, 0.5, 0.01, 0.2, 100)

2025-07-07 17:03:21,217 - gym_custom_envs_real_ur_drivers_URBasic_realTimeClientEvent - INFO - Program send to Robot:
servoj([0.09357282806102418, -1.5232429223704418, -1.7103887318905684, -1.5079031145069253, 1.6904468282499767, 3.0710295373470533], 0.5, 0.5, 0.01, 0.2, 100)

2025-07-07 17:03:21,237 - gym_custom_envs_real_ur_drivers_URBasic_realTimeClientEvent - INFO - Program send to Robot:
servoj([0.09357282806102418, -1.5232429223704418, -1.7103885800264704, -1.5079031144917387, 1.6904468282499767, 3.0710295373470533], 0.5, 0.5, 0.01, 0.2, 100)

2025-07-07 17:03:21,240 - gym_custom_envs_real_ur_drivers_URBasic_realTimeClientEvent - INFO - Program send to Robot:
servoj([0.09357282806102418, -1.5232429223704418, -1.7103885785078294, -1.5079031144915869, 1.6904468282499767, 3.0710295373470533], 0.5, 0.5, 0.01, 0.2, 100)

2025-07-07 17:03:21,260 - gym_custom_envs_real_ur_drivers_URBasic_realTimeClientEvent - INFO - Program send to Robot:
servoj([0.09357282806102418, -1.5232429223704418, -1.710388578492643, -1.5079031144915853, 1.6904468282499767, 3.0710295373470533], 0.5, 0.5, 0.01, 0.2, 100)

2025-07-07 17:03:21,265 - gym_custom_envs_real_ur_drivers_URBasic_realTimeClientEvent - INFO - Program send to Robot:
servoj([0.09357282806102418, -1.5232429223704418, -1.710388578492491, -1.5079031144915853, 1.6904468282499767, 3.0710295373470533], 0.5, 0.5, 0.01, 0.2, 100)

2025-07-07 17:03:21,272 - gym_custom_envs_real_ur_drivers_URBasic_realTimeClientEvent - INFO - Program send to Robot:
servoj([0.09357282806102418, -1.5232429223704418, -1.7103885784924895, -1.5079031144915853, 1.6904468282499767, 3.0710295373470533], 0.5, 0.5, 0.01, 0.2, 100)

2025-07-07 17:03:21,292 - gym_custom_envs_real_ur_drivers_URBasic_realTimeClientEvent - INFO - Program send to Robot:
servoj([0.09205418708101723, -1.5217242813904348, -1.7103885784924895, -1.5079031144915853, 1.6904468282499767, 3.0710295373470533], 0.5, 0.5, 0.01, 0.2, 100)

2025-07-07 17:03:21,296 - gym_custom_envs_real_ur_drivers_URBasic_realTimeClientEvent - INFO - Program send to Robot:
servoj([0.09203900067121716, -1.5217090949806347, -1.7103885784924895, -1.5079031144915853, 1.6904468282499767, 3.0710295373470533], 0.5, 0.5, 0.01, 0.2, 100)

2025-07-07 17:03:21,307 - gym_custom_envs_real_ur_drivers_URBasic_realTimeClientEvent - INFO - Program send to Robot:
servoj([0.09203884880711916, -1.5201903021365302, -1.7103885784924895, -1.5079031144915853, 1.6889281872699697, 3.0710295373470533], 0.5, 0.5, 0.01, 0.2, 100)

2025-07-07 17:03:21,321 - gym_custom_envs_real_ur_drivers_URBasic_realTimeClientEvent - INFO - Program send to Robot:
servoj([0.09203884728847818, -1.520175114208089, -1.7103885784924895, -1.5079031144915853, 1.6889130008601698, 3.0710295373470533], 0.5, 0.5, 0.01, 0.2, 100)

2025-07-07 17:03:21,332 - gym_custom_envs_real_ur_drivers_URBasic_realTimeClientEvent - INFO - Program send to Robot:
servoj([0.09203884727329177, -1.5201749623288048, -1.7103885784924895, -1.5079031144915853, 1.6889128489960719, 3.0710295373470533], 0.5, 0.5, 0.01, 0.2, 100)

2025-07-07 17:03:21,336 - gym_custom_envs_real_ur_drivers_URBasic_realTimeClientEvent - INFO - Program send to Robot:
servoj([0.0920388472731399, -1.520174960810012, -1.7103885784924895, -1.5079031144915853, 1.6889128474774309, 3.0710295373470533], 0.5, 0.5, 0.01, 0.2, 100)

2025-07-07 17:03:21,358 - gym_custom_envs_real_ur_drivers_URBasic_realTimeClientEvent - INFO - Program send to Robot:
servoj([0.0920388472731384, -1.518656319814817, -1.7088699375124834, -1.5079031144915853, 1.6889128474622443, 3.0710295373470533], 0.5, 0.5, 0.01, 0.2, 100)

2025-07-07 17:03:21,360 - gym_custom_envs_real_ur_drivers_URBasic_realTimeClientEvent - INFO - Program send to Robot:
servoj([0.09203884727313838, -1.5186411334048653, -1.7088547511026835, -1.5079031144915853, 1.6889128474620925, 3.0710295373470533], 0.5, 0.5, 0.01, 0.2, 100)

2025-07-07 17:03:21,382 - gym_custom_envs_real_ur_drivers_URBasic_realTimeClientEvent - INFO - Program send to Robot:
servoj([0.09203884727313838, -1.5171223405607588, -1.7088545992385855, -1.5079031144915853, 1.688912847462091, 3.0710295373470533], 0.5, 0.5, 0.01, 0.2, 100)

2025-07-07 17:03:21,384 - gym_custom_envs_real_ur_drivers_URBasic_realTimeClientEvent - INFO - Program send to Robot:
servoj([0.09203884727313838, -1.5171071526323177, -1.7088545977199445, -1.5079031144915853, 1.688912847462091, 3.0710295373470533], 0.5, 0.5, 0.01, 0.2, 100)

2025-07-07 17:03:21,406 - gym_custom_envs_real_ur_drivers_URBasic_realTimeClientEvent - INFO - Program send to Robot:
servoj([0.09203884727313838, -1.5155883597730264, -1.708854597704758, -1.5079031144915853, 1.688912847462091, 3.0710295373470533], 0.5, 0.5, 0.01, 0.2, 100)

2025-07-07 17:03:21,408 - gym_custom_envs_real_ur_drivers_URBasic_realTimeClientEvent - INFO - Program send to Robot:
servoj([0.09203884727313838, -1.5155731718444336, -1.7088545977046061, -1.5079031144915853, 1.688912847462091, 3.0710295373470533], 0.5, 0.5, 0.01, 0.2, 100)

2025-07-07 17:03:21,430 - gym_custom_envs_real_ur_drivers_URBasic_realTimeClientEvent - INFO - Program send to Robot:
servoj([0.09203884727313838, -1.5155730199651476, -1.7088545977046046, -1.5079031144915853, 1.688912847462091, 3.0710295373470533], 0.5, 0.5, 0.01, 0.2, 100)

2025-07-07 17:03:21,432 - gym_custom_envs_real_ur_drivers_URBasic_realTimeClientEvent - INFO - Program send to Robot:
servoj([0.09203884727313838, -1.5155730184463547, -1.7088545977046046, -1.5079031144915853, 1.688912847462091, 3.0710295373470533], 0.5, 0.5, 0.01, 0.2, 100)

2025-07-07 17:03:21,455 - gym_custom_envs_real_ur_drivers_URBasic_realTimeClientEvent - INFO - Program send to Robot:
servoj([0.09203884727313838, -1.5155730184311669, -1.7088545977046046, -1.5079031144915853, 1.688912847462091, 3.0710295373470533], 0.5, 0.5, 0.01, 0.2, 100)

2025-07-07 17:03:21,465 - gym_custom_envs_real_ur_drivers_URBasic_realTimeClientEvent - INFO - Program send to Robot:
servoj([0.09203884727313838, -1.515573018431015, -1.7088545977046046, -1.5079031144915853, 1.688912847462091, 3.0710295373470533], 0.5, 0.5, 0.01, 0.2, 100)

2025-07-07 17:03:21,473 - gym_custom_envs_real_ur_drivers_URBasic_realTimeClientEvent - INFO - Program send to Robot:
servoj([0.09203884727313838, -1.5155730184310134, -1.7088545977046046, -1.5079031144915853, 1.688912847462091, 3.0710295373470533], 0.5, 0.5, 0.01, 0.2, 100)

2025-07-07 17:03:21,481 - gym_custom_envs_real_ur_drivers_URBasic_realTimeClientEvent - INFO - Program send to Robot:
servoj([0.09203884727313838, -1.5155730184310134, -1.7088545977046046, -1.5079031144915853, 1.688912847462091, 3.0710295373470533], 0.5, 0.5, 0.01, 0.2, 100)

2025-07-07 17:03:21,496 - gym_custom_envs_real_ur_drivers_URBasic_realTimeClientEvent - INFO - Program send to Robot:
servoj([0.09203884727313838, -1.5155730184310134, -1.7088545977046046, -1.5079031144915853, 1.688912847462091, 3.0710295373470533], 0.5, 0.5, 0.01, 0.2, 100)

2025-07-07 17:03:21,505 - gym_custom_envs_real_ur_drivers_URBasic_realTimeClientEvent - INFO - Program send to Robot:
servoj([0.09052020629313189, -1.5155730184310134, -1.7088545977046046, -1.5079031144915853, 1.688912847462091, 3.0710295373470533], 0.5, 0.5, 0.01, 0.2, 100)

2025-07-07 17:03:21,526 - gym_custom_envs_real_ur_drivers_URBasic_realTimeClientEvent - INFO - Program send to Robot:
servoj([0.09050501988333182, -1.5155730184310134, -1.7088545977046046, -1.5079031144915853, 1.688912847462091, 3.0710295373470533], 0.5, 0.5, 0.01, 0.2, 100)

2025-07-07 17:03:21,528 - gym_custom_envs_real_ur_drivers_URBasic_realTimeClientEvent - INFO - Program send to Robot:
servoj([0.09050486801923381, -1.5155730184310134, -1.7088545977046046, -1.5079031144915853, 1.688912847462091, 3.0710295373470533], 0.5, 0.5, 0.01, 0.2, 100)

2025-07-07 17:03:21,550 - gym_custom_envs_real_ur_drivers_URBasic_realTimeClientEvent - INFO - Program send to Robot:
servoj([0.09050486650059283, -1.5170916594110202, -1.7073359567245976, -1.5063844735115786, 1.688912847462091, 3.0710295373470533], 0.5, 0.5, 0.01, 0.2, 100)

2025-07-07 17:03:21,552 - gym_custom_envs_real_ur_drivers_URBasic_realTimeClientEvent - INFO - Program send to Robot:
servoj([0.09050486648540643, -1.5171068458208203, -1.7073207703147977, -1.5063692871017786, 1.688912847462091, 3.0710295373470533], 0.5, 0.5, 0.01, 0.2, 100)

2025-07-07 17:03:21,573 - gym_custom_envs_real_ur_drivers_URBasic_realTimeClientEvent - INFO - Program send to Robot:
servoj([0.09050486648525456, -1.5155883567049115, -1.7058019774706925, -1.5063691352376805, 1.688912847462091, 3.0710295373470533], 0.5, 0.5, 0.01, 0.2, 100)

2025-07-07 17:03:21,576 - gym_custom_envs_real_ur_drivers_URBasic_realTimeClientEvent - INFO - Program send to Robot:
servoj([0.09050486648525304, -1.5155731718137524, -1.7057867895422516, -1.5063691337190395, 1.688912847462091, 3.0710295373470533], 0.5, 0.5, 0.01, 0.2, 100)

2025-07-07 17:03:21,599 - gym_custom_envs_real_ur_drivers_URBasic_realTimeClientEvent - INFO - Program send to Robot:
servoj([0.09050486648525302, -1.5155730199648407, -1.7042679966829601, -1.5063691337038532, 1.688912847462091, 3.0710295373470533], 0.5, 0.5, 0.01, 0.2, 100)

2025-07-07 17:03:21,609 - gym_custom_envs_real_ur_drivers_URBasic_realTimeClientEvent - INFO - Program send to Robot:
servoj([0.09050486648525302, -1.5155730184463516, -1.7042528087543671, -1.5063691337037013, 1.688912847462091, 3.0710295373470533], 0.5, 0.5, 0.01, 0.2, 100)

2025-07-07 17:03:21,617 - gym_custom_envs_real_ur_drivers_URBasic_realTimeClientEvent - INFO - Program send to Robot:
servoj([0.09050486648525302, -1.5155730184311669, -1.7042526568750813, -1.5063691337036997, 1.688912847462091, 3.0710295373470533], 0.5, 0.5, 0.01, 0.2, 100)

2025-07-07 17:03:21,625 - gym_custom_envs_real_ur_drivers_URBasic_realTimeClientEvent - INFO - Program send to Robot:
servoj([0.09050486648525302, -1.515573018431015, -1.7042526553562884, -1.5063691337036997, 1.688912847462091, 3.0710295373470533], 0.5, 0.5, 0.01, 0.2, 100)

2025-07-07 17:03:21,641 - gym_custom_envs_real_ur_drivers_URBasic_realTimeClientEvent - INFO - Program send to Robot:
servoj([0.08898622550524607, -1.5155730184310134, -1.7012153733810877, -1.5063691337036997, 1.688912847462091, 3.0710295373470533], 0.5, 0.5, 0.01, 0.2, 100)

2025-07-07 17:03:21,649 - gym_custom_envs_real_ur_drivers_URBasic_realTimeClientEvent - INFO - Program send to Robot:
servoj([0.088971039095446, -1.5155730184310134, -1.7011850005613356, -1.5063691337036997, 1.688912847462091, 3.0710295373470533], 0.5, 0.5, 0.01, 0.2, 100)

2025-07-07 17:03:21,664 - gym_custom_envs_real_ur_drivers_URBasic_realTimeClientEvent - INFO - Program send to Robot:
servoj([0.08745224625134107, -1.5155730184310134, -1.6981474148731242, -1.5063691337036997, 1.687394206482084, 3.0710295373470533], 0.5, 0.5, 0.01, 0.2, 100)

2025-07-07 17:03:21,673 - gym_custom_envs_real_ur_drivers_URBasic_realTimeClientEvent - INFO - Program send to Robot:
servoj([0.08743705832290001, -1.5155730184310134, -1.6981170390162421, -1.5063691337036997, 1.687379020072284, 3.0710295373470533], 0.5, 0.5, 0.01, 0.2, 100)

2025-07-07 17:03:21,688 - gym_custom_envs_real_ur_drivers_URBasic_realTimeClientEvent - INFO - Program send to Robot:
servoj([0.08743690644361561, -1.5155730184310134, -1.6981167352576731, -1.5063691337036997, 1.6873788682081858, 3.0710295373470533], 0.5, 0.5, 0.01, 0.2, 100)

2025-07-07 17:03:21,697 - gym_custom_envs_real_ur_drivers_URBasic_realTimeClientEvent - INFO - Program send to Robot:
servoj([0.08439962296480931, -1.5155730184310134, -1.6965980912400807, -1.5063691337036997, 1.6873788666895448, 3.0710295373470533], 0.5, 0.5, 0.01, 0.2, 100)

2025-07-07 17:03:21,706 - gym_custom_envs_real_ur_drivers_URBasic_realTimeClientEvent - INFO - Program send to Robot:
servoj([0.08436925013002125, -1.5155730184310134, -1.6965829047999046, -1.5063691337036997, 1.6873788666743585, 3.0710295373470533], 0.5, 0.5, 0.01, 0.2, 100)

2025-07-07 17:03:21,722 - gym_custom_envs_real_ur_drivers_URBasic_realTimeClientEvent - INFO - Program send to Robot:
servoj([0.07981302346165298, -1.5155730184310134, -1.695064111955496, -1.5063691337036997, 1.6873788666742067, 3.069510896367047], 0.5, 0.5, 0.01, 0.2, 100)

2025-07-07 17:03:21,731 - gym_custom_envs_real_ur_drivers_URBasic_realTimeClientEvent - INFO - Program send to Robot:
servoj([0.07976746119496929, -1.5155730184310134, -1.6950489240270519, -1.5063691337036997, 1.6873788666742051, 3.069495709957247], 0.5, 0.5, 0.01, 0.2, 100)

2025-07-07 17:03:21,736 - gym_custom_envs_real_ur_drivers_URBasic_realTimeClientEvent - INFO - Program send to Robot:
servoj([0.07976700557230246, -1.5155730184310134, -1.6950487721477674, -1.5063691337036997, 1.6873788666742051, 3.069495558093149], 0.5, 0.5, 0.01, 0.2, 100)

2025-07-07 17:03:21,754 - gym_custom_envs_real_ur_drivers_URBasic_realTimeClientEvent - INFO - Program send to Robot:
servoj([0.07521107807605538, -1.5155730184310134, -1.6935301296489675, -1.5063691337036997, 1.6873788666742051, 3.0634209926544806], 0.5, 0.5, 0.01, 0.2, 100)

2025-07-07 17:03:21,760 - gym_custom_envs_real_ur_drivers_URBasic_realTimeClientEvent - INFO - Program send to Robot:
servoj([0.07516551880109291, -1.5155730184310134, -1.6935149432239796, -1.5063691337036997, 1.6873788666742051, 3.0633602470000936], 0.5, 0.5, 0.01, 0.2, 100)

2025-07-07 17:03:21,771 - gym_custom_envs_real_ur_drivers_URBasic_realTimeClientEvent - INFO - Program send to Robot:
servoj([0.07516506320834329, -1.5155730184310134, -1.6935147913597297, -1.5063691337036997, 1.6873788666742051, 3.06335963954355], 0.5, 0.5, 0.01, 0.2, 100)

2025-07-07 17:03:21,786 - gym_custom_envs_real_ur_drivers_URBasic_realTimeClientEvent - INFO - Program send to Robot:
servoj([0.0751650586524158, -1.5155730184310134, -1.6935147898410872, -1.5063691337036997, 1.6873788666742051, 3.0633596334689845], 0.5, 0.5, 0.01, 0.2, 100)

2025-07-07 17:03:21,793 - gym_custom_envs_real_ur_drivers_URBasic_realTimeClientEvent - INFO - Program send to Robot:
servoj([0.06757185370682267, -1.5155730184310134, -1.6889588668858808, -1.5063691337036997, 1.6873788666742051, 3.055766428508205], 0.5, 0.5, 0.01, 0.2, 100)

2025-07-07 17:03:21,801 - gym_custom_envs_real_ur_drivers_URBasic_realTimeClientEvent - INFO - Program send to Robot:
servoj([0.06749592165736674, -1.5155730184310134, -1.688913307656329, -1.5063691337036997, 1.6873788666742051, 3.055690496458597], 0.5, 0.5, 0.01, 0.2, 100)

2025-07-07 17:03:21,808 - gym_custom_envs_real_ur_drivers_URBasic_realTimeClientEvent - INFO - Program send to Robot:
servoj([0.06749516233687218, -1.5155730184310134, -1.6889128520640333, -1.5063691337036997, 1.6873788666742051, 3.0556897371381013], 0.5, 0.5, 0.01, 0.2, 100)

2025-07-07 17:03:21,825 - gym_custom_envs_real_ur_drivers_URBasic_realTimeClientEvent - INFO - Program send to Robot:
servoj([0.056864667883619956, -1.5170916594110202, -1.6843569245680903, -1.5063691337036997, 1.6873788666742051, 3.045059242684849], 0.5, 0.5, 0.01, 0.2, 100)

2025-07-07 17:03:21,833 - gym_custom_envs_real_ur_drivers_URBasic_realTimeClientEvent - INFO - Program send to Robot:
servoj([0.05675836293908743, -1.5171068458208203, -1.684311365293131, -1.5063691337036997, 1.6873788666742051, 3.0449529377403164], 0.5, 0.5, 0.01, 0.2, 100)

2025-07-07 17:03:21,841 - gym_custom_envs_real_ur_drivers_URBasic_realTimeClientEvent - INFO - Program send to Robot:
servoj([0.05675729988964211, -1.5171069976849183, -1.6843109097003812, -1.5063691337036997, 1.6873788666742051, 3.044951874690871], 0.5, 0.5, 0.01, 0.2, 100)

2025-07-07 17:03:21,851 - gym_custom_envs_real_ur_drivers_URBasic_realTimeClientEvent - INFO - Program send to Robot:
servoj([0.046126802399099914, -1.5171069992035593, -1.679754982204433, -1.5063691337036997, 1.6873788666742051, 3.0358400181803358], 0.5, 0.5, 0.01, 0.2, 100)

2025-07-07 17:03:21,867 - gym_custom_envs_real_ur_drivers_URBasic_realTimeClientEvent - INFO - Program send to Robot:
servoj([0.04602049742419449, -1.5171069992187456, -1.6797094229294736, -1.5063691337036997, 1.6873788666742051, 3.03574889961523], 0.5, 0.5, 0.01, 0.2, 100)

2025-07-07 17:03:21,875 - gym_custom_envs_real_ur_drivers_URBasic_realTimeClientEvent - INFO - Program send to Robot:
servoj([0.04601943437444544, -1.5171069992188975, -1.679708967336724, -1.5063691337036997, 1.6873788666742051, 3.0357479884295793], 0.5, 0.5, 0.01, 0.2, 100)

2025-07-07 17:03:21,880 - gym_custom_envs_real_ur_drivers_URBasic_realTimeClientEvent - INFO - Program send to Robot:
servoj([0.04601942374394795, -1.517106999218899, -1.6797089627807966, -1.5063691337036997, 1.6873788666742051, 3.0357479793177227], 0.5, 0.5, 0.01, 0.2, 100)

2025-07-07 17:03:21,899 - gym_custom_envs_real_ur_drivers_URBasic_realTimeClientEvent - INFO - Program send to Robot:
servoj([0.03690757775760219, -1.517106999218899, -1.6751530397952172, -1.5063691337036997, 1.688897507654212, 3.029673415306577], 0.5, 0.5, 0.01, 0.2, 100)

2025-07-07 17:03:21,904 - gym_custom_envs_real_ur_drivers_URBasic_realTimeClientEvent - INFO - Program send to Robot:
servoj([0.03681645929773873, -1.517106999218899, -1.6751074805653614, -1.5063691337036997, 1.6889126940640122, 3.0296126696664656], 0.5, 0.5, 0.01, 0.2, 100)

2025-07-07 17:03:21,913 - gym_custom_envs_real_ur_drivers_URBasic_realTimeClientEvent - INFO - Program send to Robot:
servoj([0.0368155481131401, -1.517106999218899, -1.6751070249730629, -1.5063691337036997, 1.6889128459281102, 3.0296120622100644], 0.5, 0.5, 0.01, 0.2, 100)

2025-07-07 17:03:21,929 - gym_custom_envs_real_ur_drivers_URBasic_realTimeClientEvent - INFO - Program send to Robot:
servoj([0.027703693121253325, -1.517106999218899, -1.6690324564971122, -1.5063691337036997, 1.6889128474467512, 3.026574774175487], 0.5, 0.5, 0.01, 0.2, 100)

2025-07-07 17:03:21,937 - gym_custom_envs_real_ur_drivers_URBasic_realTimeClientEvent - INFO - Program send to Robot:
servoj([0.027612574571334456, -1.517106999218899, -1.6689717108123527, -1.5063691337036997, 1.6889128474619375, 3.026544401295141], 0.5, 0.5, 0.01, 0.2, 100)

2025-07-07 17:03:21,945 - gym_custom_envs_real_ur_drivers_URBasic_realTimeClientEvent - INFO - Program send to Robot:
servoj([0.027611663385835268, -1.517106999218899, -1.668971103355505, -1.5063691337036997, 1.6889128474620894, 3.0265440975663376], 0.5, 0.5, 0.01, 0.2, 100)

2025-07-07 17:03:21,952 - gym_custom_envs_real_ur_drivers_URBasic_realTimeClientEvent - INFO - Program send to Robot:
servoj([0.02153709035395338, -1.517106999218899, -1.6628965333609096, -1.5063691337036997, 1.688912847462091, 3.025025453549043], 0.5, 0.5, 0.01, 0.2, 100)

2025-07-07 17:03:21,971 - gym_custom_envs_real_ur_drivers_URBasic_realTimeClientEvent - INFO - Program send to Robot:
servoj([0.02147634462363456, -1.517106999218899, -1.6628357876609636, -1.5063691337036997, 1.688912847462091, 3.02501026710887], 0.5, 0.5, 0.01, 0.2, 100)

2025-07-07 17:03:21,976 - gym_custom_envs_real_ur_drivers_URBasic_realTimeClientEvent - INFO - Program send to Robot:
servoj([0.02147573716633137, -1.517106999218899, -1.662835180203964, -1.5063691337036997, 1.688912847462091, 3.025010115244468], 0.5, 0.5, 0.01, 0.2, 100)

2025-07-07 17:03:21,986 - gym_custom_envs_real_ur_drivers_URBasic_realTimeClientEvent - INFO - Program send to Robot:
servoj([0.015401167171731, -1.517106999218899, -1.6567606102093673, -1.5063691337036997, 1.688912847462091, 3.0234914727458175], 0.5, 0.5, 0.01, 0.2, 100)

2025-07-07 17:03:22,001 - gym_custom_envs_real_ur_drivers_URBasic_realTimeClientEvent - INFO - Program send to Robot:
servoj([0.015340421471784995, -1.517106999218899, -1.6566998645094213, -1.5063691337036997, 1.688912847462091, 3.023476286320831], 0.5, 0.5, 0.01, 0.2, 100)

2025-07-07 17:03:22,009 - gym_custom_envs_real_ur_drivers_URBasic_realTimeClientEvent - INFO - Program send to Robot:
servoj([0.015339814014785536, -1.517106999218899, -1.656699257052422, -1.5063691337036997, 1.688912847462091, 3.023476134456581], 0.5, 0.5, 0.01, 0.2, 100)

2025-07-07 17:03:22,017 - gym_custom_envs_real_ur_drivers_URBasic_realTimeClientEvent - INFO - Program send to Robot:
servoj([0.010783885000195148, -1.517106999218899, -1.6506246870578252, -1.5063691337036997, 1.688912847462091, 3.0204388509779245], 0.5, 0.5, 0.01, 0.2, 100)

2025-07-07 17:03:22,025 - gym_custom_envs_real_ur_drivers_URBasic_realTimeClientEvent - INFO - Program send to Robot:
servoj([0.010738325710049243, -1.517106999218899, -1.6505639413578792, -1.5063691337036997, 1.688912847462091, 3.020408478143138], 0.5, 0.5, 0.01, 0.2, 100)

2025-07-07 17:03:22,040 - gym_custom_envs_real_ur_drivers_URBasic_realTimeClientEvent - INFO - Program send to Robot:
servoj([0.010737870117147785, -1.517106999218899, -1.6505633339008796, -1.5063691337036997, 1.688912847462091, 3.0204081744147904], 0.5, 0.5, 0.01, 0.2, 100)

2025-07-07 17:03:22,048 - gym_custom_envs_real_ur_drivers_URBasic_realTimeClientEvent - INFO - Program send to Robot:
servoj([0.003144660661184927, -1.518625640198906, -1.6444887639062817, -1.5048504927236928, 1.687394206482084, 3.0173708894174935], 0.5, 0.5, 0.01, 0.2, 100)

2025-07-07 17:03:22,056 - gym_custom_envs_real_ur_drivers_URBasic_realTimeClientEvent - INFO - Program send to Robot:
servoj([0.0030687285666252985, -1.5186408266087061, -1.6444280182063358, -1.5048353063138926, 1.687379020072284, 3.0173405165675207], 0.5, 0.5, 0.01, 0.2, 100)

2025-07-07 17:03:22,064 - gym_custom_envs_real_ur_drivers_URBasic_realTimeClientEvent - INFO - Program send to Robot:
servoj([0.003067969245679702, -1.518640978472804, -1.6444274107493364, -1.5048351544497947, 1.6873788682081858, 3.017340212839021], 0.5, 0.5, 0.01, 0.2, 100)

2025-07-07 17:03:22,081 - gym_custom_envs_real_ur_drivers_URBasic_realTimeClientEvent - INFO - Program send to Robot:
servoj([-0.004525243247563596, -1.518640979991445, -1.6383528407547394, -1.5002792299911334, 1.6873788666895448, 3.012784286861715], 0.5, 0.5, 0.01, 0.2, 100)

2025-07-07 17:03:22,089 - gym_custom_envs_real_ur_drivers_URBasic_realTimeClientEvent - INFO - Program send to Robot:
servoj([-0.0046011753724960296, -1.5186409800066314, -1.6382920950547935, -1.500233670746547, 1.6873788666743585, 3.0127387276019424], 0.5, 0.5, 0.01, 0.2, 100)

2025-07-07 17:03:22,097 - gym_custom_envs_real_ur_drivers_URBasic_realTimeClientEvent - INFO - Program send to Robot:
servoj([-0.004601934693745354, -1.5186409800067833, -1.638291487597794, -1.500233215154101, 1.6873788666742067, 3.0127382720093445], 0.5, 0.5, 0.01, 0.2, 100)

2025-07-07 17:03:22,105 - gym_custom_envs_real_ur_drivers_URBasic_realTimeClientEvent - INFO - Program send to Robot:
servoj([-0.012195147186991691, -1.5186409800067848, -1.6352541995632102, -1.4926400056981426, 1.688897507654212, 3.005145062553385], 0.5, 0.5, 0.01, 0.2, 100)

2025-07-07 17:03:22,120 - gym_custom_envs_real_ur_drivers_URBasic_realTimeClientEvent - INFO - Program send to Robot:
servoj([-0.012271079311924154, -1.5186409800067848, -1.6352238266828643, -1.492564073603583, 1.6889126940640122, 3.0050691304588253], 0.5, 0.5, 0.01, 0.2, 100)

2025-07-07 17:03:22,128 - gym_custom_envs_real_ur_drivers_URBasic_realTimeClientEvent - INFO - Program send to Robot:
servoj([-0.012271838633173479, -1.5186409800067848, -1.6352235229540608, -1.4925633142826373, 1.6889128459281102, 3.0050683711378796], 0.5, 0.5, 0.01, 0.2, 100)

2025-07-07 17:03:22,137 - gym_custom_envs_real_ur_drivers_URBasic_realTimeClientEvent - INFO - Program send to Robot:
servoj([-0.012271846226385972, -1.5186409800067848, -1.6352235199167728, -1.492563306689428, 1.6889128474467512, 3.00506836354467], 0.5, 0.5, 0.01, 0.2, 100)

2025-07-07 17:03:22,145 - gym_custom_envs_real_ur_drivers_URBasic_realTimeClientEvent - INFO - Program send to Robot:
servoj([-0.021383692182358884, -1.5186409800067848, -1.632186237926387, -1.4819328197534483, 1.6889128474619375, 3.000512440528718], 0.5, 0.5, 0.01, 0.2, 100)

2025-07-07 17:03:22,161 - gym_custom_envs_real_ur_drivers_URBasic_realTimeClientEvent - INFO - Program send to Robot:
servoj([-0.021474810641918612, -1.5186409800067848, -1.632155865106483, -1.4818265148840883, 1.6889128474620894, 3.0004668812985584], 0.5, 0.5, 0.01, 0.2, 100)

2025-07-07 17:03:22,168 - gym_custom_envs_real_ur_drivers_URBasic_realTimeClientEvent - INFO - Program send to Robot:
servoj([-0.02147572182651421, -1.5186409800067848, -1.6321555613782839, -1.4818254518353948, 1.688912847462091, 3.000466425706257], 0.5, 0.5, 0.01, 0.2, 100)

2025-07-07 17:03:22,177 - gym_custom_envs_real_ur_drivers_URBasic_realTimeClientEvent - INFO - Program send to Robot:
servoj([-0.029068935838394008, -1.5186409800067848, -1.6291182763809882, -1.4727135953248671, 1.688912847462091, 2.995910498210313], 0.5, 0.5, 0.01, 0.2, 100)

2025-07-07 17:03:22,193 - gym_custom_envs_real_ur_drivers_URBasic_realTimeClientEvent - INFO - Program send to Robot:
servoj([-0.029144867978512807, -1.5186409800067848, -1.6290879035310153, -1.4726224767597618, 1.688912847462091, 2.9958649389353535], 0.5, 0.5, 0.01, 0.2, 100)

2025-07-07 17:03:22,200 - gym_custom_envs_real_ur_drivers_URBasic_realTimeClientEvent - INFO - Program send to Robot:
servoj([-0.029145627299913993, -1.5186409800067848, -1.6290875998025156, -1.4726215655741108, 1.688912847462091, 2.995864483342604], 0.5, 0.5, 0.01, 0.2, 100)

2025-07-07 17:03:22,209 - gym_custom_envs_real_ur_drivers_URBasic_realTimeClientEvent - INFO - Program send to Robot:
servoj([-0.038257480773168796, -1.5186409800067848, -1.6275689557852235, -1.461991069602207, 1.688912847462091, 2.99434583780667], 0.5, 0.5, 0.01, 0.2, 100)

2025-07-07 17:03:22,225 - gym_custom_envs_real_ur_drivers_URBasic_realTimeClientEvent - INFO - Program send to Robot:
servoj([-0.03834859930790135, -1.5186409800067848, -1.6275537693450506, -1.461884764642488, 1.688912847462091, 2.994330651351311], 0.5, 0.5, 0.01, 0.2, 100)

2025-07-07 17:03:22,234 - gym_custom_envs_real_ur_drivers_URBasic_realTimeClientEvent - INFO - Program send to Robot:
servoj([-0.045942715393282506, -1.5186409800067848, -1.6260349765006419, -1.45277185571285, 1.688912847462091, 2.994330499486757], 0.5, 0.5, 0.01, 0.2, 100)

2025-07-07 17:03:22,240 - gym_custom_envs_real_ur_drivers_URBasic_realTimeClientEvent - INFO - Program send to Robot:
servoj([-0.04601865655413632, -1.5186409800067848, -1.6260197885721979, -1.4526807266235535, 1.688912847462091, 2.9943304979681113], 0.5, 0.5, 0.01, 0.2, 100)

2025-07-07 17:03:22,249 - gym_custom_envs_real_ur_drivers_URBasic_realTimeClientEvent - INFO - Program send to Robot:
servoj([-0.04601941596574486, -1.5186409800067848, -1.6260196366929134, -1.4526798153326606, 1.688912847462091, 2.9943304979529253], 0.5, 0.5, 0.01, 0.2, 100)

2025-07-07 17:03:22,265 - gym_custom_envs_real_ur_drivers_URBasic_realTimeClientEvent - INFO - Program send to Robot:
servoj([-0.046019423559860946, -1.5186409800067848, -1.6260196351741205, -1.4526798062197517, 1.688912847462091, 2.9943304979527734], 0.5, 0.5, 0.01, 0.2, 100)

2025-07-07 17:03:22,273 - gym_custom_envs_real_ur_drivers_URBasic_realTimeClientEvent - INFO - Program send to Robot:
servoj([-0.05361262853583595, -1.5186409800067848, -1.6245009941789266, -1.4466052422085955, 1.688912847462091, 2.9943304979527716], 0.5, 0.5, 0.01, 0.2, 100)

2025-07-07 17:03:22,281 - gym_custom_envs_real_ur_drivers_URBasic_realTimeClientEvent - INFO - Program send to Robot:
servoj([-0.0536885605855957, -1.5186409800067848, -1.6244858077689746, -1.446544496568484, 1.688912847462091, 2.9943304979527716], 0.5, 0.5, 0.01, 0.2, 100)

2025-07-07 17:03:22,289 - gym_custom_envs_real_ur_drivers_URBasic_realTimeClientEvent - INFO - Program send to Robot:
servoj([-0.0536893199060933, -1.5186409800067848, -1.624485655904875, -1.446543889112083, 1.688912847462091, 2.9943304979527716], 0.5, 0.5, 0.01, 0.2, 100)

2025-07-07 17:03:22,305 - gym_custom_envs_real_ur_drivers_URBasic_realTimeClientEvent - INFO - Program send to Robot:
servoj([-0.06280117337933906, -1.5186409800067848, -1.62144837242622, -1.4450252420575123, 1.688912847462091, 2.991293215992758], 0.5, 0.5, 0.01, 0.2, 100)

2025-07-07 17:03:22,318 - gym_custom_envs_real_ur_drivers_URBasic_realTimeClientEvent - INFO - Program send to Robot:
servoj([-0.06289229191407152, -1.5186409800067848, -1.6214179995914335, -1.4450100555869665, 1.688912847462091, 2.991262843173158], 0.5, 0.5, 0.01, 0.2, 100)

2025-07-07 17:03:22,329 - gym_custom_envs_real_ur_drivers_URBasic_realTimeClientEvent - INFO - Program send to Robot:
servoj([-0.06289320309941884, -1.5186409800067848, -1.6214176958630857, -1.445009903722261, 1.688912847462091, 2.991262539444962], 0.5, 0.5, 0.01, 0.2, 100)

2025-07-07 17:03:22,343 - gym_custom_envs_real_ur_drivers_URBasic_realTimeClientEvent - INFO - Program send to Robot:
servoj([-0.0720050580913131, -1.5201596209867916, -1.6198990518457954, -1.443491261223607, 1.688912847462091, 2.9851879724876524], 0.5, 0.5, 0.01, 0.2, 100)

2025-07-07 17:03:22,353 - gym_custom_envs_real_ur_drivers_URBasic_realTimeClientEvent - INFO - Program send to Robot:
servoj([-0.07209617664123205, -1.5201748073965917, -1.6198838654056225, -1.4434760747986204, 1.688912847462091, 2.9851272268180793], 0.5, 0.5, 0.01, 0.2, 100)

2025-07-07 17:03:22,361 - gym_custom_envs_real_ur_drivers_URBasic_realTimeClientEvent - INFO - Program send to Robot:
servoj([-0.07209708782673123, -1.5201749592606897, -1.6198837135412207, -1.4434759229343705, 1.688912847462091, 2.9851266193613837], 0.5, 0.5, 0.01, 0.2, 100)

2025-07-07 17:03:22,369 - gym_custom_envs_real_ur_drivers_URBasic_realTimeClientEvent - INFO - Program send to Robot:
servoj([-0.081208942818627, -1.5201749607793307, -1.6183650710425699, -1.443475921415728, 1.688912847462091, 2.9744961264267693], 0.5, 0.5, 0.01, 0.2, 100)

2025-07-07 17:03:22,384 - gym_custom_envs_real_ur_drivers_URBasic_realTimeClientEvent - INFO - Program send to Robot:
servoj([-0.08130006136854596, -1.5201749607945172, -1.6183498846175834, -1.4434759214005417, 1.688912847462091, 2.9743898214974234], 0.5, 0.5, 0.01, 0.2, 100)

2025-07-07 17:03:22,393 - gym_custom_envs_real_ur_drivers_URBasic_realTimeClientEvent - INFO - Program send to Robot:
servoj([-0.08130097255404516, -1.520174960794669, -1.6183497327533334, -1.4434759214003898, 1.688912847462091, 2.97438875844813], 0.5, 0.5, 0.01, 0.2, 100)

2025-07-07 17:03:22,409 - gym_custom_envs_real_ur_drivers_URBasic_realTimeClientEvent - INFO - Program send to Robot:
servoj([-0.09041282754594095, -1.521693601774677, -1.615312449274678, -1.4434759214003883, 1.688912847462091, 2.9622396199775824], 0.5, 0.5, 0.01, 0.2, 100)

2025-07-07 17:03:22,417 - gym_custom_envs_real_ur_drivers_URBasic_realTimeClientEvent - INFO - Program send to Robot:
servoj([-0.0905039460958599, -1.521708788184477, -1.6152820764398914, -1.4434759214003883, 1.688912847462091, 2.962118128592877], 0.5, 0.5, 0.01, 0.2, 100)

2025-07-07 17:03:22,432 - gym_custom_envs_real_ur_drivers_URBasic_realTimeClientEvent - INFO - Program send to Robot:
servoj([-0.10113534414140639, -1.523227581028582, -1.6122444907515294, -1.4434759214003883, 1.690431488442098, 2.949967785838976], 0.5, 0.5, 0.01, 0.2, 100)

2025-07-07 17:03:22,442 - gym_custom_envs_real_ur_drivers_URBasic_realTimeClientEvent - INFO - Program send to Robot:
servoj([-0.10124165812186185, -1.5232427689570232, -1.6122141148946458, -1.4434759214003883, 1.690446674851898, 2.9498462824114373], 0.5, 0.5, 0.01, 0.2, 100)

2025-07-07 17:03:22,457 - gym_custom_envs_real_ur_drivers_URBasic_realTimeClientEvent - INFO - Program send to Robot:
servoj([-0.1012427212616664, -1.5232429208363076, -1.612213811136077, -1.4434759214003883, 1.690446826715996, 2.949845067377162], 0.5, 0.5, 0.01, 0.2, 100)

2025-07-07 17:03:22,465 - gym_custom_envs_real_ur_drivers_URBasic_realTimeClientEvent - INFO - Program send to Robot:
servoj([-0.11642914169313213, -1.5262802043151138, -1.6106951671184846, -1.4434759214003883, 1.690446828234637, 2.940733209346778], 0.5, 0.5, 0.01, 0.2, 100)

2025-07-07 17:03:22,474 - gym_custom_envs_real_ur_drivers_URBasic_realTimeClientEvent - INFO - Program send to Robot:
servoj([-0.11658100589744678, -1.526310577149902, -1.6106799806783088, -1.4434759214003883, 1.6904468282498235, 2.9406420907664743], 0.5, 0.5, 0.01, 0.2, 100)

2025-07-07 17:03:22,490 - gym_custom_envs_real_ur_drivers_URBasic_realTimeClientEvent - INFO - Program send to Robot:
servoj([-0.13176893433955808, -1.5278295218582567, -1.607642546853894, -1.4434759214003883, 1.6904468282499752, 2.931529333700631], 0.5, 0.5, 0.01, 0.2, 100)

2025-07-07 17:03:22,498 - gym_custom_envs_real_ur_drivers_URBasic_realTimeClientEvent - INFO - Program send to Robot:
servoj([-0.13192081362397917, -1.5278447113053402, -1.6076121725156498, -1.4434759214003883, 1.6904468282499767, 2.931438206129972], 0.5, 0.5, 0.01, 0.2, 100)

2025-07-07 17:03:22,505 - gym_custom_envs_real_ur_drivers_URBasic_realTimeClientEvent - INFO - Program send to Robot:
servoj([-0.13192233241682338, -1.527844863199811, -1.6076118687722674, -1.4434759214003883, 1.6904468282499767, 2.9314372948542657], 0.5, 0.5, 0.01, 0.2, 100)

2025-07-07 17:03:22,514 - gym_custom_envs_real_ur_drivers_URBasic_realTimeClientEvent - INFO - Program send to Robot:
servoj([-0.13192234760475183, -1.5278448647187557, -1.6076118657348335, -1.4434759214003883, 1.6904468282499767, 2.9314372857415085], 0.5, 0.5, 0.01, 0.2, 100)

2025-07-07 17:03:22,529 - gym_custom_envs_real_ur_drivers_URBasic_realTimeClientEvent - INFO - Program send to Robot:
servoj([-0.1471087575566988, -1.527844864733945, -1.6045745837444452, -1.4434759214003883, 1.6904468282499767, 2.9238440807503467], 0.5, 0.5, 0.01, 0.2, 100)

2025-07-07 17:03:22,538 - gym_custom_envs_real_ur_drivers_URBasic_realTimeClientEvent - INFO - Program send to Robot:
servoj([-0.14726062165621828, -1.527844864734097, -1.6045442109245414, -1.4434759214003883, 1.6904468282499767, 2.9237681487004354], 0.5, 0.5, 0.01, 0.2, 100)

2025-07-07 17:03:22,546 - gym_custom_envs_real_ur_drivers_URBasic_realTimeClientEvent - INFO - Program send to Robot:
servoj([-0.14726214029721346, -1.5278448647340985, -1.6045439071963423, -1.4434759214003883, 1.6904468282499767, 2.923767389379936], 0.5, 0.5, 0.01, 0.2, 100)

2025-07-07 17:03:22,553 - gym_custom_envs_real_ur_drivers_URBasic_realTimeClientEvent - INFO - Program send to Robot:
servoj([-0.14726215548362342, -1.5278448647340985, -1.6045439041590603, -1.4434759214003883, 1.6904468282499767, 2.923767381786731], 0.5, 0.5, 0.01, 0.2, 100)

2025-07-07 17:03:22,570 - gym_custom_envs_real_ur_drivers_URBasic_realTimeClientEvent - INFO - Program send to Robot:
servoj([-0.16244856543555522, -1.5278448647340985, -1.6045439041286875, -1.4434759214003883, 1.6904468282499767, 2.9161741768107654], 0.5, 0.5, 0.01, 0.2, 100)

2025-07-07 17:03:22,577 - gym_custom_envs_real_ur_drivers_URBasic_realTimeClientEvent - INFO - Program send to Robot:
servoj([-0.16260042953507453, -1.5278448647340985, -1.6045439041283838, -1.4434759214003883, 1.6904468282499767, 2.9160982447610055], 0.5, 0.5, 0.01, 0.2, 100)

2025-07-07 17:03:22,586 - gym_custom_envs_real_ur_drivers_URBasic_realTimeClientEvent - INFO - Program send to Robot:
servoj([-0.17930699895614435, -1.5293635057141055, -1.6015066221683667, -1.4434759214003883, 1.6904468282499767, 2.90546699858046], 0.5, 0.5, 0.01, 0.2, 100)

2025-07-07 17:03:22,601 - gym_custom_envs_real_ur_drivers_URBasic_realTimeClientEvent - INFO - Program send to Robot:
servoj([-0.17947406465035504, -1.5293786921239056, -1.6014762493487664, -1.4434759214003883, 1.6904468282499767, 2.9053606861186547], 0.5, 0.5, 0.01, 0.2, 100)

2025-07-07 17:03:22,611 - gym_custom_envs_real_ur_drivers_URBasic_realTimeClientEvent - INFO - Program send to Robot:
servoj([-0.17947573530729716, -1.5293788439880036, -1.6014759456205705, -1.4434759214003883, 1.6904468282499767, 2.9053596229940366], 0.5, 0.5, 0.01, 0.2, 100)

2025-07-07 17:03:22,619 - gym_custom_envs_real_ur_drivers_URBasic_realTimeClientEvent - INFO - Program send to Robot:
servoj([-0.19618080279394162, -1.5308974864866514, -1.5999573016032826, -1.4434759214003883, 1.6904468282499767, 2.89624776648275], 0.5, 0.5, 0.01, 0.2, 100)

2025-07-07 17:03:22,624 - gym_custom_envs_real_ur_drivers_URBasic_realTimeClientEvent - INFO - Program send to Robot:
servoj([-0.19634785346880806, -1.5309126729116378, -1.59994211516311, -1.4434759214003883, 1.6904468282499767, 2.8961566479176373], 0.5, 0.5, 0.01, 0.2, 100)

2025-07-07 17:03:22,642 - gym_custom_envs_real_ur_drivers_URBasic_realTimeClientEvent - INFO - Program send to Robot:
servoj([-0.19634952397555674, -1.5309128247758876, -1.5999419632987082, -1.4434759214003883, 1.6904468282499767, 2.896155736731986], 0.5, 0.5, 0.01, 0.2, 100)

2025-07-07 17:03:22,649 - gym_custom_envs_real_ur_drivers_URBasic_realTimeClientEvent - INFO - Program send to Robot:
servoj([-0.1963495406806242, -1.5309128262945302, -1.599941961780064, -1.4434759214003883, 1.6904468282499767, 2.8961557276201297], 0.5, 0.5, 0.01, 0.2, 100)

2025-07-07 17:03:22,657 - gym_custom_envs_real_ur_drivers_URBasic_realTimeClientEvent - INFO - Program send to Robot:
servoj([-0.216091873587763, -1.5324314672897232, -1.5984233207848706, -1.4434759214003883, 1.6904468282499767, 2.8824879587089502], 0.5, 0.5, 0.01, 0.2, 100)

2025-07-07 17:03:22,665 - gym_custom_envs_real_ur_drivers_URBasic_realTimeClientEvent - INFO - Program send to Robot:
servoj([-0.21628929691683438, -1.532446653699675, -1.5984081343749188, -1.4434759214003883, 1.6904468282499767, 2.8823512810198384], 0.5, 0.5, 0.01, 0.2, 100)

2025-07-07 17:03:22,681 - gym_custom_envs_real_ur_drivers_URBasic_realTimeClientEvent - INFO - Program send to Robot:
servoj([-0.21629127115012511, -1.5324468055637746, -1.5984079825108193, -1.4434759214003883, 1.6904468282499767, 2.882349914242947], 0.5, 0.5, 0.01, 0.2, 100)

2025-07-07 17:03:22,688 - gym_custom_envs_real_ur_drivers_URBasic_realTimeClientEvent - INFO - Program send to Robot:
servoj([-0.2360336236325461, -1.5324468070824155, -1.5984079809921783, -1.4434759214003883, 1.6904468282499767, 2.870200772735124], 0.5, 0.5, 0.01, 0.2, 100)

2025-07-07 17:03:22,696 - gym_custom_envs_real_ur_drivers_URBasic_realTimeClientEvent - INFO - Program send to Robot:
servoj([-0.23623104715737028, -1.532446807097602, -1.5984079809769918, -1.4434759214003883, 1.6904468282499767, 2.8700792813200455], 0.5, 0.5, 0.01, 0.2, 100)

2025-07-07 17:03:22,714 - gym_custom_envs_real_ur_drivers_URBasic_realTimeClientEvent - INFO - Program send to Robot:
servoj([-0.25749399511271354, -1.5339654480777607, -1.596889339996833, -1.4434759214003883, 1.6904468282499767, 2.8579289385658404], 0.5, 0.5, 0.01, 0.2, 100)

2025-07-07 17:03:22,721 - gym_custom_envs_real_ur_drivers_URBasic_realTimeClientEvent - INFO - Program send to Robot:
servoj([-0.25770662459226695, -1.5339806344875622, -1.5968741535870314, -1.4434759214003883, 1.6904468282499767, 2.857807435138298], 0.5, 0.5, 0.01, 0.2, 100)

2025-07-07 17:03:22,730 - gym_custom_envs_real_ur_drivers_URBasic_realTimeClientEvent - INFO - Program send to Robot:
servoj([-0.2577087508870625, -1.5339807863516601, -1.5968740017229333, -1.4434759214003883, 1.6904468282499767, 2.8578062201040226], 0.5, 0.5, 0.01, 0.2, 100)

2025-07-07 17:03:22,739 - gym_custom_envs_real_ur_drivers_URBasic_realTimeClientEvent - INFO - Program send to Robot:
servoj([-0.2577087721500105, -1.5339807878703011, -1.5968740002042923, -1.4434759214003883, 1.6904468282499767, 2.85780620795368], 0.5, 0.5, 0.01, 0.2, 100)

2025-07-07 17:03:22,755 - gym_custom_envs_real_ur_drivers_URBasic_realTimeClientEvent - INFO - Program send to Robot:
servoj([-0.28048838706274193, -1.5354994288654946, -1.596874000189106, -1.4434759214003883, 1.6904468282499767, 2.847175720972129], 0.5, 0.5, 0.01, 0.2, 100)

2025-07-07 17:03:22,763 - gym_custom_envs_real_ur_drivers_URBasic_realTimeClientEvent - INFO - Program send to Robot:
servoj([-0.28071618321186925, -1.5355146152754466, -1.596874000188954, -1.4434759214003883, 1.6904468282499767, 2.847069416102314], 0.5, 0.5, 0.01, 0.2, 100)

2025-07-07 17:03:22,768 - gym_custom_envs_real_ur_drivers_URBasic_realTimeClientEvent - INFO - Program send to Robot:
servoj([-0.2807184611733605, -1.5355147671395462, -1.5968740001889525, -1.4434759214003883, 1.6904468282499767, 2.847068353053616], 0.5, 0.5, 0.01, 0.2, 100)

2025-07-07 17:03:22,786 - gym_custom_envs_real_ur_drivers_URBasic_realTimeClientEvent - INFO - Program send to Robot:
servoj([-0.3004608166930635, -1.537033409638194, -1.5983926411689595, -1.4434759214003883, 1.6919654692299835, 2.834919214583074], 0.5, 0.5, 0.01, 0.2, 100)

2025-07-07 17:03:22,793 - gym_custom_envs_real_ur_drivers_URBasic_realTimeClientEvent - INFO - Program send to Robot:
servoj([-0.30065824024826054, -1.5370485960631803, -1.5984078275787597, -1.4434759214003883, 1.6919806556397836, 2.8347977231983688], 0.5, 0.5, 0.01, 0.2, 100)

2025-07-07 17:03:22,802 - gym_custom_envs_real_ur_drivers_URBasic_realTimeClientEvent - INFO - Program send to Robot:
servoj([-0.30066021448381247, -1.5370487479274302, -1.5984079794428576, -1.4434759214003883, 1.6919808075038816, 2.834796508284522], 0.5, 0.5, 0.01, 0.2, 100)

2025-07-07 17:03:22,811 - gym_custom_envs_real_ur_drivers_URBasic_realTimeClientEvent - INFO - Program send to Robot:
servoj([-0.31888392598624915, -1.5385673904260795, -1.5984079809614986, -1.4419572804203815, 1.6919808090225226, 2.824166009275336], 0.5, 0.5, 0.01, 0.2, 100)

2025-07-07 17:03:22,827 - gym_custom_envs_real_ur_drivers_URBasic_realTimeClientEvent - INFO - Program send to Robot:
servoj([-0.31906616310127356, -1.538582576851066, -1.598407980976685, -1.4419420940105814, 1.691980809037709, 2.824059704285244], 0.5, 0.5, 0.01, 0.2, 100)

2025-07-07 17:03:22,836 - gym_custom_envs_real_ur_drivers_URBasic_realTimeClientEvent - INFO - Program send to Robot:
servoj([-0.31906798547242377, -1.5385827287153158, -1.5984079809768368, -1.4419419421464834, 1.691980809037861, 2.824058641235343], 0.5, 0.5, 0.01, 0.2, 100)

2025-07-07 17:03:22,841 - gym_custom_envs_real_ur_drivers_URBasic_realTimeClientEvent - INFO - Program send to Robot:
servoj([-0.3190680036961353, -1.5385827302339583, -1.5984079809768383, -1.4419419406278424, 1.6919808090378623, 2.8240586306048443], 0.5, 0.5, 0.01, 0.2, 100)

2025-07-07 17:03:22,861 - gym_custom_envs_real_ur_drivers_URBasic_realTimeClientEvent - INFO - Program send to Robot:
servoj([-0.337291695638454, -1.5401013712291516, -1.5984079809768383, -1.441941940612656, 1.6919808090378625, 2.813428143638492], 0.5, 0.5, 0.01, 0.2, 100)

2025-07-07 17:03:22,865 - gym_custom_envs_real_ur_drivers_URBasic_realTimeClientEvent - INFO - Program send to Robot:
servoj([-0.33747393255787717, -1.5401165576391036, -1.5984079809768383, -1.4419419406125042, 1.6919808090378625, 2.8133218387688284], 0.5, 0.5, 0.01, 0.2, 100)

2025-07-07 17:03:22,881 - gym_custom_envs_real_ur_drivers_URBasic_realTimeClientEvent - INFO - Program send to Robot:
servoj([-0.35418080570714605, -1.5416353504832097, -1.5984079809768383, -1.4419419406125027, 1.6919808090378625, 2.801171647880077], 0.5, 0.5, 0.01, 0.2, 100)

2025-07-07 17:03:22,889 - gym_custom_envs_real_ur_drivers_URBasic_realTimeClientEvent - INFO - Program send to Robot:
servoj([-0.3543478744386387, -1.5416505384116508, -1.5984079809768383, -1.4419419406125027, 1.6919808090378625, 2.80105014597119], 0.5, 0.5, 0.01, 0.2, 100)

2025-07-07 17:03:22,901 - gym_custom_envs_real_ur_drivers_URBasic_realTimeClientEvent - INFO - Program send to Robot:
servoj([-0.3543495451259536, -1.541650690290935, -1.5984079809768383, -1.4419419406125027, 1.6919808090378625, 2.801048930952101], 0.5, 0.5, 0.01, 0.2, 100)

2025-07-07 17:03:22,913 - gym_custom_envs_real_ur_drivers_URBasic_realTimeClientEvent - INFO - Program send to Robot:
servoj([-0.36801733065288794, -1.5431693327897347, -1.5984079809768383, -1.4419419406125027, 1.6919808090378625, 2.7919370729218693], 0.5, 0.5, 0.01, 0.2, 100)

2025-07-07 17:03:22,925 - gym_custom_envs_real_ur_drivers_URBasic_realTimeClientEvent - INFO - Program send to Robot:
servoj([-0.36815400850815727, -1.5431845192147227, -1.5984079809768383, -1.4419419406125027, 1.6919808090378625, 2.791845954341567], 0.5, 0.5, 0.01, 0.2, 100)

2025-07-07 17:03:22,929 - gym_custom_envs_real_ur_drivers_URBasic_realTimeClientEvent - INFO - Program send to Robot:
servoj([-0.36815537528671, -1.5431846710789725, -1.5984079809768383, -1.4419419406125027, 1.6919808090378625, 2.791845043155764], 0.5, 0.5, 0.01, 0.2, 100)

2025-07-07 17:03:22,949 - gym_custom_envs_real_ur_drivers_URBasic_realTimeClientEvent - INFO - Program send to Robot:
servoj([-0.37726723483453634, -1.5447033135776218, -1.5984079809768383, -1.4419419406125027, 1.6919808090378625, 2.7842518291438716], 0.5, 0.5, 0.01, 0.2, 100)

2025-07-07 17:03:22,953 - gym_custom_envs_real_ur_drivers_URBasic_realTimeClientEvent - INFO - Program send to Robot:
servoj([-0.3773583534300146, -1.5447185000026085, -1.5984079809768383, -1.4419419406125027, 1.6919808090378625, 2.784175897003753], 0.5, 0.5, 0.01, 0.2, 100)

2025-07-07 17:03:22,974 - gym_custom_envs_real_ur_drivers_URBasic_realTimeClientEvent - INFO - Program send to Robot:
servoj([-0.3864711104960097, -1.5492745748068788, -1.5984079809768383, -1.4419419406125027, 1.6919808090378625, 2.776581932782318], 0.5, 0.5, 0.01, 0.2, 100)

2025-07-07 17:03:22,977 - gym_custom_envs_real_ur_drivers_URBasic_realTimeClientEvent - INFO - Program send to Robot:
servoj([-0.38656223806666967, -1.5493201355549213, -1.5984079809768383, -1.4419419406125027, 1.6919808090378625, 2.7765059931401037], 0.5, 0.5, 0.01, 0.2, 100)

2025-07-07 17:03:22,999 - gym_custom_envs_real_ur_drivers_URBasic_realTimeClientEvent - INFO - Program send to Robot:
servoj([-0.38656314934237623, -1.549320591162402, -1.5984079809768383, -1.4419419406125027, 1.6919808090378625, 2.7765052337436815], 0.5, 0.5, 0.01, 0.2, 100)

2025-07-07 17:03:23,009 - gym_custom_envs_real_ur_drivers_URBasic_realTimeClientEvent - INFO - Program send to Robot:
servoj([-0.3956750043351741, -1.55235787767849, -1.5984079809768383, -1.4419419406125027, 1.6919808090378625, 2.7719493032096967], 0.5, 0.5, 0.01, 0.2, 100)

2025-07-07 17:03:23,017 - gym_custom_envs_real_ur_drivers_URBasic_realTimeClientEvent - INFO - Program send to Robot:
servoj([-0.39576612288510205, -1.552388250543651, -1.5984079809768383, -1.4419419406125027, 1.6919808090378625, 2.7719037439043572], 0.5, 0.5, 0.01, 0.2, 100)

2025-07-07 17:03:23,025 - gym_custom_envs_real_ur_drivers_URBasic_realTimeClientEvent - INFO - Program send to Robot:
servoj([-0.3957670340706014, -1.5523885542723026, -1.5984079809768383, -1.4419419406125027, 1.6919808090378625, 2.7719032883113037], 0.5, 0.5, 0.01, 0.2, 100)

2025-07-07 17:03:23,040 - gym_custom_envs_real_ur_drivers_URBasic_realTimeClientEvent - INFO - Program send to Robot:
servoj([-0.40184160710248373, -1.5569444802496097, -1.5984079809768383, -1.4419419406125027, 1.6919808090378625, 2.7673473608153523], 0.5, 0.5, 0.01, 0.2, 100)

2025-07-07 17:03:23,049 - gym_custom_envs_real_ur_drivers_URBasic_realTimeClientEvent - INFO - Program send to Robot:
servoj([-0.4019023528328025, -1.5569900395093828, -1.5984079809768383, -1.4419419406125027, 1.6919808090378625, 2.767301801540393], 0.5, 0.5, 0.01, 0.2, 100)

2025-07-07 17:03:23,057 - gym_custom_envs_real_ur_drivers_URBasic_realTimeClientEvent - INFO - Program send to Robot:
servoj([-0.4019029602901057, -1.5569904951019804, -1.5984079809768383, -1.4419419406125027, 1.6919808090378625, 2.767301345947643], 0.5, 0.5, 0.01, 0.2, 100)

2025-07-07 17:03:23,072 - gym_custom_envs_real_ur_drivers_URBasic_realTimeClientEvent - INFO - Program send to Robot:
servoj([-0.4079775302847056, -1.56002778161792, -1.5984079809768383, -1.4419419406125027, 1.6919808090378625, 2.7642640594317025], 0.5, 0.5, 0.01, 0.2, 100)

2025-07-07 17:03:23,080 - gym_custom_envs_real_ur_drivers_URBasic_realTimeClientEvent - INFO - Program send to Robot:
servoj([-0.4080382759846516, -1.5600581544830794, -1.5984079809768383, -1.4419419406125027, 1.6919808090378625, 2.764233686566543], 0.5, 0.5, 0.01, 0.2, 100)

2025-07-07 17:03:23,094 - gym_custom_envs_real_ur_drivers_URBasic_realTimeClientEvent - INFO - Program send to Robot:
servoj([-0.40803888344165107, -1.560058458211731, -1.5984079809768383, -1.4419419406125027, 1.6919808090378625, 2.7642333828378916], 0.5, 0.5, 0.01, 0.2, 100)

2025-07-07 17:03:23,105 - gym_custom_envs_real_ur_drivers_URBasic_realTimeClientEvent - INFO - Program send to Robot:
servoj([-0.40955753049622806, -1.5646143841890376, -1.5984079809768383, -1.4419419406125027, 1.6919808090378625, 2.761196097840591], 0.5, 0.5, 0.01, 0.2, 100)

2025-07-07 17:03:23,113 - gym_custom_envs_real_ur_drivers_URBasic_realTimeClientEvent - INFO - Program send to Robot:
servoj([-0.40957271696677383, -1.5646599434488109, -1.5984079809768383, -1.4419419406125027, 1.6919808090378625, 2.7611657249906183], 0.5, 0.5, 0.01, 0.2, 100)

2025-07-07 17:03:23,121 - gym_custom_envs_real_ur_drivers_URBasic_realTimeClientEvent - INFO - Program send to Robot:
servoj([-0.40957286883147925, -1.5646603990414085, -1.5984079809768383, -1.4419419406125027, 1.6919808090378625, 2.7611654212621186], 0.5, 0.5, 0.01, 0.2, 100)

2025-07-07 17:03:23,137 - gym_custom_envs_real_ur_drivers_URBasic_realTimeClientEvent - INFO - Program send to Robot:
servoj([-0.4110915113301333, -1.5676976855573481, -1.5984079809768383, -1.4419419406125027, 1.6919808090378625, 2.7611654182248335], 0.5, 0.5, 0.01, 0.2, 100)

2025-07-07 17:03:23,145 - gym_custom_envs_real_ur_drivers_URBasic_realTimeClientEvent - INFO - Program send to Robot:
servoj([-0.4111066977551198, -1.5677280584225075, -1.5984079809768383, -1.4419419406125027, 1.6919808090378625, 2.7611654181944605], 0.5, 0.5, 0.01, 0.2, 100)

2025-07-07 17:03:23,153 - gym_custom_envs_real_ur_drivers_URBasic_realTimeClientEvent - INFO - Program send to Robot:
servoj([-0.41110684961936966, -1.567728362151159, -1.5984079809768383, -1.4419419406125027, 1.6919808090378625, 2.7611654181941567], 0.5, 0.5, 0.01, 0.2, 100)

2025-07-07 17:03:23,168 - gym_custom_envs_real_ur_drivers_URBasic_realTimeClientEvent - INFO - Program send to Robot:
servoj([-0.41110685113801215, -1.5722842881284658, -1.5984079809768383, -1.4404232996324962, 1.6919808090378625, 2.761165418194154], 0.5, 0.5, 0.01, 0.2, 100)

2025-07-07 17:03:23,177 - gym_custom_envs_real_ur_drivers_URBasic_realTimeClientEvent - INFO - Program send to Robot:
servoj([-0.41110685115319856, -1.572329847388239, -1.5984079809768383, -1.440408113222696, 1.6919808090378625, 2.761165418194154], 0.5, 0.5, 0.01, 0.2, 100)

2025-07-07 17:03:23,189 - gym_custom_envs_real_ur_drivers_URBasic_realTimeClientEvent - INFO - Program send to Robot:
servoj([-0.41110685115335044, -1.5723303029808366, -1.5984079809768383, -1.440407961358598, 1.6919808090378625, 2.761165418194154], 0.5, 0.5, 0.01, 0.2, 100)

2025-07-07 17:03:23,201 - gym_custom_envs_real_ur_drivers_URBasic_realTimeClientEvent - INFO - Program send to Robot:
servoj([-0.411106851153352, -1.5753675894967762, -1.5984079809768383, -1.4343333959199298, 1.6919808090378625, 2.761165418194154], 0.5, 0.5, 0.01, 0.2, 100)

2025-07-07 17:03:23,213 - gym_custom_envs_real_ur_drivers_URBasic_realTimeClientEvent - INFO - Program send to Robot:
servoj([-0.411106851153352, -1.5753979623619356, -1.5984079809768383, -1.4342726502655432, 1.6919808090378625, 2.761165418194154], 0.5, 0.5, 0.01, 0.2, 100)

2025-07-07 17:03:23,216 - gym_custom_envs_real_ur_drivers_URBasic_realTimeClientEvent - INFO - Program send to Robot:
servoj([-0.411106851153352, -1.5753982660905874, -1.5984079809768383, -1.4342720428089992, 1.6919808090378625, 2.761165418194154], 0.5, 0.5, 0.01, 0.2, 100)

2025-07-07 17:03:23,238 - gym_custom_envs_real_ur_drivers_URBasic_realTimeClientEvent - INFO - Program send to Robot:
servoj([-0.411106851153352, -1.5784355510878874, -1.5968893399968314, -1.4236415498743862, 1.6934994500178686, 2.761165418194154], 0.5, 0.5, 0.01, 0.2, 100)

2025-07-07 17:03:23,241 - gym_custom_envs_real_ur_drivers_URBasic_realTimeClientEvent - INFO - Program send to Robot:
servoj([-0.411106851153352, -1.5784659239378604, -1.5968741535870314, -1.42353524494504, 1.6935146364276685, 2.761165418194154], 0.5, 0.5, 0.01, 0.2, 100)

2025-07-07 17:03:23,257 - gym_custom_envs_real_ur_drivers_URBasic_realTimeClientEvent - INFO - Program send to Robot:
servoj([-0.411106851153352, -1.5784662276663601, -1.5968740017229333, -1.4235341818957468, 1.6935147882917665, 2.761165418194154], 0.5, 0.5, 0.01, 0.2, 100)

2025-07-07 17:03:23,264 - gym_custom_envs_real_ur_drivers_URBasic_realTimeClientEvent - INFO - Program send to Robot:
servoj([-0.411106851153352, -1.578466230703645, -1.5938367182442783, -1.4098664024451928, 1.6950334307904145, 2.761165418194154], 0.5, 0.5, 0.01, 0.2, 100)

2025-07-07 17:03:23,273 - gym_custom_envs_real_ur_drivers_URBasic_realTimeClientEvent - INFO - Program send to Robot:
servoj([-0.411106851153352, -1.578466230734018, -1.593806345409492, -1.4097297246506872, 1.695048617215401, 2.761165418194154], 0.5, 0.5, 0.01, 0.2, 100)

2025-07-07 17:03:23,288 - gym_custom_envs_real_ur_drivers_URBasic_realTimeClientEvent - INFO - Program send to Robot:
servoj([-0.411106851153352, -1.5784662307343216, -1.593806041681144, -1.4097283578727422, 1.695048769079651, 2.761165418194154], 0.5, 0.5, 0.01, 0.2, 100)

2025-07-07 17:03:23,297 - gym_custom_envs_real_ur_drivers_URBasic_realTimeClientEvent - INFO - Program send to Robot:
servoj([-0.411106851153352, -1.583022153674345, -1.5907687566838478, -1.3975792163649083, 1.6965674115783003, 2.761165418194154], 0.5, 0.5, 0.01, 0.2, 100)

2025-07-07 17:03:23,309 - gym_custom_envs_real_ur_drivers_URBasic_realTimeClientEvent - INFO - Program send to Robot:
servoj([-0.411106851153352, -1.5830677129037452, -1.5907383838338747, -1.3974577249498301, 1.696582598003287, 2.761165418194154], 0.5, 0.5, 0.01, 0.2, 100)

2025-07-07 17:03:23,321 - gym_custom_envs_real_ur_drivers_URBasic_realTimeClientEvent - INFO - Program send to Robot:
servoj([-0.411106851153352, -1.5830681684960393, -1.590738080105375, -1.3974565100356793, 1.6965827498675368, 2.761165418194154], 0.5, 0.5, 0.01, 0.2, 100)

2025-07-07 17:03:23,333 - gym_custom_envs_real_ur_drivers_URBasic_realTimeClientEvent - INFO - Program send to Robot:
servoj([-0.411106851153352, -1.586105455011976, -1.589219436088083, -1.388344652006497, 1.70569459726622, 2.761165418194154], 0.5, 0.5, 0.01, 0.2, 100)

2025-07-07 17:03:23,337 - gym_custom_envs_real_ur_drivers_URBasic_realTimeClientEvent - INFO - Program send to Robot:
servoj([-0.411106851153352, -1.5861358278771354, -1.58920424964791, -1.3882535334262052, 1.7057857157402068, 2.761165418194154], 0.5, 0.5, 0.01, 0.2, 100)

2025-07-07 17:03:23,358 - gym_custom_envs_real_ur_drivers_URBasic_realTimeClientEvent - INFO - Program send to Robot:
servoj([-0.411106851153352, -1.5876547725857937, -1.5876854568035013, -1.3821780583203749, 1.7133798318249804, 2.761165418194154], 0.5, 0.5, 0.01, 0.2, 100)

2025-07-07 17:03:23,361 - gym_custom_envs_real_ur_drivers_URBasic_realTimeClientEvent - INFO - Program send to Robot:
servoj([-0.411106851153352, -1.5876699620328802, -1.5876702688750572, -1.3821173035693166, 1.7134557729858282, 2.761165418194154], 0.5, 0.5, 0.01, 0.2, 100)

2025-07-07 17:03:23,377 - gym_custom_envs_real_ur_drivers_URBasic_realTimeClientEvent - INFO - Program send to Robot:
servoj([-0.411106851153352, -1.587670113927351, -1.5876701169957728, -1.382116696021806, 1.7134565323974367, 2.761165418194154], 0.5, 0.5, 0.01, 0.2, 100)

2025-07-07 17:03:23,385 - gym_custom_envs_real_ur_drivers_URBasic_realTimeClientEvent - INFO - Program send to Robot:
servoj([-0.411106851153352, -1.5876701154462958, -1.58767011547698, -1.382116689946331, 1.7134565399915527, 2.761165418194154], 0.5, 0.5, 0.01, 0.2, 100)

2025-07-07 17:03:23,400 - gym_custom_envs_real_ur_drivers_URBasic_realTimeClientEvent - INFO - Program send to Robot:
servoj([-0.411106851153352, -1.589188756441492, -1.586151474481785, -1.3790794079255628, 1.721049744967528, 2.7626840591741613], 0.5, 0.5, 0.01, 0.2, 100)

2025-07-07 17:03:23,409 - gym_custom_envs_real_ur_drivers_URBasic_realTimeClientEvent - INFO - Program send to Robot:
servoj([-0.411106851153352, -1.589203942851444, -1.586136288071833, -1.3790490351053553, 1.7211256770172878, 2.762699245583961], 0.5, 0.5, 0.01, 0.2, 100)

2025-07-07 17:03:23,417 - gym_custom_envs_real_ur_drivers_URBasic_realTimeClientEvent - INFO - Program send to Robot:
servoj([-0.411106851153352, -1.5892040947155435, -1.5861361362077335, -1.3790487313771531, 1.7211264363377854, 2.762699397448059], 0.5, 0.5, 0.01, 0.2, 100)

2025-07-07 17:03:23,433 - gym_custom_envs_real_ur_drivers_URBasic_realTimeClientEvent - INFO - Program send to Robot:
servoj([-0.411106851153352, -1.592241378194198, -1.5830988527290795, -1.3790487283398711, 1.7272010078510172, 2.7626993989667], 0.5, 0.5, 0.01, 0.2, 100)

2025-07-07 17:03:23,440 - gym_custom_envs_real_ur_drivers_URBasic_realTimeClientEvent - INFO - Program send to Robot:
servoj([-0.411106851153352, -1.5922717510289845, -1.583068479894293, -1.3790487283094983, 1.7272617535661494, 2.7626993989818867], 0.5, 0.5, 0.01, 0.2, 100)

2025-07-07 17:03:23,453 - gym_custom_envs_real_ur_drivers_URBasic_realTimeClientEvent - INFO - Program send to Robot:
servoj([-0.411106851153352, -1.5953093367173459, -1.583068176165945, -1.3790487283091946, 1.7287810020033076, 2.7626993989820385], 0.5, 0.5, 0.01, 0.2, 100)

2025-07-07 17:03:23,456 - gym_custom_envs_real_ur_drivers_URBasic_rtdeEvent - INFO - Total packages: 1000
2025-07-07 17:03:23,465 - gym_custom_envs_real_ur_drivers_URBasic_realTimeClientEvent - INFO - Program send to Robot:
servoj([-0.411106851153352, -1.5953397125742295, -1.5830681731286615, -1.3790487283091917, 1.7287961944876793, 2.76269939898204], 0.5, 0.5, 0.01, 0.2, 100)

2025-07-07 17:03:23,477 - gym_custom_envs_real_ur_drivers_URBasic_realTimeClientEvent - INFO - Program send to Robot:
servoj([-0.411106851153352, -1.5953400163327984, -1.5830681730982887, -1.3790487283091915, 1.728796346412523, 2.76269939898204], 0.5, 0.5, 0.01, 0.2, 100)

2025-07-07 17:03:23,480 - gym_custom_envs_real_ur_drivers_URBasic_realTimeClientEvent - INFO - Program send to Robot:
servoj([-0.411106851153352, -1.595340019370384, -1.5830681730979852, -1.3790487283091915, 1.7287963479317714, 2.76269939898204], 0.5, 0.5, 0.01, 0.2, 100)

2025-07-07 17:03:23,502 - gym_custom_envs_real_ur_drivers_URBasic_realTimeClientEvent - INFO - Program send to Robot:
servoj([-0.411106851153352, -1.5998959423407804, -1.583068173097982, -1.3790487283091915, 1.728796347946964, 2.76269939898204], 0.5, 0.5, 0.01, 0.2, 100)

2025-07-07 17:03:23,513 - gym_custom_envs_real_ur_drivers_URBasic_realTimeClientEvent - INFO - Program send to Robot:
servoj([-0.411106851153352, -1.5999415015704843, -1.583068173097982, -1.3790487283091915, 1.7287963479471158, 2.76269939898204], 0.5, 0.5, 0.01, 0.2, 100)

2025-07-07 17:03:23,526 - gym_custom_envs_real_ur_drivers_URBasic_realTimeClientEvent - INFO - Program send to Robot:
servoj([-0.411106851153352, -1.6014605981427879, -1.583068173097982, -1.3790487283091915, 1.7287963479471173, 2.76269939898204], 0.5, 0.5, 0.01, 0.2, 100)

2025-07-07 17:03:23,528 - gym_custom_envs_real_ur_drivers_URBasic_realTimeClientEvent - INFO - Program send to Robot:
servoj([-0.411106851153352, -1.601475789108511, -1.583068173097982, -1.3790487283091915, 1.7287963479471173, 2.76269939898204], 0.5, 0.5, 0.01, 0.2, 100)

2025-07-07 17:03:23,549 - gym_custom_envs_real_ur_drivers_URBasic_realTimeClientEvent - INFO - Program send to Robot:
servoj([-0.40958821017334507, -1.6014759410181683, -1.583068173097982, -1.3790487283091915, 1.7287963479471173, 2.76269939898204], 0.5, 0.5, 0.01, 0.2, 100)

2025-07-07 17:03:23,553 - gym_custom_envs_real_ur_drivers_URBasic_realTimeClientEvent - INFO - Program send to Robot:
servoj([-0.409573023763545, -1.6014759425372647, -1.583068173097982, -1.3790487283091915, 1.7287963479471173, 2.76269939898204], 0.5, 0.5, 0.01, 0.2, 100)

2025-07-07 17:03:23,573 - gym_custom_envs_real_ur_drivers_URBasic_realTimeClientEvent - INFO - Program send to Robot:
servoj([-0.40957287189944697, -1.6014759425524556, -1.583068173097982, -1.3790487283091915, 1.7287963479471173, 2.76269939898204], 0.5, 0.5, 0.01, 0.2, 100)

2025-07-07 17:03:23,577 - gym_custom_envs_real_ur_drivers_URBasic_realTimeClientEvent - INFO - Program send to Robot:
servoj([-0.40957287038080603, -1.6014759425526077, -1.583068173097982, -1.3790487283091915, 1.7287963479471173, 2.76269939898204], 0.5, 0.5, 0.01, 0.2, 100)

2025-07-07 17:03:23,598 - gym_custom_envs_real_ur_drivers_URBasic_realTimeClientEvent - INFO - Program send to Robot:
servoj([-0.40805422938561264, -1.601475942552609, -1.583068173097982, -1.3790487283091915, 1.7287963479471173, 2.76269939898204], 0.5, 0.5, 0.01, 0.2, 100)

2025-07-07 17:03:23,601 - gym_custom_envs_real_ur_drivers_URBasic_realTimeClientEvent - INFO - Program send to Robot:
servoj([-0.4080390429756607, -1.601475942552609, -1.583068173097982, -1.3790487283091915, 1.7287963479471173, 2.76269939898204], 0.5, 0.5, 0.01, 0.2, 100)

2025-07-07 17:03:23,617 - gym_custom_envs_real_ur_drivers_URBasic_realTimeClientEvent - INFO - Program send to Robot:
servoj([-0.40803889111156116, -1.601475942552609, -1.583068173097982, -1.3790487283091915, 1.7272777069671104, 2.7642180399620466], 0.5, 0.5, 0.01, 0.2, 100)

2025-07-07 17:03:23,625 - gym_custom_envs_real_ur_drivers_URBasic_realTimeClientEvent - INFO - Program send to Robot:
servoj([-0.4080388895929202, -1.601475942552609, -1.583068173097982, -1.3790487283091915, 1.7272625205573102, 2.7642332263718465], 0.5, 0.5, 0.01, 0.2, 100)

2025-07-07 17:03:23,640 - gym_custom_envs_real_ur_drivers_URBasic_realTimeClientEvent - INFO - Program send to Robot:
servoj([-0.40803888957773377, -1.601475942552609, -1.583068173097982, -1.3790487283091915, 1.7272623686932123, 2.7642333782359447], 0.5, 0.5, 0.01, 0.2, 100)

2025-07-07 17:03:23,649 - gym_custom_envs_real_ur_drivers_URBasic_realTimeClientEvent - INFO - Program send to Robot:
servoj([-0.4034829666375615, -1.601475942552609, -1.581549532117975, -1.3790487283091915, 1.7287810081545782, 2.7642333797545855], 0.5, 0.5, 0.01, 0.2, 100)

2025-07-07 17:03:23,657 - gym_custom_envs_real_ur_drivers_URBasic_realTimeClientEvent - INFO - Program send to Robot:
servoj([-0.4034374074081598, -1.601475942552609, -1.581534345708175, -1.3790487283091915, 1.728796194549192, 2.764233379769772], 0.5, 0.5, 0.01, 0.2, 100)

2025-07-07 17:03:23,672 - gym_custom_envs_real_ur_drivers_URBasic_realTimeClientEvent - INFO - Program send to Robot:
servoj([-0.40343695181586575, -1.601475942552609, -1.581534193844077, -1.3790487283091915, 1.7287963464131382, 2.764233379769924], 0.5, 0.5, 0.01, 0.2, 100)

2025-07-07 17:03:23,681 - gym_custom_envs_real_ur_drivers_URBasic_realTimeClientEvent - INFO - Program send to Robot:
servoj([-0.39736238333991597, -1.601475942552609, -1.5800155513454293, -1.3790487283091915, 1.7287963479317776, 2.7642333797699257], 0.5, 0.5, 0.01, 0.2, 100)

2025-07-07 17:03:23,693 - gym_custom_envs_real_ur_drivers_URBasic_realTimeClientEvent - INFO - Program send to Robot:
servoj([-0.39730163765515647, -1.601475942552609, -1.5800003649204428, -1.3790487283091915, 1.728796347946964, 2.7642333797699257], 0.5, 0.5, 0.01, 0.2, 100)

2025-07-07 17:03:23,704 - gym_custom_envs_real_ur_drivers_URBasic_realTimeClientEvent - INFO - Program send to Robot:
servoj([-0.39730103019830887, -1.601475942552609, -1.580000213056193, -1.3790487283091915, 1.7287963479471158, 2.7642333797699257], 0.5, 0.5, 0.01, 0.2, 100)

2025-07-07 17:03:23,717 - gym_custom_envs_real_ur_drivers_URBasic_realTimeClientEvent - INFO - Program send to Robot:
servoj([-0.3881891782436996, -1.601475942552609, -1.5754442885975295, -1.3790487283091915, 1.7303149889271243, 2.7657520207499324], 0.5, 0.5, 0.01, 0.2, 100)

2025-07-07 17:03:23,720 - gym_custom_envs_real_ur_drivers_URBasic_realTimeClientEvent - INFO - Program send to Robot:
servoj([-0.38809805972415345, -1.601475942552609, -1.5753987293529428, -1.3790487283091915, 1.7303301753369245, 2.7657672071597323], 0.5, 0.5, 0.01, 0.2, 100)

2025-07-07 17:03:23,742 - gym_custom_envs_real_ur_drivers_URBasic_realTimeClientEvent - INFO - Program send to Robot:
servoj([-0.37746666167891074, -1.601475942552609, -1.5708423508204772, -1.3790487283091915, 1.7303303272010224, 2.767286000003837], 0.5, 0.5, 0.01, 0.2, 100)

2025-07-07 17:03:23,745 - gym_custom_envs_real_ur_drivers_URBasic_realTimeClientEvent - INFO - Program send to Robot:
servoj([-0.37736034769845833, -1.601475942552609, -1.5707967870351525, -1.3790487283091915, 1.7303303287196634, 2.7673011879322775], 0.5, 0.5, 0.01, 0.2, 100)

2025-07-07 17:03:23,765 - gym_custom_envs_real_ur_drivers_URBasic_realTimeClientEvent - INFO - Program send to Robot:
servoj([-0.3773592845586538, -1.601475942552609, -1.5707963313972992, -1.3790487283091915, 1.73033032873485, 2.7673013398115622], 0.5, 0.5, 0.01, 0.2, 100)

2025-07-07 17:03:23,769 - gym_custom_envs_real_ur_drivers_URBasic_realTimeClientEvent - INFO - Program send to Robot:
servoj([-0.37735927392725577, -1.601475942552609, -1.5707963268409206, -1.3790487283091915, 1.7303303287350016, 2.767301341330355], 0.5, 0.5, 0.01, 0.2, 100)

2025-07-07 17:03:23,788 - gym_custom_envs_real_ur_drivers_URBasic_realTimeClientEvent - INFO - Program send to Robot:
servoj([-0.36672878696089406, -1.601475942552609, -1.567759044835343, -1.3790487283091915, 1.7303303287350031, 2.7673013413455427], 0.5, 0.5, 0.01, 0.2, 100)

2025-07-07 17:03:23,796 - gym_custom_envs_real_ur_drivers_URBasic_realTimeClientEvent - INFO - Program send to Robot:
servoj([-0.36662248209123044, -1.601475942552609, -1.5677286720152872, -1.3790487283091915, 1.7303303287350031, 2.7673013413456946], 0.5, 0.5, 0.01, 0.2, 100)

2025-07-07 17:03:23,801 - gym_custom_envs_real_ur_drivers_URBasic_realTimeClientEvent - INFO - Program send to Robot:
servoj([-0.3666214190425338, -1.601475942552609, -1.5677283682870866, -1.3790487283091915, 1.7303303287350031, 2.7673013413456964], 0.5, 0.5, 0.01, 0.2, 100)

2025-07-07 17:03:23,820 - gym_custom_envs_real_ur_drivers_URBasic_realTimeClientEvent - INFO - Program send to Robot:
servoj([-0.3529536395919856, -1.601475942552609, -1.5662097242697985, -1.380567369289198, 1.73184896971501, 2.7688199823257036], 0.5, 0.5, 0.01, 0.2, 100)

2025-07-07 17:03:23,825 - gym_custom_envs_real_ur_drivers_URBasic_realTimeClientEvent - INFO - Program send to Robot:
servoj([-0.3528169617974801, -1.601475942552609, -1.5661945378296256, -1.3805825556989981, 1.73186415612481, 2.7688351687355035], 0.5, 0.5, 0.01, 0.2, 100)

2025-07-07 17:03:23,836 - gym_custom_envs_real_ur_drivers_URBasic_realTimeClientEvent - INFO - Program send to Robot:
servoj([-0.33914782619947437, -1.601475942552609, -1.561638463025203, -1.380582707563096, 1.731864307988908, 2.7703539615796084], 0.5, 0.5, 0.01, 0.2, 100)

2025-07-07 17:03:23,849 - gym_custom_envs_real_ur_drivers_URBasic_realTimeClientEvent - INFO - Program send to Robot:
servoj([-0.3390111348434943, -1.601475942552609, -1.5615929022771586, -1.380582709081737, 1.731864309507549, 2.7703691495080496], 0.5, 0.5, 0.01, 0.2, 100)

2025-07-07 17:03:23,861 - gym_custom_envs_real_ur_drivers_URBasic_realTimeClientEvent - INFO - Program send to Robot:
servoj([-0.3390097679299345, -1.601475942552609, -1.5615924466696782, -1.3805827090969236, 1.7318643095227355, 2.770369301387334], 0.5, 0.5, 0.01, 0.2, 100)

2025-07-07 17:03:23,865 - gym_custom_envs_real_ur_drivers_URBasic_realTimeClientEvent - INFO - Program send to Robot:
servoj([-0.33900975426079893, -1.601475942552609, -1.5615924421136036, -1.3805827090970755, 1.7318643095228874, 2.7703693029061265], 0.5, 0.5, 0.01, 0.2, 100)

2025-07-07 17:03:23,885 - gym_custom_envs_real_ur_drivers_URBasic_realTimeClientEvent - INFO - Program send to Robot:
servoj([-0.3238233443240394, -1.601475942552609, -1.560073801088036, -1.3805827090970768, 1.7318643095228887, 2.770369302921315], 0.5, 0.5, 0.01, 0.2, 100)

2025-07-07 17:03:23,889 - gym_custom_envs_real_ur_drivers_URBasic_realTimeClientEvent - INFO - Program send to Robot:
servoj([-0.32367148022467185, -1.601475942552609, -1.5600586146777804, -1.380582709097077, 1.731864309522889, 2.7703693029214667], 0.5, 0.5, 0.01, 0.2, 100)

2025-07-07 17:03:23,908 - gym_custom_envs_real_ur_drivers_URBasic_realTimeClientEvent - INFO - Program send to Robot:
servoj([-0.3084835517836105, -1.601475942552609, -1.5600584628136778, -1.380582709097077, 1.731864309522889, 2.7734065848814815], 0.5, 0.5, 0.01, 0.2, 100)

2025-07-07 17:03:23,916 - gym_custom_envs_real_ur_drivers_URBasic_realTimeClientEvent - INFO - Program send to Robot:
servoj([-0.30833167249919985, -1.601475942552609, -1.5600584612950368, -1.380582709097077, 1.731864309522889, 2.773436957701082], 0.5, 0.5, 0.01, 0.2, 100)

2025-07-07 17:03:23,922 - gym_custom_envs_real_ur_drivers_URBasic_realTimeClientEvent - INFO - Program send to Robot:
servoj([-0.30833015370635575, -1.601475942552609, -1.5600584612798503, -1.380582709097077, 1.731864309522889, 2.7734372614292777], 0.5, 0.5, 0.01, 0.2, 100)

2025-07-07 17:03:23,937 - gym_custom_envs_real_ur_drivers_URBasic_realTimeClientEvent - INFO - Program send to Robot:
servoj([-0.2931437287183596, -1.601475942552609, -1.5600584612796984, -1.3821013500770838, 1.731864309522889, 2.776474546426573], 0.5, 0.5, 0.01, 0.2, 100)

2025-07-07 17:03:23,945 - gym_custom_envs_real_ur_drivers_URBasic_realTimeClientEvent - INFO - Program send to Robot:
servoj([-0.29299186446847963, -1.601475942552609, -1.5600584612796968, -1.3821165364868837, 1.731864309522889, 2.776504919276546], 0.5, 0.5, 0.01, 0.2, 100)

2025-07-07 17:03:23,957 - gym_custom_envs_real_ur_drivers_URBasic_realTimeClientEvent - INFO - Program send to Robot:
servoj([-0.2929903458259808, -1.601475942552609, -1.5600584612796968, -1.3821166883509817, 1.731864309522889, 2.7765052230050458], 0.5, 0.5, 0.01, 0.2, 100)

2025-07-07 17:03:23,969 - gym_custom_envs_real_ur_drivers_URBasic_realTimeClientEvent - INFO - Program send to Robot:
servoj([-0.2793225618194947, -1.601475942552609, -1.5600584612796968, -1.3821166898696227, 1.731864309522889, 2.779542508002345], 0.5, 0.5, 0.01, 0.2, 100)

2025-07-07 17:03:23,983 - gym_custom_envs_real_ur_drivers_URBasic_realTimeClientEvent - INFO - Program send to Robot:
servoj([-0.27918588397942984, -1.601475942552609, -1.5600584612796968, -1.3821166898848092, 1.731864309522889, 2.7795728808523177], 0.5, 0.5, 0.01, 0.2, 100)

2025-07-07 17:03:23,993 - gym_custom_envs_real_ur_drivers_URBasic_realTimeClientEvent - INFO - Program send to Robot:
servoj([-0.2791845172010292, -1.601475942552609, -1.5600584612796968, -1.382116689884961, 1.731864309522889, 2.7795731845808174], 0.5, 0.5, 0.01, 0.2, 100)

2025-07-07 17:03:24,005 - gym_custom_envs_real_ur_drivers_URBasic_realTimeClientEvent - INFO - Program send to Robot:
servoj([-0.2639980937331775, -1.601475942552609, -1.5600584612796968, -1.3821166898849626, 1.731864309522889, 2.7871663925181362], 0.5, 0.5, 0.01, 0.2, 100)

2025-07-07 17:03:24,008 - gym_custom_envs_real_ur_drivers_URBasic_realTimeClientEvent - INFO - Program send to Robot:
servoj([-0.26384622949849895, -1.601475942552609, -1.5600584612796968, -1.3821166898849626, 1.731864309522889, 2.7872423245975093], 0.5, 0.5, 0.01, 0.2, 100)

2025-07-07 17:03:24,028 - gym_custom_envs_real_ur_drivers_URBasic_realTimeClientEvent - INFO - Program send to Robot:
servoj([-0.25017694203609103, -1.601475942552609, -1.5600584612796968, -1.3821166898849626, 1.733382950502896, 2.7963549297983437], 0.5, 0.5, 0.01, 0.2, 100)

2025-07-07 17:03:24,036 - gym_custom_envs_real_ur_drivers_URBasic_realTimeClientEvent - INFO - Program send to Robot:
servoj([-0.25004024916146694, -1.601475942552609, -1.5600584612796968, -1.3821166898849626, 1.7333981369126958, 2.796446055850352], 0.5, 0.5, 0.01, 0.2, 100)

2025-07-07 17:03:24,052 - gym_custom_envs_real_ur_drivers_URBasic_realTimeClientEvent - INFO - Program send to Robot:
servoj([-0.2500388822327207, -1.601475942552609, -1.5600584612796968, -1.3821166898849626, 1.7333982887767938, 2.7964469671108723], 0.5, 0.5, 0.01, 0.2, 100)

2025-07-07 17:03:24,060 - gym_custom_envs_real_ur_drivers_URBasic_realTimeClientEvent - INFO - Program send to Robot:
servoj([-0.23485245876336508, -1.5999573015726027, -1.5600584612796968, -1.3821166898849626, 1.7333982902954348, 2.804040181123511], 0.5, 0.5, 0.01, 0.2, 100)

2025-07-07 17:03:24,065 - gym_custom_envs_real_ur_drivers_URBasic_realTimeClientEvent - INFO - Program send to Robot:
servoj([-0.23470059452867154, -1.5999421151628026, -1.5600584612796968, -1.3821166898849626, 1.7333982903106213, 2.8041161132636376], 0.5, 0.5, 0.01, 0.2, 100)

2025-07-07 17:03:24,081 - gym_custom_envs_real_ur_drivers_URBasic_realTimeClientEvent - INFO - Program send to Robot:
servoj([-0.2346990758863246, -1.5999419632987046, -1.5600584612796968, -1.3821166898849626, 1.7333982903107732, 2.804116872585039], 0.5, 0.5, 0.01, 0.2, 100)

2025-07-07 17:03:24,088 - gym_custom_envs_real_ur_drivers_URBasic_realTimeClientEvent - INFO - Program send to Robot:
servoj([-0.23469906069990112, -1.5999419617800636, -1.5600584612796968, -1.3821166898849626, 1.7333982903107747, 2.804116880178253], 0.5, 0.5, 0.01, 0.2, 100)

2025-07-07 17:03:24,101 - gym_custom_envs_real_ur_drivers_URBasic_realTimeClientEvent - INFO - Program send to Robot:
servoj([-0.22103129172797614, -1.5999419617648771, -1.5600584612796968, -1.3836353308649696, 1.7333982903107747, 2.811710085154219], 0.5, 0.5, 0.01, 0.2, 100)

2025-07-07 17:03:24,112 - gym_custom_envs_real_ur_drivers_URBasic_realTimeClientEvent - INFO - Program send to Robot:
servoj([-0.22089461403825691, -1.5999419617647253, -1.5600584612796968, -1.3836505172747695, 1.7333982903107747, 2.8117860172039784], 0.5, 0.5, 0.01, 0.2, 100)

2025-07-07 17:03:24,125 - gym_custom_envs_real_ur_drivers_URBasic_realTimeClientEvent - INFO - Program send to Robot:
servoj([-0.2057068374612916, -1.5999419617647237, -1.5600584612796968, -1.3836506691388677, 1.7349169312907817, 2.8163426994644967], 0.5, 0.5, 0.01, 0.2, 100)

2025-07-07 17:03:24,128 - gym_custom_envs_real_ur_drivers_URBasic_realTimeClientEvent - INFO - Program send to Robot:
servoj([-0.20555495969552193, -1.5999419617647237, -1.5600584612796968, -1.3836506706575085, 1.7349321177005816, 2.816388266287102], 0.5, 0.5, 0.01, 0.2, 100)

2025-07-07 17:03:24,149 - gym_custom_envs_real_ur_drivers_URBasic_realTimeClientEvent - INFO - Program send to Robot:
servoj([-0.20555344091786423, -1.5999419617647237, -1.5600584612796968, -1.383650670672695, 1.7349322695646798, 2.816388721955328], 0.5, 0.5, 0.01, 0.2, 100)

2025-07-07 17:03:24,153 - gym_custom_envs_real_ur_drivers_URBasic_realTimeClientEvent - INFO - Program send to Robot:
servoj([-0.20555342573008764, -1.5999419617647237, -1.5600584612796968, -1.3836506706728469, 1.7349322710833206, 2.81638872651201], 0.5, 0.5, 0.01, 0.2, 100)

2025-07-07 17:03:24,173 - gym_custom_envs_real_ur_drivers_URBasic_realTimeClientEvent - INFO - Program send to Robot:
servoj([-0.19188565675814914, -1.598423320784717, -1.5600584612796968, -1.3851693116528552, 1.7379695530585202, 2.8179073675375834], 0.5, 0.5, 0.01, 0.2, 100)

2025-07-07 17:03:24,176 - gym_custom_envs_real_ur_drivers_URBasic_realTimeClientEvent - INFO - Program send to Robot:
servoj([-0.19174897906842978, -1.598408134374917, -1.5600584612796968, -1.3851844980626553, 1.7379999258782721, 2.817922553947839], 0.5, 0.5, 0.01, 0.2, 100)

2025-07-07 17:03:24,197 - gym_custom_envs_real_ur_drivers_URBasic_realTimeClientEvent - INFO - Program send to Robot:
servoj([-0.17807984347147138, -1.598407982510819, -1.5600584612796968, -1.3851846499267533, 1.7425561525464903, 2.8179227058119416], 0.5, 0.5, 0.01, 0.2, 100)

2025-07-07 17:03:24,201 - gym_custom_envs_real_ur_drivers_URBasic_realTimeClientEvent - INFO - Program send to Robot:
servoj([-0.1779431521155018, -1.598407980992178, -1.5600584612796968, -1.3851846514453943, 1.7426017148131725, 2.817922707330583], 0.5, 0.5, 0.01, 0.2, 100)

2025-07-07 17:03:24,222 - gym_custom_envs_real_ur_drivers_URBasic_realTimeClientEvent - INFO - Program send to Robot:
servoj([-0.162755375401874, -1.5968893399969848, -1.5600584612796968, -1.3851846514605806, 1.7486767343558665, 2.817922707345769], 0.5, 0.5, 0.01, 0.2, 100)

2025-07-07 17:03:24,225 - gym_custom_envs_real_ur_drivers_URBasic_realTimeClientEvent - INFO - Program send to Robot:
servoj([-0.16260349763473772, -1.5968741535870328, -1.5600584612796968, -1.3851846514607324, 1.7487374845512933, 2.8179227073459208], 0.5, 0.5, 0.01, 0.2, 100)

2025-07-07 17:03:24,240 - gym_custom_envs_real_ur_drivers_URBasic_realTimeClientEvent - INFO - Program send to Robot:
servoj([-0.16260197885706637, -1.5968740017229333, -1.5600584612796968, -1.385184651460734, 1.7487380920532476, 2.8179227073459225], 0.5, 0.5, 0.01, 0.2, 100)

2025-07-07 17:03:24,249 - gym_custom_envs_real_ur_drivers_URBasic_realTimeClientEvent - INFO - Program send to Robot:
servoj([-0.16260196366928964, -1.5968740002042923, -1.5600584612796968, -1.385184651460734, 1.7487380981282672, 2.8179227073459225], 0.5, 0.5, 0.01, 0.2, 100)

2025-07-07 17:03:24,264 - gym_custom_envs_real_ur_drivers_URBasic_realTimeClientEvent - INFO - Program send to Robot:
servoj([-0.15045283567735762, -1.596874000189106, -1.5615771022597036, -1.385184651460734, 1.7548126621090443, 2.8194413483259297], 0.5, 0.5, 0.01, 0.2, 100)

2025-07-07 17:03:24,272 - gym_custom_envs_real_ur_drivers_URBasic_realTimeClientEvent - INFO - Program send to Robot:
servoj([-0.1503313443974383, -1.596874000188954, -1.5615922886695037, -1.385184651460734, 1.754873407748852, 2.8194565347357297], 0.5, 0.5, 0.01, 0.2, 100)

2025-07-07 17:03:24,294 - gym_custom_envs_real_ur_drivers_URBasic_realTimeClientEvent - INFO - Program send to Robot:
servoj([-0.13666236066457838, -1.5968740001889525, -1.5615924405336017, -1.385184651460734, 1.760948579125277, 2.8224939685598414], 0.5, 0.5, 0.01, 0.2, 100)

2025-07-07 17:03:24,297 - gym_custom_envs_real_ur_drivers_URBasic_realTimeClientEvent - INFO - Program send to Robot:
servoj([-0.13652567082724976, -1.5968740001889525, -1.5615924420522427, -1.385184651460734, 1.7610093308390413, 2.8225243428980824], 0.5, 0.5, 0.01, 0.2, 100)

2025-07-07 17:03:24,313 - gym_custom_envs_real_ur_drivers_URBasic_realTimeClientEvent - INFO - Program send to Robot:
servoj([-0.1365243039288765, -1.5968740001889525, -1.5615924420674292, -1.385184651460734, 1.761009938356179, 2.822524646641465], 0.5, 0.5, 0.01, 0.2, 100)

2025-07-07 17:03:24,321 - gym_custom_envs_real_ur_drivers_URBasic_realTimeClientEvent - INFO - Program send to Robot:
servoj([-0.12133788045982463, -1.5968740001889525, -1.561592442067581, -1.385184651460734, 1.768603149331385, 2.827080572618919], 0.5, 0.5, 0.01, 0.2, 100)

2025-07-07 17:03:24,336 - gym_custom_envs_real_ur_drivers_URBasic_realTimeClientEvent - INFO - Program send to Robot:
servoj([-0.12118601622513411, -1.5968740001889525, -1.5615924420675824, -1.385184651460734, 1.768679081441137, 2.8271261318786935], 0.5, 0.5, 0.01, 0.2, 100)

2025-07-07 17:03:24,345 - gym_custom_envs_real_ur_drivers_URBasic_realTimeClientEvent - INFO - Program send to Robot:
servoj([-0.12118449758278721, -1.5968740001889525, -1.5615924420675826, -1.385184651460734, 1.7686798407622346, 2.827126587471291], 0.5, 0.5, 0.01, 0.2, 100)

2025-07-07 17:03:24,361 - gym_custom_envs_real_ur_drivers_URBasic_realTimeClientEvent - INFO - Program send to Robot:
servoj([-0.10751671357630299, -1.5968740001889525, -1.5615924420675826, -1.385184651460734, 1.7717171303154586, 2.8332011559472443], 0.5, 0.5, 0.01, 0.2, 100)

2025-07-07 17:03:24,369 - gym_custom_envs_real_ur_drivers_URBasic_realTimeClientEvent - INFO - Program send to Robot:
servoj([-0.10738003573623815, -1.5968740001889525, -1.5615924420675826, -1.385184651460734, 1.7717475032109908, 2.8332619016320035], 0.5, 0.5, 0.01, 0.2, 100)

2025-07-07 17:03:24,377 - gym_custom_envs_real_ur_drivers_URBasic_realTimeClientEvent - INFO - Program send to Robot:
servoj([-0.10737866895783751, -1.5968740001889525, -1.5615924420675826, -1.385184651460734, 1.7717478069399462, 2.8332625090888515], 0.5, 0.5, 0.01, 0.2, 100)

2025-07-07 17:03:24,393 - gym_custom_envs_real_ur_drivers_URBasic_realTimeClientEvent - INFO - Program send to Robot:
servoj([-0.09522952744999882, -1.5938367182289388, -1.5615924420675826, -1.385184651460734, 1.7747850919372494, 2.8378184381034406], 0.5, 0.5, 0.01, 0.2, 100)

2025-07-07 17:03:24,400 - gym_custom_envs_real_ur_drivers_URBasic_realTimeClientEvent - INFO - Program send to Robot:
servoj([-0.09510803603492043, -1.5938063454093387, -1.5615924420675826, -1.385184651460734, 1.7748154647872225, 2.8378639973935864], 0.5, 0.5, 0.01, 0.2, 100)

2025-07-07 17:03:24,408 - gym_custom_envs_real_ur_drivers_URBasic_realTimeClientEvent - INFO - Program send to Robot:
servoj([-0.09510682112076965, -1.5938060416811426, -1.5615924420675826, -1.385184651460734, 1.7748157685157222, 2.837864452986488], 0.5, 0.5, 0.01, 0.2, 100)

2025-07-07 17:03:24,416 - gym_custom_envs_real_ur_drivers_URBasic_realTimeClientEvent - INFO - Program send to Robot:
servoj([-0.08295768113157391, -1.5922873976638539, -1.5615924420675826, -1.385184651460734, 1.7748157715530073, 2.8424203804824373], 0.5, 0.5, 0.01, 0.2, 100)

2025-07-07 17:03:24,433 - gym_custom_envs_real_ur_drivers_URBasic_realTimeClientEvent - INFO - Program send to Robot:
servoj([-0.08283618973168194, -1.5922722112236811, -1.5615924420675826, -1.385184651460734, 1.77481577158338, 2.8424659397573966], 0.5, 0.5, 0.01, 0.2, 100)

2025-07-07 17:03:24,441 - gym_custom_envs_real_ur_drivers_URBasic_realTimeClientEvent - INFO - Program send to Robot:
servoj([-0.08283497481768302, -1.5922720593592794, -1.5615924420675826, -1.385184651460734, 1.7748157715836839, 2.8424663953501463], 0.5, 0.5, 0.01, 0.2, 100)

2025-07-07 17:03:24,457 - gym_custom_envs_real_ur_drivers_URBasic_realTimeClientEvent - INFO - Program send to Robot:
servoj([-0.0691671938484823, -1.5892347758806218, -1.5631110830475896, -1.385184651460734, 1.774815771583687, 2.847022322846094], 0.5, 0.5, 0.01, 0.2, 100)

2025-07-07 17:03:24,465 - gym_custom_envs_real_ur_drivers_URBasic_realTimeClientEvent - INFO - Program send to Robot:
servoj([-0.06903051603879029, -1.5892044030458352, -1.5631262694573895, -1.385184651460734, 1.774815771583687, 2.8470678821210536], 0.5, 0.5, 0.01, 0.2, 100)

2025-07-07 17:03:24,480 - gym_custom_envs_real_ur_drivers_URBasic_realTimeClientEvent - INFO - Program send to Robot:
servoj([-0.05688002142063914, -1.584648176377467, -1.5646450623014945, -1.385184651460734, 1.774815771583687, 2.85314290163383], 0.5, 0.5, 0.01, 0.2, 100)

2025-07-07 17:03:24,489 - gym_custom_envs_real_ur_drivers_URBasic_realTimeClientEvent - INFO - Program send to Robot:
servoj([-0.05675851647445762, -1.5846026141107832, -1.5646602502299356, -1.385184651460734, 1.774815771583687, 2.853203651828958], 0.5, 0.5, 0.01, 0.2, 100)

2025-07-07 17:03:24,497 - gym_custom_envs_real_ur_drivers_URBasic_realTimeClientEvent - INFO - Program send to Robot:
