2025-07-07 16:58:12,548 - gym_custom_envs_real_ur_drivers_URBasic_robotModelEvent - INFO - Init done
2025-07-07 16:58:13,049 - gym_custom_envs_real_ur_drivers_URBasic_realTimeClientEvent - INFO - Connected
2025-07-07 16:58:13,049 - gym_custom_envs_real_ur_drivers_URBasic_realTimeClientEvent - INFO - RT_CLient constructor done
2025-07-07 16:58:13,051 - gym_custom_envs_real_ur_drivers_URBasic_dataLogEvent - INFO - Data logging (not event logging) is disabled
2025-07-07 16:58:13,051 - gym_custom_envs_real_ur_drivers_URBasic_dataLogEvent - INFO - DataLog constructor done
2025-07-07 16:58:13,052 - gym_custom_envs_real_ur_drivers_URBasic_dataLogEvent - INFO - DataLog is stopped
2025-07-07 16:58:13,053 - gym_custom_envs_real_ur_drivers_URBasic_rtdeEvent - INFO - RTDE constructor done
2025-07-07 16:58:13,485 - gym_custom_envs_real_ur_drivers_URBasic_rtdeEvent - INFO - Controller version: 3.3.1-60
2025-07-07 16:58:13,490 - gym_custom_envs_real_ur_drivers_URBasic_rtdeEvent - INFO - RTDE started
2025-07-07 16:58:13,554 - gym_custom_envs_real_ur_drivers_URBasic_dashboardEvent - INFO - Connected
2025-07-07 16:58:13,555 - gym_custom_envs_real_ur_drivers_URBasic_dashboardEvent - INFO - UR Dashboard respond Connected: Universal Robots Dashboard Server
2025-07-07 16:58:13,555 - gym_custom_envs_real_ur_drivers_URBasic_dashboardEvent - INFO - Dashboard server constructor done
2025-07-07 16:58:13,556 - gym_custom_envs_real_ur_drivers_URBasic_robotConnectorEvent - INFO - Init done
2025-07-07 16:58:13,556 - gym_custom_envs_real_ur_drivers_URBasic_urScriptEvent - INFO - Init done!!!
2025-07-07 16:58:13,572 - gym_custom_envs_real_ur_drivers_URBasic_urScriptExtEvent - INFO - Init done
2025-07-07 16:58:15,108 - gym_custom_envs_real_ur_interfaceEvent - INFO - [] init done
2025-07-07 16:58:15,108 - gym_custom_envs_real_ur_drivers_URBasic_realTimeClientEvent - INFO - Program send to Robot:
end_freedrive_mode()

2025-07-07 16:58:17,269 - gym_custom_envs_real_ur_drivers_URBasic_realTimeClientEvent - INFO - Program send to Robot:
servoj([0.0759599584215525, -1.5689420601083133, -1.4869636203141183, -1.397897736226217, 1.5765194636851552, 3.099008329658722], 0.5, 0.5, 0.01, 0.2, 100)

2025-07-07 16:58:17,285 - gym_custom_envs_real_ur_drivers_URBasic_realTimeClientEvent - INFO - Program send to Robot:
servoj([0.07596573496841094, -1.568970846562265, -1.4877585524533141, -1.3979573408709924, 1.5765200732659583, 3.0989591245365657], 0.5, 0.5, 0.01, 0.2, 100)

2025-07-07 16:58:17,299 - gym_custom_envs_real_ur_drivers_URBasic_realTimeClientEvent - INFO - Program send to Robot:
servoj([0.07597292554421652, -1.5689341380333486, -1.4877842947260054, -1.3979215780841272, 1.5765250604438488, 3.098967338437922], 0.5, 0.5, 0.01, 0.2, 100)

2025-07-07 16:58:17,317 - gym_custom_envs_real_ur_drivers_URBasic_realTimeClientEvent - INFO - Program send to Robot:
servoj([0.07637256091685676, -1.5693097218271725, -1.488972590569779, -1.3979334990130823, 1.5765056398990211, 3.098973434932309], 0.5, 0.5, 0.01, 0.2, 100)

2025-07-07 16:58:17,333 - gym_custom_envs_real_ur_drivers_URBasic_realTimeClientEvent - INFO - Program send to Robot:
servoj([0.07636913298079948, -1.5693418230814875, -1.488957444190903, -1.3979697386371057, 1.576536103919354, 3.098947442382219], 0.5, 0.5, 0.01, 0.2, 100)

2025-07-07 16:58:17,347 - gym_custom_envs_real_ur_drivers_URBasic_realTimeClientEvent - INFO - Program send to Robot:
servoj([0.07633696823390734, -1.5689464877167418, -1.490137885223609, -1.3979096571551721, 1.5765444804281017, 3.0989879226064305], 0.5, 0.5, 0.01, 0.2, 100)

2025-07-07 16:58:17,366 - gym_custom_envs_real_ur_drivers_URBasic_realTimeClientEvent - INFO - Program send to Robot:
servoj([0.07642910722388424, -1.5689134021155309, -1.4901596121827638, -1.3978495756732385, 1.5765528621506746, 3.099054905992249], 0.5, 0.5, 0.01, 0.2, 100)

2025-07-07 16:58:17,382 - gym_custom_envs_real_ur_drivers_URBasic_realTimeClientEvent - INFO - Program send to Robot:
servoj([0.07653092822387109, -1.5688650798357422, -1.4909664429287404, -1.3977418104754846, 1.5766300845158854, 3.0991685274793763], 0.5, 0.5, 0.01, 0.2, 100)

2025-07-07 16:58:17,396 - gym_custom_envs_real_ur_drivers_URBasic_realTimeClientEvent - INFO - Program send to Robot:
servoj([0.07675351218719928, -1.5688852264070996, -1.4909920026161538, -1.397346035634176, 1.5768270927033479, 3.0994457257006407], 0.5, 0.5, 0.01, 0.2, 100)

2025-07-07 16:58:17,414 - gym_custom_envs_real_ur_drivers_URBasic_realTimeClientEvent - INFO - Program send to Robot:
servoj([0.07723502361924159, -1.5688259158678948, -1.491779744966606, -1.3967223326312463, 1.5771356380944421, 3.099952949784422], 0.5, 0.5, 0.01, 0.2, 100)

2025-07-07 16:58:17,430 - gym_custom_envs_real_ur_drivers_URBasic_realTimeClientEvent - INFO - Program send to Robot:
servoj([0.07765846843620358, -1.5687722416820362, -1.4917913884451692, -1.3962550322162073, 1.5774576310916195, 3.100362172397405], 0.5, 0.5, 0.01, 0.2, 100)

2025-07-07 16:58:17,443 - gym_custom_envs_real_ur_drivers_URBasic_realTimeClientEvent - INFO - Program send to Robot:
servoj([0.078205357098002, -1.5687104689101388, -1.493100755301295, -1.395571247731344, 1.577809763332622, 3.101077764759888], 0.5, 0.5, 0.01, 0.2, 100)

2025-07-07 16:58:17,459 - gym_custom_envs_real_ur_drivers_URBasic_realTimeClientEvent - INFO - Program send to Robot:
servoj([0.07880723753058548, -1.5685651007062884, -1.4931650587758711, -1.39479209581484, 1.5782902608560339, 3.1017801895765866], 0.5, 0.5, 0.01, 0.2, 100)

2025-07-07 16:58:17,480 - gym_custom_envs_real_ur_drivers_URBasic_realTimeClientEvent - INFO - Program send to Robot:
servoj([0.0795330374663161, -1.5684347212992942, -1.4937093118698208, -1.3937134901629846, 1.5787693678946024, 3.1027378369891143], 0.5, 0.5, 0.01, 0.2, 100)

2025-07-07 16:58:17,491 - gym_custom_envs_real_ur_drivers_URBasic_realTimeClientEvent - INFO - Program send to Robot:
servoj([0.08052182655008541, -1.5682374975177062, -1.4938181289132206, -1.3925137678729456, 1.5794325584103241, 3.1037415878382366], 0.5, 0.5, 0.01, 0.2, 100)

2025-07-07 16:58:17,507 - gym_custom_envs_real_ur_drivers_URBasic_realTimeClientEvent - INFO - Program send to Robot:
servoj([0.08160826722429745, -1.5680354731049495, -1.493971655208289, -1.3911824385272424, 1.580097416608923, 3.10494322942373], 0.5, 0.5, 0.01, 0.2, 100)

2025-07-07 16:58:17,527 - gym_custom_envs_real_ur_drivers_URBasic_realTimeClientEvent - INFO - Program send to Robot:
servoj([0.08287249294107366, -1.5677968138153504, -1.4941436724548853, -1.3895878950702112, 1.5809927986501675, 3.106356814118678], 0.5, 0.5, 0.01, 0.2, 100)

2025-07-07 16:58:17,540 - gym_custom_envs_real_ur_drivers_URBasic_realTimeClientEvent - INFO - Program send to Robot:
servoj([0.08411288149927462, -1.5675343641993673, -1.4942876538348007, -1.3880648771869104, 1.581790753517724, 3.1081323915874157], 0.5, 0.5, 0.01, 0.2, 100)

2025-07-07 16:58:17,556 - gym_custom_envs_real_ur_drivers_URBasic_realTimeClientEvent - INFO - Program send to Robot:
servoj([0.0854159940344438, -1.5672720231358193, -1.4944490573528904, -1.3865304152118128, 1.5826940706025368, 3.1095997999689753], 0.5, 0.5, 0.01, 0.2, 100)

2025-07-07 16:58:17,575 - gym_custom_envs_real_ur_drivers_URBasic_realTimeClientEvent - INFO - Program send to Robot:
servoj([0.0868174895878089, -1.5670444193401676, -1.4943187173990495, -1.3847794691668909, 1.583595066130265, 3.1111331875529085], 0.5, 0.5, 0.01, 0.2, 100)

2025-07-07 16:58:17,587 - gym_custom_envs_real_ur_drivers_URBasic_realTimeClientEvent - INFO - Program send to Robot:
servoj([0.08824791588564881, -1.5668000931859545, -1.4946263278225242, -1.3830528418170374, 1.5845614894097377, 3.1126869261093963], 0.5, 0.5, 0.01, 0.2, 100)

2025-07-07 16:58:17,603 - gym_custom_envs_real_ur_drivers_URBasic_realTimeClientEvent - INFO - Program send to Robot:
servoj([0.08935456196107211, -1.5669749554967123, -1.4947904428524534, -1.3812780539142053, 1.5852107607436365, 3.1138275073459103], 0.5, 0.5, 0.01, 0.2, 100)

2025-07-07 16:58:17,625 - gym_custom_envs_real_ur_drivers_URBasic_realTimeClientEvent - INFO - Program send to Robot:
servoj([0.0908343824621356, -1.566733374385785, -1.4950813055537586, -1.379371182118551, 1.5862597204697915, 3.115462154417322], 0.5, 0.5, 0.01, 0.2, 100)

2025-07-07 16:58:17,636 - gym_custom_envs_real_ur_drivers_URBasic_realTimeClientEvent - INFO - Program send to Robot:
servoj([0.09237147382536524, -1.5664194892386767, -1.4948325304590053, -1.3774891058551233, 1.5872897744940853, 3.11711986078316], 0.5, 0.5, 0.01, 0.2, 100)

2025-07-07 16:58:17,651 - gym_custom_envs_real_ur_drivers_URBasic_realTimeClientEvent - INFO - Program send to Robot:
servoj([0.09386124144888908, -1.5661355563379094, -1.4950170783498935, -1.3757023970233362, 1.5883219713195846, 3.118804621559025], 0.5, 0.5, 0.01, 0.2, 100)

2025-07-07 16:58:17,672 - gym_custom_envs_real_ur_drivers_URBasic_realTimeClientEvent - INFO - Program send to Robot:
servoj([0.18867963690993372, -1.5477867683746893, -1.5094370952948106, -1.2532623037025703, 1.655165116730528, 3.227495577711389], 0.5, 0.5, 0.01, 0.2, 100)

2025-07-07 16:58:17,679 - gym_custom_envs_real_ur_drivers_URBasic_realTimeClientEvent - INFO - Program send to Robot:
servoj([0.18867963690993372, -1.5477866165105927, -1.509437095279624, -1.2532623037025687, 1.655165268594626, 3.227495577711389], 0.5, 0.5, 0.01, 0.2, 100)

2025-07-07 16:58:17,695 - gym_custom_envs_real_ur_drivers_URBasic_realTimeClientEvent - INFO - Program send to Robot:
servoj([0.18867963690993372, -1.547786614991952, -1.5094370952794722, -1.2532623037025687, 1.658202552073281, 3.227495577711389], 0.5, 0.5, 0.01, 0.2, 100)

2025-07-07 16:58:17,700 - gym_custom_envs_real_ur_drivers_URBasic_realTimeClientEvent - INFO - Program send to Robot:
servoj([0.18867963690993372, -1.5477866149767654, -1.5094370952794707, -1.2532623037025687, 1.6582329249080674, 3.227495577711389], 0.5, 0.5, 0.01, 0.2, 100)

2025-07-07 16:58:17,719 - gym_custom_envs_real_ur_drivers_URBasic_realTimeClientEvent - INFO - Program send to Robot:
servoj([0.18867963690993372, -1.5477866149766135, -1.5094370952794707, -1.2532623037025687, 1.6582332286364154, 3.227495577711389], 0.5, 0.5, 0.01, 0.2, 100)

2025-07-07 16:58:17,724 - gym_custom_envs_real_ur_drivers_URBasic_realTimeClientEvent - INFO - Program send to Robot:
servoj([0.18867963690993372, -1.547786614976612, -1.5094370952794707, -1.2547809446825757, 1.6597518726537048, 3.227495577711389], 0.5, 0.5, 0.01, 0.2, 100)

2025-07-07 16:58:17,745 - gym_custom_envs_real_ur_drivers_URBasic_realTimeClientEvent - INFO - Program send to Robot:
servoj([0.18867963690993372, -1.547786614976612, -1.5094370952794707, -1.2547961310923759, 1.6597670590938778, 3.227495577711389], 0.5, 0.5, 0.01, 0.2, 100)

2025-07-07 16:58:17,748 - gym_custom_envs_real_ur_drivers_URBasic_realTimeClientEvent - INFO - Program send to Robot:
servoj([0.18867963690993372, -1.547786614976612, -1.5094370952794707, -1.2547962829564738, 1.6597672109582795, 3.227495577711389], 0.5, 0.5, 0.01, 0.2, 100)

2025-07-07 16:58:17,768 - gym_custom_envs_real_ur_drivers_URBasic_realTimeClientEvent - INFO - Program send to Robot:
servoj([0.18867963690993372, -1.547786614976612, -1.5094370952794707, -1.2532776434951078, 1.6612858534569306, 3.227495577711389], 0.5, 0.5, 0.01, 0.2, 100)

2025-07-07 16:58:17,771 - gym_custom_envs_real_ur_drivers_URBasic_realTimeClientEvent - INFO - Program send to Robot:
servoj([0.18867963690993372, -1.547786614976612, -1.5094370952794707, -1.253262457100494, 1.661301039881917, 3.227495577711389], 0.5, 0.5, 0.01, 0.2, 100)

2025-07-07 16:58:17,791 - gym_custom_envs_real_ur_drivers_URBasic_realTimeClientEvent - INFO - Program send to Robot:
servoj([0.18867963690993372, -1.547786614976612, -1.5094370952794707, -1.254780946216555, 1.6643384737061806, 3.227495577711389], 0.5, 0.5, 0.01, 0.2, 100)

2025-07-07 16:58:17,796 - gym_custom_envs_real_ur_drivers_URBasic_realTimeClientEvent - INFO - Program send to Robot:
servoj([0.18867963690993372, -1.547786614976612, -1.5094370952794707, -1.2547961311077156, 1.6643688480444232, 3.227495577711389], 0.5, 0.5, 0.01, 0.2, 100)

2025-07-07 16:58:17,815 - gym_custom_envs_real_ur_drivers_URBasic_realTimeClientEvent - INFO - Program send to Robot:
servoj([0.18867963690993372, -1.547786614976612, -1.5094370952794707, -1.2547962829566273, 1.6643691517878056, 3.227495577711389], 0.5, 0.5, 0.01, 0.2, 100)

2025-07-07 16:58:17,820 - gym_custom_envs_real_ur_drivers_URBasic_realTimeClientEvent - INFO - Program send to Robot:
servoj([0.18867963690993372, -1.547786614976612, -1.5109557362594774, -1.2547962844751164, 1.6658877958052465, 3.227495577711389], 0.5, 0.5, 0.01, 0.2, 100)

2025-07-07 16:58:17,840 - gym_custom_envs_real_ur_drivers_URBasic_realTimeClientEvent - INFO - Program send to Robot:
servoj([0.18867963690993372, -1.547786614976612, -1.5109709226692776, -1.2547962844903011, 1.665902982245421, 3.227495577711389], 0.5, 0.5, 0.01, 0.2, 100)

2025-07-07 16:58:17,843 - gym_custom_envs_real_ur_drivers_URBasic_realTimeClientEvent - INFO - Program send to Robot:
servoj([0.18867963690993372, -1.547786614976612, -1.5109710745333755, -1.254796284490453, 1.6659031341098227, 3.227495577711389], 0.5, 0.5, 0.01, 0.2, 100)

2025-07-07 16:58:17,865 - gym_custom_envs_real_ur_drivers_URBasic_realTimeClientEvent - INFO - Program send to Robot:
servoj([0.18867963690993372, -1.547786614976612, -1.5109710760520165, -1.2547962844904545, 1.6659031356284666, 3.227495577711389], 0.5, 0.5, 0.01, 0.2, 100)

2025-07-07 16:58:17,876 - gym_custom_envs_real_ur_drivers_URBasic_realTimeClientEvent - INFO - Program send to Robot:
servoj([0.18867963690993372, -1.547786614976612, -1.510971076067203, -1.2547962844904545, 1.665903135643653, 3.227495577711389], 0.5, 0.5, 0.01, 0.2, 100)

2025-07-07 16:58:17,884 - gym_custom_envs_real_ur_drivers_URBasic_realTimeClientEvent - INFO - Program send to Robot:
servoj([0.18867963690993372, -1.547786614976612, -1.510971076067355, -1.2547962844904545, 1.665903135643805, 3.227495577711389], 0.5, 0.5, 0.01, 0.2, 100)

2025-07-07 16:58:17,891 - gym_custom_envs_real_ur_drivers_URBasic_realTimeClientEvent - INFO - Program send to Robot:
servoj([0.18867963690993372, -1.547786614976612, -1.5109710760673563, -1.2547962844904545, 1.6659031356438065, 3.227495577711389], 0.5, 0.5, 0.01, 0.2, 100)

2025-07-07 16:58:17,908 - gym_custom_envs_real_ur_drivers_URBasic_realTimeClientEvent - INFO - Program send to Robot:
servoj([0.18867963690993372, -1.547786614976612, -1.5109710760673563, -1.2547962844904545, 1.6659031356438065, 3.227495577711389], 0.5, 0.5, 0.01, 0.2, 100)

2025-07-07 16:58:17,916 - gym_custom_envs_real_ur_drivers_URBasic_realTimeClientEvent - INFO - Program send to Robot:
servoj([0.18867963690993372, -1.547786614976612, -1.5109710760673563, -1.2547962844904545, 1.6659031356438065, 3.227495577711389], 0.5, 0.5, 0.01, 0.2, 100)

2025-07-07 16:58:17,924 - gym_custom_envs_real_ur_drivers_URBasic_realTimeClientEvent - INFO - Program send to Robot:
servoj([0.18867963690993372, -1.547786614976612, -1.5109710760673563, -1.2547962844904545, 1.6659031356438065, 3.227495577711389], 0.5, 0.5, 0.01, 0.2, 100)

2025-07-07 16:58:17,940 - gym_custom_envs_real_ur_drivers_URBasic_realTimeClientEvent - INFO - Program send to Robot:
servoj([0.18867963690993372, -1.547786614976612, -1.5109710760673563, -1.2547962844904545, 1.6659031356438065, 3.227495577711389], 0.5, 0.5, 0.01, 0.2, 100)

2025-07-07 16:58:17,948 - gym_custom_envs_real_ur_drivers_URBasic_realTimeClientEvent - INFO - Program send to Robot:
servoj([0.18867963690993372, -1.547786614976612, -1.5109710760673563, -1.2547962844904545, 1.6659031356438065, 3.227495577711389], 0.5, 0.5, 0.01, 0.2, 100)

2025-07-07 16:58:17,960 - gym_custom_envs_real_ur_drivers_URBasic_realTimeClientEvent - INFO - Program send to Robot:
servoj([0.18867963690993372, -1.547786614976612, -1.5109710760673563, -1.2547962844904545, 1.6659031356438065, 3.227495577711389], 0.5, 0.5, 0.01, 0.2, 100)

2025-07-07 16:58:17,972 - gym_custom_envs_real_ur_drivers_URBasic_realTimeClientEvent - INFO - Program send to Robot:
servoj([0.18867963690993372, -1.547786614976612, -1.5109710760673563, -1.2547962844904545, 1.6659031356438065, 3.227495577711389], 0.5, 0.5, 0.01, 0.2, 100)

2025-07-07 16:58:17,984 - gym_custom_envs_real_ur_drivers_URBasic_realTimeClientEvent - INFO - Program send to Robot:
servoj([0.18867963690993372, -1.547786614976612, -1.5109710760673563, -1.2547962844904545, 1.6659031356438065, 3.227495577711389], 0.5, 0.5, 0.01, 0.2, 100)

2025-07-07 16:58:17,988 - gym_custom_envs_real_ur_drivers_URBasic_realTimeClientEvent - INFO - Program send to Robot:
servoj([0.18867963690993372, -1.547786614976612, -1.5109710760673563, -1.2547962844904545, 1.6659031356438065, 3.227495577711389], 0.5, 0.5, 0.01, 0.2, 100)

2025-07-07 16:58:18,009 - gym_custom_envs_real_ur_drivers_URBasic_realTimeClientEvent - INFO - Program send to Robot:
servoj([0.18867963690993372, -1.547786614976612, -1.5109710760673563, -1.2547962844904545, 1.6659031356438065, 3.227495577711389], 0.5, 0.5, 0.01, 0.2, 100)

2025-07-07 16:58:18,012 - gym_custom_envs_real_ur_drivers_URBasic_realTimeClientEvent - INFO - Program send to Robot:
servoj([0.18867963690993372, -1.547786614976612, -1.5109710760673563, -1.2547962844904545, 1.6659031356438065, 3.227495577711389], 0.5, 0.5, 0.01, 0.2, 100)

2025-07-07 16:58:18,027 - gym_custom_envs_real_ur_drivers_URBasic_realTimeClientEvent - INFO - Program send to Robot:
servoj([0.18867963690993372, -1.547786614976612, -1.5109710760673563, -1.2547962844904545, 1.6659031356438065, 3.227495577711389], 0.5, 0.5, 0.01, 0.2, 100)

2025-07-07 16:58:18,036 - gym_custom_envs_real_ur_drivers_URBasic_realTimeClientEvent - INFO - Program send to Robot:
servoj([0.18867963690993372, -1.547786614976612, -1.5109710760673563, -1.2547962844904545, 1.6659031356438065, 3.227495577711389], 0.5, 0.5, 0.01, 0.2, 100)

2025-07-07 16:58:18,044 - gym_custom_envs_real_ur_drivers_URBasic_realTimeClientEvent - INFO - Program send to Robot:
servoj([0.18867963690993372, -1.547786614976612, -1.5109710760673563, -1.2547962844904545, 1.6659031356438065, 3.227495577711389], 0.5, 0.5, 0.01, 0.2, 100)

2025-07-07 16:58:18,060 - gym_custom_envs_real_ur_drivers_URBasic_realTimeClientEvent - INFO - Program send to Robot:
servoj([0.18867963690993372, -1.547786614976612, -1.5109710760673563, -1.2547962844904545, 1.6659031356438065, 3.227495577711389], 0.5, 0.5, 0.01, 0.2, 100)

2025-07-07 16:58:18,067 - gym_custom_envs_real_ur_drivers_URBasic_realTimeClientEvent - INFO - Program send to Robot:
servoj([0.18867963690993372, -1.547786614976612, -1.5109710760673563, -1.2547962844904545, 1.6659031356438065, 3.227495577711389], 0.5, 0.5, 0.01, 0.2, 100)

2025-07-07 16:58:18,080 - gym_custom_envs_real_ur_drivers_URBasic_realTimeClientEvent - INFO - Program send to Robot:
servoj([0.18867963690993372, -1.547786614976612, -1.5109710760673563, -1.2547962844904545, 1.6659031356438065, 3.227495577711389], 0.5, 0.5, 0.01, 0.2, 100)

2025-07-07 16:58:18,092 - gym_custom_envs_real_ur_drivers_URBasic_realTimeClientEvent - INFO - Program send to Robot:
servoj([0.18867963690993372, -1.547786614976612, -1.5109710760673563, -1.2547962844904545, 1.6659031356438065, 3.227495577711389], 0.5, 0.5, 0.01, 0.2, 100)

2025-07-07 16:58:18,104 - gym_custom_envs_real_ur_drivers_URBasic_realTimeClientEvent - INFO - Program send to Robot:
servoj([0.18867963690993372, -1.547786614976612, -1.5109710760673563, -1.2547962844904545, 1.6659031356438065, 3.227495577711389], 0.5, 0.5, 0.01, 0.2, 100)

2025-07-07 16:58:18,107 - gym_custom_envs_real_ur_drivers_URBasic_realTimeClientEvent - INFO - Program send to Robot:
servoj([0.18867963690993372, -1.547786614976612, -1.5109710760673563, -1.2547962844904545, 1.6674217766238135, 3.227495577711389], 0.5, 0.5, 0.01, 0.2, 100)

2025-07-07 16:58:18,129 - gym_custom_envs_real_ur_drivers_URBasic_realTimeClientEvent - INFO - Program send to Robot:
servoj([0.18867963690993372, -1.547786614976612, -1.5109710760673563, -1.2547962844904545, 1.6674369630336137, 3.227495577711389], 0.5, 0.5, 0.01, 0.2, 100)

2025-07-07 16:58:18,132 - gym_custom_envs_real_ur_drivers_URBasic_realTimeClientEvent - INFO - Program send to Robot:
servoj([0.18867963690993372, -1.547786614976612, -1.5109710760673563, -1.2547962844904545, 1.6674371148977116, 3.227495577711389], 0.5, 0.5, 0.01, 0.2, 100)

2025-07-07 16:58:18,147 - gym_custom_envs_real_ur_drivers_URBasic_realTimeClientEvent - INFO - Program send to Robot:
servoj([0.18867963690993372, -1.547786614976612, -1.5109710760673563, -1.2532776435104476, 1.6704743983763657, 3.227495577711389], 0.5, 0.5, 0.01, 0.2, 100)

2025-07-07 16:58:18,156 - gym_custom_envs_real_ur_drivers_URBasic_realTimeClientEvent - INFO - Program send to Robot:
servoj([0.18867963690993372, -1.547786614976612, -1.5109710760673563, -1.2532624571006474, 1.6705047712111523, 3.227495577711389], 0.5, 0.5, 0.01, 0.2, 100)

2025-07-07 16:58:18,171 - gym_custom_envs_real_ur_drivers_URBasic_realTimeClientEvent - INFO - Program send to Robot:
servoj([0.18867963690993372, -1.547786614976612, -1.5109710760673563, -1.2547809462165564, 1.6735423568995138, 3.227495577711389], 0.5, 0.5, 0.01, 0.2, 100)

2025-07-07 16:58:18,180 - gym_custom_envs_real_ur_drivers_URBasic_realTimeClientEvent - INFO - Program send to Robot:
servoj([0.18867963690993372, -1.547786614976612, -1.5109710760673563, -1.2547961311077156, 1.6735727327563974, 3.227495577711389], 0.5, 0.5, 0.01, 0.2, 100)

2025-07-07 16:58:18,195 - gym_custom_envs_real_ur_drivers_URBasic_realTimeClientEvent - INFO - Program send to Robot:
servoj([0.18867963690993372, -1.547786614976612, -1.5109710760673563, -1.2547962829566273, 1.6735730365149661, 3.227495577711389], 0.5, 0.5, 0.01, 0.2, 100)

2025-07-07 16:58:18,204 - gym_custom_envs_real_ur_drivers_URBasic_realTimeClientEvent - INFO - Program send to Robot:
servoj([0.18867963690993372, -1.547786614976612, -1.5124897170473632, -1.2547962844751164, 1.676610321512565, 3.2259769367313824], 0.5, 0.5, 0.01, 0.2, 100)

2025-07-07 16:58:18,225 - gym_custom_envs_real_ur_drivers_URBasic_realTimeClientEvent - INFO - Program send to Robot:
servoj([0.18867963690993372, -1.547786614976612, -1.5125049034571634, -1.2547962844903011, 1.676640694362541, 3.225961750321582], 0.5, 0.5, 0.01, 0.2, 100)

2025-07-07 16:58:18,236 - gym_custom_envs_real_ur_drivers_URBasic_realTimeClientEvent - INFO - Program send to Robot:
servoj([0.18867963690993372, -1.547786614976612, -1.5125050553212613, -1.254796284490453, 1.6766409980910408, 3.2259615984574843], 0.5, 0.5, 0.01, 0.2, 100)

2025-07-07 16:58:18,250 - gym_custom_envs_real_ur_drivers_URBasic_realTimeClientEvent - INFO - Program send to Robot:
servoj([0.18867963690993372, -1.547786614976612, -1.5125050568399023, -1.2547962844904545, 1.6766410011283257, 3.225961596938843], 0.5, 0.5, 0.01, 0.2, 100)

2025-07-07 16:58:18,259 - gym_custom_envs_real_ur_drivers_URBasic_realTimeClientEvent - INFO - Program send to Robot:
servoj([0.18867963690993372, -1.547786614976612, -1.5125050568550888, -1.2547962844904545, 1.6766410011586985, 3.225961596923657], 0.5, 0.5, 0.01, 0.2, 100)

2025-07-07 16:58:18,268 - gym_custom_envs_real_ur_drivers_URBasic_realTimeClientEvent - INFO - Program send to Robot:
servoj([0.18867963690993372, -1.547786614976612, -1.5125050568552407, -1.2547962844904545, 1.6766410011590023, 3.225961596923505], 0.5, 0.5, 0.01, 0.2, 100)

2025-07-07 16:58:18,276 - gym_custom_envs_real_ur_drivers_URBasic_realTimeClientEvent - INFO - Program send to Robot:
servoj([0.18867963690993372, -1.547786614976612, -1.5125050568552423, -1.2547962844904545, 1.6766410011590054, 3.2259615969235034], 0.5, 0.5, 0.01, 0.2, 100)

2025-07-07 16:58:18,292 - gym_custom_envs_real_ur_drivers_URBasic_realTimeClientEvent - INFO - Program send to Robot:
servoj([0.18867963690993372, -1.547786614976612, -1.5125050568552423, -1.2547962844904545, 1.6766410011590054, 3.2259615969235034], 0.5, 0.5, 0.01, 0.2, 100)

2025-07-07 16:58:18,300 - gym_custom_envs_real_ur_drivers_URBasic_realTimeClientEvent - INFO - Program send to Robot:
servoj([0.18867963690993372, -1.547786614976612, -1.5125050568552423, -1.2547962844904545, 1.6766410011590054, 3.2259615969235034], 0.5, 0.5, 0.01, 0.2, 100)

2025-07-07 16:58:18,315 - gym_custom_envs_real_ur_drivers_URBasic_realTimeClientEvent - INFO - Program send to Robot:
servoj([0.18867963690993372, -1.547786614976612, -1.5125050568552423, -1.2547962844904545, 1.6766410011590054, 3.2259615969235034], 0.5, 0.5, 0.01, 0.2, 100)

2025-07-07 16:58:18,324 - gym_custom_envs_real_ur_drivers_URBasic_realTimeClientEvent - INFO - Program send to Robot:
servoj([0.18867963690993372, -1.547786614976612, -1.5125050568552423, -1.2547962844904545, 1.6766410011590054, 3.2259615969235034], 0.5, 0.5, 0.01, 0.2, 100)

2025-07-07 16:58:18,345 - gym_custom_envs_real_ur_drivers_URBasic_realTimeClientEvent - INFO - Program send to Robot:
servoj([0.18867963690993372, -1.547786614976612, -1.5125050568552423, -1.2547962844904545, 1.6766410011590054, 3.2259615969235034], 0.5, 0.5, 0.01, 0.2, 100)

2025-07-07 16:58:18,348 - gym_custom_envs_real_ur_drivers_URBasic_realTimeClientEvent - INFO - Program send to Robot:
servoj([0.18867963690993372, -1.547786614976612, -1.5125050568552423, -1.2547962844904545, 1.6766410011590054, 3.2259615969235034], 0.5, 0.5, 0.01, 0.2, 100)

2025-07-07 16:58:18,369 - gym_custom_envs_real_ur_drivers_URBasic_realTimeClientEvent - INFO - Program send to Robot:
servoj([0.18867963690993372, -1.547786614976612, -1.5109864158752353, -1.2547962844904545, 1.6766410011590054, 3.2259615969235034], 0.5, 0.5, 0.01, 0.2, 100)

2025-07-07 16:58:18,372 - gym_custom_envs_real_ur_drivers_URBasic_realTimeClientEvent - INFO - Program send to Robot:
servoj([0.18867963690993372, -1.547786614976612, -1.5109712294654352, -1.2547962844904545, 1.6766410011590054, 3.2259615969235034], 0.5, 0.5, 0.01, 0.2, 100)

2025-07-07 16:58:18,387 - gym_custom_envs_real_ur_drivers_URBasic_realTimeClientEvent - INFO - Program send to Robot:
servoj([0.18867963690993372, -1.547786614976612, -1.5109710776013372, -1.2547962844904545, 1.6766410011590054, 3.2259615969235034], 0.5, 0.5, 0.01, 0.2, 100)

2025-07-07 16:58:18,396 - gym_custom_envs_real_ur_drivers_URBasic_realTimeClientEvent - INFO - Program send to Robot:
servoj([0.18867963690993372, -1.547786614976612, -1.5109710760826962, -1.2547962844904545, 1.6766410011590054, 3.2259615969235034], 0.5, 0.5, 0.01, 0.2, 100)

2025-07-07 16:58:18,412 - gym_custom_envs_real_ur_drivers_URBasic_realTimeClientEvent - INFO - Program send to Robot:
servoj([0.18867963690993372, -1.547786614976612, -1.5109710760675097, -1.2547962844904545, 1.6766410011590054, 3.2259615969235034], 0.5, 0.5, 0.01, 0.2, 100)

2025-07-07 16:58:18,420 - gym_custom_envs_real_ur_drivers_URBasic_realTimeClientEvent - INFO - Program send to Robot:
servoj([0.18867963690993372, -1.547786614976612, -1.5109710760673578, -1.2547962844904545, 1.6766410011590054, 3.2259615969235034], 0.5, 0.5, 0.01, 0.2, 100)

2025-07-07 16:58:18,436 - gym_custom_envs_real_ur_drivers_URBasic_realTimeClientEvent - INFO - Program send to Robot:
servoj([0.18867963690993372, -1.547786614976612, -1.5109710760673565, -1.2547962844904545, 1.6766410011590054, 3.224442955943496], 0.5, 0.5, 0.01, 0.2, 100)

2025-07-07 16:58:18,444 - gym_custom_envs_real_ur_drivers_URBasic_realTimeClientEvent - INFO - Program send to Robot:
servoj([0.18867963690993372, -1.547786614976612, -1.5109710760673565, -1.2547962844904545, 1.6766410011590054, 3.2244277695336963], 0.5, 0.5, 0.01, 0.2, 100)

2025-07-07 16:58:18,460 - gym_custom_envs_real_ur_drivers_URBasic_realTimeClientEvent - INFO - Program send to Robot:
servoj([0.18716099592992722, -1.5462679739966052, -1.5094524350873497, -1.2547962844904545, 1.6766410011590054, 3.2229089766895913], 0.5, 0.5, 0.01, 0.2, 100)

2025-07-07 16:58:18,467 - gym_custom_envs_real_ur_drivers_URBasic_realTimeClientEvent - INFO - Program send to Robot:
servoj([0.18714580952012716, -1.546252787586805, -1.5094372486775496, -1.2547962844904545, 1.6766410011590054, 3.22289378876115], 0.5, 0.5, 0.01, 0.2, 100)

2025-07-07 16:58:18,476 - gym_custom_envs_real_ur_drivers_URBasic_realTimeClientEvent - INFO - Program send to Robot:
servoj([0.18714565765602917, -1.546252635722707, -1.5094370968134516, -1.2547962844904545, 1.6766410011590054, 3.222893636881866], 0.5, 0.5, 0.01, 0.2, 100)

2025-07-07 16:58:18,492 - gym_custom_envs_real_ur_drivers_URBasic_realTimeClientEvent - INFO - Program send to Robot:
servoj([0.18410837417737427, -1.5462526342040661, -1.5079184543148036, -1.2547962844904545, 1.6766410011590054, 3.221374994383067], 0.5, 0.5, 0.01, 0.2, 100)

2025-07-07 16:58:18,500 - gym_custom_envs_real_ur_drivers_URBasic_realTimeClientEvent - INFO - Program send to Robot:
servoj([0.18407800134258773, -1.5462526341888798, -1.5079032678898172, -1.2547962844904545, 1.6766410011590054, 3.2213598079580787], 0.5, 0.5, 0.01, 0.2, 100)

2025-07-07 16:58:18,517 - gym_custom_envs_real_ur_drivers_URBasic_realTimeClientEvent - INFO - Program send to Robot:
servoj([0.18407769761423987, -1.546252634188728, -1.5079031160255671, -1.2547962844904545, 1.6766410011590054, 3.221359656093829], 0.5, 0.5, 0.01, 0.2, 100)

2025-07-07 16:58:18,524 - gym_custom_envs_real_ur_drivers_URBasic_realTimeClientEvent - INFO - Program send to Robot:
servoj([0.17192856673690216, -1.5447339932087194, -1.5048658325469118, -1.2547962844904545, 1.6766410011590054, 3.2213596545751866], 0.5, 0.5, 0.01, 0.2, 100)

2025-07-07 16:58:18,541 - gym_custom_envs_real_ur_drivers_URBasic_realTimeClientEvent - INFO - Program send to Robot:
servoj([0.17180707542812879, -1.5447188067989193, -1.5048354597121252, -1.2547962844904545, 1.6766410011590054, 3.22135965456], 0.5, 0.5, 0.01, 0.2, 100)

2025-07-07 16:58:18,549 - gym_custom_envs_real_ur_drivers_URBasic_realTimeClientEvent - INFO - Program send to Robot:
servoj([0.17180586051504104, -1.5447186549348213, -1.5048351559837772, -1.2547962844904545, 1.6766410011590054, 3.221359654559848], 0.5, 0.5, 0.01, 0.2, 100)

2025-07-07 16:58:18,562 - gym_custom_envs_real_ur_drivers_URBasic_realTimeClientEvent - INFO - Program send to Robot:
servoj([0.14902623366580864, -1.5447186534161803, -1.5033165119664869, -1.2547962844904545, 1.6766410011590054, 3.2198410135798397], 0.5, 0.5, 0.01, 0.2, 100)

2025-07-07 16:58:18,572 - gym_custom_envs_real_ur_drivers_URBasic_realTimeClientEvent - INFO - Program send to Robot:
servoj([0.1487984373973163, -1.544718653400994, -1.503301325526314, -1.2547962844904545, 1.6766410011590054, 3.2198258271700397], 0.5, 0.5, 0.01, 0.2, 100)

2025-07-07 16:58:18,584 - gym_custom_envs_real_ur_drivers_URBasic_realTimeClientEvent - INFO - Program send to Robot:
servoj([0.14879615943463137, -1.5447186534008421, -1.5033011736619122, -1.2547962844904545, 1.6766410011590054, 3.219825675305942], 0.5, 0.5, 0.01, 0.2, 100)

2025-07-07 16:58:18,588 - gym_custom_envs_real_ur_drivers_URBasic_realTimeClientEvent - INFO - Program send to Robot:
servoj([0.12146059901488218, -1.5447186534008406, -1.501782531163261, -1.2547962844904545, 1.6781596421390124, 3.216788391827287], 0.5, 0.5, 0.01, 0.2, 100)

2025-07-07 16:58:18,607 - gym_custom_envs_real_ur_drivers_URBasic_realTimeClientEvent - INFO - Program send to Robot:
servoj([0.12118724341068468, -1.5447186534008406, -1.5017673447382747, -1.2547962844904545, 1.6781748285488125, 3.2167580189925005], 0.5, 0.5, 0.01, 0.2, 100)

2025-07-07 16:58:18,611 - gym_custom_envs_real_ur_drivers_URBasic_realTimeClientEvent - INFO - Program send to Robot:
servoj([0.12118450985464271, -1.5447186534008406, -1.5017671928740248, -1.2547962844904545, 1.6781749804129105, 3.216757715264152], 0.5, 0.5, 0.01, 0.2, 100)

2025-07-07 16:58:18,631 - gym_custom_envs_real_ur_drivers_URBasic_realTimeClientEvent - INFO - Program send to Robot:
servoj([0.09081166291894692, -1.5462372943808476, -1.5017671913553823, -1.2547962844904545, 1.6872868278115922, 3.216757712226869], 0.5, 0.5, 0.01, 0.2, 100)

2025-07-07 16:58:18,636 - gym_custom_envs_real_ur_drivers_URBasic_realTimeClientEvent - INFO - Program send to Robot:
servoj([0.09050793444958996, -1.5462524807906477, -1.5017671913401958, -1.2547962844904545, 1.687377946285579, 3.2167577121964963], 0.5, 0.5, 0.01, 0.2, 100)

2025-07-07 16:58:18,656 - gym_custom_envs_real_ur_drivers_URBasic_realTimeClientEvent - INFO - Program send to Robot:
servoj([0.06316935952477404, -1.5492899146147592, -1.5017671913400439, -1.2547962844904545, 1.6995279853103735, 3.215239071216186], 0.5, 0.5, 0.01, 0.2, 100)

2025-07-07 16:58:18,660 - gym_custom_envs_real_ur_drivers_URBasic_realTimeClientEvent - INFO - Program send to Robot:
servoj([0.06289597377552587, -1.5493202889530002, -1.5017671913400426, -1.2547962844904545, 1.6996494857006215, 3.2152238848063823], 0.5, 0.5, 0.01, 0.2, 100)

2025-07-07 16:58:18,681 - gym_custom_envs_real_ur_drivers_URBasic_realTimeClientEvent - INFO - Program send to Robot:
servoj([0.06289323991803339, -1.5493205926963827, -1.5017671913400426, -1.2547962844904545, 1.699650700704524, 3.2152237329422846], 0.5, 0.5, 0.01, 0.2, 100)

2025-07-07 16:58:18,692 - gym_custom_envs_real_ur_drivers_URBasic_realTimeClientEvent - INFO - Program send to Robot:
servoj([0.03555767493933654, -1.5508392367138233, -1.5017671913400426, -1.2547962844904545, 1.7163557636346376, 3.2152237314236434], 0.5, 0.5, 0.01, 0.2, 100)

2025-07-07 16:58:18,704 - gym_custom_envs_real_ur_drivers_URBasic_realTimeClientEvent - INFO - Program send to Robot:
servoj([0.035284319289549566, -1.5508544231539976, -1.5017671913400426, -1.2547962844904545, 1.7165228142639388, 3.2152237314084573], 0.5, 0.5, 0.01, 0.2, 100)

2025-07-07 16:58:18,707 - gym_custom_envs_real_ur_drivers_URBasic_realTimeClientEvent - INFO - Program send to Robot:
servoj([0.0352815857330517, -1.5508545750183993, -1.5017671913400426, -1.2547962844904545, 1.7165244847702317, 3.2152237314083054], 0.5, 0.5, 0.01, 0.2, 100)

2025-07-07 16:58:18,728 - gym_custom_envs_real_ur_drivers_URBasic_realTimeClientEvent - INFO - Program send to Robot:
servoj([0.010983302717377809, -1.5584477814370774, -1.5017671913400426, -1.2547962844904545, 1.7317109112753624, 3.2152237314083036], 0.5, 0.5, 0.01, 0.2, 100)

2025-07-07 16:58:18,732 - gym_custom_envs_real_ur_drivers_URBasic_realTimeClientEvent - INFO - Program send to Robot:
servoj([0.01074031988722107, -1.5585237135012642, -1.5017671913400426, -1.2547962844904545, 1.7318627755404137, 3.2152237314083036], 0.5, 0.5, 0.01, 0.2, 100)

2025-07-07 16:58:18,751 - gym_custom_envs_real_ur_drivers_URBasic_realTimeClientEvent - INFO - Program send to Robot:
servoj([-0.01052308366117508, -1.5676363187019466, -1.5017671913400426, -1.2547962844904545, 1.7485693449631388, 3.2152237314083036], 0.5, 0.5, 0.01, 0.2, 100)

2025-07-07 16:58:18,759 - gym_custom_envs_real_ur_drivers_URBasic_realTimeClientEvent - INFO - Program send to Robot:
servoj([-0.010735717696659043, -1.5677274447539533, -1.5017671913400426, -1.2547962844904545, 1.7487364106573662, 3.2152237314083036], 0.5, 0.5, 0.01, 0.2, 100)

2025-07-07 16:58:18,764 - gym_custom_envs_real_ur_drivers_URBasic_realTimeClientEvent - INFO - Program send to Robot:
servoj([-0.010737844037013883, -1.5677283560144735, -1.5017671913400426, -1.2547962844904545, 1.7487380813143083, 3.2152237314083036], 0.5, 0.5, 0.01, 0.2, 100)

2025-07-07 16:58:18,779 - gym_custom_envs_real_ur_drivers_URBasic_realTimeClientEvent - INFO - Program send to Robot:
servoj([-0.028961557060499004, -1.5722842880670989, -1.5017671913400426, -1.2547962844904545, 1.7578499439009185, 3.213705090428297], 0.5, 0.5, 0.01, 0.2, 100)

2025-07-07 16:58:18,787 - gym_custom_envs_real_ur_drivers_URBasic_realTimeClientEvent - INFO - Program send to Robot:
servoj([-0.029143794190733856, -1.5723298473876253, -1.5017671913400426, -1.2547962844904545, 1.7579410625267846, 3.213689904018497], 0.5, 0.5, 0.01, 0.2, 100)

2025-07-07 16:58:18,800 - gym_custom_envs_real_ur_drivers_URBasic_realTimeClientEvent - INFO - Program send to Robot:
servoj([-0.029145616562036205, -1.5723303029808304, -1.5017671913400426, -1.2547962844904545, 1.7579419737130433, 3.213689752154399], 0.5, 0.5, 0.01, 0.2, 100)

2025-07-07 16:58:18,812 - gym_custom_envs_real_ur_drivers_URBasic_realTimeClientEvent - INFO - Program send to Robot:
servoj([-0.045850685565823855, -1.5738489485167695, -1.5002485503600358, -1.2547962844904545, 1.760979264784919, 3.207615186715731], 0.5, 0.5, 0.01, 0.2, 100)

2025-07-07 16:58:18,823 - gym_custom_envs_real_ur_drivers_URBasic_realTimeClientEvent - INFO - Program send to Robot:
servoj([-0.04601773625586173, -1.573864134972129, -1.5002333639502357, -1.2547962844904545, 1.7610096376956377, 3.2075544410613444], 0.5, 0.5, 0.01, 0.2, 100)

2025-07-07 16:58:18,828 - gym_custom_envs_real_ur_drivers_URBasic_realTimeClientEvent - INFO - Program send to Robot:
servoj([-0.046019406762762116, -1.5738642868366826, -1.5002332120861377, -1.2547962844904545, 1.7610099414247449, 3.2075538336048], 0.5, 0.5, 0.01, 0.2, 100)

2025-07-07 16:58:18,835 - gym_custom_envs_real_ur_drivers_URBasic_realTimeClientEvent - INFO - Program send to Robot:
servoj([-0.04601942346783112, -1.573864288355328, -1.5002332105674967, -1.2547962844904545, 1.761009944462036, 3.207553827530235], 0.5, 0.5, 0.01, 0.2, 100)

2025-07-07 16:58:18,854 - gym_custom_envs_real_ur_drivers_URBasic_realTimeClientEvent - INFO - Program send to Robot:
servoj([-0.05361262853491565, -1.5738642883705145, -1.498714569572304, -1.2547962844904545, 1.761009944492409, 3.196923340609442], 0.5, 0.5, 0.01, 0.2, 100)

2025-07-07 16:58:18,860 - gym_custom_envs_real_ur_drivers_URBasic_realTimeClientEvent - INFO - Program send to Robot:
servoj([-0.0536885605855865, -1.5738642883706664, -1.4986993831623523, -1.2547962844904545, 1.7610099444927128, 3.196817035740234], 0.5, 0.5, 0.01, 0.2, 100)

2025-07-07 16:58:18,870 - gym_custom_envs_real_ur_drivers_URBasic_realTimeClientEvent - INFO - Program send to Robot:
servoj([-0.05368931990609321, -1.573864288370668, -1.4986992312982528, -1.2547962844904545, 1.7610099444927156, 3.196815972691542], 0.5, 0.5, 0.01, 0.2, 100)

2025-07-07 16:58:18,884 - gym_custom_envs_real_ur_drivers_URBasic_realTimeClientEvent - INFO - Program send to Robot:
servoj([-0.05976389141932561, -1.5753829293506747, -1.4941433068395908, -1.2563149254704613, 1.7594913035127095, 3.187704116181014], 0.5, 0.5, 0.01, 0.2, 100)

2025-07-07 16:58:18,894 - gym_custom_envs_real_ur_drivers_URBasic_realTimeClientEvent - INFO - Program send to Robot:
servoj([-0.05982463713445793, -1.5753981157604746, -1.4940977475950041, -1.2563301118802614, 1.7594761171029096, 3.1876129976159087], 0.5, 0.5, 0.01, 0.2, 100)

2025-07-07 16:58:18,902 - gym_custom_envs_real_ur_drivers_URBasic_realTimeClientEvent - INFO - Program send to Robot:
servoj([-0.059825244591609254, -1.5753982676245728, -1.4940972920025584, -1.2563302637443594, 1.7594759652388117, 3.1876120864302577], 0.5, 0.5, 0.01, 0.2, 100)

2025-07-07 16:58:18,908 - gym_custom_envs_real_ur_drivers_URBasic_realTimeClientEvent - INFO - Program send to Robot:
servoj([-0.06589981458620767, -1.5769169101232205, -1.489541364506614, -1.2563302652630004, 1.7594759637201707, 3.181537513398374], 0.5, 0.5, 0.01, 0.2, 100)

2025-07-07 16:58:18,927 - gym_custom_envs_real_ur_drivers_URBasic_realTimeClientEvent - INFO - Program send to Robot:
servoj([-0.06596056028615366, -1.576932096548207, -1.4894958052316545, -1.2563302652781867, 1.7594759637049842, 3.1814767676680553], 0.5, 0.5, 0.01, 0.2, 100)

2025-07-07 16:58:18,931 - gym_custom_envs_real_ur_drivers_URBasic_realTimeClientEvent - INFO - Program send to Robot:
servoj([-0.06596116774315311, -1.5769322484124568, -1.489495349638905, -1.2563302652783386, 1.7594759637048323, 3.181476160210752], 0.5, 0.5, 0.01, 0.2, 100)

2025-07-07 16:58:18,943 - gym_custom_envs_real_ur_drivers_URBasic_realTimeClientEvent - INFO - Program send to Robot:
servoj([-0.07507301969776389, -1.5830068138511264, -1.4849394221429566, -1.2563302652783401, 1.7594759637048307, 3.1769202311961586], 0.5, 0.5, 0.01, 0.2, 100)

2025-07-07 16:58:18,956 - gym_custom_envs_real_ur_drivers_URBasic_realTimeClientEvent - INFO - Program send to Robot:
servoj([-0.07516413821731, -1.583067559505513, -1.484893862867997, -1.2563302652783401, 1.7594759637048307, 3.176874671906013], 0.5, 0.5, 0.01, 0.2, 100)

2025-07-07 16:58:18,966 - gym_custom_envs_real_ur_drivers_URBasic_realTimeClientEvent - INFO - Program send to Robot:
servoj([-0.07516504940250546, -1.583068166962057, -1.4848934072752475, -1.2563302652783401, 1.7594759637048307, 3.176874216313111], 0.5, 0.5, 0.01, 0.2, 100)

2025-07-07 16:58:18,974 - gym_custom_envs_real_ur_drivers_URBasic_realTimeClientEvent - INFO - Program send to Robot:
servoj([-0.08427690439439821, -1.5906613779366565, -1.483374761739313, -1.2563302652783401, 1.7594759637048307, 3.1723182888171615], 0.5, 0.5, 0.01, 0.2, 100)

2025-07-07 16:58:18,989 - gym_custom_envs_real_ur_drivers_URBasic_realTimeClientEvent - INFO - Program send to Robot:
servoj([-0.08436802294431714, -1.5907373100464026, -1.4833595752839537, -1.2563302652783401, 1.7594759637048307, 3.172272729542202], 0.5, 0.5, 0.01, 0.2, 100)

2025-07-07 16:58:18,998 - gym_custom_envs_real_ur_drivers_URBasic_realTimeClientEvent - INFO - Program send to Robot:
servoj([-0.08436893412981633, -1.5907380693675, -1.4833594234194, -1.2563302652783401, 1.7594759637048307, 3.1722722739494524], 0.5, 0.5, 0.01, 0.2, 100)

2025-07-07 16:58:19,004 - gym_custom_envs_real_ur_drivers_URBasic_realTimeClientEvent - INFO - Program send to Robot:
servoj([-0.08892486618169171, -1.596812640880738, -1.4848780628807614, -1.2563302652783401, 1.7594759637048307, 3.1722722693935252], 0.5, 0.5, 0.01, 0.2, 100)

2025-07-07 16:58:19,013 - gym_custom_envs_real_ur_drivers_URBasic_realTimeClientEvent - INFO - Program send to Robot:
servoj([-0.08897042550221046, -1.5968733865958704, -1.484893249275375, -1.2563302652783401, 1.7594759637048307, 3.1722722693479657], 0.5, 0.5, 0.01, 0.2, 100)

2025-07-07 16:58:19,030 - gym_custom_envs_real_ur_drivers_URBasic_realTimeClientEvent - INFO - Program send to Robot:
servoj([-0.08897088109541565, -1.5968739940530217, -1.4848934011393213, -1.2563302652783401, 1.7594759637048307, 3.17227226934751], 0.5, 0.5, 0.01, 0.2, 100)

2025-07-07 16:58:19,046 - gym_custom_envs_real_ur_drivers_URBasic_realTimeClientEvent - INFO - Program send to Robot:
servoj([-0.0950454495713746, -1.6014299230676132, -1.4848934026579608, -1.2563302652783401, 1.7594759637048307, 3.1722722693475056], 0.5, 0.5, 0.01, 0.2, 100)

2025-07-07 16:58:19,052 - gym_custom_envs_real_ur_drivers_URBasic_realTimeClientEvent - INFO - Program send to Robot:
servoj([-0.0951061952561342, -1.6014754823577593, -1.484893402673147, -1.2563302652783401, 1.7594759637048307, 3.1722722693475056], 0.5, 0.5, 0.01, 0.2, 100)

2025-07-07 16:58:19,062 - gym_custom_envs_real_ur_drivers_URBasic_realTimeClientEvent - INFO - Program send to Robot:
servoj([-0.09510680271298179, -1.6014759379506607, -1.484893402673299, -1.2563302652783401, 1.7594759637048307, 3.1722722693475056], 0.5, 0.5, 0.01, 0.2, 100)

2025-07-07 16:58:19,075 - gym_custom_envs_real_ur_drivers_URBasic_realTimeClientEvent - INFO - Program send to Robot:
servoj([-0.09814409074756415, -1.6029945834865966, -1.4848934026733005, -1.2563302652783401, 1.7594759637048307, 3.1722722693475056], 0.5, 0.5, 0.01, 0.2, 100)

2025-07-07 16:58:19,085 - gym_custom_envs_real_ur_drivers_URBasic_realTimeClientEvent - INFO - Program send to Robot:
servoj([-0.09817446362790996, -1.603009769941956, -1.4848934026733005, -1.2563302652783401, 1.7594759637048307, 3.1722722693475056], 0.5, 0.5, 0.01, 0.2, 100)

2025-07-07 16:58:19,093 - gym_custom_envs_real_ur_drivers_URBasic_realTimeClientEvent - INFO - Program send to Robot:
servoj([-0.09817476735671343, -1.6030099218065097, -1.4848934026733005, -1.2563302652783401, 1.7594759637048307, 3.1722722693475056], 0.5, 0.5, 0.01, 0.2, 100)

2025-07-07 16:58:19,099 - gym_custom_envs_real_ur_drivers_URBasic_realTimeClientEvent - INFO - Program send to Robot:
servoj([-0.10121205235401493, -1.6075658462651756, -1.4848934026733005, -1.2563302652783401, 1.7609946046848368, 3.1707536283674993], 0.5, 0.5, 0.01, 0.2, 100)

2025-07-07 16:58:19,116 - gym_custom_envs_real_ur_drivers_URBasic_realTimeClientEvent - INFO - Program send to Robot:
servoj([-0.10124242520398793, -1.6076114055097623, -1.4848934026733005, -1.2563302652783401, 1.761009791094637, 3.1707384419576994], 0.5, 0.5, 0.01, 0.2, 100)

2025-07-07 16:58:19,124 - gym_custom_envs_real_ur_drivers_URBasic_realTimeClientEvent - INFO - Program send to Robot:
servoj([-0.10124272893248767, -1.607611861102208, -1.4848934026733005, -1.2563302652783401, 1.761009942958735, 3.170738290093601], 0.5, 0.5, 0.01, 0.2, 100)

2025-07-07 16:58:19,132 - gym_custom_envs_real_ur_drivers_URBasic_realTimeClientEvent - INFO - Program send to Robot:
servoj([-0.1027613729497796, -1.6121677885981527, -1.4848934026733005, -1.2563302652783401, 1.7594913034973698, 3.1692196475949537], 0.5, 0.5, 0.01, 0.2, 100)

2025-07-07 16:58:19,141 - gym_custom_envs_real_ur_drivers_URBasic_realTimeClientEvent - INFO - Program send to Robot:
servoj([-0.10277655938995252, -1.6122133478731122, -1.4848934026733005, -1.2563302652783401, 1.7594761171027562, 3.169204461169967], 0.5, 0.5, 0.01, 0.2, 100)

2025-07-07 16:58:19,157 - gym_custom_envs_real_ur_drivers_URBasic_realTimeClientEvent - INFO - Program send to Robot:
servoj([-0.10277671125435425, -1.6122138034658617, -1.4848934026733005, -1.2563302652783401, 1.7594759652388101, 3.169204309305717], 0.5, 0.5, 0.01, 0.2, 100)

2025-07-07 16:58:19,166 - gym_custom_envs_real_ur_drivers_URBasic_realTimeClientEvent - INFO - Program send to Robot:
servoj([-0.10277671277299827, -1.615251089981803, -1.4833747616932935, -1.2563302652783401, 1.7609946047001768, 3.1661670258270607], 0.5, 0.5, 0.01, 0.2, 100)

2025-07-07 16:58:19,171 - gym_custom_envs_real_ur_drivers_URBasic_realTimeClientEvent - INFO - Program send to Robot:
servoj([-0.1027767127881847, -1.6152814628469623, -1.4833595752834934, -1.2563302652783401, 1.7610097910947904, 3.1661366529922743], 0.5, 0.5, 0.01, 0.2, 100)

2025-07-07 16:58:19,191 - gym_custom_envs_real_ur_drivers_URBasic_realTimeClientEvent - INFO - Program send to Robot:
servoj([-0.10277671278833657, -1.615281766575614, -1.4833594234193954, -1.2563302652783401, 1.7610099429587365, 3.166136349263926], 0.5, 0.5, 0.01, 0.2, 100)

2025-07-07 16:58:19,196 - gym_custom_envs_real_ur_drivers_URBasic_realTimeClientEvent - INFO - Program send to Robot:
servoj([-0.1027767127883381, -1.618319051572914, -1.4803221399407416, -1.2563302652783401, 1.761009944477376, 3.1630990642666292], 0.5, 0.5, 0.01, 0.2, 100)

2025-07-07 16:58:19,207 - gym_custom_envs_real_ur_drivers_URBasic_realTimeClientEvent - INFO - Program send to Robot:
servoj([-0.10277671278833811, -1.618349424422887, -1.480291767105955, -1.2563302652783401, 1.7610099444925624, 3.1630686914166564], 0.5, 0.5, 0.01, 0.2, 100)

2025-07-07 16:58:19,219 - gym_custom_envs_real_ur_drivers_URBasic_realTimeClientEvent - INFO - Program send to Robot:
servoj([-0.10277671278833811, -1.6183497281513868, -1.4802914633776072, -1.2563302652783401, 1.761009944492714, 3.1630683876881567], 0.5, 0.5, 0.01, 0.2, 100)

2025-07-07 16:58:19,230 - gym_custom_envs_real_ur_drivers_URBasic_realTimeClientEvent - INFO - Program send to Robot:
servoj([-0.10277671278833811, -1.6213870131486852, -1.4772541783803097, -1.2563302652783401, 1.7594913035127095, 3.1615497436708653], 0.5, 0.5, 0.01, 0.2, 100)

2025-07-07 16:58:19,238 - gym_custom_envs_real_ur_drivers_URBasic_realTimeClientEvent - INFO - Program send to Robot:
servoj([-0.10277671278833811, -1.6214173859986583, -1.4772238055303368, -1.2563302652783401, 1.7594761171029096, 3.1615345572306923], 0.5, 0.5, 0.01, 0.2, 100)

2025-07-07 16:58:19,254 - gym_custom_envs_real_ur_drivers_URBasic_realTimeClientEvent - INFO - Program send to Robot:
servoj([-0.10277671278833811, -1.621417689727158, -1.4772235018018371, -1.2563302652783401, 1.7594759652388117, 3.161534405366291], 0.5, 0.5, 0.01, 0.2, 100)

2025-07-07 16:58:19,262 - gym_custom_envs_real_ur_drivers_URBasic_realTimeClientEvent - INFO - Program send to Robot:
servoj([-0.10277671278833811, -1.621417692764443, -1.472667575824532, -1.2563302652783401, 1.7594759637201707, 3.1615344038476465], 0.5, 0.5, 0.01, 0.2, 100)

2025-07-07 16:58:19,267 - gym_custom_envs_real_ur_drivers_URBasic_realTimeClientEvent - INFO - Program send to Robot:
servoj([-0.10277671278833811, -1.6214176927948158, -1.472622016564759, -1.2563302652783401, 1.7594759637049842, 3.16153440383246], 0.5, 0.5, 0.01, 0.2, 100)

2025-07-07 16:58:19,286 - gym_custom_envs_real_ur_drivers_URBasic_realTimeClientEvent - INFO - Program send to Robot:
servoj([-0.10277671278833811, -1.6214176927951196, -1.4726215609721611, -1.2563302652783401, 1.7594759637048323, 3.161534403832308], 0.5, 0.5, 0.01, 0.2, 100)

2025-07-07 16:58:19,291 - gym_custom_envs_real_ur_drivers_URBasic_realTimeClientEvent - INFO - Program send to Robot:
servoj([-0.10429535376834462, -1.6214176927951225, -1.4680656334762145, -1.2563302652783401, 1.7594759637048307, 3.158497121872293], 0.5, 0.5, 0.01, 0.2, 100)

2025-07-07 16:58:19,302 - gym_custom_envs_real_ur_drivers_URBasic_realTimeClientEvent - INFO - Program send to Robot:
servoj([-0.10431054017814469, -1.6214176927951227, -1.468020074201255, -1.2563302652783401, 1.7594759637048307, 3.1584667490526925], 0.5, 0.5, 0.01, 0.2, 100)

2025-07-07 16:58:19,315 - gym_custom_envs_real_ur_drivers_URBasic_realTimeClientEvent - INFO - Program send to Robot:
servoj([-0.10431069204224268, -1.6214176927951227, -1.4680196186085055, -1.2563302652783401, 1.7594759637048307, 3.1584664453244966], 0.5, 0.5, 0.01, 0.2, 100)

2025-07-07 16:58:19,327 - gym_custom_envs_real_ur_drivers_URBasic_realTimeClientEvent - INFO - Program send to Robot:
servoj([-0.10734797552089756, -1.6229363337751295, -1.4634636911125578, -1.2578489062583469, 1.7594759637048307, 3.1539105193471944], 0.5, 0.5, 0.01, 0.2, 100)

2025-07-07 16:58:19,332 - gym_custom_envs_real_ur_drivers_URBasic_realTimeClientEvent - INFO - Program send to Robot:
servoj([-0.1073783483556841, -1.6229515201849294, -1.4634181318375985, -1.257864092668147, 1.7594759637048307, 3.1538649600874216], 0.5, 0.5, 0.01, 0.2, 100)

2025-07-07 16:58:19,340 - gym_custom_envs_real_ur_drivers_URBasic_realTimeClientEvent - INFO - Program send to Robot:
servoj([-0.10737865208403197, -1.6229516720490273, -1.4634176762448488, -1.257864244532245, 1.7594759637048307, 3.1538645044948237], 0.5, 0.5, 0.01, 0.2, 100)

2025-07-07 16:58:19,355 - gym_custom_envs_real_ur_drivers_URBasic_realTimeClientEvent - INFO - Program send to Robot:
servoj([-0.11345321904134234, -1.6244703145476753, -1.4618990307089144, -1.2593828870308927, 1.7609946046848368, 3.146271295038864], 0.5, 0.5, 0.01, 0.2, 100)

2025-07-07 16:58:19,363 - gym_custom_envs_real_ur_drivers_URBasic_realTimeClientEvent - INFO - Program send to Robot:
servoj([-0.11351396471091545, -1.624485500972662, -1.461883844253555, -1.2593980734558792, 1.761009791094637, 3.1461953629443045], 0.5, 0.5, 0.01, 0.2, 100)

2025-07-07 16:58:19,375 - gym_custom_envs_real_ur_drivers_URBasic_realTimeClientEvent - INFO - Program send to Robot:
servoj([-0.11351457216761117, -1.6244856528369118, -1.4618836923890015, -1.259398225320129, 1.761009942958735, 3.146194603623359], 0.5, 0.5, 0.01, 0.2, 100)

2025-07-07 16:58:19,388 - gym_custom_envs_real_ur_drivers_URBasic_realTimeClientEvent - INFO - Program send to Robot:
servoj([-0.12262642412221891, -1.6244856543555541, -1.460365049890349, -1.2609168678187783, 1.7594913034973698, 3.137082750150108], 0.5, 0.5, 0.01, 0.2, 100)

2025-07-07 16:58:19,399 - gym_custom_envs_real_ur_drivers_URBasic_realTimeClientEvent - INFO - Program send to Robot:
servoj([-0.12271754264176499, -1.6244856543707407, -1.4603498634653627, -1.2609320542437648, 1.7594761171027562, 3.1369916316153756], 0.5, 0.5, 0.01, 0.2, 100)

2025-07-07 16:58:19,404 - gym_custom_envs_real_ur_drivers_URBasic_realTimeClientEvent - INFO - Program send to Robot:
servoj([-0.12271845382696045, -1.6244856543708925, -1.4603497116011128, -1.2609322061080146, 1.7594759652388101, 3.1369907204300285], 0.5, 0.5, 0.01, 0.2, 100)

2025-07-07 16:58:19,412 - gym_custom_envs_real_ur_drivers_URBasic_realTimeClientEvent - INFO - Program send to Robot:
servoj([-0.1227184629388124, -1.624485654370894, -1.4603497100824703, -1.2609322076266571, 1.7594759637201707, 3.136990711318175], 0.5, 0.5, 0.01, 0.2, 100)

2025-07-07 16:58:19,427 - gym_custom_envs_real_ur_drivers_URBasic_realTimeClientEvent - INFO - Program send to Robot:
servoj([-0.1379048728299986, -1.6260042953509009, -1.4603497100672838, -1.2609322076418437, 1.7594759637049842, 3.1293975063270225], 0.5, 0.5, 0.01, 0.2, 100)

2025-07-07 16:58:19,436 - gym_custom_envs_real_ur_drivers_URBasic_realTimeClientEvent - INFO - Program send to Robot:
servoj([-0.1380567369289105, -1.626019481760701, -1.4603497100671319, -1.2609322076419955, 1.7594759637048323, 3.129321574277111], 0.5, 0.5, 0.01, 0.2, 100)

2025-07-07 16:58:19,449 - gym_custom_envs_real_ur_drivers_URBasic_realTimeClientEvent - INFO - Program send to Robot:
servoj([-0.1380582555698996, -1.626019633624799, -1.4603497100671305, -1.260932207641997, 1.7594759637048307, 3.129320814956612], 0.5, 0.5, 0.01, 0.2, 100)

2025-07-07 16:58:19,460 - gym_custom_envs_real_ur_drivers_URBasic_realTimeClientEvent - INFO - Program send to Robot:
servoj([-0.15476332153638414, -1.62601963514344, -1.4603497100671303, -1.2624508486220039, 1.7564386817448168, 3.124764884423387], 0.5, 0.5, 0.01, 0.2, 100)

2025-07-07 16:58:19,472 - gym_custom_envs_real_ur_drivers_URBasic_realTimeClientEvent - INFO - Program send to Robot:
servoj([-0.15493037219604897, -1.6260196351586262, -1.4603497100671303, -1.2624660350318038, 1.7564083089252167, 3.1247193251180545], 0.5, 0.5, 0.01, 0.2, 100)

2025-07-07 16:58:19,476 - gym_custom_envs_real_ur_drivers_URBasic_realTimeClientEvent - INFO - Program send to Robot:
servoj([-0.15493204270264563, -1.6260196351587781, -1.4603497100671303, -1.2624661868959017, 1.7564080051970208, 3.124718869525001], 0.5, 0.5, 0.01, 0.2, 100)

2025-07-07 16:58:19,496 - gym_custom_envs_real_ur_drivers_URBasic_realTimeClientEvent - INFO - Program send to Robot:
servoj([-0.16859982822777278, -1.6275382761387864, -1.4603497100671303, -1.2655034703745565, 1.7533707201997248, 3.1232002239890635], 0.5, 0.5, 0.01, 0.2, 100)

2025-07-07 16:58:19,500 - gym_custom_envs_real_ur_drivers_URBasic_realTimeClientEvent - INFO - Program send to Robot:
servoj([-0.16873650608302404, -1.6275534625485866, -1.4603497100671303, -1.265533843209343, 1.7533403473497517, 3.123185037533704], 0.5, 0.5, 0.01, 0.2, 100)

2025-07-07 16:58:19,520 - gym_custom_envs_real_ur_drivers_URBasic_realTimeClientEvent - INFO - Program send to Robot:
servoj([-0.17784971874161734, -1.6275536144126845, -1.4588310690871233, -1.2670527879176978, 1.7487841206812322, 3.1201476037091376], 0.5, 0.5, 0.01, 0.2, 100)

2025-07-07 16:58:19,524 - gym_custom_envs_real_ur_drivers_URBasic_realTimeClientEvent - INFO - Program send to Robot:
servoj([-0.17794085086820327, -1.6275536159313255, -1.4588158826773234, -1.2670679773647813, 1.748738558414547, 3.1201172293708916], 0.5, 0.5, 0.01, 0.2, 100)

2025-07-07 16:58:19,544 - gym_custom_envs_real_ur_drivers_URBasic_realTimeClientEvent - INFO - Program send to Robot:
servoj([-0.1779417621894691, -1.6275536159465118, -1.4588157308132255, -1.267068129259252, 1.7487381027918802, 3.120116925627509], 0.5, 0.5, 0.01, 0.2, 100)

2025-07-07 16:58:19,548 - gym_custom_envs_real_ur_drivers_URBasic_realTimeClientEvent - INFO - Program send to Robot:
servoj([-0.18705361718272256, -1.632109538886684, -1.4588157292945845, -1.27010541273821, 1.7426635343156265, 3.111005076710035], 0.5, 0.5, 0.01, 0.2, 100)

2025-07-07 16:58:19,568 - gym_custom_envs_real_ur_drivers_URBasic_realTimeClientEvent - INFO - Program send to Robot:
servoj([-0.1871447357326551, -1.6321550981160857, -1.458815729279398, -1.2701357855729998, 1.742602788630864, 3.11091395822086], 0.5, 0.5, 0.01, 0.2, 100)

2025-07-07 16:58:19,572 - gym_custom_envs_real_ur_drivers_URBasic_realTimeClientEvent - INFO - Program send to Robot:
servoj([-0.18714564691815444, -1.6321555537083798, -1.458815729279246, -1.2701360893013476, 1.7426021811740164, 3.1109130470359685], 0.5, 0.5, 0.01, 0.2, 100)

2025-07-07 16:58:19,593 - gym_custom_envs_real_ur_drivers_URBasic_realTimeClientEvent - INFO - Program send to Robot:
servoj([-0.1977761428900567, -1.63823012218433, -1.4542598063392245, -1.271654733318638, 1.735008970199414, 3.092689346164038], 0.5, 0.5, 0.01, 0.2, 100)

2025-07-07 16:58:19,596 - gym_custom_envs_real_ur_drivers_URBasic_realTimeClientEvent - INFO - Program send to Robot:
servoj([-0.19788244784977574, -1.6382908678690895, -1.4542142471098243, -1.271669919758811, 1.7349330380896681, 3.0925071091553185], 0.5, 0.5, 0.01, 0.2, 100)

2025-07-07 16:58:19,615 - gym_custom_envs_real_ur_drivers_URBasic_realTimeClientEvent - INFO - Program send to Robot:
servoj([-0.2115512797194341, -1.644366039245964, -1.4481392275975036, -1.2716700716232128, 1.7258204328885298, 3.071244313065136], 0.5, 0.5, 0.01, 0.2, 100)

2025-07-07 16:58:19,619 - gym_custom_envs_real_ur_drivers_URBasic_realTimeClientEvent - INFO - Program send to Robot:
servoj([-0.2116879680381307, -1.6444267909597328, -1.4480784774023803, -1.2716700731418566, 1.7257293068365185, 3.0710316851042343], 0.5, 0.5, 0.01, 0.2, 100)

2025-07-07 16:58:19,639 - gym_custom_envs_real_ur_drivers_URBasic_realTimeClientEvent - INFO - Program send to Robot:
servoj([-0.21168933492131764, -1.6444273984768705, -1.448077869900429, -1.2716700731570432, 1.7257283955759983, 3.071029558824625], 0.5, 0.5, 0.01, 0.2, 100)

2025-07-07 16:58:19,643 - gym_custom_envs_real_ur_drivers_URBasic_realTimeClientEvent - INFO - Program send to Robot:
servoj([-0.2253571174102107, -1.6505019684720692, -1.4389660179453687, -1.2731887141372018, 1.7150978996033455, 3.0482499228617277], 0.5, 0.5, 0.01, 0.2, 100)

2025-07-07 16:58:19,663 - gym_custom_envs_real_ur_drivers_URBasic_realTimeClientEvent - INFO - Program send to Robot:
servoj([-0.22549379523509963, -1.6505627141720212, -1.4388748994258183, -1.2732039005470033, 1.714991594643619, 3.0480221265020986], 0.5, 0.5, 0.01, 0.2, 100)

2025-07-07 16:58:19,672 - gym_custom_envs_real_ur_drivers_URBasic_realTimeClientEvent - INFO - Program send to Robot:
servoj([-0.22549516201334852, -1.6505633216290208, -1.4388739882406227, -1.2732040524111015, 1.7149905315940215, 3.048019848538502], 0.5, 0.5, 0.01, 0.2, 100)

2025-07-07 16:58:19,676 - gym_custom_envs_real_ur_drivers_URBasic_realTimeClientEvent - INFO - Program send to Robot:
servoj([-0.23764430352118524, -1.6520819686835972, -1.4312807742287368, -1.2732040539297422, 1.705878675083485, 3.0206842881187437], 0.5, 0.5, 0.01, 0.2, 100)

2025-07-07 16:58:19,692 - gym_custom_envs_real_ur_drivers_URBasic_realTimeClientEvent - INFO - Program send to Robot:
servoj([-0.23776579493626362, -1.652097155154143, -1.4312048420886179, -1.2732040539449287, 1.7057875565183795, 3.020410932514546], 0.5, 0.5, 0.01, 0.2, 100)

2025-07-07 16:58:19,700 - gym_custom_envs_real_ur_drivers_URBasic_realTimeClientEvent - INFO - Program send to Robot:
servoj([-0.2377670098504144, -1.6520973070188485, -1.4312040827672168, -1.2732040539450806, 1.7057866453327284, 3.020408198958504], 0.5, 0.5, 0.01, 0.2, 100)

2025-07-07 16:58:19,716 - gym_custom_envs_real_ur_drivers_URBasic_realTimeClientEvent - INFO - Program send to Robot:
servoj([-0.25143479081961667, -1.6551345904975092, -1.422092229293962, -1.2732040539450822, 1.6997120723008452, 2.9961099159428355], 0.5, 0.5, 0.01, 0.2, 100)

2025-07-07 16:58:19,724 - gym_custom_envs_real_ur_drivers_URBasic_realTimeClientEvent - INFO - Program send to Robot:
servoj([-0.2515714686293087, -1.6551649633322958, -1.4220011107592294, -1.2732040539450822, 1.6996513265705262, 2.9958669331126786], 0.5, 0.5, 0.01, 0.2, 100)

2025-07-07 16:58:19,737 - gym_custom_envs_real_ur_drivers_URBasic_realTimeClientEvent - INFO - Program send to Robot:
servoj([-0.2637219632474603, -1.6582025490206573, -1.4128883536938412, -1.2732040539450822, 1.6966134371532091, 2.977640811524296], 0.5, 0.5, 0.01, 0.2, 100)

2025-07-07 16:58:19,739 - gym_custom_envs_real_ur_drivers_URBasic_realTimeClientEvent - INFO - Program send to Robot:
servoj([-0.2638434681936418, -1.658232924877541, -1.4127972261231874, -1.2732040539450822, 1.696583058259036, 2.977458550308412], 0.5, 0.5, 0.01, 0.2, 100)

2025-07-07 16:58:19,761 - gym_custom_envs_real_ur_drivers_URBasic_realTimeClientEvent - INFO - Program send to Robot:
servoj([-0.2638446832431036, -1.65823322863611, -1.412796314847481, -1.2732040539450822, 1.6965827544700942, 2.977456727696253], 0.5, 0.5, 0.01, 0.2, 100)

2025-07-07 16:58:19,763 - gym_custom_envs_real_ur_drivers_URBasic_realTimeClientEvent - INFO - Program send to Robot:
servoj([-0.2638446953935982, -1.6582332316736956, -1.4127963057347237, -1.2732040539450822, 1.6965827514322047, 2.9774567094701316], 0.5, 0.5, 0.01, 0.2, 100)

2025-07-07 16:58:19,785 - gym_custom_envs_real_ur_drivers_URBasic_realTimeClientEvent - INFO - Program send to Robot:
servoj([-0.27599382335515743, -1.659751872684078, -1.4036844597635554, -1.2732040539450822, 1.6920268284618059, 2.9683448634078298], 0.5, 0.5, 0.01, 0.2, 100)

2025-07-07 16:58:19,795 - gym_custom_envs_real_ur_drivers_URBasic_realTimeClientEvent - INFO - Program send to Robot:
servoj([-0.276115314634773, -1.659767059094182, -1.4035933413038437, -1.2732040539450822, 1.691981269232102, 2.968253744947207], 0.5, 0.5, 0.01, 0.2, 100)

2025-07-07 16:58:19,803 - gym_custom_envs_real_ur_drivers_URBasic_realTimeClientEvent - INFO - Program send to Robot:
servoj([-0.2882656573876234, -1.6612858519382898, -1.3914433022791919, -1.2732040539450822, 1.6889435316797912, 2.9652155518025873], 0.5, 0.5, 0.01, 0.2, 100)

2025-07-07 16:58:19,811 - gym_custom_envs_real_ur_drivers_URBasic_realTimeClientEvent - INFO - Program send to Robot:
servoj([-0.2883871608151519, -1.661301039866731, -1.3913218018889453, -1.2732040539450822, 1.688913154304268, 2.965185169871141], 0.5, 0.5, 0.01, 0.2, 100)

2025-07-07 16:58:19,828 - gym_custom_envs_real_ur_drivers_URBasic_realTimeClientEvent - INFO - Program send to Robot:
servoj([-0.28838837584942717, -1.6613011917460152, -1.391320586885043, -1.2732040539450822, 1.6889128505305127, 2.9651848660518265], 0.5, 0.5, 0.01, 0.2, 100)

2025-07-07 16:58:19,844 - gym_custom_envs_real_ur_drivers_URBasic_realTimeClientEvent - INFO - Program send to Robot:
servoj([-0.3020561568198307, -1.668894398164842, -1.3776528059149433, -1.2732040539450822, 1.6873942065127683, 2.9621475810536193], 0.5, 0.5, 0.01, 0.2, 100)

2025-07-07 16:58:19,851 - gym_custom_envs_real_ur_drivers_URBasic_realTimeClientEvent - INFO - Program send to Robot:
servoj([-0.3021928346295347, -1.6689703302290304, -1.3775161281052424, -1.2732040539450822, 1.6873790200725907, 2.9621172082036376], 0.5, 0.5, 0.01, 0.2, 100)

2025-07-07 16:58:19,860 - gym_custom_envs_real_ur_drivers_URBasic_realTimeClientEvent - INFO - Program send to Robot:
servoj([-0.30219420140763176, -1.6689710895496723, -1.3775147613271452, -1.2732040539450822, 1.687378868208189, 2.9621169044751374], 0.5, 0.5, 0.01, 0.2, 100)

2025-07-07 16:58:19,867 - gym_custom_envs_real_ur_drivers_URBasic_realTimeClientEvent - INFO - Program send to Robot:
servoj([-0.3128247019354604, -1.6780829430229192, -1.3623283378592965, -1.2732040539450822, 1.685860225709538, 2.960598260457846], 0.5, 0.5, 0.01, 0.2, 100)

2025-07-07 16:58:19,884 - gym_custom_envs_real_ur_drivers_URBasic_realTimeClientEvent - INFO - Program send to Robot:
servoj([-0.3129310069407387, -1.6781740615576517, -1.362176473624618, -1.2732040539450822, 1.6858450392845514, 2.9605830740176735], 0.5, 0.5, 0.01, 0.2, 100)

2025-07-07 16:58:19,892 - gym_custom_envs_real_ur_drivers_URBasic_realTimeClientEvent - INFO - Program send to Robot:
servoj([-0.3129320699907915, -1.678174972742999, -1.3621749549822713, -1.2732040539450822, 1.6858448874203016, 2.9605829221532716], 0.5, 0.5, 0.01, 0.2, 100)

2025-07-07 16:58:19,900 - gym_custom_envs_real_ur_drivers_URBasic_realTimeClientEvent - INFO - Program send to Robot:
servoj([-0.3235625674813393, -1.6842495457748796, -1.3515444529358, -1.274722694925089, 1.684326244921653, 2.957545638674614], 0.5, 0.5, 0.01, 0.2, 100)

2025-07-07 16:58:19,908 - gym_custom_envs_real_ur_drivers_URBasic_realTimeClientEvent - INFO - Program send to Robot:
servoj([-0.3236688724562448, -1.6843102915051984, -1.3514381479153352, -1.274737881334889, 1.6843110584966665, 2.9575152658398274], 0.5, 0.5, 0.01, 0.2, 100)

2025-07-07 16:58:19,923 - gym_custom_envs_real_ur_drivers_URBasic_realTimeClientEvent - INFO - Program send to Robot:
servoj([-0.3236699355059939, -1.6843108989625015, -1.3514370848651307, -1.274738033198987, 1.6843109066324167, 2.9575149621114796], 0.5, 0.5, 0.01, 0.2, 100)

2025-07-07 16:58:19,931 - gym_custom_envs_real_ur_drivers_URBasic_realTimeClientEvent - INFO - Program send to Robot:
servoj([-0.33126315103652565, -1.6903854689571018, -1.3438438693345949, -1.276256675697635, 1.6843109051137741, 2.951440395154169], 0.5, 0.5, 0.01, 0.2, 100)

2025-07-07 16:58:19,940 - gym_custom_envs_real_ur_drivers_URBasic_realTimeClientEvent - INFO - Program send to Robot:
servoj([-0.331339083191831, -1.6904462146570478, -1.3437679371792894, -1.2762718621226214, 1.6843109050985878, 2.9513796494845956], 0.5, 0.5, 0.01, 0.2, 100)

2025-07-07 16:58:19,956 - gym_custom_envs_real_ur_drivers_URBasic_realTimeClientEvent - INFO - Program send to Robot:
servoj([-0.33133984251338405, -1.6904468221140474, -1.3437671778577365, -1.2762720139868713, 1.684310905098436, 2.9513790420279], 0.5, 0.5, 0.01, 0.2, 100)

2025-07-07 16:58:19,964 - gym_custom_envs_real_ur_drivers_URBasic_realTimeClientEvent - INFO - Program send to Robot:
servoj([-0.3374144140266265, -1.6934841101486309, -1.3392112473245001, -1.2762720155055138, 1.6812736231384207, 2.939229908113279], 0.5, 0.5, 0.01, 0.2, 100)

2025-07-07 16:58:19,971 - gym_custom_envs_real_ur_drivers_URBasic_realTimeClientEvent - INFO - Program send to Robot:
servoj([-0.3374751597417589, -1.6935144830289766, -1.3391656880191678, -1.2762720155207001, 1.6812432503188204, 2.9391084167741326], 0.5, 0.5, 0.01, 0.2, 100)

2025-07-07 16:58:19,980 - gym_custom_envs_real_ur_drivers_URBasic_realTimeClientEvent - INFO - Program send to Robot:
servoj([-0.3374757671989102, -1.69351478675778, -1.3391652324261145, -1.276272015520852, 1.6812429465906245, 2.939107201860741], 0.5, 0.5, 0.01, 0.2, 100)

2025-07-07 16:58:19,996 - gym_custom_envs_real_ur_drivers_URBasic_realTimeClientEvent - INFO - Program send to Robot:
servoj([-0.343550337193509, -1.6995893537150955, -1.334609304930164, -1.2823465794408806, 1.6751683796333154, 2.9224021389315324], 0.5, 0.5, 0.01, 0.2, 100)

2025-07-07 16:58:20,004 - gym_custom_envs_real_ur_drivers_URBasic_realTimeClientEvent - INFO - Program send to Robot:
servoj([-0.34361108289345504, -1.6996500993846686, -1.3345637456552044, -1.282407325080081, 1.6751076339637423, 2.9222350883022403], 0.5, 0.5, 0.01, 0.2, 100)

2025-07-07 16:58:20,012 - gym_custom_envs_real_ur_drivers_URBasic_realTimeClientEvent - INFO - Program send to Robot:
servoj([-0.3436116903504545, -1.6996507068413642, -1.3345632900624549, -1.282407932536473, 1.6751070265070467, 2.9222334177959475], 0.5, 0.5, 0.01, 0.2, 100)

2025-07-07 16:58:20,020 - gym_custom_envs_real_ur_drivers_URBasic_realTimeClientEvent - INFO - Program send to Robot:
servoj([-0.3436116964250245, -1.6996507129159313, -1.3345632855065273, -1.2824079386110367, 1.6751070204324796, 2.9222334010908844], 0.5, 0.5, 0.01, 0.2, 100)

2025-07-07 16:58:20,036 - gym_custom_envs_real_ur_drivers_URBasic_realTimeClientEvent - INFO - Program send to Robot:
servoj([-0.351204901385804, -1.705725276896704, -1.328488721540941, -1.2869638616118027, 1.6629578925316792, 2.9070469911237664], 0.5, 0.5, 0.01, 0.2, 100)

2025-07-07 16:58:20,044 - gym_custom_envs_real_ur_drivers_URBasic_realTimeClientEvent - INFO - Program send to Robot:
servoj([-0.35128083343541183, -1.7057860225365116, -1.3284279759012854, -1.2870094208418104, 1.6628364012526713, 2.9068951270240952], 0.5, 0.5, 0.01, 0.2, 100)

2025-07-07 16:58:20,060 - gym_custom_envs_real_ur_drivers_URBasic_realTimeClientEvent - INFO - Program send to Robot:
servoj([-0.3558375156959283, -1.7164171168529572, -1.322352804524861, -1.2961217223141512, 1.6491674175198205, 2.8947444805430433], 0.5, 0.5, 0.01, 0.2, 100)

2025-07-07 16:58:20,068 - gym_custom_envs_real_ur_drivers_URBasic_realTimeClientEvent - INFO - Program send to Robot:
servoj([-0.35588308251853346, -1.7165234277961217, -1.3222920528110966, -1.2962128453288746, 1.649030727682492, 2.8946229740782328], 0.5, 0.5, 0.01, 0.2, 100)

2025-07-07 16:58:20,077 - gym_custom_envs_real_ur_drivers_URBasic_realTimeClientEvent - INFO - Program send to Robot:
servoj([-0.3558835381867595, -1.7165244909055533, -1.322291445293959, -1.296213756559022, 1.6490293607841189, 2.8946217590135848], 0.5, 0.5, 0.01, 0.2, 100)

2025-07-07 16:58:20,084 - gym_custom_envs_real_ur_drivers_URBasic_realTimeClientEvent - INFO - Program send to Robot:
servoj([-0.35588354274344175, -1.7165245015366477, -1.3222914392187877, -1.2962137656713233, 1.6490293471151352, 2.8946217468629385], 0.5, 0.5, 0.01, 0.2, 100)

2025-07-07 16:58:20,099 - gym_custom_envs_real_ur_drivers_URBasic_realTimeClientEvent - INFO - Program send to Robot:
servoj([-0.3558835427890086, -1.7225990655629857, -1.319254157198023, -1.3053256116424872, 1.6323242961983704, 2.885509900861391], 0.5, 0.5, 0.01, 0.2, 100)

2025-07-07 16:58:20,108 - gym_custom_envs_real_ur_drivers_URBasic_realTimeClientEvent - INFO - Program send to Robot:
servoj([-0.35588354278946427, -1.722659811203249, -1.3192237843778154, -1.3054167301021988, 1.6321572456892028, 2.8854187824013757], 0.5, 0.5, 0.01, 0.2, 100)

2025-07-07 16:58:20,116 - gym_custom_envs_real_ur_drivers_URBasic_realTimeClientEvent - INFO - Program send to Robot:
servoj([-0.3558835427894688, -1.7226604186596517, -1.3192234806496133, -1.305417641286796, 1.6321555751841113, 2.8854178712167755], 0.5, 0.5, 0.01, 0.2, 100)

2025-07-07 16:58:20,124 - gym_custom_envs_real_ur_drivers_URBasic_realTimeClientEvent - INFO - Program send to Robot:
servoj([-0.3558835427894689, -1.7272163476742362, -1.3192234776123313, -1.3160481372586894, 1.6169691486789926, 2.8808619391649097], 0.5, 0.5, 0.01, 0.2, 100)

2025-07-07 16:58:20,139 - gym_custom_envs_real_ur_drivers_URBasic_realTimeClientEvent - INFO - Program send to Robot:
servoj([-0.3558835427894689, -1.727261906964382, -1.3192234775819585, -1.3161544422184084, 1.6168172844139415, 2.8808163798443913], 0.5, 0.5, 0.01, 0.2, 100)

2025-07-07 16:58:20,147 - gym_custom_envs_real_ur_drivers_URBasic_realTimeClientEvent - INFO - Program send to Robot:
servoj([-0.3558835427894689, -1.7272623625572834, -1.3192234775816547, -1.3161555052680056, 1.616815765771291, 2.880815924251186], 0.5, 0.5, 0.01, 0.2, 100)

2025-07-07 16:58:20,164 - gym_custom_envs_real_ur_drivers_URBasic_realTimeClientEvent - INFO - Program send to Robot:
servoj([-0.3558835427894689, -1.730299649073226, -1.3192234775816518, -1.3207114388385215, 1.6046666227448096, 2.87777863773524], 0.5, 0.5, 0.01, 0.2, 100)

2025-07-07 16:58:20,171 - gym_custom_envs_real_ur_drivers_URBasic_realTimeClientEvent - INFO - Program send to Robot:
servoj([-0.3558835427894689, -1.7303300219383855, -1.3192234775816516, -1.3207569981742266, 1.604545131314545, 2.8777482648700805], 0.5, 0.5, 0.01, 0.2, 100)

2025-07-07 16:58:20,188 - gym_custom_envs_real_ur_drivers_URBasic_realTimeClientEvent - INFO - Program send to Robot:
servoj([-0.3558835427894689, -1.7333676076270506, -1.3192234775816516, -1.3222760947475907, 1.5984693524802154, 2.8747106791814154], 0.5, 0.5, 0.01, 0.2, 100)

2025-07-07 16:58:20,205 - gym_custom_envs_real_ur_drivers_URBasic_realTimeClientEvent - INFO - Program send to Robot:
servoj([-0.3558835427894689, -1.7333979834839373, -1.3192234775816516, -1.3222912857133244, 1.5984085946918722, 2.8746803033245287], 0.5, 0.5, 0.01, 0.2, 100)

2025-07-07 16:58:20,212 - gym_custom_envs_real_ur_drivers_URBasic_realTimeClientEvent - INFO - Program send to Robot:
servoj([-0.3558835427894689, -1.733398287242506, -1.3192234775816516, -1.3222914376229817, 1.5984079871139887, 2.8746799995659598], 0.5, 0.5, 0.01, 0.2, 100)

2025-07-07 16:58:20,233 - gym_custom_envs_real_ur_drivers_URBasic_realTimeClientEvent - INFO - Program send to Robot:
servoj([-0.3558835427894689, -1.7364355722401055, -1.3222607595416644, -1.3222914391420784, 1.59840798103821, 2.8716427145683605], 0.5, 0.5, 0.01, 0.2, 100)

2025-07-07 16:58:20,244 - gym_custom_envs_real_ur_drivers_URBasic_realTimeClientEvent - INFO - Program send to Robot:
servoj([-0.3558835427894689, -1.7364659450900815, -1.3222911323612647, -1.3222914391572693, 1.598407980977452, 2.8716123417183845], 0.5, 0.5, 0.01, 0.2, 100)

2025-07-07 16:58:20,251 - gym_custom_envs_real_ur_drivers_URBasic_realTimeClientEvent - INFO - Program send to Robot:
servoj([-0.3558835427894689, -1.7364662488185814, -1.3253287180494746, -1.3222914391574212, 1.5984079809768446, 2.868574756029871], 0.5, 0.5, 0.01, 0.2, 100)

2025-07-07 16:58:20,266 - gym_custom_envs_real_ur_drivers_URBasic_realTimeClientEvent - INFO - Program send to Robot:
servoj([-0.3558835427894689, -1.7364662518558662, -1.3253590939063566, -1.3222914391574228, 1.5984079809768383, 2.868544380172986], 0.5, 0.5, 0.01, 0.2, 100)

2025-07-07 16:58:20,275 - gym_custom_envs_real_ur_drivers_URBasic_realTimeClientEvent - INFO - Program send to Robot:
servoj([-0.3558835427894689, -1.736466251886239, -1.3253593976649256, -1.3222914391574228, 1.5984079809768383, 2.868544076414417], 0.5, 0.5, 0.01, 0.2, 100)

2025-07-07 16:58:20,283 - gym_custom_envs_real_ur_drivers_URBasic_realTimeClientEvent - INFO - Program send to Robot:
servoj([-0.35284626082945497, -1.7379848928665496, -1.326878041682518, -1.3222914391574228, 1.5984079809768383, 2.8685440733768313], 0.5, 0.5, 0.01, 0.2, 100)

2025-07-07 16:58:20,291 - gym_custom_envs_real_ur_drivers_URBasic_realTimeClientEvent - INFO - Program send to Robot:
servoj([-0.3528158880098548, -1.7380000792763528, -1.3268932281226942, -1.3222914391574228, 1.5984079809768383, 2.8685440733464556], 0.5, 0.5, 0.01, 0.2, 100)

2025-07-07 16:58:20,307 - gym_custom_envs_real_ur_drivers_URBasic_realTimeClientEvent - INFO - Program send to Robot:
servoj([-0.3528155842816588, -1.7380002311404508, -1.3268933799870959, -1.3222914391574228, 1.5984079809768383, 2.868544073346152], 0.5, 0.5, 0.01, 0.2, 100)

2025-07-07 16:58:20,315 - gym_custom_envs_real_ur_drivers_URBasic_realTimeClientEvent - INFO - Program send to Robot:
servoj([-0.35281558124437684, -1.7380002326590918, -1.3314493044457598, -1.3222914391574228, 1.6014452629368512, 2.8685440733461487], 0.5, 0.5, 0.01, 0.2, 100)

2025-07-07 16:58:20,332 - gym_custom_envs_real_ur_drivers_URBasic_realTimeClientEvent - INFO - Program send to Robot:
servoj([-0.352815581214004, -1.738000232674278, -1.3314948636903463, -1.3222914391574228, 1.6014756357564515, 2.8685440733461487], 0.5, 0.5, 0.01, 0.2, 100)

2025-07-07 16:58:20,348 - gym_custom_envs_real_ur_drivers_URBasic_realTimeClientEvent - INFO - Program send to Robot:
servoj([-0.3497782992536869, -1.73800023267443, -1.3345326012428063, -1.3222914391574228, 1.6029945804646544, 2.8685440733461487], 0.5, 0.5, 0.01, 0.2, 100)

2025-07-07 16:58:20,356 - gym_custom_envs_real_ur_drivers_URBasic_realTimeClientEvent - INFO - Program send to Robot:
servoj([-0.34974792643408376, -1.7380002326744315, -1.3345629786183308, -1.3222914391574228, 1.6030097699117363, 2.8685440733461487], 0.5, 0.5, 0.01, 0.2, 100)

2025-07-07 16:58:20,372 - gym_custom_envs_real_ur_drivers_URBasic_realTimeClientEvent - INFO - Program send to Robot:
servoj([-0.3497476227058877, -1.7380002326744315, -1.334563282392086, -1.3222914391574228, 1.6030099218062073, 2.8685440733461487], 0.5, 0.5, 0.01, 0.2, 100)

2025-07-07 16:58:20,379 - gym_custom_envs_real_ur_drivers_URBasic_realTimeClientEvent - INFO - Program send to Robot:
servoj([-0.3482289786885992, -1.7380002326744315, -1.3391192083698438, -1.3222914391574228, 1.6045285643051588, 2.8685440733461487], 0.5, 0.5, 0.01, 0.2, 100)

2025-07-07 16:58:20,387 - gym_custom_envs_real_ur_drivers_URBasic_realTimeClientEvent - INFO - Program send to Robot:
servoj([-0.3482137922484263, -1.7380002326744315, -1.3391647676296212, -1.3222914391574228, 1.6045437507301483, 2.8685440733461487], 0.5, 0.5, 0.01, 0.2, 100)

2025-07-07 16:58:20,395 - gym_custom_envs_real_ur_drivers_URBasic_realTimeClientEvent - INFO - Program send to Robot:
servoj([-0.3482136403840246, -1.7380002326744315, -1.339165223222219, -1.3222914391574228, 1.6045439025943984, 2.8685440733461487], 0.5, 0.5, 0.01, 0.2, 100)

2025-07-07 16:58:20,412 - gym_custom_envs_real_ur_drivers_URBasic_realTimeClientEvent - INFO - Program send to Robot:
servoj([-0.3436577159253602, -1.7380002326744315, -1.3452397916981726, -1.3207727981774158, 1.6090998270530608, 2.8685440733461487], 0.5, 0.5, 0.01, 0.2, 100)

2025-07-07 16:58:20,420 - gym_custom_envs_real_ur_drivers_URBasic_realTimeClientEvent - INFO - Program send to Robot:
servoj([-0.34361215668077355, -1.7380002326744315, -1.3453005373829323, -1.3207576117676156, 1.6091453862976475, 2.8685440733461487], 0.5, 0.5, 0.01, 0.2, 100)

2025-07-07 16:58:20,428 - gym_custom_envs_real_ur_drivers_URBasic_realTimeClientEvent - INFO - Program send to Robot:
servoj([-0.34361170108832767, -1.7380002326744315, -1.3453011448397798, -1.3207574599035177, 1.6091458418900932, 2.8685440733461487], 0.5, 0.5, 0.01, 0.2, 100)

2025-07-07 16:58:20,444 - gym_custom_envs_real_ur_drivers_URBasic_realTimeClientEvent - INFO - Program send to Robot:
servoj([-0.33449985065236243, -1.7380002326744315, -1.354412996794389, -1.3207574583848767, 1.6137017693860385, 2.8685440733461487], 0.5, 0.5, 0.01, 0.2, 100)

2025-07-07 16:58:20,452 - gym_custom_envs_real_ur_drivers_URBasic_realTimeClientEvent - INFO - Program send to Robot:
servoj([-0.3344087321480028, -1.7380002326744315, -1.3545041153139352, -1.3207574583696902, 1.613747328660998, 2.8685440733461487], 0.5, 0.5, 0.01, 0.2, 100)

2025-07-07 16:58:20,460 - gym_custom_envs_real_ur_drivers_URBasic_realTimeClientEvent - INFO - Program send to Robot:
servoj([-0.3344078209629592, -1.7380002326744315, -1.3545050264991305, -1.3207574583695383, 1.6137477842537475, 2.8685440733461487], 0.5, 0.5, 0.01, 0.2, 100)

2025-07-07 16:58:20,468 - gym_custom_envs_real_ur_drivers_URBasic_realTimeClientEvent - INFO - Program send to Robot:
servoj([-0.3344078118511088, -1.7380002326744315, -1.3545050356109827, -1.320757458369537, 1.613747788809675, 2.8685440733461487], 0.5, 0.5, 0.01, 0.2, 100)

2025-07-07 16:58:20,484 - gym_custom_envs_real_ur_drivers_URBasic_realTimeClientEvent - INFO - Program send to Robot:
servoj([-0.32377732489994254, -1.7380002326744315, -1.363616881582142, -1.320757458369537, 1.622859634735275, 2.870062714326156], 0.5, 0.5, 0.01, 0.2, 100)

2025-07-07 16:58:20,492 - gym_custom_envs_real_ur_drivers_URBasic_realTimeClientEvent - INFO - Program send to Robot:
servoj([-0.32367102003043086, -1.7380002326744315, -1.3637080000418536, -1.320757458369537, 1.622950753194531, 2.870077900735956], 0.5, 0.5, 0.01, 0.2, 100)

2025-07-07 16:58:20,500 - gym_custom_envs_real_ur_drivers_URBasic_realTimeClientEvent - INFO - Program send to Robot:
servoj([-0.32366995698173573, -1.7380002326744315, -1.3637089112264507, -1.320757458369537, 1.6229516643791237, 2.870078052600054], 0.5, 0.5, 0.01, 0.2, 100)

2025-07-07 16:58:20,508 - gym_custom_envs_real_ur_drivers_URBasic_realTimeClientEvent - INFO - Program send to Robot:
servoj([-0.3100021775311881, -1.7380002326744315, -1.3728207662183365, -1.3192388173895304, 1.6320635193710105, 2.8715966950987015], 0.5, 0.5, 0.01, 0.2, 100)

2025-07-07 16:58:20,523 - gym_custom_envs_real_ur_drivers_URBasic_realTimeClientEvent - INFO - Program send to Robot:
servoj([-0.3098654997366826, -1.7380002326744315, -1.3729118847682553, -1.3192236309797303, 1.6321546379209293, 2.871611881523688], 0.5, 0.5, 0.01, 0.2, 100)

2025-07-07 16:58:20,540 - gym_custom_envs_real_ur_drivers_URBasic_realTimeClientEvent - INFO - Program send to Robot:
servoj([-0.3007522870786967, -1.7380002326744315, -1.3789873598737823, -1.3192234791156323, 1.6397487540064624, 2.873130674367945], 0.5, 0.5, 0.01, 0.2, 100)

2025-07-07 16:58:20,548 - gym_custom_envs_real_ur_drivers_URBasic_realTimeClientEvent - INFO - Program send to Robot:
servoj([-0.30066115495211687, -1.7380002326744315, -1.3790481146248377, -1.3192234775969913, 1.6398246951673177, 2.8731458622963872], 0.5, 0.5, 0.01, 0.2, 100)

2025-07-07 16:58:20,564 - gym_custom_envs_real_ur_drivers_URBasic_realTimeClientEvent - INFO - Program send to Robot:
servoj([-0.3006602436308511, -1.7380002326744315, -1.3790487221723482, -1.3192234775818048, 1.6398254545789264, 2.873146014175672], 0.5, 0.5, 0.01, 0.2, 100)

2025-07-07 16:58:20,571 - gym_custom_envs_real_ur_drivers_URBasic_realTimeClientEvent - INFO - Program send to Robot:
servoj([-0.29306702961760456, -1.7380002326744315, -1.3836046511878433, -1.319223477581653, 1.6443813851130622, 2.8746646566744714], 0.5, 0.5, 0.01, 0.2, 100)

2025-07-07 16:58:20,580 - gym_custom_envs_real_ur_drivers_URBasic_realTimeClientEvent - INFO - Program send to Robot:
servoj([-0.2929910974774721, -1.7380002326744315, -1.3836502104779982, -1.3192234775816514, 1.6444269444184036, 2.874679843099459], 0.5, 0.5, 0.01, 0.2, 100)

2025-07-07 16:58:20,588 - gym_custom_envs_real_ur_drivers_URBasic_realTimeClientEvent - INFO - Program send to Robot:
servoj([-0.2929903381560708, -1.7380002326744315, -1.3836506660708996, -1.3192234775816514, 1.644427400011457, 2.874679994963709], 0.5, 0.5, 0.01, 0.2, 100)

2025-07-07 16:58:20,603 - gym_custom_envs_real_ur_drivers_URBasic_realTimeClientEvent - INFO - Program send to Robot:
servoj([-0.28235984370280903, -1.7380002326744315, -1.3851693116068355, -1.3177048366016446, 1.6474646865274014, 2.8746799964823517], 0.5, 0.5, 0.01, 0.2, 100)

2025-07-07 16:58:20,612 - gym_custom_envs_real_ur_drivers_URBasic_realTimeClientEvent - INFO - Program send to Robot:
servoj([-0.28225353875827647, -1.7380002326744315, -1.385184498062195, -1.3176896501918447, 1.647495059392561, 2.8746799964975382], 0.5, 0.5, 0.01, 0.2, 100)

2025-07-07 16:58:20,620 - gym_custom_envs_real_ur_drivers_URBasic_realTimeClientEvent - INFO - Program send to Robot:
servoj([-0.2822524757088311, -1.7380002326744315, -1.3851846499267486, -1.3176894983277467, 1.6474953631212126, 2.87467999649769], 0.5, 0.5, 0.01, 0.2, 100)

2025-07-07 16:58:20,627 - gym_custom_envs_real_ur_drivers_URBasic_realTimeClientEvent - INFO - Program send to Robot:
servoj([-0.2822524650783367, -1.7380002326744315, -1.385184651445394, -1.3176894968091057, 1.647495366158499, 2.8746799964976915], 0.5, 0.5, 0.01, 0.2, 100)

2025-07-07 16:58:20,644 - gym_custom_envs_real_ur_drivers_URBasic_realTimeClientEvent - INFO - Program send to Robot:
servoj([-0.2716219781119844, -1.7380002326744315, -1.3882219334205945, -1.3176894967939192, 1.6474953661888718, 2.8746799964976915], 0.5, 0.5, 0.01, 0.2, 100)

2025-07-07 16:58:20,651 - gym_custom_envs_real_ur_drivers_URBasic_realTimeClientEvent - INFO - Program send to Robot:
servoj([-0.2715156732423209, -1.7380002326744315, -1.3882523062403465, -1.3176894967937673, 1.6474953661891756, 2.8746799964976915], 0.5, 0.5, 0.01, 0.2, 100)

2025-07-07 16:58:20,668 - gym_custom_envs_real_ur_drivers_URBasic_realTimeClientEvent - INFO - Program send to Robot:
servoj([-0.25936548235357004, -1.7380002326744315, -1.391289891928557, -1.3176894967937658, 1.6490140071691857, 2.8746799964976915], 0.5, 0.5, 0.01, 0.2, 100)

2025-07-07 16:58:20,675 - gym_custom_envs_real_ur_drivers_URBasic_realTimeClientEvent - INFO - Program send to Robot:
servoj([-0.2592439804446825, -1.7380002326744315, -1.391320267785439, -1.3176894967937658, 1.6490291935789858, 2.8746799964976915], 0.5, 0.5, 0.01, 0.2, 100)

2025-07-07 16:58:20,692 - gym_custom_envs_real_ur_drivers_URBasic_realTimeClientEvent - INFO - Program send to Robot:
servoj([-0.25924276542559366, -1.7380002326744315, -1.3913205715440078, -1.3176894967937658, 1.6490293454430838, 2.8746799964976915], 0.5, 0.5, 0.01, 0.2, 100)

2025-07-07 16:58:20,709 - gym_custom_envs_real_ur_drivers_URBasic_realTimeClientEvent - INFO - Program send to Robot:
servoj([-0.248612266415355, -1.7380002326744315, -1.3928392155616005, -1.3176894967937658, 1.6490293469617248, 2.8746799964976915], 0.5, 0.5, 0.01, 0.2, 100)

2025-07-07 16:58:20,716 - gym_custom_envs_real_ur_drivers_URBasic_realTimeClientEvent - INFO - Program send to Robot:
servoj([-0.2485059614252526, -1.7380002326744315, -1.3928544020017763, -1.3176894967937658, 1.649029346976911, 2.8746799964976915], 0.5, 0.5, 0.01, 0.2, 100)

2025-07-07 16:58:20,724 - gym_custom_envs_real_ur_drivers_URBasic_realTimeClientEvent - INFO - Program send to Robot:
servoj([-0.24850489837535158, -1.7380002326744315, -1.3928545538661783, -1.3176894967937658, 1.649029346977063, 2.8746799964976915], 0.5, 0.5, 0.01, 0.2, 100)

2025-07-07 16:58:20,732 - gym_custom_envs_real_ur_drivers_URBasic_realTimeClientEvent - INFO - Program send to Robot:
servoj([-0.23787440088480527, -1.7380002326744315, -1.3958918373448361, -1.3176894967937658, 1.6490293469770645, 2.8746799964976915], 0.5, 0.5, 0.01, 0.2, 100)

2025-07-07 16:58:20,747 - gym_custom_envs_real_ur_drivers_URBasic_realTimeClientEvent - INFO - Program send to Robot:
servoj([-0.2377680959098998, -1.7380002326744315, -1.3959222101796227, -1.3176894967937658, 1.6490293469770645, 2.8746799964976915], 0.5, 0.5, 0.01, 0.2, 100)

2025-07-07 16:58:20,755 - gym_custom_envs_real_ur_drivers_URBasic_realTimeClientEvent - INFO - Program send to Robot:
servoj([-0.23776703286015075, -1.7380002326744315, -1.3959225139079707, -1.3176894967937658, 1.6490293469770645, 2.8746799964976915], 0.5, 0.5, 0.01, 0.2, 100)

2025-07-07 16:58:20,763 - gym_custom_envs_real_ur_drivers_URBasic_realTimeClientEvent - INFO - Program send to Robot:
servoj([-0.2240992534095921, -1.7380002326744315, -1.400478439885274, -1.316170855813759, 1.6505479879570715, 2.8746799964976915], 0.5, 0.5, 0.01, 0.2, 100)

2025-07-07 16:58:20,780 - gym_custom_envs_real_ur_drivers_URBasic_realTimeClientEvent - INFO - Program send to Robot:
servoj([-0.22396257561508653, -1.7380002326744315, -1.400523999145047, -1.3161556694039591, 1.6505631743668716, 2.8746799964976915], 0.5, 0.5, 0.01, 0.2, 100)

2025-07-07 16:58:20,787 - gym_custom_envs_real_ur_drivers_URBasic_realTimeClientEvent - INFO - Program send to Robot:
servoj([-0.22396120883714146, -1.7380002326744315, -1.400524454737645, -1.316155517539861, 1.6505633262309696, 2.8746799964976915], 0.5, 0.5, 0.01, 0.2, 100)

2025-07-07 16:58:20,796 - gym_custom_envs_real_ur_drivers_URBasic_realTimeClientEvent - INFO - Program send to Robot:
servoj([-0.20725614438928738, -1.7364815916944247, -1.4081176641936046, -1.31615551602122, 1.6581565326496444, 2.8746799964976915], 0.5, 0.5, 0.01, 0.2, 100)

2025-07-07 16:58:20,812 - gym_custom_envs_real_ur_drivers_URBasic_realTimeClientEvent - INFO - Program send to Robot:
servoj([-0.20708909374480883, -1.7364664052846246, -1.4081935962881642, -1.3161555160060336, 1.6582324647138311, 2.8746799964976915], 0.5, 0.5, 0.01, 0.2, 100)

2025-07-07 16:58:20,829 - gym_custom_envs_real_ur_drivers_URBasic_realTimeClientEvent - INFO - Program send to Robot:
servoj([-0.19190101343829635, -1.7349476124405196, -1.4157875605091437, -1.3146368750258748, 1.66886371089452, 2.8746799964976915], 0.5, 0.5, 0.01, 0.2, 100)

2025-07-07 16:58:20,836 - gym_custom_envs_real_ur_drivers_URBasic_realTimeClientEvent - INFO - Program send to Robot:
servoj([-0.19174913263523125, -1.7349324245120787, -1.4158635001513535, -1.314621688616073, 1.6689700233563267, 2.8746799964976915], 0.5, 0.5, 0.01, 0.2, 100)

2025-07-07 16:58:20,844 - gym_custom_envs_real_ur_drivers_URBasic_realTimeClientEvent - INFO - Program send to Robot:
servoj([-0.1917476138272006, -1.7349322726327943, -1.4158642595477755, -1.3146215367519751, 1.6689710864809448, 2.8746799964976915], 0.5, 0.5, 0.01, 0.2, 100)

2025-07-07 16:58:20,860 - gym_custom_envs_real_ur_drivers_URBasic_realTimeClientEvent - INFO - Program send to Robot:
servoj([-0.1826357527590795, -1.7318949891539879, -1.4204201900817608, -1.3146215352333341, 1.6796015839722387, 2.876198637477698], 0.5, 0.5, 0.01, 0.2, 100)

2025-07-07 16:58:20,869 - gym_custom_envs_real_ur_drivers_URBasic_realTimeClientEvent - INFO - Program send to Robot:
servoj([-0.1825446341483983, -1.7318646163191997, -1.4204657493871007, -1.3146215352181478, 1.6797078889471517, 2.8762138238874986], 0.5, 0.5, 0.01, 0.2, 100)

2025-07-07 16:58:20,877 - gym_custom_envs_real_ur_drivers_URBasic_realTimeClientEvent - INFO - Program send to Robot:
servoj([-0.1825437229622915, -1.731864312590852, -1.420466204980154, -1.314621535217996, 1.6797089519969008, 2.8762139757515963], 0.5, 0.5, 0.01, 0.2, 100)

2025-07-07 16:58:20,884 - gym_custom_envs_real_ur_drivers_URBasic_realTimeClientEvent - INFO - Program send to Robot:
servoj([-0.18254371385043042, -1.7318643095535684, -1.4204662095360845, -1.3146215352179944, 1.6797089626273982, 2.8762139772702375], 0.5, 0.5, 0.01, 0.2, 100)

2025-07-07 16:58:20,900 - gym_custom_envs_real_ur_drivers_URBasic_realTimeClientEvent - INFO - Program send to Robot:
servoj([-0.17495050885927796, -1.728827027563182, -1.4250221325216637, -1.3146215352179944, 1.688820808613744, 2.8777326182654304], 0.5, 0.5, 0.01, 0.2, 100)

2025-07-07 16:58:20,907 - gym_custom_envs_real_ur_drivers_URBasic_realTimeClientEvent - INFO - Program send to Robot:
servoj([-0.17487457680936644, -1.7287966547432783, -1.4250676917515195, -1.3146215352179944, 1.6889119270736075, 2.8777478046753826], 0.5, 0.5, 0.01, 0.2, 100)

2025-07-07 16:58:20,916 - gym_custom_envs_real_ur_drivers_URBasic_realTimeClientEvent - INFO - Program send to Robot:
servoj([-0.17487381748886732, -1.7287963510150792, -1.425068147343818, -1.3146215352179944, 1.6889128382582062, 2.877747956539482], 0.5, 0.5, 0.01, 0.2, 100)

2025-07-07 16:58:20,925 - gym_custom_envs_real_ur_drivers_URBasic_realTimeClientEvent - INFO - Program send to Robot:
servoj([-0.1642433230356146, -1.7272777069977905, -1.4341799977797818, -1.3146215352179944, 1.6965060522700859, 2.877747958058123], 0.5, 0.5, 0.01, 0.2, 100)

2025-07-07 16:58:20,941 - gym_custom_envs_real_ur_drivers_URBasic_realTimeClientEvent - INFO - Program send to Robot:
servoj([-0.16413701809108205, -1.7272625205576175, -1.4342711162841413, -1.3146215352179944, 1.6965819844102048, 2.8777479580733094], 0.5, 0.5, 0.01, 0.2, 100)

2025-07-07 16:58:20,950 - gym_custom_envs_real_ur_drivers_URBasic_realTimeClientEvent - INFO - Program send to Robot:
servoj([-0.16413595504163672, -1.7272623686932158, -1.434272027469185, -1.3146215352179944, 1.696582743731606, 2.8777479580734613], 0.5, 0.5, 0.01, 0.2, 100)

2025-07-07 16:58:20,955 - gym_custom_envs_real_ur_drivers_URBasic_realTimeClientEvent - INFO - Program send to Robot:
servoj([-0.15046817559108108, -1.7242250852145582, -1.4433838824610763, -1.3146215352179944, 1.7026573152448468, 2.8792665990534694], 0.5, 0.5, 0.01, 0.2, 100)

2025-07-07 16:58:20,974 - gym_custom_envs_real_ur_drivers_URBasic_realTimeClientEvent - INFO - Program send to Robot:
servoj([-0.15033149779657554, -1.7241947123797716, -1.4434750010109951, -1.3146215352179944, 1.702718060959979, 2.8792817854632697], 0.5, 0.5, 0.01, 0.2, 100)

2025-07-07 16:58:20,979 - gym_custom_envs_real_ur_drivers_URBasic_realTimeClientEvent - INFO - Program send to Robot:
servoj([-0.1503301310186305, -1.7241944086514236, -1.4434759121964942, -1.3146215352179944, 1.7027186684171305, 2.8792819373273675], 0.5, 0.5, 0.01, 0.2, 100)

2025-07-07 16:58:20,990 - gym_custom_envs_real_ur_drivers_URBasic_realTimeClientEvent - INFO - Program send to Robot:
servoj([-0.1366623485307903, -1.721157123654127, -1.45258776718839, -1.3131028942379877, 1.707274597431723, 2.8823192208060227], 0.5, 0.5, 0.01, 0.2, 100)

2025-07-07 16:58:21,004 - gym_custom_envs_real_ur_drivers_URBasic_realTimeClientEvent - INFO - Program send to Robot:
servoj([-0.1365256707059119, -1.721126750804154, -1.452678885738309, -1.3130877078281875, 1.7073201567218688, 2.882349593640809], 0.5, 0.5, 0.01, 0.2, 100)

2025-07-07 16:58:21,014 - gym_custom_envs_real_ur_drivers_URBasic_realTimeClientEvent - INFO - Program send to Robot:
servoj([-0.1365243039276631, -1.7211264470756542, -1.452679796923808, -1.3130875559640895, 1.7073206123147704, 2.882349897369157], 0.5, 0.5, 0.01, 0.2, 100)

2025-07-07 16:58:21,022 - gym_custom_envs_real_ur_drivers_URBasic_realTimeClientEvent - INFO - Program send to Robot:
servoj([-0.12285652143981943, -1.7180891620783554, -1.461791651915704, -1.3130875544454486, 1.7088392578507063, 2.8823499004064406], 0.5, 0.5, 0.01, 0.2, 100)

2025-07-07 16:58:21,027 - gym_custom_envs_real_ur_drivers_URBasic_realTimeClientEvent - INFO - Program send to Robot:
servoj([-0.122719843614941, -1.7180587892283825, -1.461882770465623, -1.3130875544302623, 1.7088544443060656, 2.882349900436813], 0.5, 0.5, 0.01, 0.2, 100)

2025-07-07 16:58:21,046 - gym_custom_envs_real_ur_drivers_URBasic_realTimeClientEvent - INFO - Program send to Robot:
servoj([-0.12271847683669221, -1.7180584854998828, -1.461883681651122, -1.3130875544301104, 1.7088545961706192, 2.882349900437117], 0.5, 0.5, 0.01, 0.2, 100)

2025-07-07 16:58:21,052 - gym_custom_envs_real_ur_drivers_URBasic_realTimeClientEvent - INFO - Program send to Robot:
servoj([-0.11056933532885549, -1.7180584824625977, -1.4679582546830041, -1.311568913450102, 1.7088545976892648, 2.8838685414171263], 0.5, 0.5, 0.01, 0.2, 100)

2025-07-07 16:58:21,062 - gym_custom_envs_real_ur_drivers_URBasic_realTimeClientEvent - INFO - Program send to Robot:
servoj([-0.11044784391377713, -1.718058482432225, -1.468019000413323, -1.311553727040302, 1.7088545977044511, 2.8838837278269263], 0.5, 0.5, 0.01, 0.2, 100)

2025-07-07 16:58:21,075 - gym_custom_envs_real_ur_drivers_URBasic_realTimeClientEvent - INFO - Program send to Robot:
servoj([-0.11044662899962635, -1.7180584824319212, -1.4680196078706262, -1.311553575176204, 1.708854597704603, 2.8838838796910244], 0.5, 0.5, 0.01, 0.2, 100)

2025-07-07 16:58:21,087 - gym_custom_envs_real_ur_drivers_URBasic_realTimeClientEvent - INFO - Program send to Robot:
servoj([-0.09677884803042365, -1.7165398414519113, -1.4725755368852198, -1.311553573657563, 1.7088545977046046, 2.883883881209665], 0.5, 0.5, 0.01, 0.2, 100)

2025-07-07 16:58:21,091 - gym_custom_envs_real_ur_drivers_URBasic_realTimeClientEvent - INFO - Program send to Robot:
servoj([-0.09664217022073163, -1.7165246550421112, -1.4726210961753659, -1.3115535736423765, 1.7088545977046046, 2.8838838812248517], 0.5, 0.5, 0.01, 0.2, 100)

2025-07-07 16:58:21,112 - gym_custom_envs_real_ur_drivers_URBasic_realTimeClientEvent - INFO - Program send to Robot:
servoj([-0.0966408034426347, -1.7165245031780132, -1.4726215517682673, -1.3115535736422248, 1.7088545977046046, 2.8838838812250036], 0.5, 0.5, 0.01, 0.2, 100)

2025-07-07 16:58:21,115 - gym_custom_envs_real_ur_drivers_URBasic_realTimeClientEvent - INFO - Program send to Robot:
servoj([-0.08297302095479256, -1.7150058606793654, -1.4786961202442233, -1.3100349326622167, 1.7088545977046046, 2.8838838812250054], 0.5, 0.5, 0.01, 0.2, 100)

2025-07-07 16:58:21,136 - gym_custom_envs_real_ur_drivers_URBasic_realTimeClientEvent - INFO - Program send to Robot:
servoj([-0.08283634312991413, -1.714990674254379, -1.478756865928983, -1.3100197462524166, 1.7088545977046046, 2.8838838812250054], 0.5, 0.5, 0.01, 0.2, 100)

2025-07-07 16:58:21,140 - gym_custom_envs_real_ur_drivers_URBasic_realTimeClientEvent - INFO - Program send to Robot:
servoj([-0.08283497635166535, -1.7149905223901292, -1.4787574733858304, -1.3100195943883186, 1.7088545977046046, 2.8838838812250054], 0.5, 0.5, 0.01, 0.2, 100)

2025-07-07 16:58:21,160 - gym_custom_envs_real_ur_drivers_URBasic_realTimeClientEvent - INFO - Program send to Robot:
servoj([-0.06916719386382213, -1.7149905208714866, -1.4817947614204128, -1.3100195928696776, 1.7088545977046046, 2.8838838812250054], 0.5, 0.5, 0.01, 0.2, 100)

2025-07-07 16:58:21,164 - gym_custom_envs_real_ur_drivers_URBasic_realTimeClientEvent - INFO - Program send to Robot:
servoj([-0.0690305160389437, -1.7149905208563003, -1.4818251343007585, -1.310019592854491, 1.7088545977046046, 2.8838838812250054], 0.5, 0.5, 0.01, 0.2, 100)

2025-07-07 16:58:21,185 - gym_custom_envs_real_ur_drivers_URBasic_realTimeClientEvent - INFO - Program send to Robot:
servoj([-0.05839866240064717, -1.7119532388961347, -1.486381360969582, -1.3115382338343458, 1.7103732386846107, 2.8838838812250054], 0.5, 0.5, 0.01, 0.2, 100)

2025-07-07 16:58:21,196 - gym_custom_envs_real_ur_drivers_URBasic_realTimeClientEvent - INFO - Program send to Robot:
servoj([-0.058292343864264205, -1.711922866076533, -1.4864269232362703, -1.3115534202441443, 1.7103884250944108, 2.8838838812250054], 0.5, 0.5, 0.01, 0.2, 100)

2025-07-07 16:58:21,210 - gym_custom_envs_real_ur_drivers_URBasic_realTimeClientEvent - INFO - Program send to Robot:
servoj([-0.050698075778866536, -1.7073666394083167, -1.4925019427789639, -1.3115535721082423, 1.7103885769585088, 2.8838838812250054], 0.5, 0.5, 0.01, 0.2, 100)

2025-07-07 16:58:21,220 - gym_custom_envs_real_ur_drivers_URBasic_realTimeClientEvent - INFO - Program send to Robot:
servoj([-0.050622133098012556, -1.7073210771416345, -1.492562692974391, -1.3115535736268833, 1.7103885784771498, 2.8838838812250054], 0.5, 0.5, 0.01, 0.2, 100)

2025-07-07 16:58:21,232 - gym_custom_envs_real_ur_drivers_URBasic_realTimeClientEvent - INFO - Program send to Robot:
servoj([-0.05062137367120402, -1.7073206215189678, -1.4925633004763452, -1.3115535736420698, 1.7103885784923363, 2.8838838812250054], 0.5, 0.5, 0.01, 0.2, 100)

2025-07-07 16:58:21,236 - gym_custom_envs_real_ur_drivers_URBasic_realTimeClientEvent - INFO - Program send to Robot:
servoj([-0.05062136607693594, -1.707320616962741, -1.4925633065513648, -1.3115535736422217, 1.710388578492488, 2.8838838812250054], 0.5, 0.5, 0.01, 0.2, 100)

2025-07-07 16:58:21,257 - gym_custom_envs_real_ur_drivers_URBasic_realTimeClientEvent - INFO - Program send to Robot:
servoj([-0.04302816110095941, -1.7012460529971518, -1.500156511512149, -1.3115535736422232, 1.7103885784924895, 2.8838838812250054], 0.5, 0.5, 0.01, 0.2, 100)

2025-07-07 16:58:21,260 - gym_custom_envs_real_ur_drivers_URBasic_realTimeClientEvent - INFO - Program send to Robot:
servoj([-0.04295222905119964, -1.7011853073574958, -1.5002324435617567, -1.3115535736422232, 1.7103885784924895, 2.8838838812250054], 0.5, 0.5, 0.01, 0.2, 100)

2025-07-07 16:58:21,280 - gym_custom_envs_real_ur_drivers_URBasic_realTimeClientEvent - INFO - Program send to Robot:
servoj([-0.03232098287065432, -1.6920728540210586, -1.5047891258222736, -1.3115535736422232, 1.7119072194724962, 2.882365240244999], 0.5, 0.5, 0.01, 0.2, 100)

2025-07-07 16:58:21,289 - gym_custom_envs_real_ur_drivers_URBasic_realTimeClientEvent - INFO - Program send to Robot:
servoj([-0.032214670408848865, -1.6919817294876942, -1.5048346926448788, -1.3115535736422232, 1.7119224058822964, 2.8823500538351987], 0.5, 0.5, 0.01, 0.2, 100)

2025-07-07 16:58:21,304 - gym_custom_envs_real_ur_drivers_URBasic_realTimeClientEvent - INFO - Program send to Robot:
servoj([-0.03221360728423081, -1.6919808182423606, -1.5048351483131048, -1.3115535736422232, 1.7119225577463943, 2.882349901971101], 0.5, 0.5, 0.01, 0.2, 100)

2025-07-07 16:58:21,308 - gym_custom_envs_real_ur_drivers_URBasic_realTimeClientEvent - INFO - Program send to Robot:
servoj([-0.024620391752950783, -1.6813503222698598, -1.5078724348298, -1.3115535736422232, 1.7164784822050563, 2.883868541432466], 0.5, 0.5, 0.01, 0.2, 100)

