2025-07-07 16:11:57,159 - gym_custom_envs_real_ur_drivers_URBasic_robotModelEvent - INFO - Init done
2025-07-07 16:11:57,660 - gym_custom_envs_real_ur_drivers_URBasic_realTimeClientEvent - INFO - Connected
2025-07-07 16:11:57,660 - gym_custom_envs_real_ur_drivers_URBasic_realTimeClientEvent - INFO - RT_CLient constructor done
2025-07-07 16:11:57,662 - gym_custom_envs_real_ur_drivers_URBasic_dataLogEvent - INFO - Data logging (not event logging) is disabled
2025-07-07 16:11:57,662 - gym_custom_envs_real_ur_drivers_URBasic_dataLogEvent - INFO - DataLog is stopped
2025-07-07 16:11:57,662 - gym_custom_envs_real_ur_drivers_URBasic_dataLogEvent - INFO - DataLog constructor done
2025-07-07 16:11:57,663 - gym_custom_envs_real_ur_drivers_URBasic_rtdeEvent - INFO - RTDE constructor done
2025-07-07 16:11:58,165 - gym_custom_envs_real_ur_drivers_URBasic_dashboardEvent - INFO - Connected
2025-07-07 16:11:58,166 - gym_custom_envs_real_ur_drivers_URBasic_dashboardEvent - INFO - UR Dashboard respond Connected: Universal Robots Dashboard Server
2025-07-07 16:11:58,166 - gym_custom_envs_real_ur_drivers_URBasic_dashboardEvent - INFO - Dashboard server constructor done
2025-07-07 16:11:58,167 - gym_custom_envs_real_ur_drivers_URBasic_robotConnectorEvent - INFO - Init done
2025-07-07 16:11:58,275 - gym_custom_envs_real_ur_drivers_URBasic_rtdeEvent - INFO - Controller version: 3.3.1-60
2025-07-07 16:11:58,279 - gym_custom_envs_real_ur_drivers_URBasic_rtdeEvent - INFO - RTDE started
2025-07-07 16:11:59,168 - gym_custom_envs_real_ur_drivers_URBasic_urScriptEvent - INFO - Init done!!!
2025-07-07 16:11:59,182 - gym_custom_envs_real_ur_drivers_URBasic_urScriptExtEvent - INFO - Init done
2025-07-07 16:12:00,798 - gym_custom_envs_real_ur_interfaceEvent - INFO - [] init done
2025-07-07 16:12:00,798 - gym_custom_envs_real_ur_drivers_URBasic_realTimeClientEvent - INFO - Program send to Robot:
end_freedrive_mode()

2025-07-07 16:12:04,195 - gym_custom_envs_real_ur_drivers_URBasic_realTimeClientEvent - INFO - Program send to Robot:
servoj([0.019592746104105177, -1.6489387955996107, -1.438951757102718, -1.584714569871606, 1.5907346798085105, 3.1498715907614505], 0.5, 0.5, 0.002, 0.2, 100)

2025-07-07 16:12:04,207 - gym_custom_envs_real_ur_drivers_URBasic_realTimeClientEvent - INFO - Program send to Robot:
servoj([0.019556983317239943, -1.6489234506196508, -1.4388996941951806, -1.5847303903835925, 1.5907662765529396, 3.1498445591111697], 0.5, 0.5, 0.002, 0.2, 100)

2025-07-07 16:12:04,223 - gym_custom_envs_real_ur_drivers_URBasic_realTimeClientEvent - INFO - Program send to Robot:
servoj([0.019604667033060255, -1.6489379376228108, -1.4389193422812654, -1.5847502828565088, 1.590732959869774, 3.1498365115513405], 0.5, 0.5, 0.002, 0.2, 100)

2025-07-07 16:12:04,244 - gym_custom_envs_real_ur_drivers_URBasic_realTimeClientEvent - INFO - Program send to Robot:
servoj([0.0195808251751501, -1.6489660026760213, -1.4389314754260378, -1.5847666860752023, 1.5907540535002604, 3.149871363645751], 0.5, 0.5, 0.002, 0.2, 100)

2025-07-07 16:12:04,263 - gym_custom_envs_real_ur_drivers_URBasic_realTimeClientEvent - INFO - Program send to Robot:
servoj([0.0195808251751501, -1.6489484365378217, -1.438922692356938, -1.5847579030061025, 1.5907451826004695, 3.149889105445333], 0.5, 0.5, 0.002, 0.2, 100)

2025-07-07 16:12:04,279 - gym_custom_envs_real_ur_drivers_URBasic_realTimeClientEvent - INFO - Program send to Robot:
servoj([0.019545062388284865, -1.6489597937496452, -1.4389321133336872, -1.584738592445244, 1.5907679962209647, 3.149853115150141], 0.5, 0.5, 0.002, 0.2, 100)

2025-07-07 16:12:04,295 - gym_custom_envs_real_ur_drivers_URBasic_realTimeClientEvent - INFO - Program send to Robot:
servoj([0.019545062388284865, -1.6489155241044626, -1.4389145460141703, -1.5847740784306683, 1.5907326859087356, 3.1498353721574293], 0.5, 0.5, 0.002, 0.2, 100)

2025-07-07 16:12:04,315 - gym_custom_envs_real_ur_drivers_URBasic_realTimeClientEvent - INFO - Program send to Robot:
servoj([0.019556983317239943, -1.6489234506196508, -1.4389260445838714, -1.5847479573093863, 1.5907224470730839, 3.1498533425740662], 0.5, 0.5, 0.002, 0.2, 100)

2025-07-07 16:12:04,327 - gym_custom_envs_real_ur_drivers_URBasic_realTimeClientEvent - INFO - Program send to Robot:
servoj([0.019628985728128615, -1.64895375156279, -1.438924885339943, -1.5847339047885678, 1.5907294505251903, 3.1498369766294942], 0.5, 0.5, 0.002, 0.2, 100)

2025-07-07 16:12:04,343 - gym_custom_envs_real_ur_drivers_URBasic_realTimeClientEvent - INFO - Program send to Robot:
servoj([0.01956890424619502, -1.648931376633514, -1.438963892898596, -1.5847309720546938, 1.5907118570730205, 3.149835827829193], 0.5, 0.5, 0.002, 0.2, 100)

2025-07-07 16:12:04,363 - gym_custom_envs_real_ur_drivers_URBasic_realTimeClientEvent - INFO - Program send to Robot:
servoj([0.019604667033060255, -1.6489467202980146, -1.438972038332488, -1.5847502828565088, 1.590741742544978, 3.149819121854437], 0.5, 0.5, 0.002, 0.2, 100)

2025-07-07 16:12:04,375 - gym_custom_envs_real_ur_drivers_URBasic_realTimeClientEvent - INFO - Program send to Robot:
servoj([0.019604667033060255, -1.6489555029732184, -1.4389899549899037, -1.5847502828565088, 1.590732959869774, 3.1498365115513405], 0.5, 0.5, 0.002, 0.2, 100)

2025-07-07 16:12:04,391 - gym_custom_envs_real_ur_drivers_URBasic_realTimeClientEvent - INFO - Program send to Robot:
servoj([0.019616587962015333, -1.648937079538302, -1.439062930240142, -1.5847863456377582, 1.5906873273240265, 3.1498456976437286], 0.5, 0.5, 0.002, 0.2, 100)

2025-07-07 16:12:04,411 - gym_custom_envs_real_ur_drivers_URBasic_realTimeClientEvent - INFO - Program send to Robot:
servoj([0.019640906657083693, -1.648944110788129, -1.4391127292123669, -1.5847432689771395, 1.5907014715218237, 3.149846162370308], 0.5, 0.5, 0.002, 0.2, 100)

2025-07-07 16:12:04,428 - gym_custom_envs_real_ur_drivers_URBasic_realTimeClientEvent - INFO - Program send to Robot:
servoj([0.01966474851499385, -1.6489423934620577, -1.4391269390180759, -1.5847886927048618, 1.5907242880912684, 3.1498641814644626], 0.5, 0.5, 0.002, 0.2, 100)

2025-07-07 16:12:04,447 - gym_custom_envs_real_ur_drivers_URBasic_realTimeClientEvent - INFO - Program send to Robot:
servoj([0.019700511301859083, -1.6489485977548755, -1.4391438642592733, -1.5847816552562346, 1.5906575682661301, 3.149847301909597], 0.5, 0.5, 0.002, 0.2, 100)

2025-07-07 16:12:04,469 - gym_custom_envs_real_ur_drivers_URBasic_realTimeClientEvent - INFO - Program send to Robot:
servoj([0.019724829996927443, -1.6489113705939769, -1.4391760969252083, -1.5848004030873883, 1.59060989133382, 3.14982142498181], 0.5, 0.5, 0.002, 0.2, 100)

2025-07-07 16:12:04,487 - gym_custom_envs_real_ur_drivers_URBasic_realTimeClientEvent - INFO - Program send to Robot:
servoj([0.01979635557065791, -1.6489062163613977, -1.4392099528393434, -1.5847863330444567, 1.590190593879441, 3.1498401806952363], 0.5, 0.5, 0.002, 0.2, 100)

2025-07-07 16:12:04,507 - gym_custom_envs_real_ur_drivers_URBasic_realTimeClientEvent - INFO - Program send to Robot:
servoj([0.019760592783792677, -1.6488912337699775, -1.4392105841320688, -1.5847666756512555, 1.5905830816198252, 3.149866011483001], 0.5, 0.5, 0.002, 0.2, 100)

2025-07-07 16:12:04,522 - gym_custom_envs_real_ur_drivers_URBasic_realTimeClientEvent - INFO - Program send to Robot:
servoj([0.019844039286478224, -1.6488852206169176, -1.4392822736959419, -1.5848149982081874, 1.5905838632744773, 3.1498237127136743], 0.5, 0.5, 0.002, 0.2, 100)

2025-07-07 16:12:04,535 - gym_custom_envs_real_ur_drivers_URBasic_realTimeClientEvent - INFO - Program send to Robot:
servoj([0.019904120768411818, -1.6488633324309336, -1.4393226547904212, -1.5848179314527824, 1.5905313336067537, 3.149859977698426], 0.5, 0.5, 0.002, 0.2, 100)

2025-07-07 16:12:04,552 - gym_custom_envs_real_ur_drivers_URBasic_realTimeClientEvent - INFO - Program send to Robot:
servoj([0.019939883555277052, -1.6488519761702998, -1.4393483642360054, -1.5848902464117018, 1.5904821060972172, 3.1498341557204297], 0.5, 0.5, 0.002, 0.2, 100)

2025-07-07 16:12:04,567 - gym_custom_envs_real_ur_drivers_URBasic_realTimeClientEvent - INFO - Program send to Robot:
servoj([0.019975646342142286, -1.648840269061394, -1.439400755047866, -1.584874436096871, 1.5904504352674504, 3.1498613478451674], 0.5, 0.5, 0.002, 0.2, 100)

2025-07-07 16:12:04,583 - gym_custom_envs_real_ur_drivers_URBasic_realTimeClientEvent - INFO - Program send to Robot:
servoj([0.02004764875303096, -1.6488350739285722, -1.4394786086641134, -1.5848691738841418, 1.5900040301315232, 3.1498539528323826], 0.5, 0.5, 0.002, 0.2, 100)

2025-07-07 16:12:04,599 - gym_custom_envs_real_ur_drivers_URBasic_realTimeClientEvent - INFO - Program send to Robot:
servoj([0.02013157209287471, -1.6488114657998498, -1.439480212603105, -1.5848466006260131, 1.5899700786606215, 3.149864338352023], 0.5, 0.5, 0.002, 0.2, 100)

2025-07-07 16:12:04,616 - gym_custom_envs_real_ur_drivers_URBasic_realTimeClientEvent - INFO - Program send to Robot:
servoj([0.15953400194010658, -1.6106798272799232, -1.5600584612796968, -1.6106798272799232, 1.5140388842603891, 3.160000423044421], 0.5, 0.5, 0.002, 0.2, 100)

2025-07-07 16:12:04,632 - gym_custom_envs_real_ur_drivers_URBasic_realTimeClientEvent - INFO - Program send to Robot:
servoj([0.15953400194010658, -1.6106798272799232, -1.5600584612796968, -1.6106798272799232, 1.5140390361093006, 3.160000423044421], 0.5, 0.5, 0.002, 0.2, 100)

2025-07-07 16:12:04,639 - gym_custom_envs_real_ur_drivers_URBasic_realTimeClientEvent - INFO - Program send to Robot:
servoj([0.15953400194010658, -1.6106798272799232, -1.5600584612796968, -1.6106798272799232, 1.5140390376277897, 3.160000423044421], 0.5, 0.5, 0.002, 0.2, 100)

2025-07-07 16:12:04,648 - gym_custom_envs_real_ur_drivers_URBasic_realTimeClientEvent - INFO - Program send to Robot:
servoj([0.15953400194010658, -1.6106798272799232, -1.5600584612796968, -1.6106798272799232, 1.5140390376429746, 3.160000423044421], 0.5, 0.5, 0.002, 0.2, 100)

2025-07-07 16:12:04,663 - gym_custom_envs_real_ur_drivers_URBasic_realTimeClientEvent - INFO - Program send to Robot:
servoj([0.15953400194010658, -1.6106798272799232, -1.5600584612796968, -1.6106798272799232, 1.5140390376431265, 3.160000423044421], 0.5, 0.5, 0.002, 0.2, 100)

2025-07-07 16:12:04,672 - gym_custom_envs_real_ur_drivers_URBasic_realTimeClientEvent - INFO - Program send to Robot:
servoj([0.15953400194010658, -1.6106798272799232, -1.5600584612796968, -1.6106798272799232, 1.514039037643128, 3.160000423044421], 0.5, 0.5, 0.002, 0.2, 100)

2025-07-07 16:12:04,680 - gym_custom_envs_real_ur_drivers_URBasic_realTimeClientEvent - INFO - Program send to Robot:
servoj([0.15953400194010658, -1.6106798272799232, -1.5600584612796968, -1.6106798272799232, 1.514039037643128, 3.160000423044421], 0.5, 0.5, 0.002, 0.2, 100)

2025-07-07 16:12:04,687 - gym_custom_envs_real_ur_drivers_URBasic_realTimeClientEvent - INFO - Program send to Robot:
servoj([0.15953400194010658, -1.6106798272799232, -1.5600584612796968, -1.6106798272799232, 1.514039037643128, 3.160000423044421], 0.5, 0.5, 0.002, 0.2, 100)

2025-07-07 16:12:04,704 - gym_custom_envs_real_ur_drivers_URBasic_realTimeClientEvent - INFO - Program send to Robot:
servoj([0.15953400194010658, -1.6106798272799232, -1.5600584612796968, -1.6106798272799232, 1.514039037643128, 3.160000423044421], 0.5, 0.5, 0.002, 0.2, 100)

2025-07-07 16:12:04,710 - gym_custom_envs_real_ur_drivers_URBasic_realTimeClientEvent - INFO - Program send to Robot:
servoj([0.15953400194010658, -1.6106798272799232, -1.5600584612796968, -1.6106798272799232, 1.514039037643128, 3.160000423044421], 0.5, 0.5, 0.002, 0.2, 100)

2025-07-07 16:12:04,720 - gym_custom_envs_real_ur_drivers_URBasic_realTimeClientEvent - INFO - Program send to Robot:
servoj([0.15953400194010658, -1.6106798272799232, -1.5600584612796968, -1.6106798272799232, 1.514039037643128, 3.160000423044421], 0.5, 0.5, 0.002, 0.2, 100)

2025-07-07 16:12:04,735 - gym_custom_envs_real_ur_drivers_URBasic_realTimeClientEvent - INFO - Program send to Robot:
servoj([0.15953400194010658, -1.6106798272799232, -1.5600584612796968, -1.6106798272799232, 1.514039037643128, 3.160000423044421], 0.5, 0.5, 0.002, 0.2, 100)

2025-07-07 16:12:04,745 - gym_custom_envs_real_ur_drivers_URBasic_realTimeClientEvent - INFO - Program send to Robot:
servoj([0.15953400194010658, -1.6106798272799232, -1.5600584612796968, -1.6106798272799232, 1.514039037643128, 3.160000423044421], 0.5, 0.5, 0.002, 0.2, 100)

2025-07-07 16:12:04,754 - gym_custom_envs_real_ur_drivers_URBasic_realTimeClientEvent - INFO - Program send to Robot:
servoj([0.15953400194010658, -1.6106798272799232, -1.5600584612796968, -1.6106798272799232, 1.514039037643128, 3.160000423044421], 0.5, 0.5, 0.002, 0.2, 100)

2025-07-07 16:12:04,758 - gym_custom_envs_real_ur_drivers_URBasic_realTimeClientEvent - INFO - Program send to Robot:
servoj([0.15953400194010658, -1.6106798272799232, -1.5600584612796968, -1.6106798272799232, 1.514039037643128, 3.160000423044421], 0.5, 0.5, 0.002, 0.2, 100)

2025-07-07 16:12:04,775 - gym_custom_envs_real_ur_drivers_URBasic_realTimeClientEvent - INFO - Program send to Robot:
servoj([0.15953400194010658, -1.6106798272799232, -1.5600584612796968, -1.6106798272799232, 1.514039037643128, 3.160000423044421], 0.5, 0.5, 0.002, 0.2, 100)

2025-07-07 16:12:04,782 - gym_custom_envs_real_ur_drivers_URBasic_realTimeClientEvent - INFO - Program send to Robot:
servoj([0.15953400194010658, -1.6106798272799232, -1.5600584612796968, -1.6106798272799232, 1.514039037643128, 3.160000423044421], 0.5, 0.5, 0.002, 0.2, 100)

2025-07-07 16:12:04,793 - gym_custom_envs_real_ur_drivers_URBasic_realTimeClientEvent - INFO - Program send to Robot:
servoj([0.15953400194010658, -1.6106798272799232, -1.5600584612796968, -1.6106798272799232, 1.514039037643128, 3.160000423044421], 0.5, 0.5, 0.002, 0.2, 100)

2025-07-07 16:12:04,812 - gym_custom_envs_real_ur_drivers_URBasic_realTimeClientEvent - INFO - Program send to Robot:
servoj([0.15953400194010658, -1.6106798272799232, -1.5600584612796968, -1.6106798272799232, 1.514039037643128, 3.160000423044421], 0.5, 0.5, 0.002, 0.2, 100)

2025-07-07 16:12:04,827 - gym_custom_envs_real_ur_drivers_URBasic_realTimeClientEvent - INFO - Program send to Robot:
servoj([0.15953400194010658, -1.6106798272799232, -1.5600584612796968, -1.6106798272799232, 1.514039037643128, 3.160000423044421], 0.5, 0.5, 0.002, 0.2, 100)

2025-07-07 16:12:04,832 - gym_custom_envs_real_ur_drivers_URBasic_realTimeClientEvent - INFO - Program send to Robot:
servoj([0.15953400194010658, -1.6106798272799232, -1.5600584612796968, -1.6106798272799232, 1.514039037643128, 3.160000423044421], 0.5, 0.5, 0.002, 0.2, 100)

2025-07-07 16:12:04,848 - gym_custom_envs_real_ur_drivers_URBasic_realTimeClientEvent - INFO - Program send to Robot:
servoj([0.15953400194010658, -1.6106798272799232, -1.5600584612796968, -1.6106798272799232, 1.514039037643128, 3.160000423044421], 0.5, 0.5, 0.002, 0.2, 100)

2025-07-07 16:12:04,854 - gym_custom_envs_real_ur_drivers_URBasic_realTimeClientEvent - INFO - Program send to Robot:
servoj([0.15953400194010658, -1.6106798272799232, -1.5600584612796968, -1.6106798272799232, 1.514039037643128, 3.160000423044421], 0.5, 0.5, 0.002, 0.2, 100)

2025-07-07 16:12:04,864 - gym_custom_envs_real_ur_drivers_URBasic_realTimeClientEvent - INFO - Program send to Robot:
servoj([0.15953400194010658, -1.6106798272799232, -1.5600584612796968, -1.6106798272799232, 1.514039037643128, 3.160000423044421], 0.5, 0.5, 0.002, 0.2, 100)

2025-07-07 16:12:04,879 - gym_custom_envs_real_ur_drivers_URBasic_realTimeClientEvent - INFO - Program send to Robot:
servoj([0.15953400194010658, -1.6106798272799232, -1.5600584612796968, -1.6106798272799232, 1.514039037643128, 3.160000423044421], 0.5, 0.5, 0.002, 0.2, 100)

2025-07-07 16:12:04,889 - gym_custom_envs_real_ur_drivers_URBasic_realTimeClientEvent - INFO - Program send to Robot:
servoj([0.15953400194010658, -1.6106798272799232, -1.5600584612796968, -1.6106798272799232, 1.514039037643128, 3.160000423044421], 0.5, 0.5, 0.002, 0.2, 100)

2025-07-07 16:12:04,898 - gym_custom_envs_real_ur_drivers_URBasic_realTimeClientEvent - INFO - Program send to Robot:
servoj([0.15953400194010658, -1.6106798272799232, -1.5600584612796968, -1.6106798272799232, 1.514039037643128, 3.160000423044421], 0.5, 0.5, 0.002, 0.2, 100)

2025-07-07 16:12:04,903 - gym_custom_envs_real_ur_drivers_URBasic_realTimeClientEvent - INFO - Program send to Robot:
servoj([0.15953400194010658, -1.6106798272799232, -1.5600584612796968, -1.6106798272799232, 1.514039037643128, 3.160000423044421], 0.5, 0.5, 0.002, 0.2, 100)

2025-07-07 16:12:04,922 - gym_custom_envs_real_ur_drivers_URBasic_realTimeClientEvent - INFO - Program send to Robot:
servoj([0.15953400194010658, -1.6106798272799232, -1.5600584612796968, -1.6106798272799232, 1.514039037643128, 3.160000423044421], 0.5, 0.5, 0.002, 0.2, 100)

2025-07-07 16:12:04,926 - gym_custom_envs_real_ur_drivers_URBasic_realTimeClientEvent - INFO - Program send to Robot:
servoj([0.15953400194010658, -1.6106798272799232, -1.5600584612796968, -1.6106798272799232, 1.514039037643128, 3.160000423044421], 0.5, 0.5, 0.002, 0.2, 100)

2025-07-07 16:12:04,945 - gym_custom_envs_real_ur_drivers_URBasic_realTimeClientEvent - INFO - Program send to Robot:
servoj([0.15953400194010658, -1.6106798272799232, -1.5600584612796968, -1.6106798272799232, 1.514039037643128, 3.160000423044421], 0.5, 0.5, 0.002, 0.2, 100)

2025-07-07 16:12:04,950 - gym_custom_envs_real_ur_drivers_URBasic_realTimeClientEvent - INFO - Program send to Robot:
servoj([0.15953400194010658, -1.6106798272799232, -1.5600584612796968, -1.6106798272799232, 1.514039037643128, 3.160000423044421], 0.5, 0.5, 0.002, 0.2, 100)

2025-07-07 16:12:04,961 - gym_custom_envs_real_ur_drivers_URBasic_realTimeClientEvent - INFO - Program send to Robot:
servoj([0.15953400194010658, -1.6106798272799232, -1.5600584612796968, -1.6106798272799232, 1.514039037643128, 3.160000423044421], 0.5, 0.5, 0.002, 0.2, 100)

2025-07-07 16:12:04,975 - gym_custom_envs_real_ur_drivers_URBasic_realTimeClientEvent - INFO - Program send to Robot:
servoj([0.15953400194010658, -1.6106798272799232, -1.5600584612796968, -1.6106798272799232, 1.514039037643128, 3.160000423044421], 0.5, 0.5, 0.002, 0.2, 100)

2025-07-07 16:12:04,985 - gym_custom_envs_real_ur_drivers_URBasic_realTimeClientEvent - INFO - Program send to Robot:
servoj([0.15953400194010658, -1.6106798272799232, -1.5600584612796968, -1.6106798272799232, 1.514039037643128, 3.160000423044421], 0.5, 0.5, 0.002, 0.2, 100)

2025-07-07 16:12:04,994 - gym_custom_envs_real_ur_drivers_URBasic_realTimeClientEvent - INFO - Program send to Robot:
servoj([0.15953400194010658, -1.6106798272799232, -1.5600584612796968, -1.6106798272799232, 1.514039037643128, 3.160000423044421], 0.5, 0.5, 0.002, 0.2, 100)

2025-07-07 16:12:04,999 - gym_custom_envs_real_ur_drivers_URBasic_realTimeClientEvent - INFO - Program send to Robot:
servoj([0.15953400194010658, -1.6106798272799232, -1.5600584612796968, -1.6106798272799232, 1.514039037643128, 3.160000423044421], 0.5, 0.5, 0.002, 0.2, 100)

2025-07-07 16:12:05,014 - gym_custom_envs_real_ur_drivers_URBasic_realTimeClientEvent - INFO - Program send to Robot:
servoj([0.15953400194010658, -1.6106798272799232, -1.5600584612796968, -1.6106798272799232, 1.514039037643128, 3.160000423044421], 0.5, 0.5, 0.002, 0.2, 100)

2025-07-07 16:12:05,023 - gym_custom_envs_real_ur_drivers_URBasic_realTimeClientEvent - INFO - Program send to Robot:
servoj([0.15953400194010658, -1.6106798272799232, -1.5600584612796968, -1.6106798272799232, 1.514039037643128, 3.160000423044421], 0.5, 0.5, 0.002, 0.2, 100)

2025-07-07 16:12:05,035 - gym_custom_envs_real_ur_drivers_URBasic_realTimeClientEvent - INFO - Program send to Robot:
servoj([0.15953400194010658, -1.6106798272799232, -1.5600584612796968, -1.6106798272799232, 1.514039037643128, 3.160000423044421], 0.5, 0.5, 0.002, 0.2, 100)

2025-07-07 16:12:05,047 - gym_custom_envs_real_ur_drivers_URBasic_realTimeClientEvent - INFO - Program send to Robot:
servoj([0.15953400194010658, -1.6106798272799232, -1.5600584612796968, -1.6106798272799232, 1.514039037643128, 3.160000423044421], 0.5, 0.5, 0.002, 0.2, 100)

2025-07-07 16:12:05,058 - gym_custom_envs_real_ur_drivers_URBasic_realTimeClientEvent - INFO - Program send to Robot:
servoj([0.15953400194010658, -1.6106798272799232, -1.5600584612796968, -1.6106798272799232, 1.514039037643128, 3.160000423044421], 0.5, 0.5, 0.002, 0.2, 100)

2025-07-07 16:12:05,063 - gym_custom_envs_real_ur_drivers_URBasic_realTimeClientEvent - INFO - Program send to Robot:
servoj([0.15953400194010658, -1.6106798272799232, -1.5600584612796968, -1.6106798272799232, 1.514039037643128, 3.160000423044421], 0.5, 0.5, 0.002, 0.2, 100)

2025-07-07 16:12:05,071 - gym_custom_envs_real_ur_drivers_URBasic_realTimeClientEvent - INFO - Program send to Robot:
servoj([0.15953400194010658, -1.6106798272799232, -1.5600584612796968, -1.6106798272799232, 1.514039037643128, 3.160000423044421], 0.5, 0.5, 0.002, 0.2, 100)

2025-07-07 16:12:05,088 - gym_custom_envs_real_ur_drivers_URBasic_realTimeClientEvent - INFO - Program send to Robot:
servoj([0.15953400194010658, -1.6106798272799232, -1.5600584612796968, -1.6106798272799232, 1.514039037643128, 3.160000423044421], 0.5, 0.5, 0.002, 0.2, 100)

2025-07-07 16:12:05,095 - gym_custom_envs_real_ur_drivers_URBasic_realTimeClientEvent - INFO - Program send to Robot:
servoj([0.15953400194010658, -1.6106798272799232, -1.5600584612796968, -1.6106798272799232, 1.514039037643128, 3.160000423044421], 0.5, 0.5, 0.002, 0.2, 100)

2025-07-07 16:12:05,107 - gym_custom_envs_real_ur_drivers_URBasic_realTimeClientEvent - INFO - Program send to Robot:
servoj([0.15953400194010658, -1.6106798272799232, -1.5600584612796968, -1.6106798272799232, 1.514039037643128, 3.160000423044421], 0.5, 0.5, 0.002, 0.2, 100)

2025-07-07 16:12:05,119 - gym_custom_envs_real_ur_drivers_URBasic_realTimeClientEvent - INFO - Program send to Robot:
servoj([0.15953400194010658, -1.6106798272799232, -1.5600584612796968, -1.6106798272799232, 1.514039037643128, 3.160000423044421], 0.5, 0.5, 0.002, 0.2, 100)

2025-07-07 16:12:05,132 - gym_custom_envs_real_ur_drivers_URBasic_realTimeClientEvent - INFO - Program send to Robot:
servoj([0.15953400194010658, -1.6106798272799232, -1.5600584612796968, -1.6106798272799232, 1.514039037643128, 3.160000423044421], 0.5, 0.5, 0.002, 0.2, 100)

2025-07-07 16:12:05,143 - gym_custom_envs_real_ur_drivers_URBasic_realTimeClientEvent - INFO - Program send to Robot:
servoj([0.15953400194010658, -1.6106798272799232, -1.5600584612796968, -1.6106798272799232, 1.514039037643128, 3.160000423044421], 0.5, 0.5, 0.002, 0.2, 100)

2025-07-07 16:12:05,151 - gym_custom_envs_real_ur_drivers_URBasic_realTimeClientEvent - INFO - Program send to Robot:
servoj([0.15953400194010658, -1.6106798272799232, -1.5600584612796968, -1.6106798272799232, 1.514039037643128, 3.160000423044421], 0.5, 0.5, 0.002, 0.2, 100)

2025-07-07 16:12:05,159 - gym_custom_envs_real_ur_drivers_URBasic_realTimeClientEvent - INFO - Program send to Robot:
servoj([0.15953400194010658, -1.6106798272799232, -1.5600584612796968, -1.6106798272799232, 1.514039037643128, 3.160000423044421], 0.5, 0.5, 0.002, 0.2, 100)

2025-07-07 16:12:05,175 - gym_custom_envs_real_ur_drivers_URBasic_realTimeClientEvent - INFO - Program send to Robot:
servoj([0.15953400194010658, -1.6106798272799232, -1.5600584612796968, -1.6106798272799232, 1.514039037643128, 3.160000423044421], 0.5, 0.5, 0.002, 0.2, 100)

2025-07-07 16:12:05,183 - gym_custom_envs_real_ur_drivers_URBasic_realTimeClientEvent - INFO - Program send to Robot:
servoj([0.15953400194010658, -1.6106798272799232, -1.5600584612796968, -1.6106798272799232, 1.514039037643128, 3.160000423044421], 0.5, 0.5, 0.002, 0.2, 100)

2025-07-07 16:12:05,205 - gym_custom_envs_real_ur_drivers_URBasic_realTimeClientEvent - INFO - Program send to Robot:
servoj([0.15953400194010658, -1.6106798272799232, -1.5600584612796968, -1.6106798272799232, 1.514039037643128, 3.160000423044421], 0.5, 0.5, 0.002, 0.2, 100)

2025-07-07 16:12:05,215 - gym_custom_envs_real_ur_drivers_URBasic_realTimeClientEvent - INFO - Program send to Robot:
servoj([0.15953400194010658, -1.6106798272799232, -1.5600584612796968, -1.6106798272799232, 1.512520396663121, 3.160000423044421], 0.5, 0.5, 0.002, 0.2, 100)

2025-07-07 16:12:05,228 - gym_custom_envs_real_ur_drivers_URBasic_realTimeClientEvent - INFO - Program send to Robot:
servoj([0.15953400194010658, -1.6106798272799232, -1.5600584612796968, -1.6106798272799232, 1.512505210253321, 3.160000423044421], 0.5, 0.5, 0.002, 0.2, 100)

2025-07-07 16:12:05,239 - gym_custom_envs_real_ur_drivers_URBasic_realTimeClientEvent - INFO - Program send to Robot:
servoj([0.15953400194010658, -1.6106798272799232, -1.5600584612796968, -1.6106798272799232, 1.512505058389223, 3.160000423044421], 0.5, 0.5, 0.002, 0.2, 100)

2025-07-07 16:12:05,247 - gym_custom_envs_real_ur_drivers_URBasic_realTimeClientEvent - INFO - Program send to Robot:
servoj([0.15953400194010658, -1.6106798272799232, -1.5600584612796968, -1.6106798272799232, 1.512505056870582, 3.160000423044421], 0.5, 0.5, 0.002, 0.2, 100)

2025-07-07 16:12:05,255 - gym_custom_envs_real_ur_drivers_URBasic_realTimeClientEvent - INFO - Program send to Robot:
servoj([0.15953400194010658, -1.6106798272799232, -1.5600584612796968, -1.6106798272799232, 1.5125050568553955, 3.160000423044421], 0.5, 0.5, 0.002, 0.2, 100)

2025-07-07 16:12:05,271 - gym_custom_envs_real_ur_drivers_URBasic_realTimeClientEvent - INFO - Program send to Robot:
servoj([0.15953400194010658, -1.6106798272799232, -1.5600584612796968, -1.6106798272799232, 1.5125050568552438, 3.160000423044421], 0.5, 0.5, 0.002, 0.2, 100)

2025-07-07 16:12:05,287 - gym_custom_envs_real_ur_drivers_URBasic_realTimeClientEvent - INFO - Program send to Robot:
servoj([0.15953400194010658, -1.6106798272799232, -1.5600584612796968, -1.6106798272799232, 1.5125050568552423, 3.160000423044421], 0.5, 0.5, 0.002, 0.2, 100)

2025-07-07 16:12:05,295 - gym_custom_envs_real_ur_drivers_URBasic_realTimeClientEvent - INFO - Program send to Robot:
servoj([0.15953400194010658, -1.6106798272799232, -1.5600584612796968, -1.6106798272799232, 1.5125050568552423, 3.160000423044421], 0.5, 0.5, 0.002, 0.2, 100)

2025-07-07 16:12:05,311 - gym_custom_envs_real_ur_drivers_URBasic_realTimeClientEvent - INFO - Program send to Robot:
servoj([0.15953400194010658, -1.6106798272799232, -1.5600584612796968, -1.6106798272799232, 1.5125050568552423, 3.160000423044421], 0.5, 0.5, 0.002, 0.2, 100)

2025-07-07 16:12:05,319 - gym_custom_envs_real_ur_drivers_URBasic_realTimeClientEvent - INFO - Program send to Robot:
servoj([0.15953400194010658, -1.6106798272799232, -1.5600584612796968, -1.6106798272799232, 1.5125050568552423, 3.160000423044421], 0.5, 0.5, 0.002, 0.2, 100)

2025-07-07 16:12:05,335 - gym_custom_envs_real_ur_drivers_URBasic_realTimeClientEvent - INFO - Program send to Robot:
servoj([0.15953400194010658, -1.6106798272799232, -1.5600584612796968, -1.6106798272799232, 1.5125050568552423, 3.160000423044421], 0.5, 0.5, 0.002, 0.2, 100)

2025-07-07 16:12:05,343 - gym_custom_envs_real_ur_drivers_URBasic_realTimeClientEvent - INFO - Program send to Robot:
servoj([0.15953400194010658, -1.6106798272799232, -1.5600584612796968, -1.6106798272799232, 1.5125050568552423, 3.160000423044421], 0.5, 0.5, 0.002, 0.2, 100)

2025-07-07 16:12:05,359 - gym_custom_envs_real_ur_drivers_URBasic_realTimeClientEvent - INFO - Program send to Robot:
servoj([0.15953400194010658, -1.6106798272799232, -1.5600584612796968, -1.6106798272799232, 1.5125050568552423, 3.160000423044421], 0.5, 0.5, 0.002, 0.2, 100)

2025-07-07 16:12:05,367 - gym_custom_envs_real_ur_drivers_URBasic_realTimeClientEvent - INFO - Program send to Robot:
servoj([0.15953400194010658, -1.6106798272799232, -1.5600584612796968, -1.6106798272799232, 1.5125050568552423, 3.160000423044421], 0.5, 0.5, 0.002, 0.2, 100)

2025-07-07 16:12:05,375 - gym_custom_envs_real_ur_drivers_URBasic_realTimeClientEvent - INFO - Program send to Robot:
servoj([0.15953400194010658, -1.6106798272799232, -1.5600584612796968, -1.6106798272799232, 1.5125050568552423, 3.160000423044421], 0.5, 0.5, 0.002, 0.2, 100)

2025-07-07 16:12:05,384 - gym_custom_envs_real_ur_drivers_URBasic_realTimeClientEvent - INFO - Program send to Robot:
servoj([0.15953400194010658, -1.6106798272799232, -1.5600584612796968, -1.6106798272799232, 1.5125050568552423, 3.160000423044421], 0.5, 0.5, 0.002, 0.2, 100)

2025-07-07 16:12:05,400 - gym_custom_envs_real_ur_drivers_URBasic_realTimeClientEvent - INFO - Program send to Robot:
servoj([0.15953400194010658, -1.6106798272799232, -1.5600584612796968, -1.6106798272799232, 1.5125050568552423, 3.160000423044421], 0.5, 0.5, 0.002, 0.2, 100)

2025-07-07 16:12:05,408 - gym_custom_envs_real_ur_drivers_URBasic_realTimeClientEvent - INFO - Program send to Robot:
servoj([0.15953400194010658, -1.6106798272799232, -1.5600584612796968, -1.6106798272799232, 1.5125050568552423, 3.160000423044421], 0.5, 0.5, 0.002, 0.2, 100)

2025-07-07 16:12:05,414 - gym_custom_envs_real_ur_drivers_URBasic_realTimeClientEvent - INFO - Program send to Robot:
servoj([0.15953400194010658, -1.6106798272799232, -1.5600584612796968, -1.6106798272799232, 1.5125050568552423, 3.160000423044421], 0.5, 0.5, 0.002, 0.2, 100)

2025-07-07 16:12:05,432 - gym_custom_envs_real_ur_drivers_URBasic_realTimeClientEvent - INFO - Program send to Robot:
servoj([0.15953400194010658, -1.6106798272799232, -1.5600584612796968, -1.6106798272799232, 1.5125050568552423, 3.160000423044421], 0.5, 0.5, 0.002, 0.2, 100)

2025-07-07 16:12:05,438 - gym_custom_envs_real_ur_drivers_URBasic_realTimeClientEvent - INFO - Program send to Robot:
servoj([0.15953400194010658, -1.6106798272799232, -1.5600584612796968, -1.6106798272799232, 1.5125050568552423, 3.160000423044421], 0.5, 0.5, 0.002, 0.2, 100)

2025-07-07 16:12:05,447 - gym_custom_envs_real_ur_drivers_URBasic_realTimeClientEvent - INFO - Program send to Robot:
servoj([0.15953400194010658, -1.6106798272799232, -1.5600584612796968, -1.6106798272799232, 1.5125050568552423, 3.160000423044421], 0.5, 0.5, 0.002, 0.2, 100)

2025-07-07 16:12:05,466 - gym_custom_envs_real_ur_drivers_URBasic_realTimeClientEvent - INFO - Program send to Robot:
servoj([0.15953400194010658, -1.6106798272799232, -1.5600584612796968, -1.6106798272799232, 1.5125050568552423, 3.160000423044421], 0.5, 0.5, 0.002, 0.2, 100)

2025-07-07 16:12:05,479 - gym_custom_envs_real_ur_drivers_URBasic_realTimeClientEvent - INFO - Program send to Robot:
servoj([0.15953400194010658, -1.6106798272799232, -1.5600584612796968, -1.6106798272799232, 1.5125050568552423, 3.160000423044421], 0.5, 0.5, 0.002, 0.2, 100)

2025-07-07 16:12:05,487 - gym_custom_envs_real_ur_drivers_URBasic_realTimeClientEvent - INFO - Program send to Robot:
servoj([0.15953400194010658, -1.6106798272799232, -1.5600584612796968, -1.6106798272799232, 1.5125050568552423, 3.160000423044421], 0.5, 0.5, 0.002, 0.2, 100)

2025-07-07 16:12:05,495 - gym_custom_envs_real_ur_drivers_URBasic_realTimeClientEvent - INFO - Program send to Robot:
servoj([0.15953400194010658, -1.6106798272799232, -1.5600584612796968, -1.6106798272799232, 1.5125050568552423, 3.160000423044421], 0.5, 0.5, 0.002, 0.2, 100)

2025-07-07 16:12:05,511 - gym_custom_envs_real_ur_drivers_URBasic_realTimeClientEvent - INFO - Program send to Robot:
servoj([0.15953400194010658, -1.6106798272799232, -1.5600584612796968, -1.6106798272799232, 1.5125050568552423, 3.160000423044421], 0.5, 0.5, 0.002, 0.2, 100)

2025-07-07 16:12:05,521 - gym_custom_envs_real_ur_drivers_URBasic_realTimeClientEvent - INFO - Program send to Robot:
servoj([0.15953400194010658, -1.6106798272799232, -1.5600584612796968, -1.6106798272799232, 1.5125050568552423, 3.160000423044421], 0.5, 0.5, 0.002, 0.2, 100)

2025-07-07 16:12:05,529 - gym_custom_envs_real_ur_drivers_URBasic_realTimeClientEvent - INFO - Program send to Robot:
servoj([0.15953400194010658, -1.6106798272799232, -1.5600584612796968, -1.6106798272799232, 1.5125050568552423, 3.160000423044421], 0.5, 0.5, 0.002, 0.2, 100)

2025-07-07 16:12:05,534 - gym_custom_envs_real_ur_drivers_URBasic_realTimeClientEvent - INFO - Program send to Robot:
servoj([0.15953400194010658, -1.6106798272799232, -1.5600584612796968, -1.6106798272799232, 1.5125050568552423, 3.160000423044421], 0.5, 0.5, 0.002, 0.2, 100)

2025-07-07 16:12:05,553 - gym_custom_envs_real_ur_drivers_URBasic_realTimeClientEvent - INFO - Program send to Robot:
servoj([0.15953400194010658, -1.6106798272799232, -1.5600584612796968, -1.6106798272799232, 1.5125050568552423, 3.160000423044421], 0.5, 0.5, 0.002, 0.2, 100)

2025-07-07 16:12:05,562 - gym_custom_envs_real_ur_drivers_URBasic_realTimeClientEvent - INFO - Program send to Robot:
servoj([0.15953400194010658, -1.6106798272799232, -1.5600584612796968, -1.6106798272799232, 1.5125050568552423, 3.160000423044421], 0.5, 0.5, 0.002, 0.2, 100)

2025-07-07 16:12:05,577 - gym_custom_envs_real_ur_drivers_URBasic_realTimeClientEvent - INFO - Program send to Robot:
servoj([0.15953400194010658, -1.6106798272799232, -1.5600584612796968, -1.6106798272799232, 1.5125050568552423, 3.160000423044421], 0.5, 0.5, 0.002, 0.2, 100)

2025-07-07 16:12:05,582 - gym_custom_envs_real_ur_drivers_URBasic_realTimeClientEvent - INFO - Program send to Robot:
servoj([0.15953400194010658, -1.6106798272799232, -1.5600584612796968, -1.6106798272799232, 1.5125050568552423, 3.160000423044421], 0.5, 0.5, 0.002, 0.2, 100)

2025-07-07 16:12:05,601 - gym_custom_envs_real_ur_drivers_URBasic_realTimeClientEvent - INFO - Program send to Robot:
servoj([0.15953400194010658, -1.6106798272799232, -1.5600584612796968, -1.6106798272799232, 1.5125050568552423, 3.160000423044421], 0.5, 0.5, 0.002, 0.2, 100)

2025-07-07 16:12:05,606 - gym_custom_envs_real_ur_drivers_URBasic_realTimeClientEvent - INFO - Program send to Robot:
servoj([0.15953400194010658, -1.6106798272799232, -1.5600584612796968, -1.6106798272799232, 1.5125050568552423, 3.160000423044421], 0.5, 0.5, 0.002, 0.2, 100)

2025-07-07 16:12:05,617 - gym_custom_envs_real_ur_drivers_URBasic_realTimeClientEvent - INFO - Program send to Robot:
servoj([0.15953400194010658, -1.6106798272799232, -1.5600584612796968, -1.6106798272799232, 1.5125050568552423, 3.160000423044421], 0.5, 0.5, 0.002, 0.2, 100)

2025-07-07 16:12:05,631 - gym_custom_envs_real_ur_drivers_URBasic_realTimeClientEvent - INFO - Program send to Robot:
servoj([0.15953400194010658, -1.6106798272799232, -1.5600584612796968, -1.6106798272799232, 1.5125050568552423, 3.160000423044421], 0.5, 0.5, 0.002, 0.2, 100)

2025-07-07 16:12:05,642 - gym_custom_envs_real_ur_drivers_URBasic_realTimeClientEvent - INFO - Program send to Robot:
servoj([0.15953400194010658, -1.6106798272799232, -1.5600584612796968, -1.6106798272799232, 1.5125050568552423, 3.160000423044421], 0.5, 0.5, 0.002, 0.2, 100)

2025-07-07 16:12:05,647 - gym_custom_envs_real_ur_drivers_URBasic_realTimeClientEvent - INFO - Program send to Robot:
servoj([0.15953400194010658, -1.6106798272799232, -1.5600584612796968, -1.6106798272799232, 1.5125050568552423, 3.160000423044421], 0.5, 0.5, 0.002, 0.2, 100)

2025-07-07 16:12:05,655 - gym_custom_envs_real_ur_drivers_URBasic_realTimeClientEvent - INFO - Program send to Robot:
servoj([0.15953400194010658, -1.6106798272799232, -1.5600584612796968, -1.6106798272799232, 1.5125050568552423, 3.160000423044421], 0.5, 0.5, 0.002, 0.2, 100)

2025-07-07 16:12:05,670 - gym_custom_envs_real_ur_drivers_URBasic_realTimeClientEvent - INFO - Program send to Robot:
servoj([0.15953400194010658, -1.6106798272799232, -1.5600584612796968, -1.6106798272799232, 1.5125050568552423, 3.160000423044421], 0.5, 0.5, 0.002, 0.2, 100)

2025-07-07 16:12:05,678 - gym_custom_envs_real_ur_drivers_URBasic_realTimeClientEvent - INFO - Program send to Robot:
servoj([0.15953400194010658, -1.6106798272799232, -1.5600584612796968, -1.6106798272799232, 1.5125050568552423, 3.160000423044421], 0.5, 0.5, 0.002, 0.2, 100)

2025-07-07 16:12:05,690 - gym_custom_envs_real_ur_drivers_URBasic_realTimeClientEvent - INFO - Program send to Robot:
servoj([0.15953400194010658, -1.6106798272799232, -1.5600584612796968, -1.6106798272799232, 1.5125050568552423, 3.160000423044421], 0.5, 0.5, 0.002, 0.2, 100)

2025-07-07 16:12:05,703 - gym_custom_envs_real_ur_drivers_URBasic_realTimeClientEvent - INFO - Program send to Robot:
servoj([0.15953400194010658, -1.6106798272799232, -1.5600584612796968, -1.6106798272799232, 1.5125050568552423, 3.160000423044421], 0.5, 0.5, 0.002, 0.2, 100)

2025-07-07 16:12:05,713 - gym_custom_envs_real_ur_drivers_URBasic_realTimeClientEvent - INFO - Program send to Robot:
servoj([0.15953400194010658, -1.6106798272799232, -1.5600584612796968, -1.6106798272799232, 1.5125050568552423, 3.160000423044421], 0.5, 0.5, 0.002, 0.2, 100)

2025-07-07 16:12:05,721 - gym_custom_envs_real_ur_drivers_URBasic_realTimeClientEvent - INFO - Program send to Robot:
servoj([0.15953400194010658, -1.6106798272799232, -1.5600584612796968, -1.6106798272799232, 1.5125050568552423, 3.160000423044421], 0.5, 0.5, 0.002, 0.2, 100)

2025-07-07 16:12:05,726 - gym_custom_envs_real_ur_drivers_URBasic_realTimeClientEvent - INFO - Program send to Robot:
servoj([0.15953400194010658, -1.6106798272799232, -1.5600584612796968, -1.6106798272799232, 1.5125050568552423, 3.160000423044421], 0.5, 0.5, 0.002, 0.2, 100)

2025-07-07 16:12:05,745 - gym_custom_envs_real_ur_drivers_URBasic_realTimeClientEvent - INFO - Program send to Robot:
servoj([0.15953400194010658, -1.6106798272799232, -1.5600584612796968, -1.6106798272799232, 1.5125050568552423, 3.160000423044421], 0.5, 0.5, 0.002, 0.2, 100)

2025-07-07 16:12:05,751 - gym_custom_envs_real_ur_drivers_URBasic_realTimeClientEvent - INFO - Program send to Robot:
servoj([0.15953400194010658, -1.6106798272799232, -1.5600584612796968, -1.6106798272799232, 1.5125050568552423, 3.160000423044421], 0.5, 0.5, 0.002, 0.2, 100)

2025-07-07 16:12:05,761 - gym_custom_envs_real_ur_drivers_URBasic_realTimeClientEvent - INFO - Program send to Robot:
servoj([0.15953400194010658, -1.6106798272799232, -1.5600584612796968, -1.6106798272799232, 1.5125050568552423, 3.160000423044421], 0.5, 0.5, 0.002, 0.2, 100)

2025-07-07 16:12:05,775 - gym_custom_envs_real_ur_drivers_URBasic_realTimeClientEvent - INFO - Program send to Robot:
servoj([0.15953400194010658, -1.6106798272799232, -1.5600584612796968, -1.6106798272799232, 1.5125050568552423, 3.160000423044421], 0.5, 0.5, 0.002, 0.2, 100)

2025-07-07 16:12:05,786 - gym_custom_envs_real_ur_drivers_URBasic_realTimeClientEvent - INFO - Program send to Robot:
servoj([0.15953400194010658, -1.6106798272799232, -1.5600584612796968, -1.6106798272799232, 1.5125050568552423, 3.160000423044421], 0.5, 0.5, 0.002, 0.2, 100)

2025-07-07 16:12:05,790 - gym_custom_envs_real_ur_drivers_URBasic_realTimeClientEvent - INFO - Program send to Robot:
servoj([0.15953400194010658, -1.6106798272799232, -1.5600584612796968, -1.6106798272799232, 1.5140236978352493, 3.160000423044421], 0.5, 0.5, 0.002, 0.2, 100)

2025-07-07 16:12:05,809 - gym_custom_envs_real_ur_drivers_URBasic_realTimeClientEvent - INFO - Program send to Robot:
servoj([0.15953400194010658, -1.6106798272799232, -1.5600584612796968, -1.6106798272799232, 1.5140388842450492, 3.160000423044421], 0.5, 0.5, 0.002, 0.2, 100)

2025-07-07 16:12:05,817 - gym_custom_envs_real_ur_drivers_URBasic_realTimeClientEvent - INFO - Program send to Robot:
servoj([0.15953400194010658, -1.6106798272799232, -1.5600584612796968, -1.6106798272799232, 1.5140390361091474, 3.160000423044421], 0.5, 0.5, 0.002, 0.2, 100)

2025-07-07 16:12:05,822 - gym_custom_envs_real_ur_drivers_URBasic_realTimeClientEvent - INFO - Program send to Robot:
servoj([0.15953400194010658, -1.6106798272799232, -1.5600584612796968, -1.6106798272799232, 1.5125203966477812, 3.160000423044421], 0.5, 0.5, 0.002, 0.2, 100)

2025-07-07 16:12:05,840 - gym_custom_envs_real_ur_drivers_URBasic_realTimeClientEvent - INFO - Program send to Robot:
servoj([0.15953400194010658, -1.6106798272799232, -1.5600584612796968, -1.6106798272799232, 1.5125052102531675, 3.160000423044421], 0.5, 0.5, 0.002, 0.2, 100)

2025-07-07 16:12:05,846 - gym_custom_envs_real_ur_drivers_URBasic_realTimeClientEvent - INFO - Program send to Robot:
servoj([0.15953400194010658, -1.6106798272799232, -1.5600584612796968, -1.6106798272799232, 1.5125050583892214, 3.160000423044421], 0.5, 0.5, 0.002, 0.2, 100)

2025-07-07 16:12:05,856 - gym_custom_envs_real_ur_drivers_URBasic_realTimeClientEvent - INFO - Program send to Robot:
servoj([0.15953400194010658, -1.6106798272799232, -1.5600584612796968, -1.6106798272799232, 1.512505056870582, 3.160000423044421], 0.5, 0.5, 0.002, 0.2, 100)

2025-07-07 16:12:05,871 - gym_custom_envs_real_ur_drivers_URBasic_realTimeClientEvent - INFO - Program send to Robot:
servoj([0.15953400194010658, -1.6106798272799232, -1.5600584612796968, -1.6106798272799232, 1.5125050568553955, 3.160000423044421], 0.5, 0.5, 0.002, 0.2, 100)

2025-07-07 16:12:05,880 - gym_custom_envs_real_ur_drivers_URBasic_realTimeClientEvent - INFO - Program send to Robot:
servoj([0.15953400194010658, -1.6106798272799232, -1.5600584612796968, -1.6106798272799232, 1.5125050568552438, 3.160000423044421], 0.5, 0.5, 0.002, 0.2, 100)

2025-07-07 16:12:05,889 - gym_custom_envs_real_ur_drivers_URBasic_realTimeClientEvent - INFO - Program send to Robot:
servoj([0.15953400194010658, -1.6106798272799232, -1.5600584612796968, -1.6106798272799232, 1.5140236978352493, 3.160000423044421], 0.5, 0.5, 0.002, 0.2, 100)

2025-07-07 16:12:05,894 - gym_custom_envs_real_ur_drivers_URBasic_realTimeClientEvent - INFO - Program send to Robot:
servoj([0.15953400194010658, -1.6106798272799232, -1.5600584612796968, -1.6106798272799232, 1.5140388842450492, 3.160000423044421], 0.5, 0.5, 0.002, 0.2, 100)

2025-07-07 16:12:05,914 - gym_custom_envs_real_ur_drivers_URBasic_realTimeClientEvent - INFO - Program send to Robot:
servoj([0.15953400194010658, -1.6106798272799232, -1.5600584612796968, -1.6106798272799232, 1.5140390361091474, 3.160000423044421], 0.5, 0.5, 0.002, 0.2, 100)

2025-07-07 16:12:05,918 - gym_custom_envs_real_ur_drivers_URBasic_realTimeClientEvent - INFO - Program send to Robot:
servoj([0.15953400194010658, -1.6106798272799232, -1.5600584612796968, -1.6106798272799232, 1.5140390376277881, 3.160000423044421], 0.5, 0.5, 0.002, 0.2, 100)

2025-07-07 16:12:05,935 - gym_custom_envs_real_ur_drivers_URBasic_realTimeClientEvent - INFO - Program send to Robot:
servoj([0.15953400194010658, -1.6106798272799232, -1.5600584612796968, -1.6106798272799232, 1.5140390376429746, 3.160000423044421], 0.5, 0.5, 0.002, 0.2, 100)

2025-07-07 16:12:05,942 - gym_custom_envs_real_ur_drivers_URBasic_realTimeClientEvent - INFO - Program send to Robot:
servoj([0.15953400194010658, -1.6106798272799232, -1.5600584612796968, -1.6106798272799232, 1.5140390376431265, 3.160000423044421], 0.5, 0.5, 0.002, 0.2, 100)

2025-07-07 16:12:05,953 - gym_custom_envs_real_ur_drivers_URBasic_realTimeClientEvent - INFO - Program send to Robot:
servoj([0.15953400194010658, -1.6106798272799232, -1.5600584612796968, -1.6106798272799232, 1.514039037643128, 3.160000423044421], 0.5, 0.5, 0.002, 0.2, 100)

2025-07-07 16:12:05,967 - gym_custom_envs_real_ur_drivers_URBasic_realTimeClientEvent - INFO - Program send to Robot:
servoj([0.15953400194010658, -1.6106798272799232, -1.5600584612796968, -1.6106798272799232, 1.514039037643128, 3.160000423044421], 0.5, 0.5, 0.002, 0.2, 100)

2025-07-07 16:12:05,977 - gym_custom_envs_real_ur_drivers_URBasic_realTimeClientEvent - INFO - Program send to Robot:
servoj([0.15953400194010658, -1.6106798272799232, -1.5600584612796968, -1.6106798272799232, 1.514039037643128, 3.160000423044421], 0.5, 0.5, 0.002, 0.2, 100)

2025-07-07 16:12:05,985 - gym_custom_envs_real_ur_drivers_URBasic_realTimeClientEvent - INFO - Program send to Robot:
servoj([0.15953400194010658, -1.6106798272799232, -1.5600584612796968, -1.6106798272799232, 1.514039037643128, 3.160000423044421], 0.5, 0.5, 0.002, 0.2, 100)

2025-07-07 16:12:05,991 - gym_custom_envs_real_ur_drivers_URBasic_realTimeClientEvent - INFO - Program send to Robot:
servoj([0.15953400194010658, -1.6106798272799232, -1.5600584612796968, -1.6106798272799232, 1.514039037643128, 3.160000423044421], 0.5, 0.5, 0.002, 0.2, 100)

2025-07-07 16:12:06,010 - gym_custom_envs_real_ur_drivers_URBasic_realTimeClientEvent - INFO - Program send to Robot:
servoj([0.15953400194010658, -1.6106798272799232, -1.5600584612796968, -1.6106798272799232, 1.514039037643128, 3.160000423044421], 0.5, 0.5, 0.002, 0.2, 100)

2025-07-07 16:12:06,014 - gym_custom_envs_real_ur_drivers_URBasic_realTimeClientEvent - INFO - Program send to Robot:
servoj([0.15953400194010658, -1.6106798272799232, -1.5600584612796968, -1.6106798272799232, 1.514039037643128, 3.160000423044421], 0.5, 0.5, 0.002, 0.2, 100)

2025-07-07 16:12:06,031 - gym_custom_envs_real_ur_drivers_URBasic_realTimeClientEvent - INFO - Program send to Robot:
servoj([0.15953400194010658, -1.6106798272799232, -1.5600584612796968, -1.6106798272799232, 1.514039037643128, 3.160000423044421], 0.5, 0.5, 0.002, 0.2, 100)

2025-07-07 16:12:06,038 - gym_custom_envs_real_ur_drivers_URBasic_realTimeClientEvent - INFO - Program send to Robot:
servoj([0.15953400194010658, -1.6106798272799232, -1.5600584612796968, -1.6106798272799232, 1.514039037643128, 3.160000423044421], 0.5, 0.5, 0.002, 0.2, 100)

2025-07-07 16:12:06,051 - gym_custom_envs_real_ur_drivers_URBasic_realTimeClientEvent - INFO - Program send to Robot:
servoj([0.15953400194010658, -1.6106798272799232, -1.5600584612796968, -1.6106798272799232, 1.514039037643128, 3.160000423044421], 0.5, 0.5, 0.002, 0.2, 100)

2025-07-07 16:12:06,063 - gym_custom_envs_real_ur_drivers_URBasic_realTimeClientEvent - INFO - Program send to Robot:
servoj([0.15953400194010658, -1.6106798272799232, -1.5600584612796968, -1.6106798272799232, 1.514039037643128, 3.160000423044421], 0.5, 0.5, 0.002, 0.2, 100)

2025-07-07 16:12:06,075 - gym_custom_envs_real_ur_drivers_URBasic_realTimeClientEvent - INFO - Program send to Robot:
servoj([0.15953400194010658, -1.6106798272799232, -1.5600584612796968, -1.6106798272799232, 1.514039037643128, 3.160000423044421], 0.5, 0.5, 0.002, 0.2, 100)

2025-07-07 16:12:06,079 - gym_custom_envs_real_ur_drivers_URBasic_realTimeClientEvent - INFO - Program send to Robot:
servoj([0.15953400194010658, -1.6106798272799232, -1.5600584612796968, -1.6106798272799232, 1.514039037643128, 3.160000423044421], 0.5, 0.5, 0.002, 0.2, 100)

2025-07-07 16:12:06,098 - gym_custom_envs_real_ur_drivers_URBasic_realTimeClientEvent - INFO - Program send to Robot:
servoj([0.15953400194010658, -1.6106798272799232, -1.5600584612796968, -1.6106798272799232, 1.514039037643128, 3.160000423044421], 0.5, 0.5, 0.002, 0.2, 100)

2025-07-07 16:12:06,106 - gym_custom_envs_real_ur_drivers_URBasic_realTimeClientEvent - INFO - Program send to Robot:
servoj([0.15953400194010658, -1.6106798272799232, -1.5600584612796968, -1.6106798272799232, 1.514039037643128, 3.160000423044421], 0.5, 0.5, 0.002, 0.2, 100)

2025-07-07 16:12:06,111 - gym_custom_envs_real_ur_drivers_URBasic_realTimeClientEvent - INFO - Program send to Robot:
servoj([0.15953400194010658, -1.6106798272799232, -1.5600584612796968, -1.6106798272799232, 1.514039037643128, 3.160000423044421], 0.5, 0.5, 0.002, 0.2, 100)

2025-07-07 16:12:06,126 - gym_custom_envs_real_ur_drivers_URBasic_realTimeClientEvent - INFO - Program send to Robot:
servoj([0.15953400194010658, -1.6106798272799232, -1.5600584612796968, -1.6106798272799232, 1.514039037643128, 3.160000423044421], 0.5, 0.5, 0.002, 0.2, 100)

2025-07-07 16:12:06,134 - gym_custom_envs_real_ur_drivers_URBasic_realTimeClientEvent - INFO - Program send to Robot:
servoj([0.15953400194010658, -1.6106798272799232, -1.5600584612796968, -1.6106798272799232, 1.514039037643128, 3.160000423044421], 0.5, 0.5, 0.002, 0.2, 100)

2025-07-07 16:12:06,146 - gym_custom_envs_real_ur_drivers_URBasic_realTimeClientEvent - INFO - Program send to Robot:
servoj([0.15953400194010658, -1.6106798272799232, -1.5600584612796968, -1.6106798272799232, 1.514039037643128, 3.160000423044421], 0.5, 0.5, 0.002, 0.2, 100)

2025-07-07 16:12:06,159 - gym_custom_envs_real_ur_drivers_URBasic_realTimeClientEvent - INFO - Program send to Robot:
servoj([0.15953400194010658, -1.6106798272799232, -1.5600584612796968, -1.6106798272799232, 1.514039037643128, 3.160000423044421], 0.5, 0.5, 0.002, 0.2, 100)

2025-07-07 16:12:06,171 - gym_custom_envs_real_ur_drivers_URBasic_realTimeClientEvent - INFO - Program send to Robot:
servoj([0.15953400194010658, -1.6106798272799232, -1.5600584612796968, -1.6106798272799232, 1.514039037643128, 3.160000423044421], 0.5, 0.5, 0.002, 0.2, 100)

2025-07-07 16:12:06,175 - gym_custom_envs_real_ur_drivers_URBasic_realTimeClientEvent - INFO - Program send to Robot:
servoj([0.15953400194010658, -1.6106798272799232, -1.5600584612796968, -1.6106798272799232, 1.514039037643128, 3.160000423044421], 0.5, 0.5, 0.002, 0.2, 100)

2025-07-07 16:12:06,194 - gym_custom_envs_real_ur_drivers_URBasic_realTimeClientEvent - INFO - Program send to Robot:
servoj([0.15953400194010658, -1.6106798272799232, -1.5600584612796968, -1.6106798272799232, 1.514039037643128, 3.160000423044421], 0.5, 0.5, 0.002, 0.2, 100)

2025-07-07 16:12:06,199 - gym_custom_envs_real_ur_drivers_URBasic_realTimeClientEvent - INFO - Program send to Robot:
servoj([0.15953400194010658, -1.6106798272799232, -1.5600584612796968, -1.6106798272799232, 1.514039037643128, 3.160000423044421], 0.5, 0.5, 0.002, 0.2, 100)

2025-07-07 16:12:06,207 - gym_custom_envs_real_ur_drivers_URBasic_realTimeClientEvent - INFO - Program send to Robot:
servoj([0.15953400194010658, -1.6106798272799232, -1.5600584612796968, -1.6106798272799232, 1.514039037643128, 3.160000423044421], 0.5, 0.5, 0.002, 0.2, 100)

2025-07-07 16:12:06,225 - gym_custom_envs_real_ur_drivers_URBasic_realTimeClientEvent - INFO - Program send to Robot:
servoj([0.15953400194010658, -1.6106798272799232, -1.5600584612796968, -1.6106798272799232, 1.514039037643128, 3.160000423044421], 0.5, 0.5, 0.002, 0.2, 100)

2025-07-07 16:12:06,231 - gym_custom_envs_real_ur_drivers_URBasic_realTimeClientEvent - INFO - Program send to Robot:
servoj([0.15953400194010658, -1.6106798272799232, -1.5600584612796968, -1.6106798272799232, 1.514039037643128, 3.160000423044421], 0.5, 0.5, 0.002, 0.2, 100)

2025-07-07 16:12:06,241 - gym_custom_envs_real_ur_drivers_URBasic_realTimeClientEvent - INFO - Program send to Robot:
servoj([0.15953400194010658, -1.6106798272799232, -1.5600584612796968, -1.6106798272799232, 1.514039037643128, 3.160000423044421], 0.5, 0.5, 0.002, 0.2, 100)

2025-07-07 16:12:06,255 - gym_custom_envs_real_ur_drivers_URBasic_realTimeClientEvent - INFO - Program send to Robot:
servoj([0.15953400194010658, -1.6106798272799232, -1.5600584612796968, -1.6106798272799232, 1.514039037643128, 3.160000423044421], 0.5, 0.5, 0.002, 0.2, 100)

2025-07-07 16:12:06,266 - gym_custom_envs_real_ur_drivers_URBasic_realTimeClientEvent - INFO - Program send to Robot:
servoj([0.15953400194010658, -1.6106798272799232, -1.5600584612796968, -1.6106798272799232, 1.514039037643128, 3.160000423044421], 0.5, 0.5, 0.002, 0.2, 100)

2025-07-07 16:12:06,269 - gym_custom_envs_real_ur_drivers_URBasic_rtdeEvent - INFO - Total packages: 1000
2025-07-07 16:12:06,271 - gym_custom_envs_real_ur_drivers_URBasic_realTimeClientEvent - INFO - Program send to Robot:
servoj([0.15953400194010658, -1.6106798272799232, -1.5600584612796968, -1.6106798272799232, 1.514039037643128, 3.160000423044421], 0.5, 0.5, 0.002, 0.2, 100)

2025-07-07 16:12:06,291 - gym_custom_envs_real_ur_drivers_URBasic_realTimeClientEvent - INFO - Program send to Robot:
servoj([0.15953400194010658, -1.6106798272799232, -1.5600584612796968, -1.6106798272799232, 1.514039037643128, 3.160000423044421], 0.5, 0.5, 0.002, 0.2, 100)

2025-07-07 16:12:06,294 - gym_custom_envs_real_ur_drivers_URBasic_realTimeClientEvent - INFO - Program send to Robot:
servoj([0.15953400194010658, -1.6106798272799232, -1.5600584612796968, -1.6106798272799232, 1.514039037643128, 3.160000423044421], 0.5, 0.5, 0.002, 0.2, 100)

2025-07-07 16:12:06,316 - gym_custom_envs_real_ur_drivers_URBasic_realTimeClientEvent - INFO - Program send to Robot:
servoj([0.15953400194010658, -1.6106798272799232, -1.5600584612796968, -1.6106798272799232, 1.514039037643128, 3.160000423044421], 0.5, 0.5, 0.002, 0.2, 100)

2025-07-07 16:12:06,318 - gym_custom_envs_real_ur_drivers_URBasic_realTimeClientEvent - INFO - Program send to Robot:
servoj([0.15953400194010658, -1.6106798272799232, -1.5600584612796968, -1.6106798272799232, 1.514039037643128, 3.160000423044421], 0.5, 0.5, 0.002, 0.2, 100)

2025-07-07 16:12:06,339 - gym_custom_envs_real_ur_drivers_URBasic_realTimeClientEvent - INFO - Program send to Robot:
servoj([0.15953400194010658, -1.6106798272799232, -1.5600584612796968, -1.6106798272799232, 1.514039037643128, 3.160000423044421], 0.5, 0.5, 0.002, 0.2, 100)

2025-07-07 16:12:06,342 - gym_custom_envs_real_ur_drivers_URBasic_realTimeClientEvent - INFO - Program send to Robot:
servoj([0.15953400194010658, -1.6106798272799232, -1.5600584612796968, -1.6106798272799232, 1.514039037643128, 3.160000423044421], 0.5, 0.5, 0.002, 0.2, 100)

2025-07-07 16:12:06,362 - gym_custom_envs_real_ur_drivers_URBasic_realTimeClientEvent - INFO - Program send to Robot:
servoj([0.15953400194010658, -1.6106798272799232, -1.5600584612796968, -1.6106798272799232, 1.514039037643128, 3.160000423044421], 0.5, 0.5, 0.002, 0.2, 100)

2025-07-07 16:12:06,370 - gym_custom_envs_real_ur_drivers_URBasic_realTimeClientEvent - INFO - Program send to Robot:
servoj([0.15953400194010658, -1.6106798272799232, -1.5600584612796968, -1.6106798272799232, 1.514039037643128, 3.160000423044421], 0.5, 0.5, 0.002, 0.2, 100)

2025-07-07 16:12:06,375 - gym_custom_envs_real_ur_drivers_URBasic_realTimeClientEvent - INFO - Program send to Robot:
servoj([0.15953400194010658, -1.6106798272799232, -1.5600584612796968, -1.6106798272799232, 1.514039037643128, 3.160000423044421], 0.5, 0.5, 0.002, 0.2, 100)

2025-07-07 16:12:06,390 - gym_custom_envs_real_ur_drivers_URBasic_realTimeClientEvent - INFO - Program send to Robot:
servoj([0.15953400194010658, -1.6106798272799232, -1.5600584612796968, -1.6106798272799232, 1.514039037643128, 3.160000423044421], 0.5, 0.5, 0.002, 0.2, 100)

2025-07-07 16:12:06,398 - gym_custom_envs_real_ur_drivers_URBasic_realTimeClientEvent - INFO - Program send to Robot:
servoj([0.15953400194010658, -1.6106798272799232, -1.5600584612796968, -1.6106798272799232, 1.514039037643128, 3.160000423044421], 0.5, 0.5, 0.002, 0.2, 100)

2025-07-07 16:12:06,410 - gym_custom_envs_real_ur_drivers_URBasic_realTimeClientEvent - INFO - Program send to Robot:
servoj([0.15953400194010658, -1.6106798272799232, -1.5600584612796968, -1.6106798272799232, 1.514039037643128, 3.160000423044421], 0.5, 0.5, 0.002, 0.2, 100)

2025-07-07 16:12:06,423 - gym_custom_envs_real_ur_drivers_URBasic_realTimeClientEvent - INFO - Program send to Robot:
servoj([0.15953400194010658, -1.6106798272799232, -1.5600584612796968, -1.6106798272799232, 1.514039037643128, 3.160000423044421], 0.5, 0.5, 0.002, 0.2, 100)

2025-07-07 16:12:06,435 - gym_custom_envs_real_ur_drivers_URBasic_realTimeClientEvent - INFO - Program send to Robot:
servoj([0.15953400194010658, -1.6106798272799232, -1.5600584612796968, -1.6106798272799232, 1.514039037643128, 3.160000423044421], 0.5, 0.5, 0.002, 0.2, 100)

2025-07-07 16:12:06,438 - gym_custom_envs_real_ur_drivers_URBasic_realTimeClientEvent - INFO - Program send to Robot:
servoj([0.15953400194010658, -1.6106798272799232, -1.5600584612796968, -1.6106798272799232, 1.514039037643128, 3.160000423044421], 0.5, 0.5, 0.002, 0.2, 100)

2025-07-07 16:12:06,458 - gym_custom_envs_real_ur_drivers_URBasic_realTimeClientEvent - INFO - Program send to Robot:
servoj([0.15953400194010658, -1.6106798272799232, -1.5600584612796968, -1.6106798272799232, 1.514039037643128, 3.160000423044421], 0.5, 0.5, 0.002, 0.2, 100)

2025-07-07 16:12:06,466 - gym_custom_envs_real_ur_drivers_URBasic_realTimeClientEvent - INFO - Program send to Robot:
servoj([0.15953400194010658, -1.6106798272799232, -1.5600584612796968, -1.6106798272799232, 1.514039037643128, 3.160000423044421], 0.5, 0.5, 0.002, 0.2, 100)

2025-07-07 16:12:06,472 - gym_custom_envs_real_ur_drivers_URBasic_realTimeClientEvent - INFO - Program send to Robot:
servoj([0.15953400194010658, -1.6106798272799232, -1.5600584612796968, -1.6106798272799232, 1.514039037643128, 3.160000423044421], 0.5, 0.5, 0.002, 0.2, 100)

2025-07-07 16:12:06,489 - gym_custom_envs_real_ur_drivers_URBasic_realTimeClientEvent - INFO - Program send to Robot:
servoj([0.15953400194010658, -1.6106798272799232, -1.5600584612796968, -1.6106798272799232, 1.514039037643128, 3.160000423044421], 0.5, 0.5, 0.002, 0.2, 100)

2025-07-07 16:12:06,494 - gym_custom_envs_real_ur_drivers_URBasic_realTimeClientEvent - INFO - Program send to Robot:
servoj([0.15953400194010658, -1.6106798272799232, -1.5600584612796968, -1.6106798272799232, 1.514039037643128, 3.160000423044421], 0.5, 0.5, 0.002, 0.2, 100)

2025-07-07 16:12:06,505 - gym_custom_envs_real_ur_drivers_URBasic_realTimeClientEvent - INFO - Program send to Robot:
servoj([0.15953400194010658, -1.6106798272799232, -1.5600584612796968, -1.6106798272799232, 1.514039037643128, 3.160000423044421], 0.5, 0.5, 0.002, 0.2, 100)

2025-07-07 16:12:06,519 - gym_custom_envs_real_ur_drivers_URBasic_realTimeClientEvent - INFO - Program send to Robot:
servoj([0.15953400194010658, -1.6106798272799232, -1.5600584612796968, -1.6106798272799232, 1.514039037643128, 3.160000423044421], 0.5, 0.5, 0.002, 0.2, 100)

2025-07-07 16:12:06,530 - gym_custom_envs_real_ur_drivers_URBasic_realTimeClientEvent - INFO - Program send to Robot:
servoj([0.15953400194010658, -1.6106798272799232, -1.5600584612796968, -1.6106798272799232, 1.514039037643128, 3.160000423044421], 0.5, 0.5, 0.002, 0.2, 100)

2025-07-07 16:12:06,534 - gym_custom_envs_real_ur_drivers_URBasic_realTimeClientEvent - INFO - Program send to Robot:
servoj([0.15953400194010658, -1.6106798272799232, -1.5600584612796968, -1.6106798272799232, 1.514039037643128, 3.160000423044421], 0.5, 0.5, 0.002, 0.2, 100)

2025-07-07 16:12:06,555 - gym_custom_envs_real_ur_drivers_URBasic_realTimeClientEvent - INFO - Program send to Robot:
servoj([0.15953400194010658, -1.6106798272799232, -1.5600584612796968, -1.6106798272799232, 1.514039037643128, 3.160000423044421], 0.5, 0.5, 0.002, 0.2, 100)

2025-07-07 16:12:06,558 - gym_custom_envs_real_ur_drivers_URBasic_realTimeClientEvent - INFO - Program send to Robot:
servoj([0.15953400194010658, -1.6106798272799232, -1.5600584612796968, -1.6106798272799232, 1.514039037643128, 3.160000423044421], 0.5, 0.5, 0.002, 0.2, 100)

2025-07-07 16:12:06,580 - gym_custom_envs_real_ur_drivers_URBasic_realTimeClientEvent - INFO - Program send to Robot:
servoj([0.15953400194010658, -1.6106798272799232, -1.5600584612796968, -1.6106798272799232, 1.514039037643128, 3.160000423044421], 0.5, 0.5, 0.002, 0.2, 100)

2025-07-07 16:12:06,582 - gym_custom_envs_real_ur_drivers_URBasic_realTimeClientEvent - INFO - Program send to Robot:
servoj([0.15953400194010658, -1.6106798272799232, -1.5600584612796968, -1.6106798272799232, 1.514039037643128, 3.160000423044421], 0.5, 0.5, 0.002, 0.2, 100)

2025-07-07 16:12:06,598 - gym_custom_envs_real_ur_drivers_URBasic_realTimeClientEvent - INFO - Program send to Robot:
servoj([0.15953400194010658, -1.6106798272799232, -1.5600584612796968, -1.6106798272799232, 1.514039037643128, 3.160000423044421], 0.5, 0.5, 0.002, 0.2, 100)

2025-07-07 16:12:06,606 - gym_custom_envs_real_ur_drivers_URBasic_realTimeClientEvent - INFO - Program send to Robot:
servoj([0.15953400194010658, -1.6106798272799232, -1.5600584612796968, -1.6106798272799232, 1.514039037643128, 3.160000423044421], 0.5, 0.5, 0.002, 0.2, 100)

2025-07-07 16:12:06,627 - gym_custom_envs_real_ur_drivers_URBasic_realTimeClientEvent - INFO - Program send to Robot:
servoj([0.15953400194010658, -1.6106798272799232, -1.5600584612796968, -1.6106798272799232, 1.514039037643128, 3.160000423044421], 0.5, 0.5, 0.002, 0.2, 100)

2025-07-07 16:12:06,631 - gym_custom_envs_real_ur_drivers_URBasic_realTimeClientEvent - INFO - Program send to Robot:
servoj([0.15953400194010658, -1.6106798272799232, -1.5600584612796968, -1.6106798272799232, 1.514039037643128, 3.160000423044421], 0.5, 0.5, 0.002, 0.2, 100)

2025-07-07 16:12:06,651 - gym_custom_envs_real_ur_drivers_URBasic_realTimeClientEvent - INFO - Program send to Robot:
servoj([0.15953400194010658, -1.6106798272799232, -1.5600584612796968, -1.6106798272799232, 1.514039037643128, 3.160000423044421], 0.5, 0.5, 0.002, 0.2, 100)

2025-07-07 16:12:06,655 - gym_custom_envs_real_ur_drivers_URBasic_realTimeClientEvent - INFO - Program send to Robot:
servoj([0.15953400194010658, -1.6106798272799232, -1.5600584612796968, -1.6106798272799232, 1.514039037643128, 3.160000423044421], 0.5, 0.5, 0.002, 0.2, 100)

2025-07-07 16:12:06,675 - gym_custom_envs_real_ur_drivers_URBasic_realTimeClientEvent - INFO - Program send to Robot:
servoj([0.15953400194010658, -1.6106798272799232, -1.5600584612796968, -1.6106798272799232, 1.514039037643128, 3.160000423044421], 0.5, 0.5, 0.002, 0.2, 100)

2025-07-07 16:12:06,678 - gym_custom_envs_real_ur_drivers_URBasic_realTimeClientEvent - INFO - Program send to Robot:
servoj([0.15953400194010658, -1.6106798272799232, -1.5600584612796968, -1.6106798272799232, 1.514039037643128, 3.160000423044421], 0.5, 0.5, 0.002, 0.2, 100)

2025-07-07 16:12:06,700 - gym_custom_envs_real_ur_drivers_URBasic_realTimeClientEvent - INFO - Program send to Robot:
servoj([0.15953400194010658, -1.6106798272799232, -1.5600584612796968, -1.6106798272799232, 1.514039037643128, 3.160000423044421], 0.5, 0.5, 0.002, 0.2, 100)

2025-07-07 16:12:06,703 - gym_custom_envs_real_ur_drivers_URBasic_realTimeClientEvent - INFO - Program send to Robot:
servoj([0.15953400194010658, -1.6106798272799232, -1.5600584612796968, -1.6106798272799232, 1.514039037643128, 3.160000423044421], 0.5, 0.5, 0.002, 0.2, 100)

2025-07-07 16:12:06,723 - gym_custom_envs_real_ur_drivers_URBasic_realTimeClientEvent - INFO - Program send to Robot:
servoj([0.15953400194010658, -1.6106798272799232, -1.5600584612796968, -1.6106798272799232, 1.514039037643128, 3.160000423044421], 0.5, 0.5, 0.002, 0.2, 100)

2025-07-07 16:12:06,726 - gym_custom_envs_real_ur_drivers_URBasic_realTimeClientEvent - INFO - Program send to Robot:
servoj([0.15953400194010658, -1.6106798272799232, -1.5600584612796968, -1.6106798272799232, 1.514039037643128, 3.160000423044421], 0.5, 0.5, 0.002, 0.2, 100)

2025-07-07 16:12:06,746 - gym_custom_envs_real_ur_drivers_URBasic_realTimeClientEvent - INFO - Program send to Robot:
servoj([0.15953400194010658, -1.6106798272799232, -1.5600584612796968, -1.6106798272799232, 1.514039037643128, 3.160000423044421], 0.5, 0.5, 0.002, 0.2, 100)

2025-07-07 16:12:06,751 - gym_custom_envs_real_ur_drivers_URBasic_realTimeClientEvent - INFO - Program send to Robot:
servoj([0.15953400194010658, -1.6106798272799232, -1.5600584612796968, -1.6106798272799232, 1.514039037643128, 3.160000423044421], 0.5, 0.5, 0.002, 0.2, 100)

2025-07-07 16:12:06,759 - gym_custom_envs_real_ur_drivers_URBasic_realTimeClientEvent - INFO - Program send to Robot:
servoj([0.15953400194010658, -1.6106798272799232, -1.5600584612796968, -1.6106798272799232, 1.514039037643128, 3.160000423044421], 0.5, 0.5, 0.002, 0.2, 100)

2025-07-07 16:12:06,774 - gym_custom_envs_real_ur_drivers_URBasic_realTimeClientEvent - INFO - Program send to Robot:
servoj([0.15953400194010658, -1.6106798272799232, -1.5600584612796968, -1.6106798272799232, 1.514039037643128, 3.160000423044421], 0.5, 0.5, 0.002, 0.2, 100)

2025-07-07 16:12:06,782 - gym_custom_envs_real_ur_drivers_URBasic_realTimeClientEvent - INFO - Program send to Robot:
servoj([0.15953400194010658, -1.6106798272799232, -1.5600584612796968, -1.6106798272799232, 1.514039037643128, 3.160000423044421], 0.5, 0.5, 0.002, 0.2, 100)

2025-07-07 16:12:06,794 - gym_custom_envs_real_ur_drivers_URBasic_realTimeClientEvent - INFO - Program send to Robot:
servoj([0.15953400194010658, -1.6106798272799232, -1.5600584612796968, -1.6106798272799232, 1.514039037643128, 3.160000423044421], 0.5, 0.5, 0.002, 0.2, 100)

2025-07-07 16:12:06,807 - gym_custom_envs_real_ur_drivers_URBasic_realTimeClientEvent - INFO - Program send to Robot:
servoj([0.15953400194010658, -1.6106798272799232, -1.5600584612796968, -1.6106798272799232, 1.514039037643128, 3.160000423044421], 0.5, 0.5, 0.002, 0.2, 100)

2025-07-07 16:12:06,818 - gym_custom_envs_real_ur_drivers_URBasic_realTimeClientEvent - INFO - Program send to Robot:
servoj([0.15953400194010658, -1.6106798272799232, -1.5600584612796968, -1.6106798272799232, 1.514039037643128, 3.160000423044421], 0.5, 0.5, 0.002, 0.2, 100)

2025-07-07 16:12:06,827 - gym_custom_envs_real_ur_drivers_URBasic_realTimeClientEvent - INFO - Program send to Robot:
servoj([0.15953400194010658, -1.6106798272799232, -1.5600584612796968, -1.6106798272799232, 1.514039037643128, 3.160000423044421], 0.5, 0.5, 0.002, 0.2, 100)

2025-07-07 16:12:06,831 - gym_custom_envs_real_ur_drivers_URBasic_realTimeClientEvent - INFO - Program send to Robot:
servoj([0.15953400194010658, -1.6106798272799232, -1.5600584612796968, -1.6106798272799232, 1.514039037643128, 3.160000423044421], 0.5, 0.5, 0.002, 0.2, 100)

2025-07-07 16:12:06,846 - gym_custom_envs_real_ur_drivers_URBasic_realTimeClientEvent - INFO - Program send to Robot:
servoj([0.15953400194010658, -1.6106798272799232, -1.5600584612796968, -1.6106798272799232, 1.514039037643128, 3.160000423044421], 0.5, 0.5, 0.002, 0.2, 100)

2025-07-07 16:12:06,854 - gym_custom_envs_real_ur_drivers_URBasic_realTimeClientEvent - INFO - Program send to Robot:
servoj([0.15953400194010658, -1.6106798272799232, -1.5600584612796968, -1.6106798272799232, 1.514039037643128, 3.160000423044421], 0.5, 0.5, 0.002, 0.2, 100)

2025-07-07 16:12:06,866 - gym_custom_envs_real_ur_drivers_URBasic_realTimeClientEvent - INFO - Program send to Robot:
servoj([0.15953400194010658, -1.6106798272799232, -1.5600584612796968, -1.6106798272799232, 1.514039037643128, 3.160000423044421], 0.5, 0.5, 0.002, 0.2, 100)

2025-07-07 16:12:06,879 - gym_custom_envs_real_ur_drivers_URBasic_realTimeClientEvent - INFO - Program send to Robot:
servoj([0.15953400194010658, -1.6106798272799232, -1.5600584612796968, -1.6106798272799232, 1.514039037643128, 3.160000423044421], 0.5, 0.5, 0.002, 0.2, 100)

2025-07-07 16:12:06,889 - gym_custom_envs_real_ur_drivers_URBasic_realTimeClientEvent - INFO - Program send to Robot:
servoj([0.15953400194010658, -1.6106798272799232, -1.5600584612796968, -1.6106798272799232, 1.514039037643128, 3.160000423044421], 0.5, 0.5, 0.002, 0.2, 100)

2025-07-07 16:12:06,897 - gym_custom_envs_real_ur_drivers_URBasic_realTimeClientEvent - INFO - Program send to Robot:
servoj([0.15953400194010658, -1.6106798272799232, -1.5600584612796968, -1.6106798272799232, 1.514039037643128, 3.160000423044421], 0.5, 0.5, 0.002, 0.2, 100)

2025-07-07 16:12:06,903 - gym_custom_envs_real_ur_drivers_URBasic_realTimeClientEvent - INFO - Program send to Robot:
servoj([0.15953400194010658, -1.6106798272799232, -1.5600584612796968, -1.6106798272799232, 1.514039037643128, 3.160000423044421], 0.5, 0.5, 0.002, 0.2, 100)

2025-07-07 16:12:06,921 - gym_custom_envs_real_ur_drivers_URBasic_realTimeClientEvent - INFO - Program send to Robot:
servoj([0.15953400194010658, -1.6106798272799232, -1.5600584612796968, -1.6106798272799232, 1.514039037643128, 3.160000423044421], 0.5, 0.5, 0.002, 0.2, 100)

2025-07-07 16:12:06,926 - gym_custom_envs_real_ur_drivers_URBasic_realTimeClientEvent - INFO - Program send to Robot:
servoj([0.15953400194010658, -1.6106798272799232, -1.5600584612796968, -1.6106798272799232, 1.514039037643128, 3.160000423044421], 0.5, 0.5, 0.002, 0.2, 100)

2025-07-07 16:12:06,937 - gym_custom_envs_real_ur_drivers_URBasic_realTimeClientEvent - INFO - Program send to Robot:
servoj([0.15953400194010658, -1.6106798272799232, -1.5600584612796968, -1.6106798272799232, 1.514039037643128, 3.160000423044421], 0.5, 0.5, 0.002, 0.2, 100)

2025-07-07 16:12:06,951 - gym_custom_envs_real_ur_drivers_URBasic_realTimeClientEvent - INFO - Program send to Robot:
servoj([0.15953400194010658, -1.6106798272799232, -1.5600584612796968, -1.6106798272799232, 1.514039037643128, 3.160000423044421], 0.5, 0.5, 0.002, 0.2, 100)

2025-07-07 16:12:06,962 - gym_custom_envs_real_ur_drivers_URBasic_realTimeClientEvent - INFO - Program send to Robot:
servoj([0.15953400194010658, -1.6106798272799232, -1.5600584612796968, -1.6106798272799232, 1.514039037643128, 3.160000423044421], 0.5, 0.5, 0.002, 0.2, 100)

2025-07-07 16:12:06,967 - gym_custom_envs_real_ur_drivers_URBasic_realTimeClientEvent - INFO - Program send to Robot:
servoj([0.15953400194010658, -1.6106798272799232, -1.5600584612796968, -1.6106798272799232, 1.514039037643128, 3.160000423044421], 0.5, 0.5, 0.002, 0.2, 100)

2025-07-07 16:12:06,975 - gym_custom_envs_real_ur_drivers_URBasic_realTimeClientEvent - INFO - Program send to Robot:
servoj([0.15953400194010658, -1.6106798272799232, -1.5600584612796968, -1.6106798272799232, 1.514039037643128, 3.160000423044421], 0.5, 0.5, 0.002, 0.2, 100)

2025-07-07 16:12:06,990 - gym_custom_envs_real_ur_drivers_URBasic_realTimeClientEvent - INFO - Program send to Robot:
servoj([0.15953400194010658, -1.6106798272799232, -1.5600584612796968, -1.6106798272799232, 1.514039037643128, 3.160000423044421], 0.5, 0.5, 0.002, 0.2, 100)

2025-07-07 16:12:06,998 - gym_custom_envs_real_ur_drivers_URBasic_realTimeClientEvent - INFO - Program send to Robot:
servoj([0.15953400194010658, -1.6106798272799232, -1.5600584612796968, -1.6106798272799232, 1.514039037643128, 3.160000423044421], 0.5, 0.5, 0.002, 0.2, 100)

2025-07-07 16:12:07,010 - gym_custom_envs_real_ur_drivers_URBasic_realTimeClientEvent - INFO - Program send to Robot:
servoj([0.15953400194010658, -1.6106798272799232, -1.5600584612796968, -1.6106798272799232, 1.514039037643128, 3.160000423044421], 0.5, 0.5, 0.002, 0.2, 100)

2025-07-07 16:12:07,022 - gym_custom_envs_real_ur_drivers_URBasic_realTimeClientEvent - INFO - Program send to Robot:
servoj([0.15953400194010658, -1.6106798272799232, -1.5600584612796968, -1.6106798272799232, 1.514039037643128, 3.160000423044421], 0.5, 0.5, 0.002, 0.2, 100)

2025-07-07 16:12:07,033 - gym_custom_envs_real_ur_drivers_URBasic_realTimeClientEvent - INFO - Program send to Robot:
servoj([0.15953400194010658, -1.6106798272799232, -1.5600584612796968, -1.6106798272799232, 1.514039037643128, 3.160000423044421], 0.5, 0.5, 0.002, 0.2, 100)

2025-07-07 16:12:07,041 - gym_custom_envs_real_ur_drivers_URBasic_realTimeClientEvent - INFO - Program send to Robot:
servoj([0.15953400194010658, -1.6106798272799232, -1.5600584612796968, -1.6106798272799232, 1.514039037643128, 3.160000423044421], 0.5, 0.5, 0.002, 0.2, 100)

2025-07-07 16:12:07,047 - gym_custom_envs_real_ur_drivers_URBasic_realTimeClientEvent - INFO - Program send to Robot:
servoj([0.15953400194010658, -1.6106798272799232, -1.5600584612796968, -1.6106798272799232, 1.514039037643128, 3.160000423044421], 0.5, 0.5, 0.002, 0.2, 100)

2025-07-07 16:12:07,065 - gym_custom_envs_real_ur_drivers_URBasic_realTimeClientEvent - INFO - Program send to Robot:
servoj([0.15953400194010658, -1.6106798272799232, -1.5600584612796968, -1.6106798272799232, 1.514039037643128, 3.160000423044421], 0.5, 0.5, 0.002, 0.2, 100)

2025-07-07 16:12:07,071 - gym_custom_envs_real_ur_drivers_URBasic_realTimeClientEvent - INFO - Program send to Robot:
servoj([0.15953400194010658, -1.6106798272799232, -1.5600584612796968, -1.6106798272799232, 1.514039037643128, 3.160000423044421], 0.5, 0.5, 0.002, 0.2, 100)

2025-07-07 16:12:07,081 - gym_custom_envs_real_ur_drivers_URBasic_realTimeClientEvent - INFO - Program send to Robot:
servoj([0.15953400194010658, -1.6106798272799232, -1.5600584612796968, -1.6106798272799232, 1.514039037643128, 3.160000423044421], 0.5, 0.5, 0.002, 0.2, 100)

2025-07-07 16:12:07,094 - gym_custom_envs_real_ur_drivers_URBasic_realTimeClientEvent - INFO - Program send to Robot:
servoj([0.15953400194010658, -1.6106798272799232, -1.5600584612796968, -1.6106798272799232, 1.514039037643128, 3.160000423044421], 0.5, 0.5, 0.002, 0.2, 100)

2025-07-07 16:12:07,106 - gym_custom_envs_real_ur_drivers_URBasic_realTimeClientEvent - INFO - Program send to Robot:
servoj([0.15953400194010658, -1.6106798272799232, -1.5600584612796968, -1.6106798272799232, 1.512520396663121, 3.160000423044421], 0.5, 0.5, 0.002, 0.2, 100)

2025-07-07 16:12:07,111 - gym_custom_envs_real_ur_drivers_URBasic_realTimeClientEvent - INFO - Program send to Robot:
servoj([0.15953400194010658, -1.6106798272799232, -1.5600584612796968, -1.6106798272799232, 1.512505210253321, 3.160000423044421], 0.5, 0.5, 0.002, 0.2, 100)

2025-07-07 16:12:07,119 - gym_custom_envs_real_ur_drivers_URBasic_realTimeClientEvent - INFO - Program send to Robot:
servoj([0.15953400194010658, -1.6106798272799232, -1.5600584612796968, -1.6106798272799232, 1.512505058389223, 3.160000423044421], 0.5, 0.5, 0.002, 0.2, 100)

2025-07-07 16:12:07,137 - gym_custom_envs_real_ur_drivers_URBasic_realTimeClientEvent - INFO - Program send to Robot:
servoj([0.15953400194010658, -1.6106798272799232, -1.5600584612796968, -1.6091611862999164, 1.512505056870582, 3.160000423044421], 0.5, 0.5, 0.002, 0.2, 100)

2025-07-07 16:12:07,143 - gym_custom_envs_real_ur_drivers_URBasic_realTimeClientEvent - INFO - Program send to Robot:
servoj([0.15953400194010658, -1.6106798272799232, -1.5600584612796968, -1.6091459998901165, 1.5125050568553955, 3.160000423044421], 0.5, 0.5, 0.002, 0.2, 100)

2025-07-07 16:12:07,152 - gym_custom_envs_real_ur_drivers_URBasic_realTimeClientEvent - INFO - Program send to Robot:
servoj([0.15953400194010658, -1.6106798272799232, -1.5600584612796968, -1.6091458480260186, 1.5125050568552438, 3.160000423044421], 0.5, 0.5, 0.002, 0.2, 100)

2025-07-07 16:12:07,166 - gym_custom_envs_real_ur_drivers_URBasic_realTimeClientEvent - INFO - Program send to Robot:
servoj([0.15953400194010658, -1.6106798272799232, -1.5600584612796968, -1.6091458465073776, 1.5109864158752353, 3.160000423044421], 0.5, 0.5, 0.002, 0.2, 100)

2025-07-07 16:12:07,176 - gym_custom_envs_real_ur_drivers_URBasic_realTimeClientEvent - INFO - Program send to Robot:
servoj([0.15953400194010658, -1.6106798272799232, -1.5600584612796968, -1.609145846492191, 1.5109712294654352, 3.160000423044421], 0.5, 0.5, 0.002, 0.2, 100)

2025-07-07 16:12:07,184 - gym_custom_envs_real_ur_drivers_URBasic_realTimeClientEvent - INFO - Program send to Robot:
servoj([0.15953400194010658, -1.6106798272799232, -1.5600584612796968, -1.6091458464920392, 1.5109710776013372, 3.160000423044421], 0.5, 0.5, 0.002, 0.2, 100)

2025-07-07 16:12:07,190 - gym_custom_envs_real_ur_drivers_URBasic_realTimeClientEvent - INFO - Program send to Robot:
servoj([0.15953400194010658, -1.6106798272799232, -1.5600584612796968, -1.6091458464920376, 1.5109710760826962, 3.160000423044421], 0.5, 0.5, 0.002, 0.2, 100)

2025-07-07 16:12:07,209 - gym_custom_envs_real_ur_drivers_URBasic_realTimeClientEvent - INFO - Program send to Robot:
servoj([0.15953400194010658, -1.6106798272799232, -1.5600584612796968, -1.6091458464920376, 1.5109710760675097, 3.160000423044421], 0.5, 0.5, 0.002, 0.2, 100)

2025-07-07 16:12:07,214 - gym_custom_envs_real_ur_drivers_URBasic_realTimeClientEvent - INFO - Program send to Robot:
servoj([0.15953400194010658, -1.6106798272799232, -1.5600584612796968, -1.6091458464920376, 1.5109710760673578, 3.160000423044421], 0.5, 0.5, 0.002, 0.2, 100)

2025-07-07 16:12:07,225 - gym_custom_envs_real_ur_drivers_URBasic_realTimeClientEvent - INFO - Program send to Robot:
servoj([0.15953400194010658, -1.6106798272799232, -1.5600584612796968, -1.6091458464920376, 1.5109710760673565, 3.160000423044421], 0.5, 0.5, 0.002, 0.2, 100)

2025-07-07 16:12:07,239 - gym_custom_envs_real_ur_drivers_URBasic_realTimeClientEvent - INFO - Program send to Robot:
servoj([0.15953400194010658, -1.6106798272799232, -1.5600584612796968, -1.6091458464920376, 1.5109710760673565, 3.160000423044421], 0.5, 0.5, 0.002, 0.2, 100)

2025-07-07 16:12:07,251 - gym_custom_envs_real_ur_drivers_URBasic_realTimeClientEvent - INFO - Program send to Robot:
servoj([0.15953400194010658, -1.6106798272799232, -1.5600584612796968, -1.6091458464920376, 1.5109710760673565, 3.160000423044421], 0.5, 0.5, 0.002, 0.2, 100)

2025-07-07 16:12:07,254 - gym_custom_envs_real_ur_drivers_URBasic_realTimeClientEvent - INFO - Program send to Robot:
servoj([0.15953400194010658, -1.6106798272799232, -1.5600584612796968, -1.6091458464920376, 1.5109710760673565, 3.160000423044421], 0.5, 0.5, 0.002, 0.2, 100)

2025-07-07 16:12:07,275 - gym_custom_envs_real_ur_drivers_URBasic_realTimeClientEvent - INFO - Program send to Robot:
servoj([0.15953400194010658, -1.6106798272799232, -1.5600584612796968, -1.6091458464920376, 1.5094524350873497, 3.160000423044421], 0.5, 0.5, 0.002, 0.2, 100)

2025-07-07 16:12:07,278 - gym_custom_envs_real_ur_drivers_URBasic_realTimeClientEvent - INFO - Program send to Robot:
servoj([0.15953400194010658, -1.6106798272799232, -1.5600584612796968, -1.6091458464920376, 1.5094372486775496, 3.160000423044421], 0.5, 0.5, 0.002, 0.2, 100)

2025-07-07 16:12:07,300 - gym_custom_envs_real_ur_drivers_URBasic_realTimeClientEvent - INFO - Program send to Robot:
servoj([0.15953400194010658, -1.6106798272799232, -1.5600584612796968, -1.6091458464920376, 1.5094370968134516, 3.160000423044421], 0.5, 0.5, 0.002, 0.2, 100)

2025-07-07 16:12:07,303 - gym_custom_envs_real_ur_drivers_URBasic_realTimeClientEvent - INFO - Program send to Robot:
servoj([0.15953400194010658, -1.6106798272799232, -1.5600584612796968, -1.6091458464920376, 1.5094370952948106, 3.160000423044421], 0.5, 0.5, 0.002, 0.2, 100)

2025-07-07 16:12:07,324 - gym_custom_envs_real_ur_drivers_URBasic_realTimeClientEvent - INFO - Program send to Robot:
servoj([0.15953400194010658, -1.6106798272799232, -1.5600584612796968, -1.6091458464920376, 1.509437095279624, 3.160000423044421], 0.5, 0.5, 0.002, 0.2, 100)

2025-07-07 16:12:07,327 - gym_custom_envs_real_ur_drivers_URBasic_realTimeClientEvent - INFO - Program send to Robot:
servoj([0.15953400194010658, -1.6106798272799232, -1.5600584612796968, -1.6091458464920376, 1.5094370952794722, 3.160000423044421], 0.5, 0.5, 0.002, 0.2, 100)

2025-07-07 16:12:07,342 - gym_custom_envs_real_ur_drivers_URBasic_realTimeClientEvent - INFO - Program send to Robot:
servoj([0.15953400194010658, -1.6106798272799232, -1.5600584612796968, -1.6091458464920376, 1.5094370952794707, 3.160000423044421], 0.5, 0.5, 0.002, 0.2, 100)

2025-07-07 16:12:07,350 - gym_custom_envs_real_ur_drivers_URBasic_realTimeClientEvent - INFO - Program send to Robot:
servoj([0.15953400194010658, -1.6106798272799232, -1.5600584612796968, -1.6091458464920376, 1.5094370952794707, 3.160000423044421], 0.5, 0.5, 0.002, 0.2, 100)

2025-07-07 16:12:07,366 - gym_custom_envs_real_ur_drivers_URBasic_realTimeClientEvent - INFO - Program send to Robot:
servoj([0.15953400194010658, -1.6106798272799232, -1.5600584612796968, -1.6076272055120309, 1.5079184542994637, 3.160000423044421], 0.5, 0.5, 0.002, 0.2, 100)

2025-07-07 16:12:07,382 - gym_custom_envs_real_ur_drivers_URBasic_realTimeClientEvent - INFO - Program send to Robot:
servoj([0.15953400194010658, -1.6106798272799232, -1.5600584612796968, -1.607612019102231, 1.5079032678896638, 3.160000423044421], 0.5, 0.5, 0.002, 0.2, 100)

2025-07-07 16:12:07,390 - gym_custom_envs_real_ur_drivers_URBasic_realTimeClientEvent - INFO - Program send to Robot:
servoj([0.15953400194010658, -1.6106798272799232, -1.5600584612796968, -1.6076118672381328, 1.5063844750455595, 3.160000423044421], 0.5, 0.5, 0.002, 0.2, 100)

2025-07-07 16:12:07,398 - gym_custom_envs_real_ur_drivers_URBasic_realTimeClientEvent - INFO - Program send to Robot:
servoj([0.15953400194010658, -1.6106798272799232, -1.5600584612796968, -1.6076118657194918, 1.5063692871171186, 3.160000423044421], 0.5, 0.5, 0.002, 0.2, 100)

2025-07-07 16:12:07,406 - gym_custom_envs_real_ur_drivers_URBasic_realTimeClientEvent - INFO - Program send to Robot:
servoj([0.15953400194010658, -1.6106798272799232, -1.5600584612796968, -1.6076118657043055, 1.5063691352378341, 3.160000423044421], 0.5, 0.5, 0.002, 0.2, 100)

2025-07-07 16:12:07,423 - gym_custom_envs_real_ur_drivers_URBasic_realTimeClientEvent - INFO - Program send to Robot:
servoj([0.15953400194010658, -1.6106798272799232, -1.5600584612796968, -1.6076118657041536, 1.5063691337190412, 3.160000423044421], 0.5, 0.5, 0.002, 0.2, 100)

2025-07-07 16:12:07,431 - gym_custom_envs_real_ur_drivers_URBasic_realTimeClientEvent - INFO - Program send to Robot:
servoj([0.15953400194010658, -1.6106798272799232, -1.5600584612796968, -1.607611865704152, 1.5063691337038534, 3.160000423044421], 0.5, 0.5, 0.002, 0.2, 100)

2025-07-07 16:12:07,438 - gym_custom_envs_real_ur_drivers_URBasic_realTimeClientEvent - INFO - Program send to Robot:
servoj([0.15953400194010658, -1.6106798272799232, -1.5600584612796968, -1.607611865704152, 1.5063691337037015, 3.160000423044421], 0.5, 0.5, 0.002, 0.2, 100)

2025-07-07 16:12:07,455 - gym_custom_envs_real_ur_drivers_URBasic_realTimeClientEvent - INFO - Program send to Robot:
servoj([0.15953400194010658, -1.6106798272799232, -1.5600584612796968, -1.607611865704152, 1.5063691337037, 3.160000423044421], 0.5, 0.5, 0.002, 0.2, 100)

2025-07-07 16:12:07,463 - gym_custom_envs_real_ur_drivers_URBasic_realTimeClientEvent - INFO - Program send to Robot:
servoj([0.15953400194010658, -1.6106798272799232, -1.5600584612796968, -1.607611865704152, 1.5063691337037, 3.160000423044421], 0.5, 0.5, 0.002, 0.2, 100)

2025-07-07 16:12:07,480 - gym_custom_envs_real_ur_drivers_URBasic_realTimeClientEvent - INFO - Program send to Robot:
servoj([0.15953400194010658, -1.6106798272799232, -1.5600584612796968, -1.607611865704152, 1.5063691337037, 3.160000423044421], 0.5, 0.5, 0.002, 0.2, 100)

2025-07-07 16:12:07,487 - gym_custom_envs_real_ur_drivers_URBasic_realTimeClientEvent - INFO - Program send to Robot:
servoj([0.15953400194010658, -1.6106798272799232, -1.5600584612796968, -1.606093224724145, 1.5063691337037, 3.160000423044421], 0.5, 0.5, 0.002, 0.2, 100)

2025-07-07 16:12:07,495 - gym_custom_envs_real_ur_drivers_URBasic_realTimeClientEvent - INFO - Program send to Robot:
servoj([0.15953400194010658, -1.6106798272799232, -1.5600584612796968, -1.606078038314345, 1.5063691337037, 3.160000423044421], 0.5, 0.5, 0.002, 0.2, 100)

2025-07-07 16:12:07,511 - gym_custom_envs_real_ur_drivers_URBasic_realTimeClientEvent - INFO - Program send to Robot:
servoj([0.15953400194010658, -1.6106798272799232, -1.5600584612796968, -1.606077886450247, 1.5063691337037, 3.160000423044421], 0.5, 0.5, 0.002, 0.2, 100)

2025-07-07 16:12:07,519 - gym_custom_envs_real_ur_drivers_URBasic_realTimeClientEvent - INFO - Program send to Robot:
servoj([0.15953400194010658, -1.6106798272799232, -1.5600584612796968, -1.606077884931606, 1.5063691337037, 3.160000423044421], 0.5, 0.5, 0.002, 0.2, 100)

2025-07-07 16:12:07,527 - gym_custom_envs_real_ur_drivers_URBasic_realTimeClientEvent - INFO - Program send to Robot:
servoj([0.15953400194010658, -1.6106798272799232, -1.5600584612796968, -1.6060778849164197, 1.5063691337037, 3.160000423044421], 0.5, 0.5, 0.002, 0.2, 100)

2025-07-07 16:12:07,534 - gym_custom_envs_real_ur_drivers_URBasic_realTimeClientEvent - INFO - Program send to Robot:
servoj([0.15953400194010658, -1.6106798272799232, -1.5600584612796968, -1.6060778849162678, 1.5063691337037, 3.160000423044421], 0.5, 0.5, 0.002, 0.2, 100)

2025-07-07 16:12:07,551 - gym_custom_envs_real_ur_drivers_URBasic_realTimeClientEvent - INFO - Program send to Robot:
servoj([0.15953400194010658, -1.6106798272799232, -1.5600584612796968, -1.6045592439362595, 1.5063691337037, 3.160000423044421], 0.5, 0.5, 0.002, 0.2, 100)

2025-07-07 16:12:07,559 - gym_custom_envs_real_ur_drivers_URBasic_realTimeClientEvent - INFO - Program send to Robot:
servoj([0.15953400194010658, -1.6106798272799232, -1.5600584612796968, -1.6045440575264593, 1.5063691337037, 3.160000423044421], 0.5, 0.5, 0.002, 0.2, 100)

2025-07-07 16:12:07,575 - gym_custom_envs_real_ur_drivers_URBasic_realTimeClientEvent - INFO - Program send to Robot:
servoj([0.15953400194010658, -1.6106798272799232, -1.5600584612796968, -1.6045439056623614, 1.5063691337037, 3.160000423044421], 0.5, 0.5, 0.002, 0.2, 100)

2025-07-07 16:12:07,583 - gym_custom_envs_real_ur_drivers_URBasic_realTimeClientEvent - INFO - Program send to Robot:
servoj([0.15953400194010658, -1.6106798272799232, -1.5600584612796968, -1.6045439041437204, 1.504850492723693, 3.1615190640244277], 0.5, 0.5, 0.002, 0.2, 100)

2025-07-07 16:12:07,599 - gym_custom_envs_real_ur_drivers_URBasic_realTimeClientEvent - INFO - Program send to Robot:
servoj([0.15953400194010658, -1.6106798272799232, -1.5600584612796968, -1.604543904128534, 1.5048353063138928, 3.161534250434228], 0.5, 0.5, 0.002, 0.2, 100)

2025-07-07 16:12:07,607 - gym_custom_envs_real_ur_drivers_URBasic_realTimeClientEvent - INFO - Program send to Robot:
servoj([0.15953400194010658, -1.6106798272799232, -1.5600584612796968, -1.6045439041283822, 1.5048351544497949, 3.161534402298326], 0.5, 0.5, 0.002, 0.2, 100)

2025-07-07 16:12:07,615 - gym_custom_envs_real_ur_drivers_URBasic_realTimeClientEvent - INFO - Program send to Robot:
servoj([0.15953400194010658, -1.6106798272799232, -1.5600584612796968, -1.603025263148374, 1.5048351529311539, 3.1600157628369603], 0.5, 0.5, 0.002, 0.2, 100)

2025-07-07 16:12:07,624 - gym_custom_envs_real_ur_drivers_URBasic_realTimeClientEvent - INFO - Program send to Robot:
servoj([0.15953400194010658, -1.6106798272799232, -1.5600584612796968, -1.6030100767385738, 1.5048351529159676, 3.1600005764423464], 0.5, 0.5, 0.002, 0.2, 100)

2025-07-07 16:12:07,639 - gym_custom_envs_real_ur_drivers_URBasic_realTimeClientEvent - INFO - Program send to Robot:
servoj([0.15953400194010658, -1.6106798272799232, -1.5600584612796968, -1.6030099248744758, 1.5048351529158157, 3.1600004245784006], 0.5, 0.5, 0.002, 0.2, 100)

2025-07-07 16:12:07,647 - gym_custom_envs_real_ur_drivers_URBasic_realTimeClientEvent - INFO - Program send to Robot:
servoj([0.15953400194010658, -1.6106798272799232, -1.5600584612796968, -1.6014912823758278, 1.5048351529158142, 3.161519064039768], 0.5, 0.5, 0.002, 0.2, 100)

2025-07-07 16:12:07,654 - gym_custom_envs_real_ur_drivers_URBasic_realTimeClientEvent - INFO - Program send to Robot:
servoj([0.15953400194010658, -1.6106798272799232, -1.5600584612796968, -1.6014760959508414, 1.5048351529158142, 3.1615342504343813], 0.5, 0.5, 0.002, 0.2, 100)

2025-07-07 16:12:07,670 - gym_custom_envs_real_ur_drivers_URBasic_realTimeClientEvent - INFO - Program send to Robot:
servoj([0.15953400194010658, -1.6106798272799232, -1.5600584612796968, -1.6014759440865916, 1.5048351529158142, 3.1615344022983276], 0.5, 0.5, 0.002, 0.2, 100)

2025-07-07 16:12:07,679 - gym_custom_envs_real_ur_drivers_URBasic_realTimeClientEvent - INFO - Program send to Robot:
servoj([0.15953400194010658, -1.6106798272799232, -1.5600584612796968, -1.5984386606079357, 1.5048351529158142, 3.1600157628369603], 0.5, 0.5, 0.002, 0.2, 100)

2025-07-07 16:12:07,695 - gym_custom_envs_real_ur_drivers_URBasic_realTimeClientEvent - INFO - Program send to Robot:
servoj([0.15953400194010658, -1.6106798272799232, -1.5600584612796968, -1.5984082877731491, 1.5048351529158142, 3.1600005764423464], 0.5, 0.5, 0.002, 0.2, 100)

2025-07-07 16:12:07,703 - gym_custom_envs_real_ur_drivers_URBasic_realTimeClientEvent - INFO - Program send to Robot:
servoj([0.15953400194010658, -1.6106798272799232, -1.5600584612796968, -1.5984079840448013, 1.5048351529158142, 3.1600004245784006], 0.5, 0.5, 0.002, 0.2, 100)

2025-07-07 16:12:07,719 - gym_custom_envs_real_ur_drivers_URBasic_realTimeClientEvent - INFO - Program send to Robot:
servoj([0.15953400194010658, -1.6106798272799232, -1.5600584612796968, -1.5923334170874905, 1.5048351529158142, 3.161519064039768], 0.5, 0.5, 0.002, 0.2, 100)

2025-07-07 16:12:07,727 - gym_custom_envs_real_ur_drivers_URBasic_realTimeClientEvent - INFO - Program send to Robot:
servoj([0.15953400194010658, -1.6106798272799232, -1.5600584612796968, -1.5922726714179174, 1.5048351529158142, 3.1615342504343813], 0.5, 0.5, 0.002, 0.2, 100)

2025-07-07 16:12:07,735 - gym_custom_envs_real_ur_drivers_URBasic_realTimeClientEvent - INFO - Program send to Robot:
servoj([0.15953400194010658, -1.6106798272799232, -1.5600584612796968, -1.5922720639612218, 1.5048351529158142, 3.1615344022983276], 0.5, 0.5, 0.002, 0.2, 100)

2025-07-07 16:12:07,744 - gym_custom_envs_real_ur_drivers_URBasic_realTimeClientEvent - INFO - Program send to Robot:
servoj([0.15953400194010658, -1.6106798272799232, -1.5600584612796968, -1.583160212006614, 1.5033165119358072, 3.161534403816967], 0.5, 0.5, 0.002, 0.2, 100)

2025-07-07 16:12:07,760 - gym_custom_envs_real_ur_drivers_URBasic_realTimeClientEvent - INFO - Program send to Robot:
servoj([0.15953400194010658, -1.6106798272799232, -1.5600584612796968, -1.583069093487068, 1.503301325526007, 3.1615344038321536], 0.5, 0.5, 0.002, 0.2, 100)

2025-07-07 16:12:07,768 - gym_custom_envs_real_ur_drivers_URBasic_realTimeClientEvent - INFO - Program send to Robot:
servoj([0.15953400194010658, -1.6106798272799232, -1.5600584612796968, -1.5830681823018724, 1.503301173661909, 3.1615344038323054], 0.5, 0.5, 0.002, 0.2, 100)

2025-07-07 16:12:07,774 - gym_custom_envs_real_ur_drivers_URBasic_realTimeClientEvent - INFO - Program send to Robot:
servoj([0.15953400194010658, -1.6106798272799232, -1.5600584612796968, -1.572437686329973, 1.5002638901832543, 3.1615344038323068], 0.5, 0.5, 0.002, 0.2, 100)

2025-07-07 16:12:07,791 - gym_custom_envs_real_ur_drivers_URBasic_realTimeClientEvent - INFO - Program send to Robot:
servoj([0.15953400194010658, -1.6106798272799232, -1.5600584612796968, -1.572331381370254, 1.5002335173484678, 3.1615344038323068], 0.5, 0.5, 0.002, 0.2, 100)

2025-07-07 16:12:07,798 - gym_custom_envs_real_ur_drivers_URBasic_realTimeClientEvent - INFO - Program send to Robot:
servoj([0.15953400194010658, -1.6106798272799232, -1.5600584612796968, -1.5723303183206567, 1.50023321362012, 3.1615344038323068], 0.5, 0.5, 0.002, 0.2, 100)

2025-07-07 16:12:07,806 - gym_custom_envs_real_ur_drivers_URBasic_realTimeClientEvent - INFO - Program send to Robot:
servoj([0.15953400194010658, -1.6106798272799232, -1.5600584612796968, -1.5601811798501068, 1.5002332105828364, 3.1615344038323068], 0.5, 0.5, 0.002, 0.2, 100)

2025-07-07 16:12:07,814 - gym_custom_envs_real_ur_drivers_URBasic_realTimeClientEvent - INFO - Program send to Robot:
servoj([0.15953400194010658, -1.6106798272799232, -1.5600584612796968, -1.5600596884654012, 1.5002332105524636, 3.1615344038323068], 0.5, 0.5, 0.002, 0.2, 100)

2025-07-07 16:12:07,831 - gym_custom_envs_real_ur_drivers_URBasic_realTimeClientEvent - INFO - Program send to Robot:
servoj([0.15953400194010658, -1.6106798272799232, -1.5600584612796968, -1.5600584735515541, 1.5002332105521599, 3.1615344038323068], 0.5, 0.5, 0.002, 0.2, 100)

2025-07-07 16:12:07,838 - gym_custom_envs_real_ur_drivers_URBasic_realTimeClientEvent - INFO - Program send to Robot:
servoj([0.15953400194010658, -1.6106798272799232, -1.5600584612796968, -1.550946615522375, 1.500233210552157, 3.1615344038323068], 0.5, 0.5, 0.002, 0.2, 100)

2025-07-07 16:12:07,846 - gym_custom_envs_real_ur_drivers_URBasic_realTimeClientEvent - INFO - Program send to Robot:
servoj([0.15953400194010658, -1.6106798272799232, -1.5600584612796968, -1.5508554969420831, 1.5002332105521567, 3.1615344038323068], 0.5, 0.5, 0.002, 0.2, 100)

2025-07-07 16:12:07,854 - gym_custom_envs_real_ur_drivers_URBasic_realTimeClientEvent - INFO - Program send to Robot:
servoj([0.15953400194010658, -1.6106798272799232, -1.5600584612796968, -1.5508545857562803, 1.5002332105521567, 3.1615344038323068], 0.5, 0.5, 0.002, 0.2, 100)

2025-07-07 16:12:07,871 - gym_custom_envs_real_ur_drivers_URBasic_realTimeClientEvent - INFO - Program send to Robot:
servoj([0.15953400194010658, -1.6106798272799232, -1.5600584612796968, -1.5432613717443882, 1.5002332105521567, 3.1615344038323068], 0.5, 0.5, 0.002, 0.2, 100)

2025-07-07 16:12:07,879 - gym_custom_envs_real_ur_drivers_URBasic_realTimeClientEvent - INFO - Program send to Robot:
servoj([0.15953400194010658, -1.6106798272799232, -1.5600584612796968, -1.5431854396042692, 1.5002332105521567, 3.1615344038323068], 0.5, 0.5, 0.002, 0.2, 100)

2025-07-07 16:12:07,888 - gym_custom_envs_real_ur_drivers_URBasic_realTimeClientEvent - INFO - Program send to Robot:
servoj([0.15953400194010658, -1.6106798272799232, -1.5600584612796968, -1.5431846802828681, 1.5002332105521567, 3.1615344038323068], 0.5, 0.5, 0.002, 0.2, 100)

2025-07-07 16:12:07,895 - gym_custom_envs_real_ur_drivers_URBasic_realTimeClientEvent - INFO - Program send to Robot:
servoj([0.15953400194010658, -1.6106798272799232, -1.5600584612796968, -1.543184672689654, 1.5002332105521567, 3.1615344038323068], 0.5, 0.5, 0.002, 0.2, 100)

2025-07-07 16:12:07,912 - gym_custom_envs_real_ur_drivers_URBasic_realTimeClientEvent - INFO - Program send to Robot:
servoj([0.15953400194010658, -1.6106798272799232, -1.5600584612796968, -1.5386287496737017, 1.5002332105521567, 3.1615344038323068], 0.5, 0.5, 0.002, 0.2, 100)

2025-07-07 16:12:07,918 - gym_custom_envs_real_ur_drivers_URBasic_realTimeClientEvent - INFO - Program send to Robot:
servoj([0.15953400194010658, -1.6106798272799232, -1.5600584612796968, -1.538583190443542, 1.5002332105521567, 3.1615344038323068], 0.5, 0.5, 0.002, 0.2, 100)

2025-07-07 16:12:07,927 - gym_custom_envs_real_ur_drivers_URBasic_realTimeClientEvent - INFO - Program send to Robot:
servoj([0.15953400194010658, -1.6106798272799232, -1.5600584612796968, -1.5385827348512406, 1.5002332105521567, 3.1615344038323068], 0.5, 0.5, 0.002, 0.2, 100)

2025-07-07 16:12:07,942 - gym_custom_envs_real_ur_drivers_URBasic_realTimeClientEvent - INFO - Program send to Robot:
servoj([0.15953400194010658, -1.6106798272799232, -1.5600584612796968, -1.5370640893153107, 1.5002332105521567, 3.1615344038323068], 0.5, 0.5, 0.002, 0.2, 100)

2025-07-07 16:12:07,951 - gym_custom_envs_real_ur_drivers_URBasic_realTimeClientEvent - INFO - Program send to Robot:
servoj([0.15953400194010658, -1.6106798272799232, -1.5600584612796968, -1.5370489028599514, 1.5002332105521567, 3.1615344038323068], 0.5, 0.5, 0.002, 0.2, 100)

2025-07-07 16:12:07,959 - gym_custom_envs_real_ur_drivers_URBasic_realTimeClientEvent - INFO - Program send to Robot:
servoj([0.15953400194010658, -1.6106798272799232, -1.5600584612796968, -1.5370487509953978, 1.5002332105521567, 3.1615344038323068], 0.5, 0.5, 0.002, 0.2, 100)

2025-07-07 16:12:07,966 - gym_custom_envs_real_ur_drivers_URBasic_realTimeClientEvent - INFO - Program send to Robot:
servoj([0.15953400194010658, -1.6106798272799232, -1.5600584612796968, -1.5370487494767524, 1.5002332105521567, 3.1615344038323068], 0.5, 0.5, 0.002, 0.2, 100)

2025-07-07 16:12:07,983 - gym_custom_envs_real_ur_drivers_URBasic_realTimeClientEvent - INFO - Program send to Robot:
servoj([0.15953400194010658, -1.6106798272799232, -1.5600584612796968, -1.5370487494615659, 1.5002332105521567, 3.1615344038323068], 0.5, 0.5, 0.002, 0.2, 100)

2025-07-07 16:12:07,990 - gym_custom_envs_real_ur_drivers_URBasic_realTimeClientEvent - INFO - Program send to Robot:
servoj([0.15953400194010658, -1.6106798272799232, -1.5600584612796968, -1.537048749461414, 1.5002332105521567, 3.1615344038323068], 0.5, 0.5, 0.002, 0.2, 100)

2025-07-07 16:12:07,999 - gym_custom_envs_real_ur_drivers_URBasic_realTimeClientEvent - INFO - Program send to Robot:
servoj([0.15953400194010658, -1.6106798272799232, -1.5600584612796968, -1.5370487494614125, 1.5002332105521567, 3.1615344038323068], 0.5, 0.5, 0.002, 0.2, 100)

2025-07-07 16:12:08,008 - gym_custom_envs_real_ur_drivers_URBasic_realTimeClientEvent - INFO - Program send to Robot:
servoj([0.15953400194010658, -1.6106798272799232, -1.5600584612796968, -1.5370487494614125, 1.5002332105521567, 3.1615344038323068], 0.5, 0.5, 0.002, 0.2, 100)

2025-07-07 16:12:08,024 - gym_custom_envs_real_ur_drivers_URBasic_realTimeClientEvent - INFO - Program send to Robot:
servoj([0.15953400194010658, -1.6106798272799232, -1.5600584612796968, -1.5370487494614125, 1.5002332105521567, 3.1615344038323068], 0.5, 0.5, 0.002, 0.2, 100)

2025-07-07 16:12:08,032 - gym_custom_envs_real_ur_drivers_URBasic_realTimeClientEvent - INFO - Program send to Robot:
servoj([0.15953400194010658, -1.6106798272799232, -1.5600584612796968, -1.5370487494614125, 1.5002332105521567, 3.1615344038323068], 0.5, 0.5, 0.002, 0.2, 100)

2025-07-07 16:12:08,039 - gym_custom_envs_real_ur_drivers_URBasic_realTimeClientEvent - INFO - Program send to Robot:
servoj([0.15953400194010658, -1.6106798272799232, -1.5600584612796968, -1.5370487494614125, 1.5002332105521567, 3.1615344038323068], 0.5, 0.5, 0.002, 0.2, 100)

2025-07-07 16:12:08,047 - gym_custom_envs_real_ur_drivers_URBasic_realTimeClientEvent - INFO - Program send to Robot:
servoj([0.15953400194010658, -1.6106798272799232, -1.5600584612796968, -1.5370487494614125, 1.5002332105521567, 3.1615344038323068], 0.5, 0.5, 0.002, 0.2, 100)

2025-07-07 16:12:08,062 - gym_custom_envs_real_ur_drivers_URBasic_realTimeClientEvent - INFO - Program send to Robot:
servoj([0.15953400194010658, -1.6106798272799232, -1.5615771022597036, -1.5370487494614125, 1.5002332105521567, 3.1615344038323068], 0.5, 0.5, 0.002, 0.2, 100)

2025-07-07 16:12:08,070 - gym_custom_envs_real_ur_drivers_URBasic_realTimeClientEvent - INFO - Program send to Robot:
servoj([0.15953400194010658, -1.6106798272799232, -1.5615922886695037, -1.5370487494614125, 1.5002332105521567, 3.1615344038323068], 0.5, 0.5, 0.002, 0.2, 100)

2025-07-07 16:12:08,078 - gym_custom_envs_real_ur_drivers_URBasic_realTimeClientEvent - INFO - Program send to Robot:
servoj([0.15953400194010658, -1.6106798272799232, -1.5615924405336017, -1.5370487494614125, 1.5002332105521567, 3.1615344038323068], 0.5, 0.5, 0.002, 0.2, 100)

2025-07-07 16:12:08,095 - gym_custom_envs_real_ur_drivers_URBasic_realTimeClientEvent - INFO - Program send to Robot:
servoj([0.15953400194010658, -1.6106798272799232, -1.5615924420522427, -1.5370487494614125, 1.5002332105521567, 3.1615344038323068], 0.5, 0.5, 0.002, 0.2, 100)

2025-07-07 16:12:08,103 - gym_custom_envs_real_ur_drivers_URBasic_realTimeClientEvent - INFO - Program send to Robot:
servoj([0.15953400194010658, -1.6106798272799232, -1.5615924420674292, -1.5370487494614125, 1.5002332105521567, 3.1615344038323068], 0.5, 0.5, 0.002, 0.2, 100)

2025-07-07 16:12:08,110 - gym_custom_envs_real_ur_drivers_URBasic_realTimeClientEvent - INFO - Program send to Robot:
servoj([0.15953400194010658, -1.6106798272799232, -1.561592442067581, -1.5370487494614125, 1.5002332105521567, 3.1615344038323068], 0.5, 0.5, 0.002, 0.2, 100)

2025-07-07 16:12:08,119 - gym_custom_envs_real_ur_drivers_URBasic_realTimeClientEvent - INFO - Program send to Robot:
servoj([0.15953400194010658, -1.6106798272799232, -1.5615924420675824, -1.5370487494614125, 1.5002332105521567, 3.1615344038323068], 0.5, 0.5, 0.002, 0.2, 100)

2025-07-07 16:12:08,134 - gym_custom_envs_real_ur_drivers_URBasic_realTimeClientEvent - INFO - Program send to Robot:
servoj([0.15953400194010658, -1.6106798272799232, -1.5600738010875759, -1.5385673904414192, 1.5002332105521567, 3.1615344038323068], 0.5, 0.5, 0.002, 0.2, 100)

2025-07-07 16:12:08,143 - gym_custom_envs_real_ur_drivers_URBasic_realTimeClientEvent - INFO - Program send to Robot:
servoj([0.15953400194010658, -1.6106798272799232, -1.5600586146777757, -1.5385825768512194, 1.5002332105521567, 3.1615344038323068], 0.5, 0.5, 0.002, 0.2, 100)

