2025-07-07 17:08:36,364 - gym_custom_envs_real_ur_drivers_URBasic_robotModelEvent - INFO - Init done
2025-07-07 17:08:36,864 - gym_custom_envs_real_ur_drivers_URBasic_realTimeClientEvent - INFO - Connected
2025-07-07 17:08:36,865 - gym_custom_envs_real_ur_drivers_URBasic_realTimeClientEvent - INFO - RT_CLient constructor done
2025-07-07 17:08:36,866 - gym_custom_envs_real_ur_drivers_URBasic_dataLogEvent - INFO - Data logging (not event logging) is disabled
2025-07-07 17:08:36,866 - gym_custom_envs_real_ur_drivers_URBasic_dataLogEvent - INFO - DataLog constructor done
2025-07-07 17:08:36,867 - gym_custom_envs_real_ur_drivers_URBasic_dataLogEvent - INFO - DataLog is stopped
2025-07-07 17:08:36,868 - gym_custom_envs_real_ur_drivers_URBasic_rtdeEvent - INFO - RTDE constructor done
2025-07-07 17:08:37,347 - gym_custom_envs_real_ur_drivers_URBasic_rtdeEvent - INFO - Controller version: 3.3.1-60
2025-07-07 17:08:37,350 - gym_custom_envs_real_ur_drivers_URBasic_rtdeEvent - INFO - RTDE started
2025-07-07 17:08:37,369 - gym_custom_envs_real_ur_drivers_URBasic_dashboardEvent - INFO - Connected
2025-07-07 17:08:37,369 - gym_custom_envs_real_ur_drivers_URBasic_dashboardEvent - INFO - UR Dashboard respond Connected: Universal Robots Dashboard Server
2025-07-07 17:08:37,370 - gym_custom_envs_real_ur_drivers_URBasic_dashboardEvent - INFO - Dashboard server constructor done
2025-07-07 17:08:37,370 - gym_custom_envs_real_ur_drivers_URBasic_robotConnectorEvent - INFO - Init done
2025-07-07 17:08:37,370 - gym_custom_envs_real_ur_drivers_URBasic_urScriptEvent - INFO - Init done!!!
2025-07-07 17:08:37,381 - gym_custom_envs_real_ur_drivers_URBasic_urScriptExtEvent - INFO - Init done
2025-07-07 17:08:38,996 - gym_custom_envs_real_ur_interfaceEvent - INFO - [] init done
2025-07-07 17:08:38,996 - gym_custom_envs_real_ur_drivers_URBasic_realTimeClientEvent - INFO - Program send to Robot:
end_freedrive_mode()

2025-07-07 17:08:41,377 - gym_custom_envs_real_ur_drivers_URBasic_realTimeClientEvent - INFO - Program send to Robot:
servoj([0.0037191577719575264, -1.6350129924091428, -1.6195956423668365, -1.18381272951235, 1.7981268096337064, 2.9144387382104378], 0.5, 0.5, 0.008, 0.2, 80)

2025-07-07 17:08:41,394 - gym_custom_envs_real_ur_drivers_URBasic_realTimeClientEvent - INFO - Program send to Robot:
servoj([0.003718821119237936, -1.6349703960855928, -1.6196167290294772, -1.183824650441305, 1.7981047500810237, 2.914492492683561], 0.5, 0.5, 0.008, 0.2, 80)

2025-07-07 17:08:41,406 - gym_custom_envs_real_ur_drivers_URBasic_realTimeClientEvent - INFO - Program send to Robot:
servoj([0.0036660405693690334, -1.6349917249252321, -1.619616909850747, -1.18381272951235, 1.7981164949040098, 2.9144387382104378], 0.5, 0.5, 0.008, 0.2, 80)

2025-07-07 17:08:41,422 - gym_custom_envs_real_ur_drivers_URBasic_realTimeClientEvent - INFO - Program send to Robot:
servoj([0.00367673080307839, -1.6349598236993665, -1.6196598701682459, -1.18381272951235, 1.7981164949040098, 2.914285393546491], 0.5, 0.5, 0.008, 0.2, 80)

2025-07-07 17:08:41,442 - gym_custom_envs_real_ur_drivers_URBasic_realTimeClientEvent - INFO - Program send to Robot:
servoj([0.003697774683364581, -1.6349916635032273, -1.6196277880866472, -1.183824650441305, 1.7980726362803954, 2.9142947564292307], 0.5, 0.5, 0.008, 0.2, 80)

2025-07-07 17:08:41,453 - gym_custom_envs_real_ur_drivers_URBasic_realTimeClientEvent - INFO - Program send to Robot:
servoj([0.003708464883760032, -1.6349916635032273, -1.6196167290294772, -1.183824650441305, 1.7981047500810237, 2.9142841063221505], 0.5, 0.5, 0.008, 0.2, 80)

2025-07-07 17:08:41,470 - gym_custom_envs_real_ur_drivers_URBasic_realTimeClientEvent - INFO - Program send to Robot:
servoj([0.003673351350713238, -1.6349485744680572, -1.6196261527281341, -1.183932415639059, 1.7979674259359086, 2.914308921883303], 0.5, 0.5, 0.008, 0.2, 80)

2025-07-07 17:08:41,491 - gym_custom_envs_real_ur_drivers_URBasic_realTimeClientEvent - INFO - Program send to Robot:
servoj([0.003683017543387417, -1.6349802879671034, -1.6195826440476382, -1.1839686552630824, 1.7977575914505042, 2.9143419438731493], 0.5, 0.5, 0.008, 0.2, 80)

2025-07-07 17:08:41,503 - gym_custom_envs_real_ur_drivers_URBasic_realTimeClientEvent - INFO - Program send to Robot:
servoj([0.003642471992662221, -1.6350000063673313, -1.6196099886098523, -1.1842685858355921, 1.7975277837210784, 2.9144154548328105], 0.5, 0.5, 0.008, 0.2, 80)

2025-07-07 17:08:41,518 - gym_custom_envs_real_ur_drivers_URBasic_realTimeClientEvent - INFO - Program send to Robot:
servoj([0.0035291292310925954, -1.634969757481197, -1.6195945790933781, -1.1844845930682582, 1.7971562444537024, 2.9144373007773505], 0.5, 0.5, 0.008, 0.2, 80)

2025-07-07 17:08:41,533 - gym_custom_envs_real_ur_drivers_URBasic_realTimeClientEvent - INFO - Program send to Robot:
servoj([0.0034663943916354925, -1.6349468027213332, -1.6195466349151078, -1.184796444569723, 1.7969149477507662, 2.9145754643243875], 0.5, 0.5, 0.008, 0.2, 80)

2025-07-07 17:08:41,550 - gym_custom_envs_real_ur_drivers_URBasic_realTimeClientEvent - INFO - Program send to Robot:
servoj([0.003393167943814489, -1.6349848304761532, -1.6195434630549073, -1.1851316610919398, 1.7967919227831122, 2.9146453279298985], 0.5, 0.5, 0.008, 0.2, 80)

2025-07-07 17:08:41,566 - gym_custom_envs_real_ur_drivers_URBasic_realTimeClientEvent - INFO - Program send to Robot:
servoj([0.0033148525791725607, -1.6349502850135658, -1.6194183006881773, -1.1856595198260707, 1.7963534120480606, 2.914874683373004], 0.5, 0.5, 0.008, 0.2, 80)

2025-07-07 17:08:41,587 - gym_custom_envs_real_ur_drivers_URBasic_realTimeClientEvent - INFO - Program send to Robot:
servoj([0.003128263683631881, -1.6349580511854918, -1.6194523978359456, -1.1862107435809535, 1.7959225919861797, 2.9150303952815424], 0.5, 0.5, 0.008, 0.2, 80)

2025-07-07 17:08:41,611 - gym_custom_envs_real_ur_drivers_URBasic_realTimeClientEvent - INFO - Program send to Robot:
servoj([0.002759964354089055, -1.6349511724184964, -1.6192511486959145, -1.1875296751605433, 1.794914663053915, 2.915402335603409], 0.5, 0.5, 0.008, 0.2, 80)

2025-07-07 17:08:41,630 - gym_custom_envs_real_ur_drivers_URBasic_realTimeClientEvent - INFO - Program send to Robot:
servoj([0.002388251740700788, -1.6348901007268244, -1.619111778199431, -1.1889687697040003, 1.7937897103224911, 2.915841967365571], 0.5, 0.5, 0.008, 0.2, 80)

2025-07-07 17:08:41,646 - gym_custom_envs_real_ur_drivers_URBasic_realTimeClientEvent - INFO - Program send to Robot:
servoj([0.0020224746705525317, -1.634822694532079, -1.6188778317071566, -1.190167538319723, 1.792692992081432, 2.9162152493280487], 0.5, 0.5, 0.008, 0.2, 80)

2025-07-07 17:08:41,662 - gym_custom_envs_real_ur_drivers_URBasic_realTimeClientEvent - INFO - Program send to Robot:
servoj([0.0017052363235602677, -1.6347512170941356, -1.6187173679961357, -1.1915465513812464, 1.7916351646939859, 2.9166641842558003], 0.5, 0.5, 0.008, 0.2, 80)

2025-07-07 17:08:41,677 - gym_custom_envs_real_ur_drivers_URBasic_realTimeClientEvent - INFO - Program send to Robot:
servoj([0.0013812382832811155, -1.6346804655194036, -1.6186018377534817, -1.1928049246417445, 1.790600123666166, 2.9168956408089493], 0.5, 0.5, 0.008, 0.2, 80)

2025-07-07 17:08:41,694 - gym_custom_envs_real_ur_drivers_URBasic_realTimeClientEvent - INFO - Program send to Robot:
servoj([0.0013885381623084947, -1.6346712008053386, -1.6184361027103873, -1.1925531546222132, 1.7907285552716155, 2.9169302740955962], 0.5, 0.5, 0.008, 0.2, 80)

2025-07-07 17:08:41,710 - gym_custom_envs_real_ur_drivers_URBasic_realTimeClientEvent - INFO - Program send to Robot:
servoj([0.0012631429524292987, -1.6346889564297868, -1.6183937573262333, -1.1932011763202113, 1.7901826019572116, 2.917036112987911], 0.5, 0.5, 0.008, 0.2, 80)

2025-07-07 17:08:41,726 - gym_custom_envs_real_ur_drivers_URBasic_realTimeClientEvent - INFO - Program send to Robot:
servoj([0.001282729874001201, -1.6346356259206933, -1.6183393897147318, -1.1932607809649867, 1.790326280037143, 2.917112438105437], 0.5, 0.5, 0.008, 0.2, 80)

2025-07-07 17:08:41,743 - gym_custom_envs_real_ur_drivers_URBasic_realTimeClientEvent - INFO - Program send to Robot:
servoj([0.0011146849739593536, -1.6346210854431702, -1.6182442764319902, -1.1939202467547816, 1.7898432310710497, 2.9172398621246165], 0.5, 0.5, 0.008, 0.2, 80)

2025-07-07 17:08:41,759 - gym_custom_envs_real_ur_drivers_URBasic_realTimeClientEvent - INFO - Program send to Robot:
servoj([0.001026297027836725, -1.6345887095539995, -1.6181891663139143, -1.1940280119525355, 1.7898125353628527, 2.917286332508633], 0.5, 0.5, 0.008, 0.2, 80)

2025-07-07 17:08:41,774 - gym_custom_envs_real_ur_drivers_URBasic_realTimeClientEvent - INFO - Program send to Robot:
servoj([0.0008802786177789287, -1.6345853194708468, -1.618104616031831, -1.194663159047262, 1.7892896153900935, 2.9174553954749727], 0.5, 0.5, 0.008, 0.2, 80)

2025-07-07 17:08:41,793 - gym_custom_envs_real_ur_drivers_URBasic_realTimeClientEvent - INFO - Program send to Robot:
servoj([-0.10431069357622347, -1.6152817696435802, -1.5615924420675826, -1.5953400194010667, 1.4741555371581008, 3.0326800176499127], 0.5, 0.5, 0.008, 0.2, 80)

2025-07-07 17:08:41,798 - gym_custom_envs_real_ur_drivers_URBasic_realTimeClientEvent - INFO - Program send to Robot:
servoj([-0.10431069357622347, -1.6152817696435802, -1.5615924420675826, -1.5953400194010667, 1.4741555371581008, 3.0326800176499127], 0.5, 0.5, 0.008, 0.2, 80)

2025-07-07 17:08:41,816 - gym_custom_envs_real_ur_drivers_URBasic_realTimeClientEvent - INFO - Program send to Robot:
servoj([-0.10431069357622347, -1.6152817696435802, -1.5615924420675826, -1.5953400194010667, 1.4741555371581008, 3.0326800176499127], 0.5, 0.5, 0.008, 0.2, 80)

2025-07-07 17:08:41,821 - gym_custom_envs_real_ur_drivers_URBasic_realTimeClientEvent - INFO - Program send to Robot:
servoj([-0.10431069357622347, -1.6152817696435802, -1.5615924420675826, -1.5953400194010667, 1.4741555371581008, 3.0326800176499127], 0.5, 0.5, 0.008, 0.2, 80)

2025-07-07 17:08:41,832 - gym_custom_envs_real_ur_drivers_URBasic_realTimeClientEvent - INFO - Program send to Robot:
servoj([-0.10431069357622347, -1.6152817696435802, -1.5615924420675826, -1.5953400194010667, 1.4741555371581008, 3.0326800176499127], 0.5, 0.5, 0.008, 0.2, 80)

2025-07-07 17:08:41,846 - gym_custom_envs_real_ur_drivers_URBasic_realTimeClientEvent - INFO - Program send to Robot:
servoj([-0.10431069357622347, -1.6152817696435802, -1.5615924420675826, -1.5953400194010667, 1.4741555371581008, 3.0326800176499127], 0.5, 0.5, 0.008, 0.2, 80)

2025-07-07 17:08:41,856 - gym_custom_envs_real_ur_drivers_URBasic_realTimeClientEvent - INFO - Program send to Robot:
servoj([-0.10431069357622347, -1.6152817696435802, -1.5615924420675826, -1.5953400194010667, 1.4741555371581008, 3.0326800176499127], 0.5, 0.5, 0.008, 0.2, 80)

2025-07-07 17:08:41,865 - gym_custom_envs_real_ur_drivers_URBasic_realTimeClientEvent - INFO - Program send to Robot:
servoj([-0.10431069357622347, -1.6152817696435802, -1.5615924420675826, -1.5953400194010667, 1.4741555371581008, 3.0326800176499127], 0.5, 0.5, 0.008, 0.2, 80)

2025-07-07 17:08:41,869 - gym_custom_envs_real_ur_drivers_URBasic_realTimeClientEvent - INFO - Program send to Robot:
servoj([-0.10431069357622347, -1.6152817696435802, -1.5615924420675826, -1.5953400194010667, 1.4741555371581008, 3.0326800176499127], 0.5, 0.5, 0.008, 0.2, 80)

2025-07-07 17:08:41,890 - gym_custom_envs_real_ur_drivers_URBasic_realTimeClientEvent - INFO - Program send to Robot:
servoj([-0.10431069357622347, -1.6152817696435802, -1.5615924420675826, -1.5953400194010667, 1.4741555371581008, 3.0326800176499127], 0.5, 0.5, 0.008, 0.2, 80)

2025-07-07 17:08:41,894 - gym_custom_envs_real_ur_drivers_URBasic_realTimeClientEvent - INFO - Program send to Robot:
servoj([-0.10431069357622347, -1.6152817696435802, -1.5615924420675826, -1.5953400194010667, 1.4741555371581008, 3.0326800176499127], 0.5, 0.5, 0.008, 0.2, 80)

2025-07-07 17:08:41,909 - gym_custom_envs_real_ur_drivers_URBasic_realTimeClientEvent - INFO - Program send to Robot:
servoj([-0.10431069357622347, -1.6152817696435802, -1.5615924420675826, -1.5953400194010667, 1.4741555371581008, 3.0326800176499127], 0.5, 0.5, 0.008, 0.2, 80)

2025-07-07 17:08:41,917 - gym_custom_envs_real_ur_drivers_URBasic_realTimeClientEvent - INFO - Program send to Robot:
servoj([-0.10431069357622347, -1.6152817696435802, -1.5615924420675826, -1.5953400194010667, 1.4741555371581008, 3.0326800176499127], 0.5, 0.5, 0.008, 0.2, 80)

2025-07-07 17:08:41,928 - gym_custom_envs_real_ur_drivers_URBasic_realTimeClientEvent - INFO - Program send to Robot:
servoj([-0.10431069357622347, -1.6152817696435802, -1.5615924420675826, -1.5953400194010667, 1.4741555371581008, 3.0326800176499127], 0.5, 0.5, 0.008, 0.2, 80)

2025-07-07 17:08:41,942 - gym_custom_envs_real_ur_drivers_URBasic_realTimeClientEvent - INFO - Program send to Robot:
servoj([-0.10431069357622347, -1.6152817696435802, -1.5615924420675826, -1.5953400194010667, 1.4741555371581008, 3.0326800176499127], 0.5, 0.5, 0.008, 0.2, 80)

2025-07-07 17:08:41,952 - gym_custom_envs_real_ur_drivers_URBasic_realTimeClientEvent - INFO - Program send to Robot:
servoj([-0.10431069357622347, -1.6152817696435802, -1.5615924420675826, -1.5953400194010667, 1.4741555371581008, 3.0326800176499127], 0.5, 0.5, 0.008, 0.2, 80)

2025-07-07 17:08:41,960 - gym_custom_envs_real_ur_drivers_URBasic_realTimeClientEvent - INFO - Program send to Robot:
servoj([-0.10431069357622347, -1.6152817696435802, -1.5615924420675826, -1.5953400194010667, 1.4756741781381078, 3.031161376669906], 0.5, 0.5, 0.008, 0.2, 80)

2025-07-07 17:08:41,965 - gym_custom_envs_real_ur_drivers_URBasic_realTimeClientEvent - INFO - Program send to Robot:
servoj([-0.10431069357622347, -1.6152817696435802, -1.5615924420675826, -1.5953400194010667, 1.475689364547908, 3.0311461902601056], 0.5, 0.5, 0.008, 0.2, 80)

2025-07-07 17:08:41,981 - gym_custom_envs_real_ur_drivers_URBasic_realTimeClientEvent - INFO - Program send to Robot:
servoj([-0.10431069357622347, -1.6152817696435802, -1.5615924420675826, -1.5953400194010667, 1.4756895164120059, 3.031146038396008], 0.5, 0.5, 0.008, 0.2, 80)

2025-07-07 17:08:41,989 - gym_custom_envs_real_ur_drivers_URBasic_realTimeClientEvent - INFO - Program send to Robot:
servoj([-0.10431069357622347, -1.6152817696435802, -1.5615924420675826, -1.59382137842106, 1.4756895179306468, 3.0311460368773666], 0.5, 0.5, 0.008, 0.2, 80)

2025-07-07 17:08:42,001 - gym_custom_envs_real_ur_drivers_URBasic_realTimeClientEvent - INFO - Program send to Robot:
servoj([-0.10431069357622347, -1.6152817696435802, -1.5615924420675826, -1.5938061920112598, 1.4756895179458331, 3.03114603686218], 0.5, 0.5, 0.008, 0.2, 80)

2025-07-07 17:08:42,014 - gym_custom_envs_real_ur_drivers_URBasic_realTimeClientEvent - INFO - Program send to Robot:
servoj([-0.10431069357622347, -1.6152817696435802, -1.5615924420675826, -1.5938060401471619, 1.475689517945985, 3.031146036862028], 0.5, 0.5, 0.008, 0.2, 80)

2025-07-07 17:08:42,026 - gym_custom_envs_real_ur_drivers_URBasic_realTimeClientEvent - INFO - Program send to Robot:
servoj([-0.10431069357622347, -1.6152817696435802, -1.5631110830475896, -1.5938060386285209, 1.4756895179459866, 3.031146036862027], 0.5, 0.5, 0.008, 0.2, 80)

2025-07-07 17:08:42,030 - gym_custom_envs_real_ur_drivers_URBasic_realTimeClientEvent - INFO - Program send to Robot:
servoj([-0.10431069357622347, -1.6152817696435802, -1.5631262694573895, -1.5938060386133346, 1.4756895179459866, 3.031146036862027], 0.5, 0.5, 0.008, 0.2, 80)

2025-07-07 17:08:42,048 - gym_custom_envs_real_ur_drivers_URBasic_realTimeClientEvent - INFO - Program send to Robot:
servoj([-0.10431069357622347, -1.6152817696435802, -1.5631264213214875, -1.5938060386131827, 1.4756895179459866, 3.031146036862027], 0.5, 0.5, 0.008, 0.2, 80)

2025-07-07 17:08:42,056 - gym_custom_envs_real_ur_drivers_URBasic_realTimeClientEvent - INFO - Program send to Robot:
servoj([-0.10431069357622347, -1.6152817696435802, -1.5616077818601215, -1.5938060386131812, 1.4756895179459866, 3.031146036862027], 0.5, 0.5, 0.008, 0.2, 80)

2025-07-07 17:08:42,062 - gym_custom_envs_real_ur_drivers_URBasic_realTimeClientEvent - INFO - Program send to Robot:
servoj([-0.10431069357622347, -1.6152817696435802, -1.5615925954655079, -1.5938060386131812, 1.4756895179459866, 3.031146036862027], 0.5, 0.5, 0.008, 0.2, 80)

2025-07-07 17:08:42,080 - gym_custom_envs_real_ur_drivers_URBasic_realTimeClientEvent - INFO - Program send to Robot:
servoj([-0.10431069357622347, -1.6152817696435802, -1.5615924436015618, -1.5938060386131812, 1.4756895179459866, 3.031146036862027], 0.5, 0.5, 0.008, 0.2, 80)

2025-07-07 17:08:42,086 - gym_custom_envs_real_ur_drivers_URBasic_realTimeClientEvent - INFO - Program send to Robot:
servoj([-0.10431069357622347, -1.6152817696435802, -1.5615924420829224, -1.5938060386131812, 1.4741708769659796, 3.0326646778420336], 0.5, 0.5, 0.008, 0.2, 80)

2025-07-07 17:08:42,096 - gym_custom_envs_real_ur_drivers_URBasic_realTimeClientEvent - INFO - Program send to Robot:
servoj([-0.10431069357622347, -1.6152817696435802, -1.5615924420677358, -1.5938060386131812, 1.4741556905561795, 3.0326798642518336], 0.5, 0.5, 0.008, 0.2, 80)

2025-07-07 17:08:42,109 - gym_custom_envs_real_ur_drivers_URBasic_realTimeClientEvent - INFO - Program send to Robot:
servoj([-0.10431069357622347, -1.6152817696435802, -1.561592442067584, -1.5938060386131812, 1.4741555386920815, 3.0326800161159317], 0.5, 0.5, 0.008, 0.2, 80)

2025-07-07 17:08:42,120 - gym_custom_envs_real_ur_drivers_URBasic_realTimeClientEvent - INFO - Program send to Robot:
servoj([-0.10431069357622347, -1.6152817696435802, -1.5615924420675826, -1.5938060386131812, 1.4741555371734405, 3.0326800176345725], 0.5, 0.5, 0.008, 0.2, 80)

2025-07-07 17:08:42,129 - gym_custom_envs_real_ur_drivers_URBasic_realTimeClientEvent - INFO - Program send to Robot:
servoj([-0.10431069357622347, -1.6152817696435802, -1.5615924420675826, -1.5938060386131812, 1.4741555371582542, 3.032680017649759], 0.5, 0.5, 0.008, 0.2, 80)

2025-07-07 17:08:42,133 - gym_custom_envs_real_ur_drivers_URBasic_realTimeClientEvent - INFO - Program send to Robot:
servoj([-0.10431069357622347, -1.6152817696435802, -1.5615924420675826, -1.5938060386131812, 1.4741555371581023, 3.032680017649911], 0.5, 0.5, 0.008, 0.2, 80)

2025-07-07 17:08:42,149 - gym_custom_envs_real_ur_drivers_URBasic_realTimeClientEvent - INFO - Program send to Robot:
servoj([-0.10431069357622347, -1.6152817696435802, -1.5615924420675826, -1.5938060386131812, 1.4741555371581008, 3.031161376669906], 0.5, 0.5, 0.008, 0.2, 80)

2025-07-07 17:08:42,157 - gym_custom_envs_real_ur_drivers_URBasic_realTimeClientEvent - INFO - Program send to Robot:
servoj([-0.10431069357622347, -1.6152817696435802, -1.5615924420675826, -1.5938060386131812, 1.4741555371581008, 3.0311461902601056], 0.5, 0.5, 0.008, 0.2, 80)

2025-07-07 17:08:42,168 - gym_custom_envs_real_ur_drivers_URBasic_realTimeClientEvent - INFO - Program send to Robot:
servoj([-0.10431069357622347, -1.6152817696435802, -1.5615924420675826, -1.5938060386131812, 1.4741555371581008, 3.031146038396008], 0.5, 0.5, 0.008, 0.2, 80)

2025-07-07 17:08:42,182 - gym_custom_envs_real_ur_drivers_URBasic_realTimeClientEvent - INFO - Program send to Robot:
servoj([-0.10431069357622347, -1.6152817696435802, -1.5615924420675826, -1.5938060386131812, 1.4741555371581008, 3.0326646778573734], 0.5, 0.5, 0.008, 0.2, 80)

2025-07-07 17:08:42,193 - gym_custom_envs_real_ur_drivers_URBasic_realTimeClientEvent - INFO - Program send to Robot:
servoj([-0.10431069357622347, -1.6152817696435802, -1.5615924420675826, -1.5938060386131812, 1.4741555371581008, 3.032679864251987], 0.5, 0.5, 0.008, 0.2, 80)

2025-07-07 17:08:42,200 - gym_custom_envs_real_ur_drivers_URBasic_realTimeClientEvent - INFO - Program send to Robot:
servoj([-0.10431069357622347, -1.6152817696435802, -1.5615924420675826, -1.5938060386131812, 1.4741555371581008, 3.032680016115933], 0.5, 0.5, 0.008, 0.2, 80)

2025-07-07 17:08:42,216 - gym_custom_envs_real_ur_drivers_URBasic_realTimeClientEvent - INFO - Program send to Robot:
servoj([-0.10431069357622347, -1.6152817696435802, -1.5615924420675826, -1.5938060386131812, 1.4741555371581008, 3.0311613766545658], 0.5, 0.5, 0.008, 0.2, 80)

2025-07-07 17:08:42,225 - gym_custom_envs_real_ur_drivers_URBasic_realTimeClientEvent - INFO - Program send to Robot:
servoj([-0.10431069357622347, -1.6152817696435802, -1.5615924420675826, -1.5938060386131812, 1.4741555371581008, 3.0311461902599524], 0.5, 0.5, 0.008, 0.2, 80)

2025-07-07 17:08:42,230 - gym_custom_envs_real_ur_drivers_URBasic_realTimeClientEvent - INFO - Program send to Robot:
servoj([-0.10431069357622347, -1.6152817696435802, -1.5615924420675826, -1.5938060386131812, 1.4741555371581008, 3.031146038396006], 0.5, 0.5, 0.008, 0.2, 80)

2025-07-07 17:08:42,245 - gym_custom_envs_real_ur_drivers_URBasic_realTimeClientEvent - INFO - Program send to Robot:
servoj([-0.10431069357622347, -1.6152817696435802, -1.5615924420675826, -1.5938060386131812, 1.4741555371581008, 3.0326646778573734], 0.5, 0.5, 0.008, 0.2, 80)

2025-07-07 17:08:42,253 - gym_custom_envs_real_ur_drivers_URBasic_realTimeClientEvent - INFO - Program send to Robot:
servoj([-0.10431069357622347, -1.6152817696435802, -1.5615924420675826, -1.5938060386131812, 1.4741555371581008, 3.032679864251987], 0.5, 0.5, 0.008, 0.2, 80)

2025-07-07 17:08:42,266 - gym_custom_envs_real_ur_drivers_URBasic_realTimeClientEvent - INFO - Program send to Robot:
servoj([-0.10431069357622347, -1.6152817696435802, -1.5615924420675826, -1.5938060386131812, 1.4741555371581008, 3.032680016115933], 0.5, 0.5, 0.008, 0.2, 80)

2025-07-07 17:08:42,278 - gym_custom_envs_real_ur_drivers_URBasic_realTimeClientEvent - INFO - Program send to Robot:
servoj([-0.10431069357622347, -1.6152817696435802, -1.5615924420675826, -1.5938060386131812, 1.4741555371581008, 3.0311613766545658], 0.5, 0.5, 0.008, 0.2, 80)

2025-07-07 17:08:42,290 - gym_custom_envs_real_ur_drivers_URBasic_realTimeClientEvent - INFO - Program send to Robot:
servoj([-0.10431069357622347, -1.6152817696435802, -1.5615924420675826, -1.5938060386131812, 1.4741555371581008, 3.0311461902599524], 0.5, 0.5, 0.008, 0.2, 80)

2025-07-07 17:08:42,293 - gym_custom_envs_real_ur_drivers_URBasic_realTimeClientEvent - INFO - Program send to Robot:
servoj([-0.10431069357622347, -1.6152817696435802, -1.5615924420675826, -1.5938060386131812, 1.4741555371581008, 3.031146038396006], 0.5, 0.5, 0.008, 0.2, 80)

2025-07-07 17:08:42,313 - gym_custom_envs_real_ur_drivers_URBasic_realTimeClientEvent - INFO - Program send to Robot:
servoj([-0.10431069357622347, -1.6152817696435802, -1.5615924420675826, -1.5938060386131812, 1.4741555371581008, 3.0311460368773666], 0.5, 0.5, 0.008, 0.2, 80)

2025-07-07 17:08:42,318 - gym_custom_envs_real_ur_drivers_URBasic_realTimeClientEvent - INFO - Program send to Robot:
servoj([-0.10431069357622347, -1.6152817696435802, -1.5615924420675826, -1.5938060386131812, 1.4741555371581008, 3.03114603686218], 0.5, 0.5, 0.008, 0.2, 80)

2025-07-07 17:08:42,337 - gym_custom_envs_real_ur_drivers_URBasic_realTimeClientEvent - INFO - Program send to Robot:
servoj([-0.10431069357622347, -1.6152817696435802, -1.5615924420675826, -1.5938060386131812, 1.4741555371581008, 3.031146036862028], 0.5, 0.5, 0.008, 0.2, 80)

2025-07-07 17:08:42,341 - gym_custom_envs_real_ur_drivers_URBasic_realTimeClientEvent - INFO - Program send to Robot:
servoj([-0.10431069357622347, -1.6152817696435802, -1.5615924420675826, -1.5938060386131812, 1.4741555371581008, 3.031146036862027], 0.5, 0.5, 0.008, 0.2, 80)

2025-07-07 17:08:42,362 - gym_custom_envs_real_ur_drivers_URBasic_realTimeClientEvent - INFO - Program send to Robot:
servoj([-0.10431069357622347, -1.6152817696435802, -1.5615924420675826, -1.5938060386131812, 1.4741555371581008, 3.031146036862027], 0.5, 0.5, 0.008, 0.2, 80)

2025-07-07 17:08:42,366 - gym_custom_envs_real_ur_drivers_URBasic_realTimeClientEvent - INFO - Program send to Robot:
servoj([-0.10431069357622347, -1.6152817696435802, -1.5615924420675826, -1.5938060386131812, 1.4741555371581008, 3.031146036862027], 0.5, 0.5, 0.008, 0.2, 80)

2025-07-07 17:08:42,387 - gym_custom_envs_real_ur_drivers_URBasic_realTimeClientEvent - INFO - Program send to Robot:
servoj([-0.10431069357622347, -1.6152817696435802, -1.5615924420675826, -1.5938060386131812, 1.4741555371581008, 3.031146036862027], 0.5, 0.5, 0.008, 0.2, 80)

2025-07-07 17:08:42,397 - gym_custom_envs_real_ur_drivers_URBasic_realTimeClientEvent - INFO - Program send to Robot:
servoj([-0.10431069357622347, -1.6152817696435802, -1.5615924420675826, -1.5938060386131812, 1.4741555371581008, 3.031146036862027], 0.5, 0.5, 0.008, 0.2, 80)

2025-07-07 17:08:42,405 - gym_custom_envs_real_ur_drivers_URBasic_realTimeClientEvent - INFO - Program send to Robot:
servoj([-0.10431069357622347, -1.6152817696435802, -1.5615924420675826, -1.5938060386131812, 1.4741555371581008, 3.031146036862027], 0.5, 0.5, 0.008, 0.2, 80)

2025-07-07 17:08:42,413 - gym_custom_envs_real_ur_drivers_URBasic_realTimeClientEvent - INFO - Program send to Robot:
servoj([-0.10431069357622347, -1.6152817696435802, -1.5615924420675826, -1.5938060386131812, 1.4741555371581008, 3.031146036862027], 0.5, 0.5, 0.008, 0.2, 80)

2025-07-07 17:08:42,421 - gym_custom_envs_real_ur_drivers_URBasic_realTimeClientEvent - INFO - Program send to Robot:
servoj([-0.10431069357622347, -1.6152817696435802, -1.5615924420675826, -1.5938060386131812, 1.4741555371581008, 3.031146036862027], 0.5, 0.5, 0.008, 0.2, 80)

2025-07-07 17:08:42,438 - gym_custom_envs_real_ur_drivers_URBasic_realTimeClientEvent - INFO - Program send to Robot:
servoj([-0.10431069357622347, -1.6152817696435802, -1.5615924420675826, -1.5938060386131812, 1.4756741781381078, 3.031146036862027], 0.5, 0.5, 0.008, 0.2, 80)

2025-07-07 17:08:42,446 - gym_custom_envs_real_ur_drivers_URBasic_realTimeClientEvent - INFO - Program send to Robot:
servoj([-0.10431069357622347, -1.6152817696435802, -1.5615924420675826, -1.5938060386131812, 1.475689364547908, 3.031146036862027], 0.5, 0.5, 0.008, 0.2, 80)

2025-07-07 17:08:42,457 - gym_custom_envs_real_ur_drivers_URBasic_realTimeClientEvent - INFO - Program send to Robot:
servoj([-0.10431069357622347, -1.6152817696435802, -1.5615924420675826, -1.5938060386131812, 1.4756895164120059, 3.031146036862027], 0.5, 0.5, 0.008, 0.2, 80)

2025-07-07 17:08:42,470 - gym_custom_envs_real_ur_drivers_URBasic_realTimeClientEvent - INFO - Program send to Robot:
servoj([-0.10431069357622347, -1.6152817696435802, -1.5615924420675826, -1.5938060386131812, 1.4741708769506399, 3.031146036862027], 0.5, 0.5, 0.008, 0.2, 80)

2025-07-07 17:08:42,481 - gym_custom_envs_real_ur_drivers_URBasic_realTimeClientEvent - INFO - Program send to Robot:
servoj([-0.10431069357622347, -1.6152817696435802, -1.5615924420675826, -1.5938060386131812, 1.474155690556026, 3.031146036862027], 0.5, 0.5, 0.008, 0.2, 80)

2025-07-07 17:08:42,485 - gym_custom_envs_real_ur_drivers_URBasic_realTimeClientEvent - INFO - Program send to Robot:
servoj([-0.10431069357622347, -1.6152817696435802, -1.5615924420675826, -1.5938060386131812, 1.47415553869208, 3.031146036862027], 0.5, 0.5, 0.008, 0.2, 80)

2025-07-07 17:08:42,507 - gym_custom_envs_real_ur_drivers_URBasic_realTimeClientEvent - INFO - Program send to Robot:
servoj([-0.10431069357622347, -1.6152817696435802, -1.5615924420675826, -1.5938060386131812, 1.4741555371734405, 3.031146036862027], 0.5, 0.5, 0.008, 0.2, 80)

2025-07-07 17:08:42,519 - gym_custom_envs_real_ur_drivers_URBasic_realTimeClientEvent - INFO - Program send to Robot:
servoj([-0.10431069357622347, -1.6152817696435802, -1.5615924420675826, -1.5938060386131812, 1.4741555371582542, 3.031146036862027], 0.5, 0.5, 0.008, 0.2, 80)

2025-07-07 17:08:42,530 - gym_custom_envs_real_ur_drivers_URBasic_realTimeClientEvent - INFO - Program send to Robot:
servoj([-0.10431069357622347, -1.6152817696435802, -1.5615924420675826, -1.5938060386131812, 1.4741555371581023, 3.031146036862027], 0.5, 0.5, 0.008, 0.2, 80)

2025-07-07 17:08:42,533 - gym_custom_envs_real_ur_drivers_URBasic_realTimeClientEvent - INFO - Program send to Robot:
servoj([-0.10431069357622347, -1.6152817696435802, -1.5615924420675826, -1.5938060386131812, 1.4741555371581008, 3.031146036862027], 0.5, 0.5, 0.008, 0.2, 80)

2025-07-07 17:08:42,552 - gym_custom_envs_real_ur_drivers_URBasic_realTimeClientEvent - INFO - Program send to Robot:
servoj([-0.10431069357622347, -1.6152817696435802, -1.5615924420675826, -1.5938060386131812, 1.4741555371581008, 3.031146036862027], 0.5, 0.5, 0.008, 0.2, 80)

2025-07-07 17:08:42,560 - gym_custom_envs_real_ur_drivers_URBasic_realTimeClientEvent - INFO - Program send to Robot:
servoj([-0.10431069357622347, -1.6152817696435802, -1.5615924420675826, -1.5938060386131812, 1.4741555371581008, 3.031146036862027], 0.5, 0.5, 0.008, 0.2, 80)

2025-07-07 17:08:42,565 - gym_custom_envs_real_ur_drivers_URBasic_realTimeClientEvent - INFO - Program send to Robot:
servoj([-0.10431069357622347, -1.6152817696435802, -1.5615924420675826, -1.5938060386131812, 1.4756741781381078, 3.031146036862027], 0.5, 0.5, 0.008, 0.2, 80)

2025-07-07 17:08:42,584 - gym_custom_envs_real_ur_drivers_URBasic_realTimeClientEvent - INFO - Program send to Robot:
servoj([-0.10431069357622347, -1.6152817696435802, -1.5615924420675826, -1.5938060386131812, 1.475689364547908, 3.031146036862027], 0.5, 0.5, 0.008, 0.2, 80)

2025-07-07 17:08:42,589 - gym_custom_envs_real_ur_drivers_URBasic_realTimeClientEvent - INFO - Program send to Robot:
servoj([-0.10431069357622347, -1.6152817696435802, -1.5615924420675826, -1.5938060386131812, 1.4756895164120059, 3.031146036862027], 0.5, 0.5, 0.008, 0.2, 80)

2025-07-07 17:08:42,600 - gym_custom_envs_real_ur_drivers_URBasic_realTimeClientEvent - INFO - Program send to Robot:
servoj([-0.10431069357622347, -1.6152817696435802, -1.5615924420675826, -1.5938060386131812, 1.4741708769506399, 3.031146036862027], 0.5, 0.5, 0.008, 0.2, 80)

2025-07-07 17:08:42,614 - gym_custom_envs_real_ur_drivers_URBasic_realTimeClientEvent - INFO - Program send to Robot:
servoj([-0.10431069357622347, -1.6152817696435802, -1.5615924420675826, -1.5938060386131812, 1.474155690556026, 3.031146036862027], 0.5, 0.5, 0.008, 0.2, 80)

2025-07-07 17:08:42,626 - gym_custom_envs_real_ur_drivers_URBasic_realTimeClientEvent - INFO - Program send to Robot:
servoj([-0.10431069357622347, -1.6152817696435802, -1.5615924420675826, -1.5938060386131812, 1.47415553869208, 3.031146036862027], 0.5, 0.5, 0.008, 0.2, 80)

2025-07-07 17:08:42,630 - gym_custom_envs_real_ur_drivers_URBasic_realTimeClientEvent - INFO - Program send to Robot:
servoj([-0.10431069357622347, -1.6152817696435802, -1.5615924420675826, -1.5938060386131812, 1.4756741781534475, 3.031146036862027], 0.5, 0.5, 0.008, 0.2, 80)

2025-07-07 17:08:42,649 - gym_custom_envs_real_ur_drivers_URBasic_realTimeClientEvent - INFO - Program send to Robot:
servoj([-0.10431069357622347, -1.6152817696435802, -1.5615924420675826, -1.5938060386131812, 1.475689364548061, 3.031146036862027], 0.5, 0.5, 0.008, 0.2, 80)

2025-07-07 17:08:42,653 - gym_custom_envs_real_ur_drivers_URBasic_realTimeClientEvent - INFO - Program send to Robot:
servoj([-0.10431069357622347, -1.6152817696435802, -1.5615924420675826, -1.5938060386131812, 1.4756895164120074, 3.031146036862027], 0.5, 0.5, 0.008, 0.2, 80)

2025-07-07 17:08:42,673 - gym_custom_envs_real_ur_drivers_URBasic_realTimeClientEvent - INFO - Program send to Robot:
servoj([-0.10431069357622347, -1.6152817696435802, -1.5615924420675826, -1.5938060386131812, 1.4741708769506399, 3.031146036862027], 0.5, 0.5, 0.008, 0.2, 80)

2025-07-07 17:08:42,677 - gym_custom_envs_real_ur_drivers_URBasic_realTimeClientEvent - INFO - Program send to Robot:
servoj([-0.10431069357622347, -1.6152817696435802, -1.5615924420675826, -1.5938060386131812, 1.474155690556026, 3.031146036862027], 0.5, 0.5, 0.008, 0.2, 80)

2025-07-07 17:08:42,697 - gym_custom_envs_real_ur_drivers_URBasic_realTimeClientEvent - INFO - Program send to Robot:
servoj([-0.10431069357622347, -1.6152817696435802, -1.5615924420675826, -1.5938060386131812, 1.47415553869208, 3.031146036862027], 0.5, 0.5, 0.008, 0.2, 80)

2025-07-07 17:08:42,702 - gym_custom_envs_real_ur_drivers_URBasic_realTimeClientEvent - INFO - Program send to Robot:
servoj([-0.10431069357622347, -1.6152817696435802, -1.5615924420675826, -1.5938060386131812, 1.4741555371734405, 3.031146036862027], 0.5, 0.5, 0.008, 0.2, 80)

2025-07-07 17:08:42,722 - gym_custom_envs_real_ur_drivers_URBasic_realTimeClientEvent - INFO - Program send to Robot:
servoj([-0.10431069357622347, -1.6152817696435802, -1.5615924420675826, -1.5938060386131812, 1.4741555371582542, 3.031146036862027], 0.5, 0.5, 0.008, 0.2, 80)

2025-07-07 17:08:42,725 - gym_custom_envs_real_ur_drivers_URBasic_realTimeClientEvent - INFO - Program send to Robot:
servoj([-0.10431069357622347, -1.6152817696435802, -1.5615924420675826, -1.5938060386131812, 1.4741555371581023, 3.031146036862027], 0.5, 0.5, 0.008, 0.2, 80)

2025-07-07 17:08:42,748 - gym_custom_envs_real_ur_drivers_URBasic_realTimeClientEvent - INFO - Program send to Robot:
servoj([-0.10431069357622347, -1.6152817696435802, -1.5615924420675826, -1.5938060386131812, 1.4741555371581008, 3.031146036862027], 0.5, 0.5, 0.008, 0.2, 80)

2025-07-07 17:08:42,758 - gym_custom_envs_real_ur_drivers_URBasic_realTimeClientEvent - INFO - Program send to Robot:
servoj([-0.10431069357622347, -1.6152817696435802, -1.5615924420675826, -1.5938060386131812, 1.4756741781381078, 3.031146036862027], 0.5, 0.5, 0.008, 0.2, 80)

2025-07-07 17:08:42,771 - gym_custom_envs_real_ur_drivers_URBasic_realTimeClientEvent - INFO - Program send to Robot:
servoj([-0.10431069357622347, -1.6152817696435802, -1.5615924420675826, -1.5938060386131812, 1.475689364547908, 3.031146036862027], 0.5, 0.5, 0.008, 0.2, 80)

2025-07-07 17:08:42,782 - gym_custom_envs_real_ur_drivers_URBasic_realTimeClientEvent - INFO - Program send to Robot:
servoj([-0.10431069357622347, -1.6152817696435802, -1.5615924420675826, -1.5938060386131812, 1.4756895164120059, 3.031146036862027], 0.5, 0.5, 0.008, 0.2, 80)

2025-07-07 17:08:42,790 - gym_custom_envs_real_ur_drivers_URBasic_realTimeClientEvent - INFO - Program send to Robot:
servoj([-0.10431069357622347, -1.6152817696435802, -1.5615924420675826, -1.5938060386131812, 1.4741708769506399, 3.031146036862027], 0.5, 0.5, 0.008, 0.2, 80)

2025-07-07 17:08:42,798 - gym_custom_envs_real_ur_drivers_URBasic_realTimeClientEvent - INFO - Program send to Robot:
servoj([-0.10431069357622347, -1.6152817696435802, -1.5615924420675826, -1.5938060386131812, 1.474155690556026, 3.031146036862027], 0.5, 0.5, 0.008, 0.2, 80)

2025-07-07 17:08:42,813 - gym_custom_envs_real_ur_drivers_URBasic_realTimeClientEvent - INFO - Program send to Robot:
servoj([-0.10431069357622347, -1.6152817696435802, -1.5615924420675826, -1.5938060386131812, 1.47415553869208, 3.031146036862027], 0.5, 0.5, 0.008, 0.2, 80)

2025-07-07 17:08:42,821 - gym_custom_envs_real_ur_drivers_URBasic_realTimeClientEvent - INFO - Program send to Robot:
servoj([-0.10431069357622347, -1.6152817696435802, -1.5615924420675826, -1.5938060386131812, 1.4756741781534475, 3.031146036862027], 0.5, 0.5, 0.008, 0.2, 80)

2025-07-07 17:08:42,838 - gym_custom_envs_real_ur_drivers_URBasic_realTimeClientEvent - INFO - Program send to Robot:
servoj([-0.10431069357622347, -1.6152817696435802, -1.5615924420675826, -1.5938060386131812, 1.475689364548061, 3.031146036862027], 0.5, 0.5, 0.008, 0.2, 80)

2025-07-07 17:08:42,845 - gym_custom_envs_real_ur_drivers_URBasic_realTimeClientEvent - INFO - Program send to Robot:
servoj([-0.10431069357622347, -1.6152817696435802, -1.5615924420675826, -1.5938060386131812, 1.4756895164120074, 3.031146036862027], 0.5, 0.5, 0.008, 0.2, 80)

2025-07-07 17:08:42,862 - gym_custom_envs_real_ur_drivers_URBasic_realTimeClientEvent - INFO - Program send to Robot:
servoj([-0.10431069357622347, -1.6152817696435802, -1.5615924420675826, -1.5938060386131812, 1.4756895179306468, 3.02962739588202], 0.5, 0.5, 0.008, 0.2, 80)

2025-07-07 17:08:42,878 - gym_custom_envs_real_ur_drivers_URBasic_realTimeClientEvent - INFO - Program send to Robot:
servoj([-0.10431069357622347, -1.6152817696435802, -1.5615924420675826, -1.5938060386131812, 1.4756895179458331, 3.02961220947222], 0.5, 0.5, 0.008, 0.2, 80)

2025-07-07 17:08:42,886 - gym_custom_envs_real_ur_drivers_URBasic_realTimeClientEvent - INFO - Program send to Robot:
servoj([-0.10431069357622347, -1.6152817696435802, -1.5615924420675826, -1.5907687566531679, 1.475689517945985, 3.029612057608122], 0.5, 0.5, 0.008, 0.2, 80)

2025-07-07 17:08:42,902 - gym_custom_envs_real_ur_drivers_URBasic_realTimeClientEvent - INFO - Program send to Robot:
servoj([-0.10431069357622347, -1.6152817696435802, -1.5615924420675826, -1.5907383838335676, 1.4756895179459866, 3.0296120560894813], 0.5, 0.5, 0.008, 0.2, 80)

2025-07-07 17:08:42,909 - gym_custom_envs_real_ur_drivers_URBasic_realTimeClientEvent - INFO - Program send to Robot:
servoj([-0.10431069357622347, -1.6152817696435802, -1.5615924420675826, -1.5907380801053717, 1.4756895179459866, 3.0296120560742947], 0.5, 0.5, 0.008, 0.2, 80)

2025-07-07 17:08:42,918 - gym_custom_envs_real_ur_drivers_URBasic_realTimeClientEvent - INFO - Program send to Robot:
servoj([-0.10431069357622347, -1.6152817696435802, -1.5615924420675826, -1.5892194360880827, 1.4756895179459866, 3.028093415094136], 0.5, 0.5, 0.008, 0.2, 80)

2025-07-07 17:08:42,925 - gym_custom_envs_real_ur_drivers_URBasic_realTimeClientEvent - INFO - Program send to Robot:
servoj([-0.10431069357622347, -1.6152817696435802, -1.5615924420675826, -1.5892042496479097, 1.4756895179459866, 3.0280782286843344], 0.5, 0.5, 0.008, 0.2, 80)

2025-07-07 17:08:42,941 - gym_custom_envs_real_ur_drivers_URBasic_realTimeClientEvent - INFO - Program send to Robot:
servoj([-0.10431069357622347, -1.6152817696435802, -1.5615924420675826, -1.589204097783508, 1.4756895179459866, 3.028078076820236], 0.5, 0.5, 0.008, 0.2, 80)

2025-07-07 17:08:42,950 - gym_custom_envs_real_ur_drivers_URBasic_realTimeClientEvent - INFO - Program send to Robot:
servoj([-0.10431069357622347, -1.6152817696435802, -1.5615924420675826, -1.5892040962648641, 1.4756895179459866, 3.0280780753015955], 0.5, 0.5, 0.008, 0.2, 80)

2025-07-07 17:08:42,958 - gym_custom_envs_real_ur_drivers_URBasic_realTimeClientEvent - INFO - Program send to Robot:
servoj([-0.10431069357622347, -1.6152817696435802, -1.5615924420675826, -1.5892040962496776, 1.4756895179459866, 3.028078075286409], 0.5, 0.5, 0.008, 0.2, 80)

2025-07-07 17:08:42,966 - gym_custom_envs_real_ur_drivers_URBasic_realTimeClientEvent - INFO - Program send to Robot:
servoj([-0.10431069357622347, -1.6152817696435802, -1.5615924420675826, -1.5892040962495257, 1.4756895179459866, 3.028078075286257], 0.5, 0.5, 0.008, 0.2, 80)

2025-07-07 17:08:42,981 - gym_custom_envs_real_ur_drivers_URBasic_realTimeClientEvent - INFO - Program send to Robot:
servoj([-0.10431069357622347, -1.6152817696435802, -1.5615924420675826, -1.5892040962495242, 1.4756895179459866, 3.0280780752862557], 0.5, 0.5, 0.008, 0.2, 80)

2025-07-07 17:08:42,991 - gym_custom_envs_real_ur_drivers_URBasic_realTimeClientEvent - INFO - Program send to Robot:
servoj([-0.10431069357622347, -1.6152817696435802, -1.5615924420675826, -1.5892040962495242, 1.4756895179459866, 3.0280780752862557], 0.5, 0.5, 0.008, 0.2, 80)

2025-07-07 17:08:42,999 - gym_custom_envs_real_ur_drivers_URBasic_realTimeClientEvent - INFO - Program send to Robot:
servoj([-0.10431069357622347, -1.6152817696435802, -1.5615924420675826, -1.5892040962495242, 1.4756895179459866, 3.0280780752862557], 0.5, 0.5, 0.008, 0.2, 80)

2025-07-07 17:08:43,015 - gym_custom_envs_real_ur_drivers_URBasic_realTimeClientEvent - INFO - Program send to Robot:
servoj([-0.10431069357622347, -1.6152817696435802, -1.5615924420675826, -1.5892040962495242, 1.4787267999060005, 3.0280780752862557], 0.5, 0.5, 0.008, 0.2, 80)

2025-07-07 17:08:43,023 - gym_custom_envs_real_ur_drivers_URBasic_realTimeClientEvent - INFO - Program send to Robot:
servoj([-0.10431069357622347, -1.6152817696435802, -1.5615924420675826, -1.5892040962495242, 1.4787571727256006, 3.0280780752862557], 0.5, 0.5, 0.008, 0.2, 80)

2025-07-07 17:08:43,029 - gym_custom_envs_real_ur_drivers_URBasic_realTimeClientEvent - INFO - Program send to Robot:
servoj([-0.10431069357622347, -1.6152817696435802, -1.5615924420675826, -1.5892040962495242, 1.4787574764537967, 3.0280780752862557], 0.5, 0.5, 0.008, 0.2, 80)

2025-07-07 17:08:43,046 - gym_custom_envs_real_ur_drivers_URBasic_realTimeClientEvent - INFO - Program send to Robot:
servoj([-0.10431069357622347, -1.6152817696435802, -1.5615924420675826, -1.5892040962495242, 1.4817947614510925, 3.0280780752862557], 0.5, 0.5, 0.008, 0.2, 80)

2025-07-07 17:08:43,053 - gym_custom_envs_real_ur_drivers_URBasic_realTimeClientEvent - INFO - Program send to Robot:
servoj([-0.10431069357622347, -1.6152817696435802, -1.5615924420675826, -1.5892040962495242, 1.4818251343010653, 3.0280780752862557], 0.5, 0.5, 0.008, 0.2, 80)

2025-07-07 17:08:43,062 - gym_custom_envs_real_ur_drivers_URBasic_realTimeClientEvent - INFO - Program send to Robot:
servoj([-0.10431069357622347, -1.6152817696435802, -1.5615924420675826, -1.5892040962495242, 1.481825438029565, 3.0280780752862557], 0.5, 0.5, 0.008, 0.2, 80)

2025-07-07 17:08:43,071 - gym_custom_envs_real_ur_drivers_URBasic_realTimeClientEvent - INFO - Program send to Robot:
servoj([-0.10431069357622347, -1.6152817696435802, -1.5615924420675826, -1.5892040962495242, 1.48182544106685, 3.0280780752862557], 0.5, 0.5, 0.008, 0.2, 80)

2025-07-07 17:08:43,087 - gym_custom_envs_real_ur_drivers_URBasic_realTimeClientEvent - INFO - Program send to Robot:
servoj([-0.10431069357622347, -1.6152817696435802, -1.5615924420675826, -1.5892040962495242, 1.486381364037243, 3.0280780752862557], 0.5, 0.5, 0.008, 0.2, 80)

2025-07-07 17:08:43,096 - gym_custom_envs_real_ur_drivers_URBasic_realTimeClientEvent - INFO - Program send to Robot:
servoj([-0.10431069357622347, -1.6152817696435802, -1.5615924420675826, -1.5892040962495242, 1.486426923266947, 3.0280780752862557], 0.5, 0.5, 0.008, 0.2, 80)

2025-07-07 17:08:43,102 - gym_custom_envs_real_ur_drivers_URBasic_realTimeClientEvent - INFO - Program send to Robot:
servoj([-0.10431069357622347, -1.6152817696435802, -1.5615924420675826, -1.5892040962495242, 1.486427378859244, 3.0280780752862557], 0.5, 0.5, 0.008, 0.2, 80)

2025-07-07 17:08:43,119 - gym_custom_envs_real_ur_drivers_URBasic_realTimeClientEvent - INFO - Program send to Robot:
servoj([-0.10431069357622347, -1.6152817696435802, -1.5615924420675826, -1.5892040962495242, 1.4894646653751809, 3.026559434306249], 0.5, 0.5, 0.008, 0.2, 80)

2025-07-07 17:08:43,126 - gym_custom_envs_real_ur_drivers_URBasic_realTimeClientEvent - INFO - Program send to Robot:
servoj([-0.10431069357622347, -1.6152817696435802, -1.5615924420675826, -1.5892040962495242, 1.4894950382403402, 3.0265442478964486], 0.5, 0.5, 0.008, 0.2, 80)

2025-07-07 17:08:43,137 - gym_custom_envs_real_ur_drivers_URBasic_realTimeClientEvent - INFO - Program send to Robot:
servoj([-0.10431069357622347, -1.6152817696435802, -1.5615924420675826, -1.5892040962495242, 1.4894953419689918, 3.026544096032351], 0.5, 0.5, 0.008, 0.2, 80)

2025-07-07 17:08:43,149 - gym_custom_envs_real_ur_drivers_URBasic_realTimeClientEvent - INFO - Program send to Robot:
servoj([-0.10431069357622347, -1.6137631286635734, -1.5615924420675826, -1.5892040962495242, 1.492532626966291, 3.0265440945137096], 0.5, 0.5, 0.008, 0.2, 80)

2025-07-07 17:08:43,159 - gym_custom_envs_real_ur_drivers_URBasic_realTimeClientEvent - INFO - Program send to Robot:
servoj([-0.10431069357622347, -1.6137479422537733, -1.5615924420675826, -1.5892040962495242, 1.4925629998162642, 3.0265440944985236], 0.5, 0.5, 0.008, 0.2, 80)

2025-07-07 17:08:43,167 - gym_custom_envs_real_ur_drivers_URBasic_realTimeClientEvent - INFO - Program send to Robot:
servoj([-0.10431069357622347, -1.6137477903896753, -1.5615924420675826, -1.5892040962495242, 1.4925633035447639, 3.0265440944983717], 0.5, 0.5, 0.008, 0.2, 80)

2025-07-07 17:08:43,174 - gym_custom_envs_real_ur_drivers_URBasic_realTimeClientEvent - INFO - Program send to Robot:
servoj([-0.10431069357622347, -1.6137477888710343, -1.5615924420675826, -1.5907227372295312, 1.4971192295220699, 3.02654409449837], 0.5, 0.5, 0.008, 0.2, 80)

2025-07-07 17:08:43,191 - gym_custom_envs_real_ur_drivers_URBasic_realTimeClientEvent - INFO - Program send to Robot:
servoj([-0.10431069357622347, -1.613747788855848, -1.5615924420675826, -1.5907379236393313, 1.497164788781843, 3.02654409449837], 0.5, 0.5, 0.008, 0.2, 80)

2025-07-07 17:08:43,197 - gym_custom_envs_real_ur_drivers_URBasic_realTimeClientEvent - INFO - Program send to Robot:
servoj([-0.10431069357622347, -1.6137477888556961, -1.5615924420675826, -1.5907380755034293, 1.4971652443744405, 3.02654409449837], 0.5, 0.5, 0.008, 0.2, 80)

2025-07-07 17:08:43,207 - gym_custom_envs_real_ur_drivers_URBasic_realTimeClientEvent - INFO - Program send to Robot:
servoj([-0.10431069357622347, -1.6137477888556946, -1.5615924420675826, -1.5892194360420633, 1.4986838899103736, 3.0280627354783767], 0.5, 0.5, 0.008, 0.2, 80)

2025-07-07 17:08:43,222 - gym_custom_envs_real_ur_drivers_URBasic_realTimeClientEvent - INFO - Program send to Robot:
servoj([-0.10431069357622347, -1.6137477888556946, -1.5615924420675826, -1.5892042496474497, 1.4986990763657329, 3.028077921888177], 0.5, 0.5, 0.008, 0.2, 80)

2025-07-07 17:08:43,232 - gym_custom_envs_real_ur_drivers_URBasic_realTimeClientEvent - INFO - Program send to Robot:
servoj([-0.10431069357622347, -1.6137477888556946, -1.5615924420675826, -1.5892040977835036, 1.4986992282302865, 3.028078073752275], 0.5, 0.5, 0.008, 0.2, 80)

2025-07-07 17:08:43,241 - gym_custom_envs_real_ur_drivers_URBasic_realTimeClientEvent - INFO - Program send to Robot:
servoj([-0.10431069357622347, -1.6137477888556946, -1.5615924420675826, -1.5892040962648641, 1.498699229748932, 3.028078075270916], 0.5, 0.5, 0.008, 0.2, 80)

2025-07-07 17:08:43,246 - gym_custom_envs_real_ur_drivers_URBasic_realTimeClientEvent - INFO - Program send to Robot:
servoj([-0.10431069357622347, -1.6137477888556946, -1.5615924420675826, -1.5892040962496776, 1.4986992297641184, 3.028078075286102], 0.5, 0.5, 0.008, 0.2, 80)

2025-07-07 17:08:43,262 - gym_custom_envs_real_ur_drivers_URBasic_realTimeClientEvent - INFO - Program send to Robot:
servoj([-0.10431069357622347, -1.6137477888556946, -1.5615924420675826, -1.5892040962495257, 1.4986992297642703, 3.028078075286254], 0.5, 0.5, 0.008, 0.2, 80)

2025-07-07 17:08:43,269 - gym_custom_envs_real_ur_drivers_URBasic_realTimeClientEvent - INFO - Program send to Robot:
servoj([-0.10431069357622347, -1.6137477888556946, -1.5615924420675826, -1.5892040962495242, 1.4986992297642718, 3.0280780752862557], 0.5, 0.5, 0.008, 0.2, 80)

2025-07-07 17:08:43,281 - gym_custom_envs_real_ur_drivers_URBasic_realTimeClientEvent - INFO - Program send to Robot:
servoj([-0.10431069357622347, -1.6137477888556946, -1.5615924420675826, -1.5892040962495242, 1.4986992297642718, 3.0280780752862557], 0.5, 0.5, 0.008, 0.2, 80)

2025-07-07 17:08:43,294 - gym_custom_envs_real_ur_drivers_URBasic_realTimeClientEvent - INFO - Program send to Robot:
servoj([-0.10431069357622347, -1.6137477888556946, -1.5615924420675826, -1.5892040962495242, 1.4986992297642718, 3.0280780752862557], 0.5, 0.5, 0.008, 0.2, 80)

2025-07-07 17:08:43,305 - gym_custom_envs_real_ur_drivers_URBasic_realTimeClientEvent - INFO - Program send to Robot:
servoj([-0.10431069357622347, -1.6137477888556946, -1.5615924420675826, -1.5892040962495242, 1.4986992297642718, 3.026559434306249], 0.5, 0.5, 0.008, 0.2, 80)

2025-07-07 17:08:43,309 - gym_custom_envs_real_ur_drivers_URBasic_realTimeClientEvent - INFO - Program send to Robot:
servoj([-0.10431069357622347, -1.6137477888556946, -1.5615924420675826, -1.5892040962495242, 1.4986992297642718, 3.0265442478964486], 0.5, 0.5, 0.008, 0.2, 80)

2025-07-07 17:08:43,329 - gym_custom_envs_real_ur_drivers_URBasic_realTimeClientEvent - INFO - Program send to Robot:
servoj([-0.10431069357622347, -1.6137477888556946, -1.5615924420675826, -1.5892040962495242, 1.4986992297642718, 3.026544096032351], 0.5, 0.5, 0.008, 0.2, 80)

2025-07-07 17:08:43,334 - gym_custom_envs_real_ur_drivers_URBasic_realTimeClientEvent - INFO - Program send to Robot:
servoj([-0.10431069357622347, -1.6137477888556946, -1.5615924420675826, -1.5892040962495242, 1.500217870744278, 3.0265440945137096], 0.5, 0.5, 0.008, 0.2, 80)

2025-07-07 17:08:43,355 - gym_custom_envs_real_ur_drivers_URBasic_realTimeClientEvent - INFO - Program send to Robot:
servoj([-0.10431069357622347, -1.6137477888556946, -1.5615924420675826, -1.5892040962495242, 1.500233057154078, 3.0265440944985236], 0.5, 0.5, 0.008, 0.2, 80)

2025-07-07 17:08:43,366 - gym_custom_envs_real_ur_drivers_URBasic_realTimeClientEvent - INFO - Program send to Robot:
servoj([-0.10431069357622347, -1.6137477888556946, -1.5600738010875759, -1.5892040962495242, 1.500233209018176, 3.0265440944983717], 0.5, 0.5, 0.008, 0.2, 80)

2025-07-07 17:08:43,379 - gym_custom_envs_real_ur_drivers_URBasic_realTimeClientEvent - INFO - Program send to Robot:
servoj([-0.10431069357622347, -1.6137477888556946, -1.5600586146777757, -1.5892040962495242, 1.500233210536817, 3.02654409449837], 0.5, 0.5, 0.008, 0.2, 80)

2025-07-07 17:08:43,389 - gym_custom_envs_real_ur_drivers_URBasic_realTimeClientEvent - INFO - Program send to Robot:
servoj([-0.10431069357622347, -1.6137477888556946, -1.5600584628136778, -1.5892040962495242, 1.5002332105520035, 3.02654409449837], 0.5, 0.5, 0.008, 0.2, 80)

2025-07-07 17:08:43,397 - gym_custom_envs_real_ur_drivers_URBasic_realTimeClientEvent - INFO - Program send to Robot:
servoj([-0.10431069357622347, -1.6137477888556946, -1.5600584612950368, -1.5876854552695174, 1.5017518515321622, 3.02654409449837], 0.5, 0.5, 0.008, 0.2, 80)

2025-07-07 17:08:43,405 - gym_custom_envs_real_ur_drivers_URBasic_realTimeClientEvent - INFO - Program send to Robot:
servoj([-0.10431069357622347, -1.6137477888556946, -1.5600584612798503, -1.5876702688597175, 1.5017670379419636, 3.02654409449837], 0.5, 0.5, 0.008, 0.2, 80)

2025-07-07 17:08:43,426 - gym_custom_envs_real_ur_drivers_URBasic_realTimeClientEvent - INFO - Program send to Robot:
servoj([-0.10431069357622347, -1.6137477888556946, -1.5600584612796984, -1.5876701169956193, 1.5048044717660756, 3.02654409449837], 0.5, 0.5, 0.008, 0.2, 80)

2025-07-07 17:08:43,430 - gym_custom_envs_real_ur_drivers_URBasic_realTimeClientEvent - INFO - Program send to Robot:
servoj([-0.10431069357622347, -1.6137477888556946, -1.5600584612796968, -1.5876701154769783, 1.5048348461043168, 3.02654409449837], 0.5, 0.5, 0.008, 0.2, 80)

2025-07-07 17:08:43,450 - gym_custom_envs_real_ur_drivers_URBasic_realTimeClientEvent - INFO - Program send to Robot:
servoj([-0.10431069357622347, -1.6137477888556946, -1.5600584612796968, -1.587670115461792, 1.504835149847699, 3.02654409449837], 0.5, 0.5, 0.008, 0.2, 80)

2025-07-07 17:08:43,453 - gym_custom_envs_real_ur_drivers_URBasic_realTimeClientEvent - INFO - Program send to Robot:
servoj([-0.10431069357622347, -1.6137477888556946, -1.5600584612796968, -1.5876701154616402, 1.504835152885133, 3.02654409449837], 0.5, 0.5, 0.008, 0.2, 80)

2025-07-07 17:08:43,475 - gym_custom_envs_real_ur_drivers_URBasic_realTimeClientEvent - INFO - Program send to Robot:
servoj([-0.10431069357622347, -1.6137477888556946, -1.5600584612796968, -1.5861514744816319, 1.5078724348755204, 3.02654409449837], 0.5, 0.5, 0.008, 0.2, 80)

2025-07-07 17:08:43,485 - gym_custom_envs_real_ur_drivers_URBasic_realTimeClientEvent - INFO - Program send to Robot:
servoj([-0.10431069357622347, -1.6137477888556946, -1.5600584612796968, -1.5861362880718317, 1.5079028076954242, 3.02654409449837], 0.5, 0.5, 0.008, 0.2, 80)

2025-07-07 17:08:43,493 - gym_custom_envs_real_ur_drivers_URBasic_realTimeClientEvent - INFO - Program send to Robot:
servoj([-0.10431069357622347, -1.6137477888556946, -1.5585398202996898, -1.5861361362077337, 1.5094217524036302, 3.02654409449837], 0.5, 0.5, 0.008, 0.2, 80)

2025-07-07 17:08:43,501 - gym_custom_envs_real_ur_drivers_URBasic_realTimeClientEvent - INFO - Program send to Robot:
servoj([-0.10431069357622347, -1.6137477888556946, -1.55852463388989, -1.5861361346890928, 1.5094369418507123, 3.02654409449837], 0.5, 0.5, 0.008, 0.2, 80)

2025-07-07 17:08:43,518 - gym_custom_envs_real_ur_drivers_URBasic_realTimeClientEvent - INFO - Program send to Robot:
servoj([-0.10431069357622347, -1.6137477888556946, -1.558524482025792, -1.5861361346739065, 1.509437093745183, 3.02654409449837], 0.5, 0.5, 0.008, 0.2, 80)

2025-07-07 17:08:43,525 - gym_custom_envs_real_ur_drivers_URBasic_realTimeClientEvent - INFO - Program send to Robot:
servoj([-0.1058293345562304, -1.6137477888556946, -1.558524480507151, -1.5861361346737546, 1.5109557362441346, 3.02654409449837], 0.5, 0.5, 0.008, 0.2, 80)

2025-07-07 17:08:43,542 - gym_custom_envs_real_ur_drivers_URBasic_realTimeClientEvent - INFO - Program send to Robot:
servoj([-0.10584452096603048, -1.6137477888556946, -1.5585244804919645, -1.586136134673753, 1.5109709226691241, 3.02654409449837], 0.5, 0.5, 0.008, 0.2, 80)

2025-07-07 17:08:43,549 - gym_custom_envs_real_ur_drivers_URBasic_realTimeClientEvent - INFO - Program send to Robot:
servoj([-0.10584467283012848, -1.6137477888556946, -1.5585244804918126, -1.586136134673753, 1.510971074533374, 3.02654409449837], 0.5, 0.5, 0.008, 0.2, 80)

2025-07-07 17:08:43,571 - gym_custom_envs_real_ur_drivers_URBasic_realTimeClientEvent - INFO - Program send to Robot:
servoj([-0.10584467434876946, -1.6122291478756876, -1.558524480491811, -1.586136134673753, 1.5140083580120305, 3.02654409449837], 0.5, 0.5, 0.008, 0.2, 80)

2025-07-07 17:08:43,582 - gym_custom_envs_real_ur_drivers_URBasic_realTimeClientEvent - INFO - Program send to Robot:
servoj([-0.10584467436395587, -1.6122139614658875, -1.558524480491811, -1.586136134673753, 1.514038730846817, 3.02654409449837], 0.5, 0.5, 0.008, 0.2, 80)

2025-07-07 17:08:43,596 - gym_custom_envs_real_ur_drivers_URBasic_realTimeClientEvent - INFO - Program send to Robot:
servoj([-0.10888195632412118, -1.6122138096017895, -1.558524480491811, -1.586136134673753, 1.518594957515185, 3.02654409449837], 0.5, 0.5, 0.008, 0.2, 80)

2025-07-07 17:08:43,606 - gym_custom_envs_real_ur_drivers_URBasic_realTimeClientEvent - INFO - Program send to Robot:
servoj([-0.10891232914372283, -1.6122138080831485, -1.558524480491811, -1.586136134673753, 1.5186405197818686, 3.02654409449837], 0.5, 0.5, 0.008, 0.2, 80)

2025-07-07 17:08:43,613 - gym_custom_envs_real_ur_drivers_URBasic_realTimeClientEvent - INFO - Program send to Robot:
servoj([-0.10891263287191885, -1.612213808067962, -1.558524480491811, -1.586136134673753, 1.5186409754045356, 3.02654409449837], 0.5, 0.5, 0.008, 0.2, 80)

2025-07-07 17:08:43,621 - gym_custom_envs_real_ur_drivers_URBasic_realTimeClientEvent - INFO - Program send to Robot:
servoj([-0.1134685588492212, -1.6122138080678101, -1.558524480491811, -1.586136134673753, 1.5262341848607959, 3.02654409449837], 0.5, 0.5, 0.008, 0.2, 80)

2025-07-07 17:08:43,638 - gym_custom_envs_real_ur_drivers_URBasic_realTimeClientEvent - INFO - Program send to Robot:
servoj([-0.11351411810899423, -1.6122138080678088, -1.558524480491811, -1.586136134673753, 1.5263101169553586, 3.02654409449837], 0.5, 0.5, 0.008, 0.2, 80)

2025-07-07 17:08:43,645 - gym_custom_envs_real_ur_drivers_URBasic_realTimeClientEvent - INFO - Program send to Robot:
servoj([-0.11351457370159196, -1.6122138080678088, -1.558524480491811, -1.586136134673753, 1.5263108762763042, 3.02654409449837], 0.5, 0.5, 0.008, 0.2, 80)

2025-07-07 17:08:43,665 - gym_custom_envs_real_ur_drivers_URBasic_realTimeClientEvent - INFO - Program send to Robot:
servoj([-0.11807050119753834, -1.6122138080678088, -1.557005839511805, -1.586136134673753, 1.5354227297495544, 3.02654409449837], 0.5, 0.5, 0.008, 0.2, 80)

2025-07-07 17:08:43,670 - gym_custom_envs_real_ur_drivers_URBasic_realTimeClientEvent - INFO - Program send to Robot:
servoj([-0.1181160604724978, -1.6122138080678088, -1.556990653102005, -1.586136134673753, 1.535513848284287, 3.02654409449837], 0.5, 0.5, 0.008, 0.2, 80)

2025-07-07 17:08:43,689 - gym_custom_envs_real_ur_drivers_URBasic_realTimeClientEvent - INFO - Program send to Robot:
servoj([-0.11963515704525433, -1.6106951670878022, -1.5569905012379068, -1.586136134673753, 1.544626605349675, 3.02654409449837], 0.5, 0.5, 0.008, 0.2, 80)

2025-07-07 17:08:43,693 - gym_custom_envs_real_ur_drivers_URBasic_realTimeClientEvent - INFO - Program send to Robot:
servoj([-0.1196503480109819, -1.610679980678002, -1.5569904997192658, -1.586136134673753, 1.544717732920329, 3.02654409449837], 0.5, 0.5, 0.008, 0.2, 80)

2025-07-07 17:08:43,713 - gym_custom_envs_real_ur_drivers_URBasic_realTimeClientEvent - INFO - Program send to Robot:
servoj([-0.11965049992063917, -1.6106798288139041, -1.5569904997040795, -1.586136134673753, 1.5447186441960354, 3.02654409449837], 0.5, 0.5, 0.008, 0.2, 80)

2025-07-07 17:08:43,717 - gym_custom_envs_real_ur_drivers_URBasic_realTimeClientEvent - INFO - Program send to Robot:
servoj([-0.12116914241974226, -1.6091611863152564, -1.5554718587239207, -1.586136134673753, 1.5523118582088262, 3.02654409449837], 0.5, 0.5, 0.008, 0.2, 80)

2025-07-07 17:08:43,738 - gym_custom_envs_real_ur_drivers_URBasic_realTimeClientEvent - INFO - Program send to Robot:
servoj([-0.12118432884473329, -1.60914599989027, -1.555456672314119, -1.586136134673753, 1.5523877903489542, 3.02654409449837], 0.5, 0.5, 0.008, 0.2, 80)

2025-07-07 17:08:43,742 - gym_custom_envs_real_ur_drivers_URBasic_realTimeClientEvent - INFO - Program send to Robot:
servoj([-0.1211844807089832, -1.60914584802602, -1.555456520450021, -1.586136134673753, 1.5523885496703556, 3.02654409449837], 0.5, 0.5, 0.008, 0.2, 80)

2025-07-07 17:08:43,763 - gym_custom_envs_real_ur_drivers_URBasic_realTimeClientEvent - INFO - Program send to Robot:
servoj([-0.12118448222762569, -1.6076272055273708, -1.553937877951373, -1.586136134673753, 1.5523885572635694, 3.02654409449837], 0.5, 0.5, 0.008, 0.2, 80)

2025-07-07 17:08:43,774 - gym_custom_envs_real_ur_drivers_URBasic_realTimeClientEvent - INFO - Program send to Robot:
servoj([-0.12118448224281213, -1.6076120191023842, -1.5539226915263866, -1.586136134673753, 1.5523885573395015, 3.02654409449837], 0.5, 0.5, 0.008, 0.2, 80)

2025-07-07 17:08:43,787 - gym_custom_envs_real_ur_drivers_URBasic_realTimeClientEvent - INFO - Program send to Robot:
servoj([-0.12118448224296399, -1.6015373033181068, -1.550885257702123, -1.5830988527137393, 1.552388557340261, 3.02654409449837], 0.5, 0.5, 0.008, 0.2, 80)

2025-07-07 17:08:43,797 - gym_custom_envs_real_ur_drivers_URBasic_realTimeClientEvent - INFO - Program send to Robot:
servoj([-0.1211844822429655, -1.6014765561602642, -1.5508548833638804, -1.5830684798941392, 1.5523885573402685, 3.02654409449837], 0.5, 0.5, 0.008, 0.2, 80)

2025-07-07 17:08:43,806 - gym_custom_envs_real_ur_drivers_URBasic_realTimeClientEvent - INFO - Program send to Robot:
servoj([-0.12118448224296552, -1.6014759486886858, -1.550854579620498, -1.583068176165943, 1.5523885573402687, 3.02654409449837], 0.5, 0.5, 0.008, 0.2, 80)

2025-07-07 17:08:43,813 - gym_custom_envs_real_ur_drivers_URBasic_realTimeClientEvent - INFO - Program send to Robot:
servoj([-0.12118448224296552, -1.595401378693943, -1.549335935603058, -1.576993609208634, 1.5523885573402687, 3.02654409449837], 0.5, 0.5, 0.008, 0.2, 80)

2025-07-07 17:08:43,830 - gym_custom_envs_real_ur_drivers_URBasic_realTimeClientEvent - INFO - Program send to Robot:
servoj([-0.12118448224296552, -1.5953406329939954, -1.5493207491628838, -1.5769328635390611, 1.5523885573402687, 3.02654409449837], 0.5, 0.5, 0.008, 0.2, 80)

2025-07-07 17:08:43,846 - gym_custom_envs_real_ur_drivers_URBasic_realTimeClientEvent - INFO - Program send to Robot:
servoj([-0.12118448224296552, -1.590784102596976, -1.5478019563184748, -1.5708576921623383, 1.5523885573402687, 3.0280627354783767], 0.5, 0.5, 0.008, 0.2, 80)

2025-07-07 17:08:43,853 - gym_custom_envs_real_ur_drivers_URBasic_realTimeClientEvent - INFO - Program send to Robot:
servoj([-0.12118448224296552, -1.5907385372930058, -1.5477867683900308, -1.570796940448571, 1.5523885573402687, 3.028077921888177], 0.5, 0.5, 0.008, 0.2, 80)

2025-07-07 17:08:43,861 - gym_custom_envs_real_ur_drivers_URBasic_realTimeClientEvent - INFO - Program send to Robot:
servoj([-0.12118448224296552, -1.590738081639966, -1.5477866165107463, -1.5707963329314334, 1.5523885573402687, 3.028078073752275], 0.5, 0.5, 0.008, 0.2, 80)

2025-07-07 17:08:43,870 - gym_custom_envs_real_ur_drivers_URBasic_realTimeClientEvent - INFO - Program send to Robot:
servoj([-0.12118448224296552, -1.5907380770834356, -1.5477866149919535, -1.5707963268562621, 1.5523885573402687, 3.028078075270916], 0.5, 0.5, 0.008, 0.2, 80)

2025-07-07 17:08:43,886 - gym_custom_envs_real_ur_drivers_URBasic_realTimeClientEvent - INFO - Program send to Robot:
servoj([-0.12118448224296552, -1.5892194360578633, -1.5477866149767656, -1.5677590448354966, 1.5523885573402687, 3.028078075286102], 0.5, 0.5, 0.008, 0.2, 80)

2025-07-07 17:08:43,894 - gym_custom_envs_real_ur_drivers_URBasic_realTimeClientEvent - INFO - Program send to Robot:
servoj([-0.12118448224296552, -1.5892042496476075, -1.5477866149766137, -1.567728672015289, 1.5523885573402687, 3.028078075286254], 0.5, 0.5, 0.008, 0.2, 80)

2025-07-07 17:08:43,901 - gym_custom_envs_real_ur_drivers_URBasic_realTimeClientEvent - INFO - Program send to Robot:
servoj([-0.12118448224296552, -1.5892040977835051, -1.5477866149766122, -1.5677283682870868, 1.5523885573402687, 3.0280780752862557], 0.5, 0.5, 0.008, 0.2, 80)

2025-07-07 17:08:43,910 - gym_custom_envs_real_ur_drivers_URBasic_realTimeClientEvent - INFO - Program send to Robot:
servoj([-0.12118448224296552, -1.5892040962648641, -1.5477866149766122, -1.566209724269798, 1.550869916360262, 3.0280780752862557], 0.5, 0.5, 0.008, 0.2, 80)

2025-07-07 17:08:43,926 - gym_custom_envs_real_ur_drivers_URBasic_realTimeClientEvent - INFO - Program send to Robot:
servoj([-0.12118448224296552, -1.5892040962496776, -1.5477866149766122, -1.5661945378296251, 1.5508547299504618, 3.0280780752862557], 0.5, 0.5, 0.008, 0.2, 80)

2025-07-07 17:08:43,933 - gym_custom_envs_real_ur_drivers_URBasic_realTimeClientEvent - INFO - Program send to Robot:
servoj([-0.12118448224296552, -1.5892040962495257, -1.5477866149766122, -1.5661943859652234, 1.5508545780863638, 3.0280780752862557], 0.5, 0.5, 0.008, 0.2, 80)

2025-07-07 17:08:43,941 - gym_custom_envs_real_ur_drivers_URBasic_realTimeClientEvent - INFO - Program send to Robot:
servoj([-0.12118448224296552, -1.5876854552695174, -1.5477866149766122, -1.5661943844465793, 1.5508545765677229, 3.0280780752862557], 0.5, 0.5, 0.008, 0.2, 80)

2025-07-07 17:08:43,949 - gym_custom_envs_real_ur_drivers_URBasic_realTimeClientEvent - INFO - Program send to Robot:
servoj([-0.12118448224296552, -1.5876702688597175, -1.5477866149766122, -1.566194384431393, 1.5508545765525363, 3.0280780752862557], 0.5, 0.5, 0.008, 0.2, 80)

2025-07-07 17:08:43,966 - gym_custom_envs_real_ur_drivers_URBasic_realTimeClientEvent - INFO - Program send to Robot:
servoj([-0.12118448224296552, -1.5876701169956193, -1.5477866149766122, -1.5661943844312411, 1.5508545765523845, 3.0280780752862557], 0.5, 0.5, 0.008, 0.2, 80)

2025-07-07 17:08:43,974 - gym_custom_envs_real_ur_drivers_URBasic_realTimeClientEvent - INFO - Program send to Robot:
servoj([-0.12118448224296552, -1.5876701154769783, -1.5477866149766122, -1.5661943844312396, 1.5508545765523831, 3.0280780752862557], 0.5, 0.5, 0.008, 0.2, 80)

2025-07-07 17:08:43,982 - gym_custom_envs_real_ur_drivers_URBasic_realTimeClientEvent - INFO - Program send to Robot:
servoj([-0.12118448224296552, -1.587670115461792, -1.5477866149766122, -1.5661943844312396, 1.550854576552383, 3.0280780752862557], 0.5, 0.5, 0.008, 0.2, 80)

2025-07-07 17:08:43,990 - gym_custom_envs_real_ur_drivers_URBasic_realTimeClientEvent - INFO - Program send to Robot:
servoj([-0.12118448224296552, -1.5876701154616402, -1.5477866149766122, -1.5661943844312396, 1.550854576552383, 3.0280780752862557], 0.5, 0.5, 0.008, 0.2, 80)

2025-07-07 17:08:44,006 - gym_custom_envs_real_ur_drivers_URBasic_realTimeClientEvent - INFO - Program send to Robot:
servoj([-0.12118448224296552, -1.5876701154616386, -1.5477866149766122, -1.5661943844312396, 1.550854576552383, 3.0280780752862557], 0.5, 0.5, 0.008, 0.2, 80)

2025-07-07 17:08:44,014 - gym_custom_envs_real_ur_drivers_URBasic_realTimeClientEvent - INFO - Program send to Robot:
servoj([-0.12118448224296552, -1.5876701154616386, -1.5477866149766122, -1.5661943844312396, 1.550854576552383, 3.0280780752862557], 0.5, 0.5, 0.008, 0.2, 80)

2025-07-07 17:08:44,021 - gym_custom_envs_real_ur_drivers_URBasic_realTimeClientEvent - INFO - Program send to Robot:
servoj([-0.12118448224296552, -1.5876701154616386, -1.5477866149766122, -1.5661943844312396, 1.550854576552383, 3.0280780752862557], 0.5, 0.5, 0.008, 0.2, 80)

2025-07-07 17:08:44,038 - gym_custom_envs_real_ur_drivers_URBasic_realTimeClientEvent - INFO - Program send to Robot:
servoj([-0.12118448224296552, -1.5876701154616386, -1.5477866149766122, -1.5661943844312396, 1.550854576552383, 3.0280780752862557], 0.5, 0.5, 0.008, 0.2, 80)

2025-07-07 17:08:44,045 - gym_custom_envs_real_ur_drivers_URBasic_realTimeClientEvent - INFO - Program send to Robot:
servoj([-0.12118448224296552, -1.5876701154616386, -1.5477866149766122, -1.5661943844312396, 1.550854576552383, 3.0280780752862557], 0.5, 0.5, 0.008, 0.2, 80)

2025-07-07 17:08:44,053 - gym_custom_envs_real_ur_drivers_URBasic_realTimeClientEvent - INFO - Program send to Robot:
servoj([-0.12118448224296552, -1.5876701154616386, -1.5477866149766122, -1.5661943844312396, 1.550854576552383, 3.0280780752862557], 0.5, 0.5, 0.008, 0.2, 80)

2025-07-07 17:08:44,061 - gym_custom_envs_real_ur_drivers_URBasic_realTimeClientEvent - INFO - Program send to Robot:
servoj([-0.12118448224296552, -1.5876701154616386, -1.5477866149766122, -1.5661943844312396, 1.550854576552383, 3.0280780752862557], 0.5, 0.5, 0.008, 0.2, 80)

2025-07-07 17:08:44,077 - gym_custom_envs_real_ur_drivers_URBasic_realTimeClientEvent - INFO - Program send to Robot:
servoj([-0.12118448224296552, -1.5876701154616386, -1.5477866149766122, -1.5661943844312396, 1.550854576552383, 3.0280780752862557], 0.5, 0.5, 0.008, 0.2, 80)

2025-07-07 17:08:44,086 - gym_custom_envs_real_ur_drivers_URBasic_realTimeClientEvent - INFO - Program send to Robot:
servoj([-0.12118448224296552, -1.5876701154616386, -1.5477866149766122, -1.5661943844312396, 1.550854576552383, 3.0280780752862557], 0.5, 0.5, 0.008, 0.2, 80)

2025-07-07 17:08:44,093 - gym_custom_envs_real_ur_drivers_URBasic_realTimeClientEvent - INFO - Program send to Robot:
servoj([-0.12118448224296552, -1.5876701154616386, -1.5477866149766122, -1.5661943844312396, 1.550854576552383, 3.0280780752862557], 0.5, 0.5, 0.008, 0.2, 80)

2025-07-07 17:08:44,111 - gym_custom_envs_real_ur_drivers_URBasic_realTimeClientEvent - INFO - Program send to Robot:
servoj([-0.12118448224296552, -1.5876701154616386, -1.5477866149766122, -1.5661943844312396, 1.550854576552383, 3.0280780752862557], 0.5, 0.5, 0.008, 0.2, 80)

2025-07-07 17:08:44,119 - gym_custom_envs_real_ur_drivers_URBasic_realTimeClientEvent - INFO - Program send to Robot:
servoj([-0.12118448224296552, -1.5876701154616386, -1.5477866149766122, -1.5661943844312396, 1.550854576552383, 3.0280780752862557], 0.5, 0.5, 0.008, 0.2, 80)

2025-07-07 17:08:44,127 - gym_custom_envs_real_ur_drivers_URBasic_realTimeClientEvent - INFO - Program send to Robot:
servoj([-0.12118448224296552, -1.5876701154616386, -1.5477866149766122, -1.5661943844312396, 1.550854576552383, 3.0280780752862557], 0.5, 0.5, 0.008, 0.2, 80)

2025-07-07 17:08:44,141 - gym_custom_envs_real_ur_drivers_URBasic_realTimeClientEvent - INFO - Program send to Robot:
servoj([-0.12118448224296552, -1.5876701154616386, -1.5477866149766122, -1.5661943844312396, 1.550854576552383, 3.0280780752862557], 0.5, 0.5, 0.008, 0.2, 80)

2025-07-07 17:08:44,150 - gym_custom_envs_real_ur_drivers_URBasic_realTimeClientEvent - INFO - Program send to Robot:
servoj([-0.12118448224296552, -1.5876701154616386, -1.5477866149766122, -1.5661943844312396, 1.550854576552383, 3.0280780752862557], 0.5, 0.5, 0.008, 0.2, 80)

2025-07-07 17:08:44,158 - gym_custom_envs_real_ur_drivers_URBasic_realTimeClientEvent - INFO - Program send to Robot:
servoj([-0.12118448224296552, -1.5876701154616386, -1.5477866149766122, -1.5661943844312396, 1.550854576552383, 3.0280780752862557], 0.5, 0.5, 0.008, 0.2, 80)

2025-07-07 17:08:44,166 - gym_custom_envs_real_ur_drivers_URBasic_realTimeClientEvent - INFO - Program send to Robot:
servoj([-0.12118448224296552, -1.5876701154616386, -1.5477866149766122, -1.5661943844312396, 1.550854576552383, 3.0280780752862557], 0.5, 0.5, 0.008, 0.2, 80)

2025-07-07 17:08:44,181 - gym_custom_envs_real_ur_drivers_URBasic_realTimeClientEvent - INFO - Program send to Robot:
servoj([-0.12118448224296552, -1.5876701154616386, -1.5477866149766122, -1.5661943844312396, 1.550854576552383, 3.0280780752862557], 0.5, 0.5, 0.008, 0.2, 80)

2025-07-07 17:08:44,189 - gym_custom_envs_real_ur_drivers_URBasic_realTimeClientEvent - INFO - Program send to Robot:
servoj([-0.12118448224296552, -1.5876701154616386, -1.5477866149766122, -1.5661943844312396, 1.550854576552383, 3.0280780752862557], 0.5, 0.5, 0.008, 0.2, 80)

2025-07-07 17:08:44,197 - gym_custom_envs_real_ur_drivers_URBasic_realTimeClientEvent - INFO - Program send to Robot:
servoj([-0.12118448224296552, -1.5876701154616386, -1.5477866149766122, -1.5661943844312396, 1.550854576552383, 3.026559434306249], 0.5, 0.5, 0.008, 0.2, 80)

2025-07-07 17:08:44,205 - gym_custom_envs_real_ur_drivers_URBasic_realTimeClientEvent - INFO - Program send to Robot:
servoj([-0.12118448224296552, -1.5876701154616386, -1.5477866149766122, -1.5661943844312396, 1.550854576552383, 3.0265442478964486], 0.5, 0.5, 0.008, 0.2, 80)

2025-07-07 17:08:44,222 - gym_custom_envs_real_ur_drivers_URBasic_realTimeClientEvent - INFO - Program send to Robot:
servoj([-0.12118448224296552, -1.5876701154616386, -1.5477866149766122, -1.5661943844312396, 1.550854576552383, 3.026544096032351], 0.5, 0.5, 0.008, 0.2, 80)

2025-07-07 17:08:44,230 - gym_custom_envs_real_ur_drivers_URBasic_realTimeClientEvent - INFO - Program send to Robot:
servoj([-0.12118448224296552, -1.5876701154616386, -1.5493052559566192, -1.5661943844312396, 1.550854576552383, 3.0265440945137096], 0.5, 0.5, 0.008, 0.2, 80)

2025-07-07 17:08:44,237 - gym_custom_envs_real_ur_drivers_URBasic_realTimeClientEvent - INFO - Program send to Robot:
servoj([-0.12118448224296552, -1.5876701154616386, -1.5493204423664193, -1.5661943844312396, 1.550854576552383, 3.0265440944985236], 0.5, 0.5, 0.008, 0.2, 80)

2025-07-07 17:08:44,246 - gym_custom_envs_real_ur_drivers_URBasic_realTimeClientEvent - INFO - Program send to Robot:
servoj([-0.12118448224296552, -1.5876701154616386, -1.5493205942305173, -1.5661943844312396, 1.550854576552383, 3.0265440944983717], 0.5, 0.5, 0.008, 0.2, 80)

2025-07-07 17:08:44,262 - gym_custom_envs_real_ur_drivers_URBasic_realTimeClientEvent - INFO - Program send to Robot:
servoj([-0.12118448224296552, -1.5876701154616386, -1.5508392367291643, -1.5661943844312396, 1.550854576552383, 3.02654409449837], 0.5, 0.5, 0.008, 0.2, 80)

2025-07-07 17:08:44,271 - gym_custom_envs_real_ur_drivers_URBasic_realTimeClientEvent - INFO - Program send to Robot:
servoj([-0.12118448224296552, -1.5876701154616386, -1.5508544231541508, -1.5661943844312396, 1.550854576552383, 3.02654409449837], 0.5, 0.5, 0.008, 0.2, 80)

2025-07-07 17:08:44,279 - gym_custom_envs_real_ur_drivers_URBasic_realTimeClientEvent - INFO - Program send to Robot:
servoj([-0.12118448224296552, -1.5876701154616386, -1.5508545750184006, -1.5661943844312396, 1.550854576552383, 3.02654409449837], 0.5, 0.5, 0.008, 0.2, 80)

2025-07-07 17:08:44,285 - gym_custom_envs_real_ur_drivers_URBasic_realTimeClientEvent - INFO - Program send to Robot:
servoj([-0.12118448224296552, -1.5876701154616386, -1.5508545765370432, -1.5661943844312396, 1.550854576552383, 3.02654409449837], 0.5, 0.5, 0.008, 0.2, 80)

2025-07-07 17:08:44,303 - gym_custom_envs_real_ur_drivers_URBasic_realTimeClientEvent - INFO - Program send to Robot:
servoj([-0.12118448224296552, -1.5876701154616386, -1.5554104994922504, -1.5661943844312396, 1.550854576552383, 3.02654409449837], 0.5, 0.5, 0.008, 0.2, 80)

2025-07-07 17:08:44,309 - gym_custom_envs_real_ur_drivers_URBasic_realTimeClientEvent - INFO - Program send to Robot:
servoj([-0.12118448224296552, -1.5876701154616386, -1.5554560587218025, -1.5661943844312396, 1.550854576552383, 3.02654409449837], 0.5, 0.5, 0.008, 0.2, 80)

2025-07-07 17:08:44,319 - gym_custom_envs_real_ur_drivers_URBasic_realTimeClientEvent - INFO - Program send to Robot:
servoj([-0.12118448224296552, -1.5876701154616386, -1.555456514314098, -1.5661943844312396, 1.550854576552383, 3.02654409449837], 0.5, 0.5, 0.008, 0.2, 80)

2025-07-07 17:08:44,327 - gym_custom_envs_real_ur_drivers_URBasic_realTimeClientEvent - INFO - Program send to Robot:
servoj([-0.12118448224296552, -1.5876701154616386, -1.560012441810041, -1.5661943844312396, 1.550854576552383, 3.02654409449837], 0.5, 0.5, 0.008, 0.2, 80)

2025-07-07 17:08:44,343 - gym_custom_envs_real_ur_drivers_URBasic_realTimeClientEvent - INFO - Program send to Robot:
servoj([-0.12118448224296552, -1.5876701154616386, -1.5600580010850003, -1.5661943844312396, 1.550854576552383, 3.02654409449837], 0.5, 0.5, 0.008, 0.2, 80)

2025-07-07 17:08:44,351 - gym_custom_envs_real_ur_drivers_URBasic_realTimeClientEvent - INFO - Program send to Robot:
servoj([-0.12118448224296552, -1.5876701154616386, -1.56005845667775, -1.5661943844312396, 1.550854576552383, 3.02654409449837], 0.5, 0.5, 0.008, 0.2, 80)

2025-07-07 17:08:44,357 - gym_custom_envs_real_ur_drivers_URBasic_realTimeClientEvent - INFO - Program send to Robot:
servoj([-0.12118448224296552, -1.5876701154616386, -1.5691703071137182, -1.5661943844312396, 1.550854576552383, 3.02654409449837], 0.5, 0.5, 0.008, 0.2, 80)

2025-07-07 17:08:44,376 - gym_custom_envs_real_ur_drivers_URBasic_realTimeClientEvent - INFO - Program send to Robot:
servoj([-0.12118448224296552, -1.5876701154616386, -1.569261425618078, -1.5661943844312396, 1.550854576552383, 3.02654409449837], 0.5, 0.5, 0.008, 0.2, 80)

2025-07-07 17:08:44,381 - gym_custom_envs_real_ur_drivers_URBasic_realTimeClientEvent - INFO - Program send to Robot:
servoj([-0.12118448224296552, -1.5876701154616386, -1.5692623368031215, -1.5661943844312396, 1.550854576552383, 3.02654409449837], 0.5, 0.5, 0.008, 0.2, 80)

2025-07-07 17:08:44,392 - gym_custom_envs_real_ur_drivers_URBasic_realTimeClientEvent - INFO - Program send to Robot:
servoj([-0.12118448224296552, -1.5876701154616386, -1.5783741917950127, -1.5646757434512328, 1.550854576552383, 3.02654409449837], 0.5, 0.5, 0.008, 0.2, 80)

2025-07-07 17:08:44,405 - gym_custom_envs_real_ur_drivers_URBasic_realTimeClientEvent - INFO - Program send to Robot:
servoj([-0.12118448224296552, -1.5876701154616386, -1.5784653103449315, -1.5646605570414327, 1.550854576552383, 3.02654409449837], 0.5, 0.5, 0.008, 0.2, 80)

2025-07-07 17:08:44,415 - gym_custom_envs_real_ur_drivers_URBasic_realTimeClientEvent - INFO - Program send to Robot:
servoj([-0.12118448224296552, -1.5876701154616386, -1.5784662215304308, -1.5646604051773347, 1.550854576552383, 3.02654409449837], 0.5, 0.5, 0.008, 0.2, 80)

2025-07-07 17:08:44,423 - gym_custom_envs_real_ur_drivers_URBasic_realTimeClientEvent - INFO - Program send to Robot:
servoj([-0.12118448224296552, -1.5876701154616386, -1.5860594355423197, -1.5661790446387005, 1.550854576552383, 3.02654409449837], 0.5, 0.5, 0.008, 0.2, 80)

2025-07-07 17:08:44,429 - gym_custom_envs_real_ur_drivers_URBasic_realTimeClientEvent - INFO - Program send to Robot:
servoj([-0.12118448224296552, -1.5876701154616386, -1.5861353676824386, -1.5661942310333141, 1.550854576552383, 3.02654409449837], 0.5, 0.5, 0.008, 0.2, 80)

2025-07-07 17:08:44,447 - gym_custom_envs_real_ur_drivers_URBasic_realTimeClientEvent - INFO - Program send to Robot:
servoj([-0.12118448224296552, -1.5876701154616386, -1.5861361270038397, -1.5661943828972604, 1.550854576552383, 3.02654409449837], 0.5, 0.5, 0.008, 0.2, 80)

2025-07-07 17:08:44,453 - gym_custom_envs_real_ur_drivers_URBasic_realTimeClientEvent - INFO - Program send to Robot:
servoj([-0.12118448224296552, -1.5876701154616386, -1.5876547755770607, -1.5661943844158999, 1.550854576552383, 3.02654409449837], 0.5, 0.5, 0.008, 0.2, 80)

2025-07-07 17:08:44,463 - gym_custom_envs_real_ur_drivers_URBasic_realTimeClientEvent - INFO - Program send to Robot:
servoj([-0.12118448224296552, -1.5876701154616386, -1.5876699620627928, -1.5661943844310862, 1.550854576552383, 3.02654409449837], 0.5, 0.5, 0.008, 0.2, 80)

2025-07-07 17:08:44,478 - gym_custom_envs_real_ur_drivers_URBasic_realTimeClientEvent - INFO - Program send to Robot:
servoj([-0.12118448224296552, -1.5876701154616386, -1.5876701139276501, -1.566194384431238, 1.550854576552383, 3.02654409449837], 0.5, 0.5, 0.008, 0.2, 80)

2025-07-07 17:08:44,488 - gym_custom_envs_real_ur_drivers_URBasic_realTimeClientEvent - INFO - Program send to Robot:
servoj([-0.12118448224296552, -1.5876701154616386, -1.5876701154462987, -1.5661943844312396, 1.5493359355723768, 3.02654409449837], 0.5, 0.5, 0.008, 0.2, 80)

2025-07-07 17:08:44,493 - gym_custom_envs_real_ur_drivers_URBasic_realTimeClientEvent - INFO - Program send to Robot:
servoj([-0.12118448224296552, -1.5876701154616386, -1.5876701154614852, -1.5661943844312396, 1.549320749162577, 3.02654409449837], 0.5, 0.5, 0.008, 0.2, 80)

2025-07-07 17:08:44,501 - gym_custom_envs_real_ur_drivers_URBasic_realTimeClientEvent - INFO - Program send to Robot:
servoj([-0.12118448224296552, -1.5876701154616386, -1.587670115461637, -1.5661943844312396, 1.549320597298479, 3.02654409449837], 0.5, 0.5, 0.008, 0.2, 80)

2025-07-07 17:08:44,517 - gym_custom_envs_real_ur_drivers_URBasic_realTimeClientEvent - INFO - Program send to Robot:
servoj([-0.12118448224296552, -1.5876701154616386, -1.5876701154616386, -1.5661943844312396, 1.549320595779838, 3.02654409449837], 0.5, 0.5, 0.008, 0.2, 80)

2025-07-07 17:08:44,525 - gym_custom_envs_real_ur_drivers_URBasic_realTimeClientEvent - INFO - Program send to Robot:
servoj([-0.12118448224296552, -1.5876701154616386, -1.5876701154616386, -1.5661943844312396, 1.5493205957646514, 3.02654409449837], 0.5, 0.5, 0.008, 0.2, 80)

2025-07-07 17:08:44,537 - gym_custom_envs_real_ur_drivers_URBasic_realTimeClientEvent - INFO - Program send to Robot:
servoj([-0.12118448224296552, -1.5876701154616386, -1.5876701154616386, -1.5661943844312396, 1.5493205957644995, 3.02654409449837], 0.5, 0.5, 0.008, 0.2, 80)

2025-07-07 17:08:44,549 - gym_custom_envs_real_ur_drivers_URBasic_realTimeClientEvent - INFO - Program send to Robot:
servoj([-0.12118448224296552, -1.5876701154616386, -1.5876701154616386, -1.5661943844312396, 1.549320595764498, 3.02654409449837], 0.5, 0.5, 0.008, 0.2, 80)

2025-07-07 17:08:44,561 - gym_custom_envs_real_ur_drivers_URBasic_realTimeClientEvent - INFO - Program send to Robot:
servoj([-0.12118448224296552, -1.5876701154616386, -1.5876701154616386, -1.5661943844312396, 1.549320595764498, 3.02654409449837], 0.5, 0.5, 0.008, 0.2, 80)

2025-07-07 17:08:44,565 - gym_custom_envs_real_ur_drivers_URBasic_realTimeClientEvent - INFO - Program send to Robot:
servoj([-0.12118448224296552, -1.5876701154616386, -1.5876701154616386, -1.5661943844312396, 1.549320595764498, 3.02654409449837], 0.5, 0.5, 0.008, 0.2, 80)

2025-07-07 17:08:44,585 - gym_custom_envs_real_ur_drivers_URBasic_realTimeClientEvent - INFO - Program send to Robot:
servoj([-0.12118448224296552, -1.5876701154616386, -1.5876701154616386, -1.5661943844312396, 1.549320595764498, 3.02654409449837], 0.5, 0.5, 0.008, 0.2, 80)

2025-07-07 17:08:44,590 - gym_custom_envs_real_ur_drivers_URBasic_realTimeClientEvent - INFO - Program send to Robot:
servoj([-0.12118448224296552, -1.5876701154616386, -1.5876701154616386, -1.5661943844312396, 1.549320595764498, 3.02654409449837], 0.5, 0.5, 0.008, 0.2, 80)

2025-07-07 17:08:44,610 - gym_custom_envs_real_ur_drivers_URBasic_realTimeClientEvent - INFO - Program send to Robot:
servoj([-0.12118448224296552, -1.5876701154616386, -1.5876701154616386, -1.5661943844312396, 1.547801954784491, 3.0235068125383564], 0.5, 0.5, 0.008, 0.2, 80)

2025-07-07 17:08:44,613 - gym_custom_envs_real_ur_drivers_URBasic_realTimeClientEvent - INFO - Program send to Robot:
servoj([-0.12118448224296552, -1.5876701154616386, -1.5876701154616386, -1.5661943844312396, 1.547786768374691, 3.0234764397187566], 0.5, 0.5, 0.008, 0.2, 80)

2025-07-07 17:08:44,635 - gym_custom_envs_real_ur_drivers_URBasic_realTimeClientEvent - INFO - Program send to Robot:
servoj([-0.12118448224296552, -1.5876701154616386, -1.5876701154616386, -1.5661943844312396, 1.547786616510593, 3.02347613599056], 0.5, 0.5, 0.008, 0.2, 80)

2025-07-07 17:08:44,646 - gym_custom_envs_real_ur_drivers_URBasic_realTimeClientEvent - INFO - Program send to Robot:
servoj([-0.12118448224296552, -1.5876701154616386, -1.5891887564416456, -1.5661943844312396, 1.5477866149919521, 3.017401569033251], 0.5, 0.5, 0.008, 0.2, 80)

2025-07-07 17:08:44,659 - gym_custom_envs_real_ur_drivers_URBasic_realTimeClientEvent - INFO - Program send to Robot:
servoj([-0.12118448224296552, -1.5876701154616386, -1.5892039428514457, -1.5661943844312396, 1.5477866149767656, 3.0173408233636785], 0.5, 0.5, 0.008, 0.2, 80)

2025-07-07 17:08:44,669 - gym_custom_envs_real_ur_drivers_URBasic_realTimeClientEvent - INFO - Program send to Robot:
servoj([-0.12118448224296552, -1.5876701154616386, -1.5892040947155437, -1.5661943844312396, 1.5477866149766137, 3.0173402159069824], 0.5, 0.5, 0.008, 0.2, 80)

2025-07-07 17:08:44,683 - gym_custom_envs_real_ur_drivers_URBasic_realTimeClientEvent - INFO - Program send to Robot:
servoj([-0.12118448224296552, -1.5876701154616386, -1.5892040962341847, -1.5661943844312396, 1.5477866149766122, 3.0082283639523753], 0.5, 0.5, 0.008, 0.2, 80)

2025-07-07 17:08:44,686 - gym_custom_envs_real_ur_drivers_URBasic_realTimeClientEvent - INFO - Program send to Robot:
servoj([-0.12118448224296552, -1.5876701154616386, -1.589204096249371, -1.5661943844312396, 1.5477866149766122, 3.008137245432829], 0.5, 0.5, 0.008, 0.2, 80)

2025-07-07 17:08:44,701 - gym_custom_envs_real_ur_drivers_URBasic_realTimeClientEvent - INFO - Program send to Robot:
servoj([-0.12118448224296552, -1.5876701154616386, -1.5892040962495229, -1.5661943844312396, 1.5477866149766122, 3.0081363342476335], 0.5, 0.5, 0.008, 0.2, 80)

2025-07-07 17:08:44,709 - gym_custom_envs_real_ur_drivers_URBasic_realTimeClientEvent - INFO - Program send to Robot:
servoj([-0.12118448224296552, -1.5876701154616386, -1.5892040962495244, -1.5661943844312396, 1.5477866149766122, 2.999024479255741], 0.5, 0.5, 0.008, 0.2, 80)

2025-07-07 17:08:44,725 - gym_custom_envs_real_ur_drivers_URBasic_realTimeClientEvent - INFO - Program send to Robot:
servoj([-0.12118448224296552, -1.5876701154616386, -1.5892040962495244, -1.5661943844312396, 1.5477866149766122, 2.9989333607058217], 0.5, 0.5, 0.008, 0.2, 80)

2025-07-07 17:08:44,733 - gym_custom_envs_real_ur_drivers_URBasic_realTimeClientEvent - INFO - Program send to Robot:
servoj([-0.12118448224296552, -1.5876701154616386, -1.5892040962495244, -1.5661943844312396, 1.5477866149766122, 2.9989324495203222], 0.5, 0.5, 0.008, 0.2, 80)

2025-07-07 17:08:44,750 - gym_custom_envs_real_ur_drivers_URBasic_realTimeClientEvent - INFO - Program send to Robot:
servoj([-0.12118448224296552, -1.5876701154616386, -1.5907227372295314, -1.5661943844312396, 1.5477866149766122, 2.989820594528427], 0.5, 0.5, 0.008, 0.2, 80)

2025-07-07 17:08:44,766 - gym_custom_envs_real_ur_drivers_URBasic_realTimeClientEvent - INFO - Program send to Robot:
servoj([-0.12118448224296552, -1.5876701154616386, -1.5907379236393315, -1.5661943844312396, 1.5477866149766122, 2.989729475978508], 0.5, 0.5, 0.008, 0.2, 80)

2025-07-07 17:08:44,773 - gym_custom_envs_real_ur_drivers_URBasic_realTimeClientEvent - INFO - Program send to Robot:
servoj([-0.12118448224296552, -1.5876701154616386, -1.5907380755034295, -1.5646757434512328, 1.5477866149766122, 2.9836540008729817], 0.5, 0.5, 0.008, 0.2, 80)

2025-07-07 17:08:44,781 - gym_custom_envs_real_ur_drivers_URBasic_realTimeClientEvent - INFO - Program send to Robot:
servoj([-0.12118448224296552, -1.5876701154616386, -1.5907380770220705, -1.5646605570414327, 1.5477866149766122, 2.9835932461219263], 0.5, 0.5, 0.008, 0.2, 80)

2025-07-07 17:08:44,789 - gym_custom_envs_real_ur_drivers_URBasic_realTimeClientEvent - INFO - Program send to Robot:
servoj([-0.12118448224296552, -1.5876701154616386, -1.590738077037257, -1.5646604051773347, 1.5477866149766122, 2.983592638574416], 0.5, 0.5, 0.008, 0.2, 80)

2025-07-07 17:08:44,805 - gym_custom_envs_real_ur_drivers_URBasic_realTimeClientEvent - INFO - Program send to Robot:
servoj([-0.12118448224296552, -1.5876701154616386, -1.589219436057402, -1.5661790446387005, 1.552342537916632, 2.9790367095589203], 0.5, 0.5, 0.008, 0.2, 80)

2025-07-07 17:08:44,813 - gym_custom_envs_real_ur_drivers_URBasic_realTimeClientEvent - INFO - Program send to Robot:
servoj([-0.12118448224296552, -1.5876701154616386, -1.5892042496476033, -1.5661942310333141, 1.5523880971460322, 2.978991150268765], 0.5, 0.5, 0.008, 0.2, 80)

2025-07-07 17:08:44,821 - gym_custom_envs_real_ur_drivers_URBasic_realTimeClientEvent - INFO - Program send to Robot:
servoj([-0.12118448224296552, -1.5876701154616386, -1.5892040977835054, -1.5661943828972604, 1.5523885527383263, 2.9789906946758635], 0.5, 0.5, 0.008, 0.2, 80)

2025-07-07 17:08:44,829 - gym_custom_envs_real_ur_drivers_URBasic_realTimeClientEvent - INFO - Program send to Robot:
servoj([-0.12118448224296552, -1.5876701154616386, -1.5892040962648644, -1.5661943844158999, 1.5523885572942493, 2.9789906901199346], 0.5, 0.5, 0.008, 0.2, 80)

2025-07-07 17:08:44,845 - gym_custom_envs_real_ur_drivers_URBasic_realTimeClientEvent - INFO - Program send to Robot:
servoj([-0.12118448224296552, -1.5876701154616386, -1.5907227372296848, -1.5661943844310862, 1.5539071983198154, 2.9789906900743754], 0.5, 0.5, 0.008, 0.2, 80)

2025-07-07 17:08:44,854 - gym_custom_envs_real_ur_drivers_URBasic_realTimeClientEvent - INFO - Program send to Robot:
servoj([-0.12118448224296552, -1.5876701154616386, -1.590737923639333, -1.566194384431238, 1.5539223847300712, 2.97899069007392], 0.5, 0.5, 0.008, 0.2, 80)

2025-07-07 17:08:44,863 - gym_custom_envs_real_ur_drivers_URBasic_realTimeClientEvent - INFO - Program send to Robot:
servoj([-0.12118448224296552, -1.5876701154616386, -1.5907380755034295, -1.5661943844312396, 1.5539225365941736, 2.978990690073915], 0.5, 0.5, 0.008, 0.2, 80)

2025-07-07 17:08:44,869 - gym_custom_envs_real_ur_drivers_URBasic_realTimeClientEvent - INFO - Program send to Robot:
servoj([-0.12118448224296552, -1.5876701154616386, -1.5907380770220705, -1.5661943844312396, 1.5524038971328076, 2.978990690073915], 0.5, 0.5, 0.008, 0.2, 80)

2025-07-07 17:08:44,887 - gym_custom_envs_real_ur_drivers_URBasic_realTimeClientEvent - INFO - Program send to Robot:
servoj([-0.12118448224296552, -1.5876701154616386, -1.590738077037257, -1.5661943844312396, 1.552388710738194, 2.978990690073915], 0.5, 0.5, 0.008, 0.2, 80)

2025-07-07 17:08:44,893 - gym_custom_envs_real_ur_drivers_URBasic_realTimeClientEvent - INFO - Program send to Robot:
servoj([-0.12118448224296552, -1.5876701154616386, -1.5907380770374089, -1.5661943844312396, 1.5523885588742479, 2.978990690073915], 0.5, 0.5, 0.008, 0.2, 80)

2025-07-07 17:08:44,903 - gym_custom_envs_real_ur_drivers_URBasic_realTimeClientEvent - INFO - Program send to Robot:
servoj([-0.12118448224296552, -1.5876701154616386, -1.5907380770374102, -1.5661943844312396, 1.5539071983356154, 2.978990690073915], 0.5, 0.5, 0.008, 0.2, 80)

2025-07-07 17:08:44,918 - gym_custom_envs_real_ur_drivers_URBasic_realTimeClientEvent - INFO - Program send to Robot:
servoj([-0.12118448224296552, -1.5876701154616386, -1.5907380770374102, -1.5661943844312396, 1.553922384730229, 2.978990690073915], 0.5, 0.5, 0.008, 0.2, 80)

2025-07-07 17:08:44,928 - gym_custom_envs_real_ur_drivers_URBasic_realTimeClientEvent - INFO - Program send to Robot:
servoj([-0.12118448224296552, -1.5876701154616386, -1.5907380770374102, -1.5661943844312396, 1.5539225365941751, 2.978990690073915], 0.5, 0.5, 0.008, 0.2, 80)

2025-07-07 17:08:44,935 - gym_custom_envs_real_ur_drivers_URBasic_realTimeClientEvent - INFO - Program send to Robot:
servoj([-0.12118448224296552, -1.5876701154616386, -1.5907380770374102, -1.5661943844312396, 1.5539225381128146, 2.978990690073915], 0.5, 0.5, 0.008, 0.2, 80)

2025-07-07 17:08:44,941 - gym_custom_envs_real_ur_drivers_URBasic_realTimeClientEvent - INFO - Program send to Robot:
servoj([-0.12118448224296552, -1.5876701154616386, -1.5907380770374102, -1.5661943844312396, 1.553922538128001, 2.978990690073915], 0.5, 0.5, 0.008, 0.2, 80)

2025-07-07 17:08:44,960 - gym_custom_envs_real_ur_drivers_URBasic_realTimeClientEvent - INFO - Program send to Robot:
servoj([-0.12118448224296552, -1.5876701154616386, -1.5907380770374102, -1.5661943844312396, 1.553922538128153, 2.978990690073915], 0.5, 0.5, 0.008, 0.2, 80)

2025-07-07 17:08:44,966 - gym_custom_envs_real_ur_drivers_URBasic_realTimeClientEvent - INFO - Program send to Robot:
servoj([-0.12118448224296552, -1.5876701154616386, -1.5907380770374102, -1.5661943844312396, 1.5539225381281545, 2.978990690073915], 0.5, 0.5, 0.008, 0.2, 80)

2025-07-07 17:08:44,976 - gym_custom_envs_real_ur_drivers_URBasic_realTimeClientEvent - INFO - Program send to Robot:
servoj([-0.12118448224296552, -1.5876701154616386, -1.5907380770374102, -1.5661943844312396, 1.5539225381281545, 2.978990690073915], 0.5, 0.5, 0.008, 0.2, 80)

2025-07-07 17:08:44,990 - gym_custom_envs_real_ur_drivers_URBasic_realTimeClientEvent - INFO - Program send to Robot:
servoj([-0.12118448224296552, -1.5876701154616386, -1.5907380770374102, -1.5661943844312396, 1.5539225381281545, 2.978990690073915], 0.5, 0.5, 0.008, 0.2, 80)

2025-07-07 17:08:45,002 - gym_custom_envs_real_ur_drivers_URBasic_realTimeClientEvent - INFO - Program send to Robot:
servoj([-0.12118448224296552, -1.5876701154616386, -1.5907380770374102, -1.5677130254112464, 1.5539225381281545, 2.978990690073915], 0.5, 0.5, 0.008, 0.2, 80)

2025-07-07 17:08:45,005 - gym_custom_envs_real_ur_drivers_URBasic_realTimeClientEvent - INFO - Program send to Robot:
servoj([-0.12118448224296552, -1.5876701154616386, -1.5907380770374102, -1.5677282118210465, 1.5539225381281545, 2.978990690073915], 0.5, 0.5, 0.008, 0.2, 80)

2025-07-07 17:08:45,024 - gym_custom_envs_real_ur_drivers_URBasic_realTimeClientEvent - INFO - Program send to Robot:
servoj([-0.12118448224296552, -1.5876701154616386, -1.5907380770374102, -1.5677283636851445, 1.5539225381281545, 2.978990690073915], 0.5, 0.5, 0.008, 0.2, 80)

2025-07-07 17:08:45,032 - gym_custom_envs_real_ur_drivers_URBasic_realTimeClientEvent - INFO - Program send to Robot:
servoj([-0.12118448224296552, -1.5876701154616386, -1.5907380770374102, -1.5692470061837924, 1.5539225381281545, 2.978990690073915], 0.5, 0.5, 0.008, 0.2, 80)

2025-07-07 17:08:45,037 - gym_custom_envs_real_ur_drivers_URBasic_realTimeClientEvent - INFO - Program send to Robot:
servoj([-0.12118448224296552, -1.5876701154616386, -1.5907380770374102, -1.5692621926087789, 1.5539225381281545, 2.978990690073915], 0.5, 0.5, 0.008, 0.2, 80)

2025-07-07 17:08:45,056 - gym_custom_envs_real_ur_drivers_URBasic_realTimeClientEvent - INFO - Program send to Robot:
servoj([-0.12118448224296552, -1.5876701154616386, -1.5907380770374102, -1.5692623444730287, 1.5539225381281545, 2.978990690073915], 0.5, 0.5, 0.008, 0.2, 80)

2025-07-07 17:08:45,062 - gym_custom_envs_real_ur_drivers_URBasic_realTimeClientEvent - INFO - Program send to Robot:
servoj([-0.12118448224296552, -1.5876701154616386, -1.5907380770374102, -1.570780986971678, 1.5539225381281545, 2.978990690073915], 0.5, 0.5, 0.008, 0.2, 80)

2025-07-07 17:08:45,071 - gym_custom_envs_real_ur_drivers_URBasic_realTimeClientEvent - INFO - Program send to Robot:
servoj([-0.12118448224296552, -1.5876701154616386, -1.5907380770374102, -1.5707961733966644, 1.5539225381281545, 2.978990690073915], 0.5, 0.5, 0.008, 0.2, 80)

2025-07-07 17:08:45,085 - gym_custom_envs_real_ur_drivers_URBasic_realTimeClientEvent - INFO - Program send to Robot:
servoj([-0.12118448224296552, -1.5876701154616386, -1.5907380770374102, -1.5707963252609143, 1.5539225381281545, 2.978990690073915], 0.5, 0.5, 0.008, 0.2, 80)

2025-07-07 17:08:45,095 - gym_custom_envs_real_ur_drivers_URBasic_realTimeClientEvent - INFO - Program send to Robot:
servoj([-0.11966584126295901, -1.5876701154616386, -1.5907380770374102, -1.5723149677595634, 1.5539225381281545, 2.9805093310539217], 0.5, 0.5, 0.008, 0.2, 80)

2025-07-07 17:08:45,104 - gym_custom_envs_real_ur_drivers_URBasic_realTimeClientEvent - INFO - Program send to Robot:
servoj([-0.11965065485315894, -1.5876701154616386, -1.5907380770374102, -1.5723301541845498, 1.5539225381281545, 2.980524517463722], 0.5, 0.5, 0.008, 0.2, 80)

2025-07-07 17:08:45,109 - gym_custom_envs_real_ur_drivers_URBasic_realTimeClientEvent - INFO - Program send to Robot:
servoj([-0.11965050298906095, -1.5876701154616386, -1.5907380770374102, -1.5723303060487996, 1.5539225381281545, 2.98052466932782], 0.5, 0.5, 0.008, 0.2, 80)

2025-07-07 17:08:45,128 - gym_custom_envs_real_ur_drivers_URBasic_realTimeClientEvent - INFO - Program send to Robot:
servoj([-0.11965050147041996, -1.5876701154616386, -1.5907380770374102, -1.5738489485474492, 1.5539225381281545, 2.980524670846461], 0.5, 0.5, 0.008, 0.2, 80)

2025-07-07 17:08:45,134 - gym_custom_envs_real_ur_drivers_URBasic_realTimeClientEvent - INFO - Program send to Robot:
servoj([-0.11965050145523355, -1.5876701154616386, -1.5907380770374102, -1.5738641349724356, 1.5539225381281545, 2.9805246708616475], 0.5, 0.5, 0.008, 0.2, 80)

2025-07-07 17:08:45,143 - gym_custom_envs_real_ur_drivers_URBasic_realTimeClientEvent - INFO - Program send to Robot:
servoj([-0.11965050145508169, -1.5876701154616386, -1.5907380770374102, -1.5738642868366857, 1.5539225381281545, 2.980524670861799], 0.5, 0.5, 0.008, 0.2, 80)

2025-07-07 17:08:45,158 - gym_custom_envs_real_ur_drivers_URBasic_realTimeClientEvent - INFO - Program send to Robot:
servoj([-0.11965050145508017, -1.5876701154616386, -1.5907380770374102, -1.5753829293353347, 1.5539225381281545, 2.9805246708618007], 0.5, 0.5, 0.008, 0.2, 80)

2025-07-07 17:08:45,166 - gym_custom_envs_real_ur_drivers_URBasic_realTimeClientEvent - INFO - Program send to Robot:
servoj([-0.11965050145508016, -1.5876701154616386, -1.5907380770374102, -1.5753981157603214, 1.5539225381281545, 2.9805246708618007], 0.5, 0.5, 0.008, 0.2, 80)

2025-07-07 17:08:45,174 - gym_custom_envs_real_ur_drivers_URBasic_realTimeClientEvent - INFO - Program send to Robot:
servoj([-0.11965050145508016, -1.5876701154616386, -1.5907380770374102, -1.5753982676245712, 1.5539225381281545, 2.9805246708618007], 0.5, 0.5, 0.008, 0.2, 80)

2025-07-07 17:08:45,182 - gym_custom_envs_real_ur_drivers_URBasic_realTimeClientEvent - INFO - Program send to Robot:
servoj([-0.11965050145508016, -1.5876701154616386, -1.5907380770374102, -1.5753982691432138, 1.5539225381281545, 2.9805246708618007], 0.5, 0.5, 0.008, 0.2, 80)

2025-07-07 17:08:45,198 - gym_custom_envs_real_ur_drivers_URBasic_realTimeClientEvent - INFO - Program send to Robot:
servoj([-0.11965050145508016, -1.5876701154616386, -1.5907380770374102, -1.5769169101384068, 1.5539225381281545, 2.9805246708618007], 0.5, 0.5, 0.008, 0.2, 80)

2025-07-07 17:08:45,205 - gym_custom_envs_real_ur_drivers_URBasic_realTimeClientEvent - INFO - Program send to Robot:
servoj([-0.11965050145508016, -1.5876701154616386, -1.5907380770374102, -1.5769320965483589, 1.5539225381281545, 2.9805246708618007], 0.5, 0.5, 0.008, 0.2, 80)

2025-07-07 17:08:45,214 - gym_custom_envs_real_ur_drivers_URBasic_realTimeClientEvent - INFO - Program send to Robot:
servoj([-0.11965050145508016, -1.5876701154616386, -1.5907380770374102, -1.5769322484124584, 1.5539225381281545, 2.9805246708618007], 0.5, 0.5, 0.008, 0.2, 80)

2025-07-07 17:08:45,230 - gym_custom_envs_real_ur_drivers_URBasic_realTimeClientEvent - INFO - Program send to Robot:
servoj([-0.11965050145508016, -1.5876701154616386, -1.5907380770374102, -1.5769322499310994, 1.5539225381281545, 2.9805246708618007], 0.5, 0.5, 0.008, 0.2, 80)

2025-07-07 17:08:45,239 - gym_custom_envs_real_ur_drivers_URBasic_realTimeClientEvent - INFO - Program send to Robot:
servoj([-0.11965050145508016, -1.5876701154616386, -1.5907380770374102, -1.5769322499462857, 1.5539225381281545, 2.9805246708618007], 0.5, 0.5, 0.008, 0.2, 80)

2025-07-07 17:08:45,248 - gym_custom_envs_real_ur_drivers_URBasic_realTimeClientEvent - INFO - Program send to Robot:
servoj([-0.11965050145508016, -1.5876701154616386, -1.5907380770374102, -1.5769322499464375, 1.5539225381281545, 2.9805246708618007], 0.5, 0.5, 0.008, 0.2, 80)

2025-07-07 17:08:45,254 - gym_custom_envs_real_ur_drivers_URBasic_realTimeClientEvent - INFO - Program send to Robot:
servoj([-0.11965050145508016, -1.5876701154616386, -1.5907380770374102, -1.576932249946439, 1.5539225381281545, 2.9805246708618007], 0.5, 0.5, 0.008, 0.2, 80)

2025-07-07 17:08:45,273 - gym_custom_envs_real_ur_drivers_URBasic_realTimeClientEvent - INFO - Program send to Robot:
servoj([-0.11965050145508016, -1.5876701154616386, -1.5907380770374102, -1.576932249946439, 1.5539225381281545, 2.9805246708618007], 0.5, 0.5, 0.008, 0.2, 80)

2025-07-07 17:08:45,278 - gym_custom_envs_real_ur_drivers_URBasic_realTimeClientEvent - INFO - Program send to Robot:
servoj([-0.11965050145508016, -1.5876701154616386, -1.5907380770374102, -1.576932249946439, 1.5539225381281545, 2.9805246708618007], 0.5, 0.5, 0.008, 0.2, 80)

2025-07-07 17:08:45,296 - gym_custom_envs_real_ur_drivers_URBasic_realTimeClientEvent - INFO - Program send to Robot:
servoj([-0.11965050145508016, -1.5876701154616386, -1.5907380770374102, -1.576932249946439, 1.5539225381281545, 2.9820433118418075], 0.5, 0.5, 0.008, 0.2, 80)

2025-07-07 17:08:45,301 - gym_custom_envs_real_ur_drivers_URBasic_realTimeClientEvent - INFO - Program send to Robot:
servoj([-0.11965050145508016, -1.5876701154616386, -1.5907380770374102, -1.576932249946439, 1.5539225381281545, 2.9820584982516074], 0.5, 0.5, 0.008, 0.2, 80)

2025-07-07 17:08:45,311 - gym_custom_envs_real_ur_drivers_URBasic_realTimeClientEvent - INFO - Program send to Robot:
servoj([-0.11965050145508016, -1.5876701154616386, -1.5907380770374102, -1.576932249946439, 1.5539225381281545, 2.9820586501157056], 0.5, 0.5, 0.008, 0.2, 80)

2025-07-07 17:08:45,325 - gym_custom_envs_real_ur_drivers_URBasic_realTimeClientEvent - INFO - Program send to Robot:
servoj([-0.11965050145508016, -1.5876701154616386, -1.5907380770374102, -1.576932249946439, 1.5539225381281545, 2.9835772926143536], 0.5, 0.5, 0.008, 0.2, 80)

2025-07-07 17:08:45,335 - gym_custom_envs_real_ur_drivers_URBasic_realTimeClientEvent - INFO - Program send to Robot:
servoj([-0.11965050145508016, -1.5876701154616386, -1.5907380770374102, -1.576932249946439, 1.5539225381281545, 2.98359247903934], 0.5, 0.5, 0.008, 0.2, 80)

2025-07-07 17:08:45,340 - gym_custom_envs_real_ur_drivers_URBasic_rtdeEvent - INFO - Total packages: 1000
2025-07-07 17:08:45,343 - gym_custom_envs_real_ur_drivers_URBasic_realTimeClientEvent - INFO - Program send to Robot:
