2025-07-07 17:09:46,821 - gym_custom_envs_real_ur_drivers_URBasic_robotModelEvent - INFO - Init done
2025-07-07 17:09:47,322 - gym_custom_envs_real_ur_drivers_URBasic_realTimeClientEvent - INFO - Connected
2025-07-07 17:09:47,323 - gym_custom_envs_real_ur_drivers_URBasic_realTimeClientEvent - INFO - RT_CLient constructor done
2025-07-07 17:09:47,324 - gym_custom_envs_real_ur_drivers_URBasic_dataLogEvent - INFO - Data logging (not event logging) is disabled
2025-07-07 17:09:47,324 - gym_custom_envs_real_ur_drivers_URBasic_dataLogEvent - INFO - DataLog constructor done
2025-07-07 17:09:47,324 - gym_custom_envs_real_ur_drivers_URBasic_dataLogEvent - INFO - DataLog is stopped
2025-07-07 17:09:47,325 - gym_custom_envs_real_ur_drivers_URBasic_rtdeEvent - INFO - RTDE constructor done
2025-07-07 17:09:47,656 - gym_custom_envs_real_ur_drivers_URBasic_rtdeEvent - INFO - Controller version: 3.3.1-60
2025-07-07 17:09:47,661 - gym_custom_envs_real_ur_drivers_URBasic_rtdeEvent - INFO - RTDE started
2025-07-07 17:09:47,827 - gym_custom_envs_real_ur_drivers_URBasic_dashboardEvent - INFO - Connected
2025-07-07 17:09:47,828 - gym_custom_envs_real_ur_drivers_URBasic_dashboardEvent - INFO - UR Dashboard respond Connected: Universal Robots Dashboard Server
2025-07-07 17:09:47,828 - gym_custom_envs_real_ur_drivers_URBasic_dashboardEvent - INFO - Dashboard server constructor done
2025-07-07 17:09:47,829 - gym_custom_envs_real_ur_drivers_URBasic_robotConnectorEvent - INFO - Init done
2025-07-07 17:09:47,829 - gym_custom_envs_real_ur_drivers_URBasic_urScriptEvent - INFO - Init done!!!
2025-07-07 17:09:47,843 - gym_custom_envs_real_ur_drivers_URBasic_urScriptExtEvent - INFO - Init done
2025-07-07 17:09:49,462 - gym_custom_envs_real_ur_interfaceEvent - INFO - [] init done
2025-07-07 17:09:49,462 - gym_custom_envs_real_ur_drivers_URBasic_realTimeClientEvent - INFO - Program send to Robot:
end_freedrive_mode()

2025-07-07 17:09:52,472 - gym_custom_envs_real_ur_drivers_URBasic_realTimeClientEvent - INFO - Program send to Robot:
servoj([0.02230842932412718, -1.5880419336939178, -1.4883586088763636, -1.60808310202454, 1.6277128384414703, 3.086089815805263], 0.5, 0.5, 0.01, 0.1, 80)

2025-07-07 17:09:52,483 - gym_custom_envs_real_ur_drivers_URBasic_realTimeClientEvent - INFO - Program send to Robot:
servoj([0.022340415886390068, -1.5880497877622533, -1.4883586088763636, -1.6080541086355886, 1.6277095622606286, 3.086075527027109], 0.5, 0.5, 0.01, 0.1, 80)

2025-07-07 17:09:52,499 - gym_custom_envs_real_ur_drivers_URBasic_realTimeClientEvent - INFO - Program send to Robot:
servoj([0.02232698831088093, -1.5880342328271868, -1.4883228460894984, -1.6080886025685663, 1.627708942028952, 3.086078180808054], 0.5, 0.5, 0.01, 0.1, 80)

2025-07-07 17:09:52,519 - gym_custom_envs_real_ur_drivers_URBasic_realTimeClientEvent - INFO - Program send to Robot:
servoj([0.022316415217781722, -1.5880418190833243, -1.4883471647845667, -1.608040215030912, 1.6277119980753034, 3.0861070539434476], 0.5, 0.5, 0.01, 0.1, 80)

2025-07-07 17:09:52,531 - gym_custom_envs_real_ur_drivers_URBasic_realTimeClientEvent - INFO - Program send to Robot:
servoj([0.02232257575944864, -1.5880328169393105, -1.488371006642477, -1.607589524470905, 1.627690169914872, 3.086094343975386], 0.5, 0.5, 0.01, 0.1, 80)

2025-07-07 17:09:52,546 - gym_custom_envs_real_ur_drivers_URBasic_realTimeClientEvent - INFO - Program send to Robot:
servoj([0.02233205684889849, -1.588041482369035, -1.4883586088763636, -1.607588286833819, 1.6277012282886296, 3.0860589503242823], 0.5, 0.5, 0.01, 0.1, 80)

2025-07-07 17:09:52,566 - gym_custom_envs_real_ur_drivers_URBasic_realTimeClientEvent - INFO - Program send to Robot:
servoj([0.022313138742919944, -1.588065667720973, -1.488382927571432, -1.6075899215603628, 1.6276875979110665, 3.086071223509579], 0.5, 0.5, 0.01, 0.1, 80)

2025-07-07 17:09:52,578 - gym_custom_envs_real_ur_drivers_URBasic_realTimeClientEvent - INFO - Program send to Robot:
servoj([0.02230941057737608, -1.5880202950856581, -1.488514534627096, -1.6074621253919916, 1.6276344518285908, 3.086117799372178], 0.5, 0.5, 0.01, 0.1, 80)

2025-07-07 17:09:52,595 - gym_custom_envs_real_ur_drivers_URBasic_realTimeClientEvent - INFO - Program send to Robot:
servoj([0.02219637471062698, -1.588035644768785, -1.4888373533831996, -1.6071654154238675, 1.6274231366150655, 3.0864121184997932], 0.5, 0.5, 0.01, 0.1, 80)

2025-07-07 17:09:52,616 - gym_custom_envs_real_ur_drivers_URBasic_realTimeClientEvent - INFO - Program send to Robot:
servoj([0.02221424881760716, -1.5879557574092709, -1.489005200062887, -1.6069697299617576, 1.6272951067602193, 3.086489651167682], 0.5, 0.5, 0.01, 0.1, 80)

2025-07-07 17:09:52,627 - gym_custom_envs_real_ur_drivers_URBasic_realTimeClientEvent - INFO - Program send to Robot:
servoj([0.022076214620214273, -1.58792966344104, -1.4893280188189906, -1.6056955983603423, 1.6269425124063677, 3.0867504353659236], 0.5, 0.5, 0.01, 0.1, 80)

2025-07-07 17:09:52,644 - gym_custom_envs_real_ur_drivers_URBasic_realTimeClientEvent - INFO - Program send to Robot:
servoj([0.022045169802645186, -1.5879498792164195, -1.489483944569723, -1.6056841184992787, 1.6269419419023259, 3.086801001910206], 0.5, 0.5, 0.01, 0.1, 80)

2025-07-07 17:09:52,662 - gym_custom_envs_real_ur_drivers_URBasic_realTimeClientEvent - INFO - Program send to Robot:
servoj([0.021975376305718324, -1.5878604468236859, -1.4896989981280726, -1.6049172850202431, 1.6267790173120737, 3.0869276517792374], 0.5, 0.5, 0.01, 0.1, 80)

2025-07-07 17:09:52,675 - gym_custom_envs_real_ur_drivers_URBasic_realTimeClientEvent - INFO - Program send to Robot:
servoj([0.021848420885432686, -1.5878545294099686, -1.4901777426349085, -1.6045775857954123, 1.6264176458121373, 3.087155881338426], 0.5, 0.5, 0.01, 0.1, 80)

2025-07-07 17:09:52,691 - gym_custom_envs_real_ur_drivers_URBasic_realTimeClientEvent - INFO - Program send to Robot:
servoj([0.021638323302889534, -1.5877660951676398, -1.4909197012530726, -1.6033253173573485, 1.6259326265077332, 3.0875936572664484], 0.5, 0.5, 0.01, 0.1, 80)

2025-07-07 17:09:52,710 - gym_custom_envs_real_ur_drivers_URBasic_realTimeClientEvent - INFO - Program send to Robot:
servoj([0.02136844528076169, -1.5876659509005677, -1.4917694250689906, -1.6024957035689427, 1.6252913376785487, 3.088040634214824], 0.5, 0.5, 0.01, 0.1, 80)

2025-07-07 17:09:52,722 - gym_custom_envs_real_ur_drivers_URBasic_realTimeClientEvent - INFO - Program send to Robot:
servoj([0.021038716264775194, -1.5876010984446187, -1.4928227583514613, -1.6016194687032435, 1.6245641736699565, 3.0885215953781233], 0.5, 0.5, 0.01, 0.1, 80)

2025-07-07 17:09:52,739 - gym_custom_envs_real_ur_drivers_URBasic_realTimeClientEvent - INFO - Program send to Robot:
servoj([0.020683280646597933, -1.5875308721697503, -1.4940553824054164, -1.6004356211899085, 1.6236493816323252, 3.089189642088439], 0.5, 0.5, 0.01, 0.1, 80)

2025-07-07 17:09:52,758 - gym_custom_envs_real_ur_drivers_URBasic_realTimeClientEvent - INFO - Program send to Robot:
servoj([0.02026073763439535, -1.5873235005494206, -1.495479694996969, -1.599104728676922, 1.6226423583916216, 3.0899879803349752], 0.5, 0.5, 0.01, 0.1, 80)

2025-07-07 17:09:52,770 - gym_custom_envs_real_ur_drivers_URBasic_realTimeClientEvent - INFO - Program send to Robot:
servoj([0.01975323479929806, -1.5871321438798067, -1.4971915403949183, -1.5976387950887032, 1.621464501531649, 3.0908768406428404], 0.5, 0.5, 0.01, 0.1, 80)

2025-07-07 17:09:52,789 - gym_custom_envs_real_ur_drivers_URBasic_realTimeClientEvent - INFO - Program send to Robot:
servoj([0.019196336838494043, -1.5869921907909543, -1.4990702787982386, -1.5958940585671333, 1.6201909493224471, 3.091875809506649], 0.5, 0.5, 0.01, 0.1, 80)

2025-07-07 17:09:52,805 - gym_custom_envs_real_ur_drivers_URBasic_realTimeClientEvent - INFO - Program send to Robot:
servoj([0.018520931152169177, -1.5867508531733574, -1.5010930220233363, -1.5939522641646457, 1.6187144125553115, 3.0929725121669525], 0.5, 0.5, 0.01, 0.1, 80)

2025-07-07 17:09:52,818 - gym_custom_envs_real_ur_drivers_URBasic_realTimeClientEvent - INFO - Program send to Robot:
servoj([0.017855129990823053, -1.5865637459568205, -1.5031872908221644, -1.591996781256966, 1.6172373764723895, 3.094090009088195], 0.5, 0.5, 0.01, 0.1, 80)

2025-07-07 17:09:52,834 - gym_custom_envs_real_ur_drivers_URBasic_realTimeClientEvent - INFO - Program send to Robot:
servoj([0.01710541564430862, -1.5863122953689726, -1.505796543751852, -1.5895295309855897, 1.615414878082949, 3.0954911745614555], 0.5, 0.5, 0.01, 0.1, 80)

2025-07-07 17:09:52,855 - gym_custom_envs_real_ur_drivers_URBasic_realTimeClientEvent - INFO - Program send to Robot:
servoj([0.016455025072725192, -1.586083283102274, -1.5082737127887171, -1.5877157587121817, 1.6140326862791663, 3.0966047998164226], 0.5, 0.5, 0.01, 0.1, 80)

2025-07-07 17:09:52,868 - gym_custom_envs_real_ur_drivers_URBasic_realTimeClientEvent - INFO - Program send to Robot:
servoj([-0.012271846303085088, -1.576932249946439, -1.6045439025944, -1.4986992297642714, 1.5462526341887264, 3.1477285767413354], 0.5, 0.5, 0.01, 0.1, 80)

2025-07-07 17:09:52,879 - gym_custom_envs_real_ur_drivers_URBasic_realTimeClientEvent - INFO - Program send to Robot:
servoj([-0.012271846303085088, -1.576932249946439, -1.6045439041130407, -1.4986992297642714, 1.5462526341887264, 3.1477285767413354], 0.5, 0.5, 0.01, 0.1, 80)

2025-07-07 17:09:52,883 - gym_custom_envs_real_ur_drivers_URBasic_realTimeClientEvent - INFO - Program send to Robot:
servoj([-0.012271846303085088, -1.576932249946439, -1.6045439041282272, -1.5002178707442781, 1.5462526341887264, 3.1477285767413354], 0.5, 0.5, 0.01, 0.1, 80)

2025-07-07 17:09:52,902 - gym_custom_envs_real_ur_drivers_URBasic_realTimeClientEvent - INFO - Program send to Robot:
servoj([-0.012271846303085088, -1.576932249946439, -1.604543904128379, -1.5002330571540783, 1.5462526341887264, 3.1477285767413354], 0.5, 0.5, 0.01, 0.1, 80)

2025-07-07 17:09:52,906 - gym_custom_envs_real_ur_drivers_URBasic_realTimeClientEvent - INFO - Program send to Robot:
servoj([-0.012271846303085088, -1.576932249946439, -1.6045439041283807, -1.5002332090181763, 1.5462526341887264, 3.1477285767413354], 0.5, 0.5, 0.01, 0.1, 80)

2025-07-07 17:09:52,926 - gym_custom_envs_real_ur_drivers_URBasic_realTimeClientEvent - INFO - Program send to Robot:
servoj([-0.012271846303085088, -1.576932249946439, -1.6045439041283807, -1.5002332105368172, 1.5462526341887264, 3.1477285767413354], 0.5, 0.5, 0.01, 0.1, 80)

2025-07-07 17:09:52,931 - gym_custom_envs_real_ur_drivers_URBasic_realTimeClientEvent - INFO - Program send to Robot:
servoj([-0.012271846303085088, -1.576932249946439, -1.6045439041283807, -1.5002332105520038, 1.5462526341887264, 3.1477285767413354], 0.5, 0.5, 0.01, 0.1, 80)

2025-07-07 17:09:52,939 - gym_custom_envs_real_ur_drivers_URBasic_realTimeClientEvent - INFO - Program send to Robot:
servoj([-0.012271846303085088, -1.576932249946439, -1.6045439041283807, -1.5002332105521556, 1.5462526341887264, 3.1477285767413354], 0.5, 0.5, 0.01, 0.1, 80)

2025-07-07 17:09:52,954 - gym_custom_envs_real_ur_drivers_URBasic_realTimeClientEvent - INFO - Program send to Robot:
servoj([-0.012271846303085088, -1.576932249946439, -1.6045439041283807, -1.500233210552157, 1.5462526341887264, 3.1477285767413354], 0.5, 0.5, 0.01, 0.1, 80)

2025-07-07 17:09:52,963 - gym_custom_envs_real_ur_drivers_URBasic_realTimeClientEvent - INFO - Program send to Robot:
servoj([-0.012271846303085088, -1.576932249946439, -1.6045439041283807, -1.500233210552157, 1.5462526341887264, 3.1477285767413354], 0.5, 0.5, 0.01, 0.1, 80)

2025-07-07 17:09:52,976 - gym_custom_envs_real_ur_drivers_URBasic_realTimeClientEvent - INFO - Program send to Robot:
servoj([-0.012271846303085088, -1.576932249946439, -1.6045439041283807, -1.500233210552157, 1.5462526341887264, 3.1477285767413354], 0.5, 0.5, 0.01, 0.1, 80)

2025-07-07 17:09:52,987 - gym_custom_envs_real_ur_drivers_URBasic_realTimeClientEvent - INFO - Program send to Robot:
servoj([-0.012271846303085088, -1.576932249946439, -1.6045439041283807, -1.500233210552157, 1.5462526341887264, 3.1477285767413354], 0.5, 0.5, 0.01, 0.1, 80)

2025-07-07 17:09:52,995 - gym_custom_envs_real_ur_drivers_URBasic_realTimeClientEvent - INFO - Program send to Robot:
servoj([-0.012271846303085088, -1.576932249946439, -1.6045439041283807, -1.500233210552157, 1.5462526341887264, 3.1477285767413354], 0.5, 0.5, 0.01, 0.1, 80)

2025-07-07 17:09:53,003 - gym_custom_envs_real_ur_drivers_URBasic_realTimeClientEvent - INFO - Program send to Robot:
servoj([-0.012271846303085088, -1.576932249946439, -1.6045439041283807, -1.500233210552157, 1.5462526341887264, 3.1477285767413354], 0.5, 0.5, 0.01, 0.1, 80)

2025-07-07 17:09:53,023 - gym_custom_envs_real_ur_drivers_URBasic_realTimeClientEvent - INFO - Program send to Robot:
servoj([-0.012271846303085088, -1.576932249946439, -1.6045439041283807, -1.500233210552157, 1.5462526341887264, 3.1477285767413354], 0.5, 0.5, 0.01, 0.1, 80)

2025-07-07 17:09:53,027 - gym_custom_envs_real_ur_drivers_URBasic_realTimeClientEvent - INFO - Program send to Robot:
servoj([-0.012271846303085088, -1.576932249946439, -1.6045439041283807, -1.500233210552157, 1.5462526341887264, 3.1477285767413354], 0.5, 0.5, 0.01, 0.1, 80)

2025-07-07 17:09:53,047 - gym_custom_envs_real_ur_drivers_URBasic_realTimeClientEvent - INFO - Program send to Robot:
servoj([-0.012271846303085088, -1.576932249946439, -1.6045439041283807, -1.500233210552157, 1.5462526341887264, 3.1477285767413354], 0.5, 0.5, 0.01, 0.1, 80)

2025-07-07 17:09:53,051 - gym_custom_envs_real_ur_drivers_URBasic_realTimeClientEvent - INFO - Program send to Robot:
servoj([-0.012271846303085088, -1.576932249946439, -1.6045439041283807, -1.500233210552157, 1.5462526341887264, 3.1477285767413354], 0.5, 0.5, 0.01, 0.1, 80)

2025-07-07 17:09:53,071 - gym_custom_envs_real_ur_drivers_URBasic_realTimeClientEvent - INFO - Program send to Robot:
servoj([-0.012271846303085088, -1.576932249946439, -1.6045439041283807, -1.500233210552157, 1.5462526341887264, 3.1477285767413354], 0.5, 0.5, 0.01, 0.1, 80)

2025-07-07 17:09:53,075 - gym_custom_envs_real_ur_drivers_URBasic_realTimeClientEvent - INFO - Program send to Robot:
servoj([-0.012271846303085088, -1.576932249946439, -1.6045439041283807, -1.500233210552157, 1.5462526341887264, 3.1477285767413354], 0.5, 0.5, 0.01, 0.1, 80)

2025-07-07 17:09:53,096 - gym_custom_envs_real_ur_drivers_URBasic_realTimeClientEvent - INFO - Program send to Robot:
servoj([-0.012271846303085088, -1.576932249946439, -1.6045439041283807, -1.500233210552157, 1.5462526341887264, 3.1477285767413354], 0.5, 0.5, 0.01, 0.1, 80)

2025-07-07 17:09:53,099 - gym_custom_envs_real_ur_drivers_URBasic_realTimeClientEvent - INFO - Program send to Robot:
servoj([-0.012271846303085088, -1.576932249946439, -1.6045439041283807, -1.500233210552157, 1.5462526341887264, 3.1477285767413354], 0.5, 0.5, 0.01, 0.1, 80)

2025-07-07 17:09:53,114 - gym_custom_envs_real_ur_drivers_URBasic_realTimeClientEvent - INFO - Program send to Robot:
servoj([-0.012271846303085088, -1.576932249946439, -1.6045439041283807, -1.500233210552157, 1.5462526341887264, 3.1477285767413354], 0.5, 0.5, 0.01, 0.1, 80)

2025-07-07 17:09:53,123 - gym_custom_envs_real_ur_drivers_URBasic_realTimeClientEvent - INFO - Program send to Robot:
servoj([-0.012271846303085088, -1.576932249946439, -1.6045439041283807, -1.500233210552157, 1.5462526341887264, 3.1477285767413354], 0.5, 0.5, 0.01, 0.1, 80)

2025-07-07 17:09:53,139 - gym_custom_envs_real_ur_drivers_URBasic_realTimeClientEvent - INFO - Program send to Robot:
servoj([-0.012271846303085088, -1.576932249946439, -1.6060625451083876, -1.500233210552157, 1.5462526341887264, 3.1477285767413354], 0.5, 0.5, 0.01, 0.1, 80)

2025-07-07 17:09:53,147 - gym_custom_envs_real_ur_drivers_URBasic_realTimeClientEvent - INFO - Program send to Robot:
servoj([-0.012271846303085088, -1.576932249946439, -1.6060777315181878, -1.500233210552157, 1.5462526341887264, 3.1477285767413354], 0.5, 0.5, 0.01, 0.1, 80)

2025-07-07 17:09:53,163 - gym_custom_envs_real_ur_drivers_URBasic_realTimeClientEvent - INFO - Program send to Robot:
servoj([-0.012271846303085088, -1.576932249946439, -1.6060778833822857, -1.500233210552157, 1.5462526341887264, 3.1477285767413354], 0.5, 0.5, 0.01, 0.1, 80)

2025-07-07 17:09:53,171 - gym_custom_envs_real_ur_drivers_URBasic_realTimeClientEvent - INFO - Program send to Robot:
servoj([-0.012271846303085088, -1.576932249946439, -1.6045592439209198, -1.500233210552157, 1.5462526341887264, 3.1477285767413354], 0.5, 0.5, 0.01, 0.1, 80)

2025-07-07 17:09:53,186 - gym_custom_envs_real_ur_drivers_URBasic_realTimeClientEvent - INFO - Program send to Robot:
servoj([-0.012271846303085088, -1.576932249946439, -1.604544057526306, -1.500233210552157, 1.5462526341887264, 3.1477285767413354], 0.5, 0.5, 0.01, 0.1, 80)

2025-07-07 17:09:53,195 - gym_custom_envs_real_ur_drivers_URBasic_realTimeClientEvent - INFO - Program send to Robot:
servoj([-0.012271846303085088, -1.576932249946439, -1.6045439056623598, -1.500233210552157, 1.5462526341887264, 3.1477285767413354], 0.5, 0.5, 0.01, 0.1, 80)

2025-07-07 17:09:53,211 - gym_custom_envs_real_ur_drivers_URBasic_realTimeClientEvent - INFO - Program send to Robot:
servoj([-0.012271846303085088, -1.576932249946439, -1.6060625451237274, -1.500233210552157, 1.5462526341887264, 3.1477285767413354], 0.5, 0.5, 0.01, 0.1, 80)

2025-07-07 17:09:53,219 - gym_custom_envs_real_ur_drivers_URBasic_realTimeClientEvent - INFO - Program send to Robot:
servoj([-0.012271846303085088, -1.576932249946439, -1.606077731518341, -1.500233210552157, 1.5462526341887264, 3.1477285767413354], 0.5, 0.5, 0.01, 0.1, 80)

2025-07-07 17:09:53,235 - gym_custom_envs_real_ur_drivers_URBasic_realTimeClientEvent - INFO - Program send to Robot:
servoj([-0.012271846303085088, -1.576932249946439, -1.6060778833822873, -1.500233210552157, 1.5462526341887264, 3.1477285767413354], 0.5, 0.5, 0.01, 0.1, 80)

2025-07-07 17:09:53,243 - gym_custom_envs_real_ur_drivers_URBasic_realTimeClientEvent - INFO - Program send to Robot:
servoj([-0.012271846303085088, -1.576932249946439, -1.6060778849009267, -1.500233210552157, 1.5462526341887264, 3.1477285767413354], 0.5, 0.5, 0.01, 0.1, 80)

2025-07-07 17:09:53,251 - gym_custom_envs_real_ur_drivers_URBasic_realTimeClientEvent - INFO - Program send to Robot:
servoj([-0.012271846303085088, -1.576932249946439, -1.606077884916113, -1.500233210552157, 1.5462526341887264, 3.1477285767413354], 0.5, 0.5, 0.01, 0.1, 80)

2025-07-07 17:09:53,267 - gym_custom_envs_real_ur_drivers_URBasic_realTimeClientEvent - INFO - Program send to Robot:
servoj([-0.012271846303085088, -1.576932249946439, -1.606077884916265, -1.500233210552157, 1.5462526341887264, 3.1477285767413354], 0.5, 0.5, 0.01, 0.1, 80)

2025-07-07 17:09:53,275 - gym_custom_envs_real_ur_drivers_URBasic_realTimeClientEvent - INFO - Program send to Robot:
servoj([-0.012271846303085088, -1.576932249946439, -1.6060778849162665, -1.500233210552157, 1.5462526341887264, 3.1477285767413354], 0.5, 0.5, 0.01, 0.1, 80)

2025-07-07 17:09:53,283 - gym_custom_envs_real_ur_drivers_URBasic_realTimeClientEvent - INFO - Program send to Robot:
servoj([-0.012271846303085088, -1.576932249946439, -1.6060778849162665, -1.500233210552157, 1.5462526341887264, 3.1477285767413354], 0.5, 0.5, 0.01, 0.1, 80)

2025-07-07 17:09:53,291 - gym_custom_envs_real_ur_drivers_URBasic_realTimeClientEvent - INFO - Program send to Robot:
servoj([-0.012271846303085088, -1.576932249946439, -1.6060778849162665, -1.500233210552157, 1.5462526341887264, 3.1477285767413354], 0.5, 0.5, 0.01, 0.1, 80)

2025-07-07 17:09:53,307 - gym_custom_envs_real_ur_drivers_URBasic_realTimeClientEvent - INFO - Program send to Robot:
servoj([-0.012271846303085088, -1.576932249946439, -1.6060778849162665, -1.500233210552157, 1.5477712751687334, 3.1477285767413354], 0.5, 0.5, 0.01, 0.1, 80)

2025-07-07 17:09:53,315 - gym_custom_envs_real_ur_drivers_URBasic_realTimeClientEvent - INFO - Program send to Robot:
servoj([-0.012271846303085088, -1.576932249946439, -1.6060778849162665, -1.500233210552157, 1.5477864615785335, 3.1477285767413354], 0.5, 0.5, 0.01, 0.1, 80)

2025-07-07 17:09:53,331 - gym_custom_envs_real_ur_drivers_URBasic_realTimeClientEvent - INFO - Program send to Robot:
servoj([-0.012271846303085088, -1.576932249946439, -1.6045592439362595, -1.500233210552157, 1.5477866134426315, 3.1477285767413354], 0.5, 0.5, 0.01, 0.1, 80)

2025-07-07 17:09:53,339 - gym_custom_envs_real_ur_drivers_URBasic_realTimeClientEvent - INFO - Program send to Robot:
servoj([-0.012271846303085088, -1.576932249946439, -1.6045440575264593, -1.500233210552157, 1.5477866149612725, 3.1477285767413354], 0.5, 0.5, 0.01, 0.1, 80)

2025-07-07 17:09:53,355 - gym_custom_envs_real_ur_drivers_URBasic_realTimeClientEvent - INFO - Program send to Robot:
servoj([-0.012271846303085088, -1.576932249946439, -1.6045439056623614, -1.500233210552157, 1.5477866149764588, 3.1477285767413354], 0.5, 0.5, 0.01, 0.1, 80)

2025-07-07 17:09:53,363 - gym_custom_envs_real_ur_drivers_URBasic_realTimeClientEvent - INFO - Program send to Robot:
servoj([-0.012271846303085088, -1.576932249946439, -1.6045439041437204, -1.500233210552157, 1.5477866149766106, 3.1477285767413354], 0.5, 0.5, 0.01, 0.1, 80)

2025-07-07 17:09:53,378 - gym_custom_envs_real_ur_drivers_URBasic_realTimeClientEvent - INFO - Program send to Robot:
servoj([-0.012271846303085088, -1.576932249946439, -1.604543904128534, -1.500233210552157, 1.5477866149766122, 3.1477285767413354], 0.5, 0.5, 0.01, 0.1, 80)

2025-07-07 17:09:53,387 - gym_custom_envs_real_ur_drivers_URBasic_realTimeClientEvent - INFO - Program send to Robot:
servoj([-0.012271846303085088, -1.576932249946439, -1.6045439041283822, -1.500233210552157, 1.5477866149766122, 3.1477285767413354], 0.5, 0.5, 0.01, 0.1, 80)

2025-07-07 17:09:53,403 - gym_custom_envs_real_ur_drivers_URBasic_realTimeClientEvent - INFO - Program send to Robot:
servoj([-0.012271846303085088, -1.5754136089664323, -1.6045439041283807, -1.500233210552157, 1.5477866149766122, 3.1477285767413354], 0.5, 0.5, 0.01, 0.1, 80)

2025-07-07 17:09:53,411 - gym_custom_envs_real_ur_drivers_URBasic_realTimeClientEvent - INFO - Program send to Robot:
servoj([-0.012271846303085088, -1.5753984225566322, -1.6045439041283807, -1.500233210552157, 1.5477866149766122, 3.1477285767413354], 0.5, 0.5, 0.01, 0.1, 80)

2025-07-07 17:09:53,420 - gym_custom_envs_real_ur_drivers_URBasic_realTimeClientEvent - INFO - Program send to Robot:
servoj([-0.012271846303085088, -1.5753982706925342, -1.6045439041283807, -1.500233210552157, 1.5477866149766122, 3.1477285767413354], 0.5, 0.5, 0.01, 0.1, 80)

2025-07-07 17:09:53,435 - gym_custom_envs_real_ur_drivers_URBasic_realTimeClientEvent - INFO - Program send to Robot:
servoj([-0.012271846303085088, -1.5753982691738933, -1.6045439041283807, -1.500233210552157, 1.5477866149766122, 3.1477285767413354], 0.5, 0.5, 0.01, 0.1, 80)

2025-07-07 17:09:53,442 - gym_custom_envs_real_ur_drivers_URBasic_realTimeClientEvent - INFO - Program send to Robot:
servoj([-0.012271846303085088, -1.575398269158707, -1.6045439041283807, -1.500233210552157, 1.5477866149766122, 3.1477285767413354], 0.5, 0.5, 0.01, 0.1, 80)

2025-07-07 17:09:53,456 - gym_custom_envs_real_ur_drivers_URBasic_realTimeClientEvent - INFO - Program send to Robot:
servoj([-0.012271846303085088, -1.575398269158555, -1.6045439041283807, -1.500233210552157, 1.5477866149766122, 3.1477285767413354], 0.5, 0.5, 0.01, 0.1, 80)

2025-07-07 17:09:53,467 - gym_custom_envs_real_ur_drivers_URBasic_realTimeClientEvent - INFO - Program send to Robot:
servoj([-0.012271846303085088, -1.5753982691585535, -1.6030252631483737, -1.500233210552157, 1.5477866149766122, 3.1477285767413354], 0.5, 0.5, 0.01, 0.1, 80)

2025-07-07 17:09:53,481 - gym_custom_envs_real_ur_drivers_URBasic_realTimeClientEvent - INFO - Program send to Robot:
servoj([-0.012271846303085088, -1.5753982691585535, -1.6030100767385735, -1.500233210552157, 1.5477866149766122, 3.1477285767413354], 0.5, 0.5, 0.01, 0.1, 80)

2025-07-07 17:09:53,491 - gym_custom_envs_real_ur_drivers_URBasic_realTimeClientEvent - INFO - Program send to Robot:
servoj([-0.010753205323078142, -1.5738796281785468, -1.6014912838944686, -1.500233210552157, 1.5477866149766122, 3.1477285767413354], 0.5, 0.5, 0.01, 0.1, 80)

2025-07-07 17:09:53,499 - gym_custom_envs_real_ur_drivers_URBasic_realTimeClientEvent - INFO - Program send to Robot:
servoj([-0.010738018913278073, -1.5738644417687466, -1.6014760959660275, -1.500233210552157, 1.5477866149766122, 3.1477285767413354], 0.5, 0.5, 0.01, 0.1, 80)

2025-07-07 17:09:53,507 - gym_custom_envs_real_ur_drivers_URBasic_realTimeClientEvent - INFO - Program send to Robot:
servoj([-0.010737867049180073, -1.5738642899046487, -1.6014759440867432, -1.500233210552157, 1.5477866149766122, 3.1477285767413354], 0.5, 0.5, 0.01, 0.1, 80)

2025-07-07 17:09:53,523 - gym_custom_envs_real_ur_drivers_URBasic_realTimeClientEvent - INFO - Program send to Robot:
servoj([-0.010737865530539093, -1.5738642883860077, -1.5999573015879445, -1.500233210552157, 1.5477866149766122, 3.1477285767413354], 0.5, 0.5, 0.01, 0.1, 80)

2025-07-07 17:09:53,531 - gym_custom_envs_real_ur_drivers_URBasic_realTimeClientEvent - INFO - Program send to Robot:
servoj([-0.010737865515352683, -1.5738642883708214, -1.5999421151629565, -1.500233210552157, 1.5477866149766122, 3.1477285767413354], 0.5, 0.5, 0.01, 0.1, 80)

2025-07-07 17:09:53,547 - gym_custom_envs_real_ur_drivers_URBasic_realTimeClientEvent - INFO - Program send to Robot:
servoj([-0.010737865515200819, -1.5738642883706695, -1.5999419632987066, -1.500233210552157, 1.5477866149766122, 3.1477285767413354], 0.5, 0.5, 0.01, 0.1, 80)

2025-07-07 17:09:53,555 - gym_custom_envs_real_ur_drivers_URBasic_realTimeClientEvent - INFO - Program send to Robot:
servoj([-0.0107378655151993, -1.572345647390661, -1.5953860388400432, -1.500233210552157, 1.5493052559566192, 3.1477285767413354], 0.5, 0.5, 0.01, 0.1, 80)

2025-07-07 17:09:53,571 - gym_custom_envs_real_ur_drivers_URBasic_realTimeClientEvent - INFO - Program send to Robot:
servoj([-0.010737865515199285, -1.5723304609808608, -1.5953404795954564, -1.500233210552157, 1.5493204423664193, 3.1477285767413354], 0.5, 0.5, 0.01, 0.1, 80)

2025-07-07 17:09:53,579 - gym_custom_envs_real_ur_drivers_URBasic_realTimeClientEvent - INFO - Program send to Robot:
servoj([-0.010737865515199285, -1.5723303091167629, -1.5953400240030107, -1.500233210552157, 1.5493205942305173, 3.1477285767413354], 0.5, 0.5, 0.01, 0.1, 80)

2025-07-07 17:09:53,595 - gym_custom_envs_real_ur_drivers_URBasic_realTimeClientEvent - INFO - Program send to Robot:
servoj([-0.010737865515199285, -1.5708116666181153, -1.5907840965070663, -1.500233210552157, 1.552357877709171, 3.1477285767413354], 0.5, 0.5, 0.01, 0.1, 80)

2025-07-07 17:09:53,603 - gym_custom_envs_real_ur_drivers_URBasic_realTimeClientEvent - INFO - Program send to Robot:
servoj([-0.010737865515199285, -1.570796480193129, -1.5907385372321068, -1.500233210552157, 1.5523882505439577, 3.1477285767413354], 0.5, 0.5, 0.01, 0.1, 80)

2025-07-07 17:09:53,619 - gym_custom_envs_real_ur_drivers_URBasic_realTimeClientEvent - INFO - Program send to Robot:
servoj([-0.010737865515199285, -1.5677590463688653, -1.5846635177193293, -1.5017518515321637, 1.5569444772123264, 3.1477285767413354], 0.5, 0.5, 0.01, 0.1, 80)

2025-07-07 17:09:53,627 - gym_custom_envs_real_ur_drivers_URBasic_realTimeClientEvent - INFO - Program send to Robot:
servoj([-0.010737865515199285, -1.5677286720306227, -1.5846027675242016, -1.5017670379419639, 1.5569900394790102, 3.1477285767413354], 0.5, 0.5, 0.01, 0.1, 80)

2025-07-07 17:09:53,638 - gym_custom_envs_real_ur_drivers_URBasic_realTimeClientEvent - INFO - Program send to Robot:
servoj([-0.010737865515199285, -1.5677283682872403, -1.5846021600222504, -1.5017671898060618, 1.5569904951016769, 3.1477285767413354], 0.5, 0.5, 0.01, 0.1, 80)

2025-07-07 17:09:53,652 - gym_custom_envs_real_ur_drivers_URBasic_realTimeClientEvent - INFO - Program send to Robot:
servoj([-0.010737865515199285, -1.5662097242697997, -1.580046231007211, -1.5017671913247028, 1.5630650635779304, 3.1477285767413354], 0.5, 0.5, 0.01, 0.1, 80)

2025-07-07 17:09:53,659 - gym_custom_envs_real_ur_drivers_URBasic_realTimeClientEvent - INFO - Program send to Robot:
servoj([-0.010737865515199285, -1.5661945378296251, -1.5800006717170605, -1.5017671913398893, 1.563125809262693, 3.1477285767413354], 0.5, 0.5, 0.01, 0.1, 80)

2025-07-07 17:09:53,667 - gym_custom_envs_real_ur_drivers_URBasic_realTimeClientEvent - INFO - Program send to Robot:
servoj([-0.010737865515199285, -1.5661943859652234, -1.580000216124159, -1.5017671913400412, 1.5631264167195407, 3.1477285767413354], 0.5, 0.5, 0.01, 0.1, 80)

2025-07-07 17:09:53,675 - gym_custom_envs_real_ur_drivers_URBasic_realTimeClientEvent - INFO - Program send to Robot:
servoj([-0.010737865515199285, -1.5661943844465793, -1.5800002115682301, -1.5017671913400428, 1.563126422794109, 3.1477285767413354], 0.5, 0.5, 0.01, 0.1, 80)

2025-07-07 17:09:53,691 - gym_custom_envs_real_ur_drivers_URBasic_realTimeClientEvent - INFO - Program send to Robot:
servoj([-0.010737865515199285, -1.5646757434513863, -1.5754442885826498, -1.5017671913400428, 1.5676823457948748, 3.1477285767413354], 0.5, 0.5, 0.01, 0.1, 80)

2025-07-07 17:09:53,699 - gym_custom_envs_real_ur_drivers_URBasic_realTimeClientEvent - INFO - Program send to Robot:
servoj([-0.010737865515199285, -1.5646605570414343, -1.575398729352794, -1.5017671913400428, 1.5677279050248825, 3.1477285767413354], 0.5, 0.5, 0.01, 0.1, 80)

2025-07-07 17:09:53,709 - gym_custom_envs_real_ur_drivers_URBasic_realTimeClientEvent - INFO - Program send to Robot:
servoj([-0.010737865515199285, -1.5646604051773347, -1.5753982737604955, -1.5017671913400428, 1.5677283606171826, 3.1477285767413354], 0.5, 0.5, 0.01, 0.1, 80)

2025-07-07 17:09:53,724 - gym_custom_envs_real_ur_drivers_URBasic_realTimeClientEvent - INFO - Program send to Robot:
servoj([-0.010737865515199285, -1.5646604036586937, -1.5723609872445594, -1.5017671913400428, 1.5707656471331195, 3.1477285767413354], 0.5, 0.5, 0.01, 0.1, 80)

2025-07-07 17:09:53,733 - gym_custom_envs_real_ur_drivers_URBasic_realTimeClientEvent - INFO - Program send to Robot:
servoj([-0.010737865515199285, -1.5646604036435074, -1.5723306143794, -1.5017671913400428, 1.570796019998279, 3.1477285767413354], 0.5, 0.5, 0.01, 0.1, 80)

2025-07-07 17:09:53,739 - gym_custom_envs_real_ur_drivers_URBasic_realTimeClientEvent - INFO - Program send to Robot:
servoj([-0.010737865515199285, -1.5646604036433556, -1.5723303106507485, -1.5017671913400428, 1.5707963237269305, 3.1477285767413354], 0.5, 0.5, 0.01, 0.1, 80)

2025-07-07 17:09:53,758 - gym_custom_envs_real_ur_drivers_URBasic_realTimeClientEvent - INFO - Program send to Robot:
servoj([-0.010737865515199285, -1.564660403643354, -1.5692930256534483, -1.5017671913400428, 1.570796326764217, 3.1477285767413354], 0.5, 0.5, 0.01, 0.1, 80)

2025-07-07 17:09:53,763 - gym_custom_envs_real_ur_drivers_URBasic_realTimeClientEvent - INFO - Program send to Robot:
servoj([-0.010737865515199285, -1.564660403643354, -1.5692626528034752, -1.5017671913400428, 1.57079632679459, 3.1477285767413354], 0.5, 0.5, 0.01, 0.1, 80)

2025-07-07 17:09:53,779 - gym_custom_envs_real_ur_drivers_URBasic_realTimeClientEvent - INFO - Program send to Robot:
servoj([-0.010737865515199285, -1.5631417626633473, -1.5662250671149625, -1.5017671913400428, 1.5723149677749004, 3.1477285767413354], 0.5, 0.5, 0.01, 0.1, 80)

2025-07-07 17:09:53,786 - gym_custom_envs_real_ur_drivers_URBasic_realTimeClientEvent - INFO - Program send to Robot:
servoj([-0.010737865515199285, -1.5631265762535471, -1.5661946912580773, -1.5017671913400428, 1.5723301541847035, 3.1477285767413354], 0.5, 0.5, 0.01, 0.1, 80)

2025-07-07 17:09:53,798 - gym_custom_envs_real_ur_drivers_URBasic_realTimeClientEvent - INFO - Program send to Robot:
servoj([-0.010737865515199285, -1.5631264243894492, -1.5661943874995083, -1.5017671913400428, 1.5723303060488014, 3.1477285767413354], 0.5, 0.5, 0.01, 0.1, 80)

2025-07-07 17:09:53,811 - gym_custom_envs_real_ur_drivers_URBasic_realTimeClientEvent - INFO - Program send to Robot:
servoj([-0.010737865515199285, -1.5616077818908012, -1.5631571025019089, -1.5032858323200495, 1.5723303075674424, 3.1477285767413354], 0.5, 0.5, 0.01, 0.1, 80)

2025-07-07 17:09:53,822 - gym_custom_envs_real_ur_drivers_URBasic_realTimeClientEvent - INFO - Program send to Robot:
servoj([-0.010737865515199285, -1.5615925954658147, -1.5631267296519327, -1.5033010187298494, 1.572330307582629, 3.1477285767413354], 0.5, 0.5, 0.01, 0.1, 80)

2025-07-07 17:09:53,827 - gym_custom_envs_real_ur_drivers_URBasic_realTimeClientEvent - INFO - Program send to Robot:
servoj([-0.010737865515199285, -1.561592443601565, -1.563126425923433, -1.5033011705939474, 1.5723303075827808, 3.1477285767413354], 0.5, 0.5, 0.01, 0.1, 80)

2025-07-07 17:09:53,835 - gym_custom_envs_real_ur_drivers_URBasic_realTimeClientEvent - INFO - Program send to Robot:
servoj([-0.010737865515199285, -1.5615924420829224, -1.5631264228861481, -1.5033011721125884, 1.5723303075827824, 3.1477285767413354], 0.5, 0.5, 0.01, 0.1, 80)

2025-07-07 17:09:53,851 - gym_custom_envs_real_ur_drivers_URBasic_realTimeClientEvent - INFO - Program send to Robot:
servoj([-0.010737865515199285, -1.5570365191277158, -1.561607781875768, -1.503301172127775, 1.5723303075827824, 3.1477285767413354], 0.5, 0.5, 0.01, 0.1, 80)

2025-07-07 17:09:53,860 - gym_custom_envs_real_ur_drivers_URBasic_realTimeClientEvent - INFO - Program send to Robot:
servoj([-0.010737865515199285, -1.5569909598981637, -1.5615925954656644, -1.5033011721279268, 1.5723303075827824, 3.1477285767413354], 0.5, 0.5, 0.01, 0.1, 80)

2025-07-07 17:09:53,872 - gym_custom_envs_real_ur_drivers_URBasic_realTimeClientEvent - INFO - Program send to Robot:
servoj([-0.010737865515199285, -1.5569905043058683, -1.5615924436015634, -1.5033011721279284, 1.5723303075827824, 3.1477285767413354], 0.5, 0.5, 0.01, 0.1, 80)

2025-07-07 17:09:53,884 - gym_custom_envs_real_ur_drivers_URBasic_realTimeClientEvent - INFO - Program send to Robot:
servoj([-0.010737865515199285, -1.5554718587699383, -1.5615924420829224, -1.5033011721279284, 1.5723303075827824, 3.1477285767413354], 0.5, 0.5, 0.01, 0.1, 80)

2025-07-07 17:09:53,895 - gym_custom_envs_real_ur_drivers_URBasic_realTimeClientEvent - INFO - Program send to Robot:
servoj([-0.010737865515199285, -1.555456672314579, -1.5615924420677358, -1.5033011721279284, 1.5723303075827824, 3.1477285767413354], 0.5, 0.5, 0.01, 0.1, 80)

2025-07-07 17:09:53,899 - gym_custom_envs_real_ur_drivers_URBasic_realTimeClientEvent - INFO - Program send to Robot:
servoj([-0.010737865515199285, -1.5554565204500255, -1.561592442067584, -1.5033011721279284, 1.5723303075827824, 3.1477285767413354], 0.5, 0.5, 0.01, 0.1, 80)

2025-07-07 17:09:53,918 - gym_custom_envs_real_ur_drivers_URBasic_realTimeClientEvent - INFO - Program send to Robot:
servoj([-0.00921922453519278, -1.5524192369713663, -1.5600738010875759, -1.5033011721279284, 1.5723303075827824, 3.1477285767413354], 0.5, 0.5, 0.01, 0.1, 80)

2025-07-07 17:09:53,925 - gym_custom_envs_real_ur_drivers_URBasic_realTimeClientEvent - INFO - Program send to Robot:
servoj([-0.009204038125392715, -1.5523888641365797, -1.5600586146777757, -1.5033011721279284, 1.5723303075827824, 3.1477285767413354], 0.5, 0.5, 0.01, 0.1, 80)

2025-07-07 17:09:53,931 - gym_custom_envs_real_ur_drivers_URBasic_realTimeClientEvent - INFO - Program send to Robot:
servoj([-0.009203886261294715, -1.552388560408232, -1.5600584628136778, -1.5033011721279284, 1.5723303075827824, 3.1477285767413354], 0.5, 0.5, 0.01, 0.1, 80)

2025-07-07 17:09:53,950 - gym_custom_envs_real_ur_drivers_URBasic_realTimeClientEvent - INFO - Program send to Robot:
servoj([-0.009203884742653734, -1.5508699163909416, -1.5600584612950368, -1.5033011721279284, 1.5723303075827824, 3.1477285767413354], 0.5, 0.5, 0.01, 0.1, 80)

2025-07-07 17:09:53,955 - gym_custom_envs_real_ur_drivers_URBasic_realTimeClientEvent - INFO - Program send to Robot:
servoj([-0.009203884727467325, -1.550854729950769, -1.5600584612798503, -1.5033011721279284, 1.5723303075827824, 3.1477285767413354], 0.5, 0.5, 0.01, 0.1, 80)

2025-07-07 17:09:53,965 - gym_custom_envs_real_ur_drivers_URBasic_realTimeClientEvent - INFO - Program send to Robot:
servoj([-0.00920388472731546, -1.5508545780863672, -1.5600584612796984, -1.5033011721279284, 1.5723303075827824, 3.1477285767413354], 0.5, 0.5, 0.01, 0.1, 80)

2025-07-07 17:09:53,979 - gym_custom_envs_real_ur_drivers_URBasic_realTimeClientEvent - INFO - Program send to Robot:
servoj([-0.007685243747306997, -1.5478172946077096, -1.5585398202996898, -1.5048198131079351, 1.5723303075827824, 3.1477285767413354], 0.5, 0.5, 0.01, 0.1, 80)

2025-07-07 17:09:53,990 - gym_custom_envs_real_ur_drivers_URBasic_realTimeClientEvent - INFO - Program send to Robot:
servoj([-0.007670057337506913, -1.547786921772923, -1.55852463388989, -1.504834999517735, 1.5723303075827824, 3.1477285767413354], 0.5, 0.5, 0.01, 0.1, 80)

2025-07-07 17:09:53,994 - gym_custom_envs_real_ur_drivers_URBasic_realTimeClientEvent - INFO - Program send to Robot:
servoj([-0.007669905473408912, -1.5477866180445752, -1.558524482025792, -1.5048351513818332, 1.5723303075827824, 3.1477285767413354], 0.5, 0.5, 0.01, 0.1, 80)

2025-07-07 17:09:54,004 - gym_custom_envs_real_ur_drivers_URBasic_realTimeClientEvent - INFO - Program send to Robot:
servoj([-0.007669903954767932, -1.5462679740272849, -1.555487198547138, -1.5048351529004742, 1.5738489485627893, 3.1477285767413354], 0.5, 0.5, 0.01, 0.1, 80)

2025-07-07 17:09:54,020 - gym_custom_envs_real_ur_drivers_URBasic_realTimeClientEvent - INFO - Program send to Robot:
servoj([-0.0076699039395815224, -1.546252787587112, -1.5554568257123513, -1.5048351529156605, 1.5738641349725893, 3.1477285767413354], 0.5, 0.5, 0.01, 0.1, 80)

2025-07-07 17:09:54,028 - gym_custom_envs_real_ur_drivers_URBasic_realTimeClientEvent - INFO - Program send to Robot:
servoj([-0.007669903939429658, -1.5462526357227102, -1.5554565219840033, -1.5048351529158124, 1.5738642868366872, 3.1477285767413354], 0.5, 0.5, 0.01, 0.1, 80)

2025-07-07 17:09:54,039 - gym_custom_envs_real_ur_drivers_URBasic_realTimeClientEvent - INFO - Program send to Robot:
servoj([-0.007669903939428139, -1.5447339932240594, -1.552419236986706, -1.506353793895821, 1.5769015703153413, 3.1477285767413354], 0.5, 0.5, 0.01, 0.1, 80)

2025-07-07 17:09:54,052 - gym_custom_envs_real_ur_drivers_URBasic_realTimeClientEvent - INFO - Program send to Robot:
servoj([-0.007669903939428124, -1.5447188067990727, -1.552388864136733, -1.506368980305621, 1.5769319431501279, 3.1477285767413354], 0.5, 0.5, 0.01, 0.1, 80)

2025-07-07 17:09:54,062 - gym_custom_envs_real_ur_drivers_URBasic_realTimeClientEvent - INFO - Program send to Robot:
servoj([-0.007669903939428124, -1.5447186549348229, -1.5523885604082333, -1.506369132169719, 1.5769322468784759, 3.1477285767413354], 0.5, 0.5, 0.01, 0.1, 80)

2025-07-07 17:09:54,067 - gym_custom_envs_real_ur_drivers_URBasic_realTimeClientEvent - INFO - Program send to Robot:
servoj([-0.00615126295942162, -1.5432000124361736, -1.5478326344309283, -1.5094064156483735, 1.583006813835787, 3.146209935761329], 0.5, 0.5, 0.01, 0.1, 80)

2025-07-07 17:09:54,086 - gym_custom_envs_real_ur_drivers_URBasic_realTimeClientEvent - INFO - Program send to Robot:
servoj([-0.006136076549621554, -1.5431848260111871, -1.5477870751711553, -1.50943678848316, 1.58306755950536, 3.1461947493515288], 0.5, 0.5, 0.01, 0.1, 80)

2025-07-07 17:09:54,094 - gym_custom_envs_real_ur_drivers_URBasic_realTimeClientEvent - INFO - Program send to Robot:
servoj([-0.006135924685523554, -1.5431846741469373, -1.5477866195785577, -1.509437092211508, 1.5830681669620559, 3.146194597487431], 0.5, 0.5, 0.01, 0.1, 80)

2025-07-07 17:09:54,110 - gym_custom_envs_real_ur_drivers_URBasic_realTimeClientEvent - INFO - Program send to Robot:
servoj([-0.0061359231668825735, -1.5431846726282947, -1.5417120511026037, -1.5139930181888117, 1.5891427369566498, 3.14619459596879], 0.5, 0.5, 0.01, 0.1, 80)

2025-07-07 17:09:54,115 - gym_custom_envs_real_ur_drivers_URBasic_realTimeClientEvent - INFO - Program send to Robot:
servoj([-0.006135923151696164, -1.5431846726131084, -1.5416513054178442, -1.5140385774485847, 1.5892034826565957, 3.1461945959536037], 0.5, 0.5, 0.01, 0.1, 80)

2025-07-07 17:09:54,123 - gym_custom_envs_real_ur_drivers_URBasic_realTimeClientEvent - INFO - Program send to Robot:
servoj([-0.006135923151544299, -1.5431846726129566, -1.5416506979609965, -1.5140390330411824, 1.589204090113595, 3.146194595953452], 0.5, 0.5, 0.01, 0.1, 80)

2025-07-07 17:09:54,139 - gym_custom_envs_real_ur_drivers_URBasic_realTimeClientEvent - INFO - Program send to Robot:
servoj([-0.004617282171535836, -1.543184672612955, -1.5355761279664013, -1.5201136015171357, 1.596797301088199, 3.14619459595345], 0.5, 0.5, 0.01, 0.1, 80)

2025-07-07 17:09:54,146 - gym_custom_envs_real_ur_drivers_URBasic_realTimeClientEvent - INFO - Program send to Robot:
servoj([-0.004602095761735752, -1.543184672612955, -1.5355153822664553, -1.5201743472018951, 1.596873233197945, 3.14619459595345], 0.5, 0.5, 0.01, 0.1, 80)

2025-07-07 17:09:54,158 - gym_custom_envs_real_ur_drivers_URBasic_realTimeClientEvent - INFO - Program send to Robot:
servoj([-0.004601943897637751, -1.543184672612955, -1.535514774809456, -1.5201749546587426, 1.5968739925190425, 3.14619459595345], 0.5, 0.5, 0.01, 0.1, 80)

2025-07-07 17:09:54,171 - gym_custom_envs_real_ur_drivers_URBasic_realTimeClientEvent - INFO - Program send to Robot:
servoj([-0.0030833013989898265, -1.5416660316329482, -1.5279215638348522, -1.5247308836733315, 1.6014299230522733, 3.1446759549734433], 0.5, 0.5, 0.01, 0.1, 80)

2025-07-07 17:09:54,181 - gym_custom_envs_real_ur_drivers_URBasic_realTimeClientEvent - INFO - Program send to Robot:
servoj([-0.0030681149740033474, -1.541650845223148, -1.5278456317251061, -1.5247764429634774, 1.6014754823576056, 3.1446607685636434], 0.5, 0.5, 0.01, 0.1, 80)

2025-07-07 17:09:54,189 - gym_custom_envs_real_ur_drivers_URBasic_realTimeClientEvent - INFO - Program send to Robot:
servoj([-0.0030679631097534827, -1.5416506933590501, -1.5278448724040086, -1.5247768985563788, 1.601475937950659, 3.144660616699545], 0.5, 0.5, 0.01, 0.1, 80)

2025-07-07 17:09:54,194 - gym_custom_envs_real_ur_drivers_URBasic_realTimeClientEvent - INFO - Program send to Robot:
servoj([-0.0015493206111044794, -1.5416506918404091, -1.5172143779507499, -1.5293328260523285, 1.6060318654466104, 3.146179256160911], 0.5, 0.5, 0.01, 0.1, 80)

2025-07-07 17:09:54,213 - gym_custom_envs_real_ur_drivers_URBasic_realTimeClientEvent - INFO - Program send to Robot:
servoj([-0.0015341341861179892, -1.5416506918252226, -1.5171080730062174, -1.5293783853272878, 1.60607742472157, 3.1461944425555246], 0.5, 0.5, 0.01, 0.1, 80)

2025-07-07 17:09:54,219 - gym_custom_envs_real_ur_drivers_URBasic_realTimeClientEvent - INFO - Program send to Robot:
servoj([-0.0015339823218681243, -1.5416506918250708, -1.517107009956772, -1.5293788409200375, 1.6060778803143194, 3.146194594419471], 0.5, 0.5, 0.01, 0.1, 80)

2025-07-07 17:09:54,229 - gym_custom_envs_real_ur_drivers_URBasic_realTimeClientEvent - INFO - Program send to Robot:
servoj([0.0015033011567882632, -1.5416506918250694, -1.5079951534462368, -1.533934768415985, 1.607596525850254, 3.1461945959381103], 0.5, 0.5, 0.01, 0.1, 80)

2025-07-07 17:09:54,242 - gym_custom_envs_real_ur_drivers_URBasic_realTimeClientEvent - INFO - Program send to Robot:
servoj([0.0015336739915748272, -1.5416506918250694, -1.5079040348811314, -1.5339803276909445, 1.6076117123056133, 3.146194595953297], 0.5, 0.5, 0.01, 0.1, 80)

2025-07-07 17:09:54,254 - gym_custom_envs_real_ur_drivers_URBasic_realTimeClientEvent - INFO - Program send to Robot:
servoj([0.0015339777199226928, -1.5416506918250694, -1.5079031236954803, -1.533980783283694, 1.6076118641701669, 3.1461945959534487], 0.5, 0.5, 0.01, 0.1, 80)

2025-07-07 17:09:54,259 - gym_custom_envs_real_ur_drivers_URBasic_realTimeClientEvent - INFO - Program send to Robot:
servoj([0.004571262717219621, -1.5401320508450629, -1.498791268703584, -1.5400553517596491, 1.6076118656888125, 3.14619459595345], 0.5, 0.5, 0.01, 0.1, 80)

2025-07-07 17:09:54,267 - gym_custom_envs_real_ur_drivers_URBasic_realTimeClientEvent - INFO - Program send to Robot:
servoj([0.0046016355671925895, -1.5401168644352627, -1.498700150153665, -1.5401160974444086, 1.6076118657039988, 3.14619459595345], 0.5, 0.5, 0.01, 0.1, 80)

2025-07-07 17:09:54,283 - gym_custom_envs_real_ur_drivers_URBasic_realTimeClientEvent - INFO - Program send to Robot:
servoj([0.00460193929569232, -1.5401167125711648, -1.498699238968166, -1.540116704901256, 1.6076118657041507, 3.14619459595345], 0.5, 0.5, 0.01, 0.1, 80)

2025-07-07 17:09:54,291 - gym_custom_envs_real_ur_drivers_URBasic_realTimeClientEvent - INFO - Program send to Robot:
servoj([0.00915786527299771, -1.5385980700725168, -1.4880687429962631, -1.5461912748958517, 1.6076118657041523, 3.14619459595345], 0.5, 0.5, 0.01, 0.1, 80)

2025-07-07 17:09:54,301 - gym_custom_envs_real_ur_drivers_URBasic_realTimeClientEvent - INFO - Program send to Robot:
servoj([0.009203424532770765, -1.5385828836475304, -1.4879624380365442, -1.5462520205957977, 1.6076118657041523, 3.14619459595345], 0.5, 0.5, 0.01, 0.1, 80)

2025-07-07 17:09:54,315 - gym_custom_envs_real_ur_drivers_URBasic_realTimeClientEvent - INFO - Program send to Robot:
servoj([0.009203880125368494, -1.5385827317832803, -1.487961374986947, -1.546252628052797, 1.6076118657041523, 3.14619459595345], 0.5, 0.5, 0.01, 0.1, 80)

2025-07-07 17:09:54,325 - gym_custom_envs_real_ur_drivers_URBasic_realTimeClientEvent - INFO - Program send to Robot:
servoj([0.015278448601321371, -1.5370640892846312, -1.4773308774964031, -1.552327198047394, 1.6076118657041523, 3.14619459595345], 0.5, 0.5, 0.01, 0.1, 80)

2025-07-07 17:09:54,333 - gym_custom_envs_real_ur_drivers_URBasic_realTimeClientEvent - INFO - Program send to Robot:
servoj([0.015339194286080899, -1.5370489028596446, -1.4772245725214976, -1.55238794374734, 1.6076118657041523, 3.14619459595345], 0.5, 0.5, 0.01, 0.1, 80)

2025-07-07 17:09:54,338 - gym_custom_envs_real_ur_drivers_URBasic_realTimeClientEvent - INFO - Program send to Robot:
servoj([0.015339801742928495, -1.5370487509953947, -1.4772235094717487, -1.5523885512043396, 1.6076118657041523, 3.14619459595345], 0.5, 0.5, 0.01, 0.1, 80)

2025-07-07 17:09:54,359 - gym_custom_envs_real_ur_drivers_URBasic_realTimeClientEvent - INFO - Program send to Robot:
servoj([0.019895730757517365, -1.5355301084967456, -1.4650743710011973, -1.5584631211989368, 1.6076118657041523, 3.14619459595345], 0.5, 0.5, 0.01, 0.1, 80)

2025-07-07 17:09:54,363 - gym_custom_envs_real_ur_drivers_URBasic_realTimeClientEvent - INFO - Program send to Robot:
servoj([0.019941290047663252, -1.535514922071759, -1.464952879616492, -1.5585238668988828, 1.6076118657041523, 3.14619459595345], 0.5, 0.5, 0.01, 0.1, 80)

2025-07-07 17:09:54,379 - gym_custom_envs_real_ur_drivers_URBasic_realTimeClientEvent - INFO - Program send to Robot:
servoj([0.019941745640564713, -1.5355147702075091, -1.4649516647026448, -1.5585244743558822, 1.6076118657041523, 3.14619459595345], 0.5, 0.5, 0.01, 0.1, 80)

2025-07-07 17:09:54,386 - gym_custom_envs_real_ur_drivers_URBasic_realTimeClientEvent - INFO - Program send to Robot:
servoj([0.022979032156507616, -1.5339961277088596, -1.4558398066734655, -1.5645990443504794, 1.6076118657041523, 3.14619459595345], 0.5, 0.5, 0.01, 0.1, 80)

2025-07-07 17:09:54,399 - gym_custom_envs_real_ur_drivers_URBasic_realTimeClientEvent - INFO - Program send to Robot:
servoj([0.023009405021667047, -1.5339809412838732, -1.4557486880931738, -1.5646597900504253, 1.6076118657041523, 3.14619459595345], 0.5, 0.5, 0.01, 0.1, 80)

2025-07-07 17:09:54,411 - gym_custom_envs_real_ur_drivers_URBasic_realTimeClientEvent - INFO - Program send to Robot:
servoj([0.02300970875031864, -1.5339807894196233, -1.4557477769073708, -1.5646603975074247, 1.6076118657041523, 3.14619459595345], 0.5, 0.5, 0.01, 0.1, 80)

2025-07-07 17:09:54,423 - gym_custom_envs_real_ur_drivers_URBasic_realTimeClientEvent - INFO - Program send to Robot:
servoj([0.02452835276761166, -1.5294248649609608, -1.448154562895479, -1.5661790445620014, 1.6076118657041523, 3.14619459595345], 0.5, 0.5, 0.01, 0.1, 80)

2025-07-07 17:09:54,427 - gym_custom_envs_real_ur_drivers_URBasic_realTimeClientEvent - INFO - Program send to Robot:
servoj([0.02454353920778459, -1.5293793057163743, -1.4480786307553601, -1.5661942310325472, 1.6076118657041523, 3.14619459595345], 0.5, 0.5, 0.01, 0.1, 80)

2025-07-07 17:09:54,447 - gym_custom_envs_real_ur_drivers_URBasic_realTimeClientEvent - INFO - Program send to Robot:
servoj([0.02454369107218632, -1.5293788501239283, -1.4480778714339588, -1.5661943828972527, 1.6076118657041523, 3.14619459595345], 0.5, 0.5, 0.01, 0.1, 80)

2025-07-07 17:09:54,451 - gym_custom_envs_real_ur_drivers_URBasic_realTimeClientEvent - INFO - Program send to Robot:
servoj([0.02909961553085073, -1.5233042816479765, -1.4420032999207169, -1.5677130253959064, 1.6060932247241453, 3.14619459595345], 0.5, 0.5, 0.01, 0.1, 80)

2025-07-07 17:09:54,471 - gym_custom_envs_real_ur_drivers_URBasic_realTimeClientEvent - INFO - Program send to Robot:
servoj([0.029145174775437373, -1.523243535963217, -1.4419425542055846, -1.567728211820893, 1.6060780383143451, 3.14619459595345], 0.5, 0.5, 0.01, 0.1, 80)

2025-07-07 17:09:54,475 - gym_custom_envs_real_ur_drivers_URBasic_realTimeClientEvent - INFO - Program send to Robot:
servoj([0.02914563036788324, -1.5232429285063696, -1.4419419467484331, -1.567728363685143, 1.6060778864502472, 3.14619459595345], 0.5, 0.5, 0.01, 0.1, 80)

2025-07-07 17:09:54,496 - gym_custom_envs_real_ur_drivers_URBasic_realTimeClientEvent - INFO - Program send to Robot:
servoj([0.03370155786382809, -1.5186869994917807, -1.4404232996938549, -1.5677283652037854, 1.6045592439515992, 3.1446759549734433], 0.5, 0.5, 0.01, 0.1, 80)

2025-07-07 17:09:54,499 - gym_custom_envs_real_ur_drivers_URBasic_realTimeClientEvent - INFO - Program send to Robot:
servoj([0.03374711713878754, -1.5186414402016348, -1.440408113223309, -1.5677283652189717, 1.6045440575266128, 3.1446607685636434], 0.5, 0.5, 0.01, 0.1, 80)

2025-07-07 17:09:54,515 - gym_custom_envs_real_ur_drivers_URBasic_realTimeClientEvent - INFO - Program send to Robot:
servoj([0.036784854691550586, -1.5125664206887062, -1.4373706793985905, -1.5677283652191236, 1.603025264682356, 3.1416233347395317], 0.5, 0.5, 0.01, 0.1, 80)

2025-07-07 17:09:54,522 - gym_custom_envs_real_ur_drivers_URBasic_realTimeClientEvent - INFO - Program send to Robot:
servoj([0.036815232067078214, -1.5125056704935769, -1.4373403050603435, -1.5677283652191252, 1.6030100767539135, 3.1415929604012907], 0.5, 0.5, 0.01, 0.1, 80)

2025-07-07 17:09:54,540 - gym_custom_envs_real_ur_drivers_URBasic_realTimeClientEvent - INFO - Program send to Robot:
servoj([0.036815535840833497, -1.5125050629916255, -1.437340001316961, -1.5677283652191252, 1.603009924874629, 3.141592656657908], 0.5, 0.5, 0.01, 0.1, 80)

2025-07-07 17:09:54,546 - gym_custom_envs_real_ur_drivers_URBasic_realTimeClientEvent - INFO - Program send to Robot:
servoj([0.039852820838584935, -1.5079491339765858, -1.4327840753395062, -1.5677283652191252, 1.6014912823758292, 3.12944352578042], 0.5, 0.5, 0.01, 0.1, 80)

2025-07-07 17:09:54,567 - gym_custom_envs_real_ur_drivers_URBasic_realTimeClientEvent - INFO - Program send to Robot:
servoj([0.039883193688562454, -1.5079035746864353, -1.4327385160797317, -1.5677283652191252, 1.6014760959508412, 3.1293220344716453], 0.5, 0.5, 0.01, 0.1, 80)

2025-07-07 17:09:54,571 - gym_custom_envs_real_ur_drivers_URBasic_realTimeClientEvent - INFO - Program send to Robot:
servoj([0.03988349741706223, -1.507903119093534, -1.4327380604871338, -1.5677283652191252, 1.6014759440865913, 3.1293208195585573], 0.5, 0.5, 0.01, 0.1, 80)

2025-07-07 17:09:54,591 - gym_custom_envs_real_ur_drivers_URBasic_realTimeClientEvent - INFO - Program send to Robot:
servoj([0.04443942339436718, -1.5063844735575982, -1.4251448510311742, -1.5662097242391184, 1.6029945835479558, 3.1126157566293515], 0.5, 0.5, 0.01, 0.1, 80)

2025-07-07 17:09:54,595 - gym_custom_envs_real_ur_drivers_URBasic_realTimeClientEvent - INFO - Program send to Robot:
servoj([0.04448498265414023, -1.5063692871022387, -1.4250689189366146, -1.5661945378293183, 1.6030097699425694, 3.1124487060000594], 0.5, 0.5, 0.01, 0.1, 80)

2025-07-07 17:09:54,616 - gym_custom_envs_real_ur_drivers_URBasic_realTimeClientEvent - INFO - Program send to Robot:
servoj([0.050560002166765296, -1.5063691352376851, -1.4174749547156351, -1.5661943859652203, 1.6045285627865224, 3.0927047027536787], 0.5, 0.5, 0.01, 0.1, 80)

2025-07-07 17:09:54,620 - gym_custom_envs_real_ur_drivers_URBasic_realTimeClientEvent - INFO - Program send to Robot:
servoj([0.05062075236189155, -1.5063691337190397, -1.4173990150734255, -1.5661943844465793, 1.604543750714962, 3.092507262721215], 0.5, 0.5, 0.01, 0.1, 80)

2025-07-07 17:09:54,640 - gym_custom_envs_real_ur_drivers_URBasic_realTimeClientEvent - INFO - Program send to Robot:
servoj([0.053658641823856254, -1.5063691337038532, -1.4082864097969625, -1.566194384431393, 1.6045439025942465, 3.078837519500829], 0.5, 0.5, 0.01, 0.1, 80)

2025-07-07 17:09:54,651 - gym_custom_envs_real_ur_drivers_URBasic_realTimeClientEvent - INFO - Program send to Robot:
servoj([0.0536890207184759, -1.5063691337037013, -1.4081952837441978, -1.5661943844312411, 1.6045439041130394, 3.078700822068625], 0.5, 0.5, 0.01, 0.1, 80)

2025-07-07 17:09:54,659 - gym_custom_envs_real_ur_drivers_URBasic_realTimeClientEvent - INFO - Program send to Robot:
servoj([0.0536893245074221, -1.5063691337036997, -1.4081943724836703, -1.5661943844312396, 1.6045439041282272, 3.0786994550943034], 0.5, 0.5, 0.01, 0.1, 80)

2025-07-07 17:09:54,667 - gym_custom_envs_real_ur_drivers_URBasic_realTimeClientEvent - INFO - Program send to Robot:
servoj([0.05368932754531156, -1.5063691337036997, -1.408194363371065, -1.5661943844312396, 1.604543904128379, 3.07869944142456], 0.5, 0.5, 0.01, 0.1, 80)

2025-07-07 17:09:54,684 - gym_custom_envs_real_ur_drivers_URBasic_realTimeClientEvent - INFO - Program send to Robot:
servoj([0.0552079685556974, -1.5048504927236928, -1.3990825173998982, -1.5661943844312396, 1.6045439041283807, 3.0711062363878283], 0.5, 0.5, 0.01, 0.1, 80)

2025-07-07 17:09:54,691 - gym_custom_envs_real_ur_drivers_URBasic_realTimeClientEvent - INFO - Program send to Robot:
servoj([0.05522315496580126, -1.5048353063138926, -1.3989913989401865, -1.5661943844312396, 1.6045439041283807, 3.071030304337461], 0.5, 0.5, 0.01, 0.1, 80)

2025-07-07 17:09:54,708 - gym_custom_envs_real_ur_drivers_URBasic_realTimeClientEvent - INFO - Program send to Robot:
servoj([0.056741947809909245, -1.5048351544497947, -1.3898786418755487, -1.5661943844312396, 1.6045439041283807, 3.0664736220769377], 0.5, 0.5, 0.01, 0.1, 80)

2025-07-07 17:09:54,715 - gym_custom_envs_real_ur_drivers_URBasic_realTimeClientEvent - INFO - Program send to Robot:
servoj([0.056757135738350326, -1.5048351529311537, -1.389787514304902, -1.5661943844312396, 1.6045439041283807, 3.0664280552543324], 0.5, 0.5, 0.01, 0.1, 80)

2025-07-07 17:09:54,731 - gym_custom_envs_real_ur_drivers_URBasic_realTimeClientEvent - INFO - Program send to Robot:
servoj([0.05675728761763473, -1.5048351529159674, -1.3897866030291957, -1.5661943844312396, 1.6045439041283807, 3.066427599586106], 0.5, 0.5, 0.01, 0.1, 80)

2025-07-07 17:09:54,747 - gym_custom_envs_real_ur_drivers_URBasic_realTimeClientEvent - INFO - Program send to Robot:
servoj([0.05827593011643408, -1.501797870955802, -1.3821933890164046, -1.5661943844312396, 1.6045439041283807, 3.0649089540494168], 0.5, 0.5, 0.01, 0.1, 80)

2025-07-07 17:09:54,756 - gym_custom_envs_real_ur_drivers_URBasic_realTimeClientEvent - INFO - Program send to Robot:
servoj([0.05829111654142207, -1.5017674981362004, -1.3821174568762766, -1.5661943844312396, 1.6045439041283807, 3.0648937675940497], 0.5, 0.5, 0.01, 0.1, 80)

2025-07-07 17:09:54,772 - gym_custom_envs_real_ur_drivers_URBasic_realTimeClientEvent - INFO - Program send to Robot:
servoj([0.06284719134569235, -1.497211271467984, -1.3775607746148557, -1.5661943844312396, 1.6030252631483737, 3.0648936157294964], 0.5, 0.5, 0.01, 0.1, 80)

2025-07-07 17:09:54,779 - gym_custom_envs_real_ur_drivers_URBasic_realTimeClientEvent - INFO - Program send to Robot:
servoj([0.06289275209373506, -1.4971657092013018, -1.3775152077922415, -1.5661943844312396, 1.6030100767385735, 3.0648936142108507], 0.5, 0.5, 0.01, 0.1, 80)

2025-07-07 17:09:54,787 - gym_custom_envs_real_ur_drivers_URBasic_realTimeClientEvent - INFO - Program send to Robot:
servoj([0.06289320770121548, -1.497165253578635, -1.3775147521240152, -1.5661943844312396, 1.6030099248744756, 3.064893614195664], 0.5, 0.5, 0.01, 0.1, 80)

2025-07-07 17:09:54,795 - gym_custom_envs_real_ur_drivers_URBasic_realTimeClientEvent - INFO - Program send to Robot:
servoj([0.06289321225729029, -1.4971652490224083, -1.377514747567333, -1.5661943844312396, 1.6030099233558346, 3.0648936141955123], 0.5, 0.5, 0.01, 0.1, 80)

2025-07-07 17:09:54,812 - gym_custom_envs_real_ur_drivers_URBasic_realTimeClientEvent - INFO - Program send to Robot:
servoj([0.06593049426286449, -1.4895720440768123, -1.3729588245817452, -1.5661943844312396, 1.6014912823606413, 3.064893614195511], 0.5, 0.5, 0.01, 0.1, 80)

2025-07-07 17:09:54,820 - gym_custom_envs_real_ur_drivers_URBasic_realTimeClientEvent - INFO - Program send to Robot:
servoj([0.06596086708292022, -1.4894961120273562, -1.3729132653518894, -1.5661943844312396, 1.6014760959506893, 3.064893614195511], 0.5, 0.5, 0.01, 0.1, 80)

2025-07-07 17:09:54,827 - gym_custom_envs_real_ur_drivers_URBasic_realTimeClientEvent - INFO - Program send to Robot:
servoj([0.06596117081112078, -1.4894953527068617, -1.3729128097595908, -1.5661943844312396, 1.6014759440865898, 3.064893614195511], 0.5, 0.5, 0.01, 0.1, 80)

2025-07-07 17:09:54,836 - gym_custom_envs_real_ur_drivers_URBasic_realTimeClientEvent - INFO - Program send to Robot:
servoj([0.07051709678842319, -1.4819021402136225, -1.3713941642236618, -1.5661943844312396, 1.598438660607936, 3.064893614195511], 0.5, 0.5, 0.01, 0.1, 80)

2025-07-07 17:09:54,851 - gym_custom_envs_real_ur_drivers_URBasic_realTimeClientEvent - INFO - Program send to Robot:
servoj([0.07056265604819621, -1.4818262080886901, -1.3713789777683025, -1.5661943844312396, 1.5984082877731494, 3.064893614195511], 0.5, 0.5, 0.01, 0.1, 80)

2025-07-07 17:09:54,859 - gym_custom_envs_real_ur_drivers_URBasic_realTimeClientEvent - INFO - Program send to Robot:
servoj([0.07056311164079394, -1.481825448767441, -1.371378825903749, -1.5661943844312396, 1.5984079840448016, 3.064893614195511], 0.5, 0.5, 0.01, 0.1, 80)

2025-07-07 17:09:54,876 - gym_custom_envs_real_ur_drivers_URBasic_realTimeClientEvent - INFO - Program send to Robot:
servoj([0.0736003981567338, -1.4742322362741946, -1.3713788243851033, -1.5646757434512328, 1.598407981007518, 3.064893614195511], 0.5, 0.5, 0.01, 0.1, 80)

2025-07-07 17:09:54,883 - gym_custom_envs_real_ur_drivers_URBasic_realTimeClientEvent - INFO - Program send to Robot:
servoj([0.07363077102189321, -1.474156304149262, -1.3713788243699168, -1.5646605570414327, 1.5984079809771452, 3.064893614195511], 0.5, 0.5, 0.01, 0.1, 80)

2025-07-07 17:09:54,900 - gym_custom_envs_real_ur_drivers_URBasic_realTimeClientEvent - INFO - Program send to Robot:
servoj([0.07514971573055129, -1.471118262867999, -1.3698601833897583, -1.5646604051773347, 1.5984079809768414, 3.064893614195511], 0.5, 0.5, 0.01, 0.1, 80)

2025-07-07 17:09:54,916 - gym_custom_envs_real_ur_drivers_URBasic_realTimeClientEvent - INFO - Program send to Robot:
servoj([0.07516490517763788, -1.4710878824551865, -1.3698449969799567, -1.5646604036586937, 1.5984079809768383, 3.064893614195511], 0.5, 0.5, 0.01, 0.1, 80)

2025-07-07 17:09:54,923 - gym_custom_envs_real_ur_drivers_URBasic_realTimeClientEvent - INFO - Program send to Robot:
servoj([0.07516505707210874, -1.4710875786510582, -1.3698448451158587, -1.5646604036435074, 1.5984079809768383, 3.064893614195511], 0.5, 0.5, 0.01, 0.1, 80)

2025-07-07 17:09:54,931 - gym_custom_envs_real_ur_drivers_URBasic_realTimeClientEvent - INFO - Program send to Robot:
servoj([0.07516505859105345, -1.4680502936530038, -1.3652889206571968, -1.5631417626633488, 1.5968893399968314, 3.064893614195511], 0.5, 0.5, 0.01, 0.1, 80)

2025-07-07 17:09:54,948 - gym_custom_envs_real_ur_drivers_URBasic_realTimeClientEvent - INFO - Program send to Robot:
servoj([0.0751650586062429, -1.4680199208030231, -1.36524336141261, -1.5631265762535471, 1.5968741535870314, 3.064893614195511], 0.5, 0.5, 0.01, 0.1, 80)

2025-07-07 17:09:54,955 - gym_custom_envs_real_ur_drivers_URBasic_realTimeClientEvent - INFO - Program send to Robot:
servoj([0.07516505860639479, -1.4680196170745234, -1.3652429058201643, -1.5631264243894492, 1.5968740017229333, 3.064893614195511], 0.5, 0.5, 0.01, 0.1, 80)

2025-07-07 17:09:54,977 - gym_custom_envs_real_ur_drivers_URBasic_realTimeClientEvent - INFO - Program send to Robot:
servoj([0.07820234056640976, -1.4665009730572314, -1.3637242602842337, -1.5616077818908012, 1.5983926411842992, 3.064893614195511], 0.5, 0.5, 0.01, 0.1, 80)

2025-07-07 17:09:54,987 - gym_custom_envs_real_ur_drivers_URBasic_realTimeClientEvent - INFO - Program send to Robot:
servoj([0.0782327133860099, -1.4664857866170584, -1.3637090738288744, -1.5615925954658147, 1.598407827578913, 3.064893614195511], 0.5, 0.5, 0.01, 0.1, 80)

2025-07-07 17:09:55,001 - gym_custom_envs_real_ur_drivers_URBasic_realTimeClientEvent - INFO - Program send to Robot:
servoj([0.0812702990742198, -1.46496699377265, -1.3621902809843138, -1.5585551616415516, 1.5984079794428592, 3.064893614195511], 0.5, 0.5, 0.01, 0.1, 80)

2025-07-07 17:09:55,011 - gym_custom_envs_real_ur_drivers_URBasic_realTimeClientEvent - INFO - Program send to Robot:
servoj([0.0813006749311019, -1.464951805844206, -1.3621750930558683, -1.558524787303309, 1.5984079809614986, 3.064893614195511], 0.5, 0.5, 0.01, 0.1, 80)

2025-07-07 17:09:55,020 - gym_custom_envs_real_ur_drivers_URBasic_realTimeClientEvent - INFO - Program send to Robot:
servoj([0.08130097868967072, -1.4649516539649214, -1.3621749411765838, -1.5585244835599266, 1.598407980976685, 3.064893614195511], 0.5, 0.5, 0.01, 0.1, 80)

2025-07-07 17:09:55,027 - gym_custom_envs_real_ur_drivers_URBasic_realTimeClientEvent - INFO - Program send to Robot:
servoj([0.08433826368726986, -1.4634330114661218, -1.360656298677784, -1.5524499166024655, 1.5984079809768368, 3.064893614195511], 0.5, 0.5, 0.01, 0.1, 80)

2025-07-07 17:09:55,044 - gym_custom_envs_real_ur_drivers_URBasic_realTimeClientEvent - INFO - Program send to Robot:
servoj([0.08436863653724586, -1.4634178250411338, -1.360641112252796, -1.5523891709328907, 1.5984079809768383, 3.064893614195511], 0.5, 0.5, 0.01, 0.1, 80)

2025-07-07 17:09:55,051 - gym_custom_envs_real_ur_drivers_URBasic_realTimeClientEvent - INFO - Program send to Robot:
servoj([0.08436894026574562, -1.463417673176884, -1.360640960388546, -1.5523885634761951, 1.5984079809768383, 3.064893614195511], 0.5, 0.5, 0.01, 0.1, 80)

2025-07-07 17:09:55,067 - gym_custom_envs_real_ur_drivers_URBasic_realTimeClientEvent - INFO - Program send to Robot:
servoj([0.09044350722305795, -1.4618990306782347, -1.3606409588699035, -1.546313993481601, 1.5984079809768383, 3.064893614195511], 0.5, 0.5, 0.01, 0.1, 80)

2025-07-07 17:09:55,074 - gym_custom_envs_real_ur_drivers_URBasic_realTimeClientEvent - INFO - Program send to Robot:
servoj([0.09050425289263107, -1.4618838442532482, -1.360640958854717, -1.546253247781655, 1.5984079809768383, 3.064893614195511], 0.5, 0.5, 0.01, 0.1, 80)

2025-07-07 17:09:55,095 - gym_custom_envs_real_ur_drivers_URBasic_realTimeClientEvent - INFO - Program send to Robot:
servoj([0.0965794242693537, -1.4573277694489781, -1.3606409588545652, -1.5416967173846352, 1.5984079809768383, 3.064893614195511], 0.5, 0.5, 0.01, 0.1, 80)

2025-07-07 17:09:55,099 - gym_custom_envs_real_ur_drivers_URBasic_realTimeClientEvent - INFO - Program send to Robot:
servoj([0.09664017598312093, -1.4572822087009354, -1.3606409588545638, -1.541651152080665, 1.5984079809768383, 3.064893614195511], 0.5, 0.5, 0.01, 0.1, 80)

2025-07-07 17:09:55,119 - gym_custom_envs_real_ur_drivers_URBasic_realTimeClientEvent - INFO - Program send to Robot:
servoj([0.09664078350025859, -1.457281753093455, -1.3606409588545638, -1.5416506964276253, 1.5984079809768383, 3.064893614195511], 0.5, 0.5, 0.01, 0.1, 80)

2025-07-07 17:09:55,123 - gym_custom_envs_real_ur_drivers_URBasic_realTimeClientEvent - INFO - Program send to Robot:
servoj([0.10423399447546382, -1.4557631075573731, -1.3606409588545638, -1.5401320508910883, 1.6014452629368512, 3.0633749732155042], 0.5, 0.5, 0.01, 0.1, 80)

2025-07-07 17:09:55,143 - gym_custom_envs_real_ur_drivers_URBasic_realTimeClientEvent - INFO - Program send to Robot:
servoj([0.10430992658521587, -1.4557479211020123, -1.3606409588545638, -1.540116864435723, 1.6014756357564515, 3.063359786805704], 0.5, 0.5, 0.01, 0.1, 80)

2025-07-07 17:09:55,147 - gym_custom_envs_real_ur_drivers_URBasic_realTimeClientEvent - INFO - Program send to Robot:
servoj([0.1043106859063134, -1.4557477692374587, -1.3606409588545638, -1.5401167125711692, 1.6014759394846474, 3.063359634941606], 0.5, 0.5, 0.01, 0.1, 80)

2025-07-07 17:09:55,168 - gym_custom_envs_real_ur_drivers_URBasic_realTimeClientEvent - INFO - Program send to Robot:
servoj([0.1103852574195517, -1.4557477677188133, -1.3606409588545638, -1.5416353520325303, 1.6045132244819433, 3.0618409924429586], 0.5, 0.5, 0.01, 0.1, 80)

2025-07-07 17:09:55,171 - gym_custom_envs_real_ur_drivers_URBasic_realTimeClientEvent - INFO - Program send to Robot:
servoj([0.11044600313468408, -1.4557477677036268, -1.3606409588545638, -1.541650538427144, 1.6045435973319162, 3.061825806017972], 0.5, 0.5, 0.01, 0.1, 80)

2025-07-07 17:09:55,186 - gym_custom_envs_real_ur_drivers_URBasic_realTimeClientEvent - INFO - Program send to Robot:
servoj([0.1195584564718762, -1.4542291267234682, -1.3606409588545638, -1.54165069029109, 1.609099824000436, 3.055751090233695], 0.5, 0.5, 0.01, 0.1, 80)

2025-07-07 17:09:55,194 - gym_custom_envs_real_ur_drivers_URBasic_realTimeClientEvent - INFO - Program send to Robot:
servoj([0.11964958100524811, -1.4542139403136665, -1.3606409588545638, -1.5416506918097295, 1.6091453862671212, 3.055690343075852], 0.5, 0.5, 0.01, 0.1, 80)

2025-07-07 17:09:55,215 - gym_custom_envs_real_ur_drivers_URBasic_realTimeClientEvent - INFO - Program send to Robot:
servoj([0.11965049225058183, -1.4542137884495685, -1.3606409588545638, -1.541650691824916, 1.6091458418897882, 3.0556897356042736], 0.5, 0.5, 0.01, 0.1, 80)

2025-07-07 17:09:55,219 - gym_custom_envs_real_ur_drivers_URBasic_realTimeClientEvent - INFO - Program send to Robot:
servoj([0.13028098822308246, -1.4526951459509208, -1.3651968817945839, -1.5416506918250679, 1.6121831284060284, 3.042021960709497], 0.5, 0.5, 0.01, 0.1, 80)

2025-07-07 17:09:55,239 - gym_custom_envs_real_ur_drivers_URBasic_realTimeClientEvent - INFO - Program send to Robot:
servoj([0.13038729318280748, -1.4526799595259343, -1.365242441023984, -1.5416506918250692, 1.612213501271191, 3.0418852829605494], 0.5, 0.5, 0.01, 0.1, 80)

2025-07-07 17:09:55,243 - gym_custom_envs_real_ur_drivers_URBasic_realTimeClientEvent - INFO - Program send to Robot:
servoj([0.13038835623240472, -1.4526798076616845, -1.365242896616278, -1.5416506918250694, 1.6122138049998425, 3.04188391618306], 0.5, 0.5, 0.01, 0.1, 80)

2025-07-07 17:09:55,264 - gym_custom_envs_real_ur_drivers_URBasic_realTimeClientEvent - INFO - Program send to Robot:
servoj([0.1395002127429415, -1.4496425241830284, -1.3728361060722347, -1.5431693328050762, 1.615251089997143, 3.0251788517352103], 0.5, 0.5, 0.01, 0.1, 80)

2025-07-07 17:09:55,267 - gym_custom_envs_real_ur_drivers_URBasic_realTimeClientEvent - INFO - Program send to Robot:
servoj([0.13959133130804685, -1.4496121513482418, -1.3729120381667943, -1.543184519214876, 1.615281462847116, 3.0250118010907316], 0.5, 0.5, 0.01, 0.1, 80)

2025-07-07 17:09:55,282 - gym_custom_envs_real_ur_drivers_URBasic_realTimeClientEvent - INFO - Program send to Robot:
servoj([0.14111088347370485, -1.449611847619894, -1.3835432843477875, -1.5416660300989673, 1.6198376895156357, 3.0052677978441986], 0.5, 0.5, 0.01, 0.1, 80)

2025-07-07 17:09:55,290 - gym_custom_envs_real_ur_drivers_URBasic_realTimeClientEvent - INFO - Program send to Robot:
servoj([0.14112607899536142, -1.4496118445826105, -1.3836495968095976, -1.5416508452078084, 1.619883251782321, 3.005070357811733], 0.5, 0.5, 0.01, 0.1, 80)

2025-07-07 17:09:55,307 - gym_custom_envs_real_ur_drivers_URBasic_realTimeClientEvent - INFO - Program send to Robot:
servoj([0.141126230950578, -1.4496118445522377, -1.3836506599342155, -1.5416506933588967, 1.6198837074049879, 3.0050683834114085], 0.5, 0.5, 0.01, 0.1, 80)

2025-07-07 17:09:55,322 - gym_custom_envs_real_ur_drivers_URBasic_realTimeClientEvent - INFO - Program send to Robot:
servoj([0.14112623247013015, -1.449611844551934, -1.3927625164455026, -1.5431693328204144, 1.6289955578412552, 2.9883633128873304], 0.5, 0.5, 0.01, 0.1, 80)

2025-07-07 17:09:55,334 - gym_custom_envs_real_ur_drivers_URBasic_realTimeClientEvent - INFO - Program send to Robot:
servoj([0.14112623248532566, -1.449611844551931, -1.3928536350106155, -1.5431845192150295, 1.629086676345618, 2.9881962621820897], 0.5, 0.5, 0.01, 0.1, 80)

2025-07-07 17:09:55,338 - gym_custom_envs_real_ur_drivers_URBasic_realTimeClientEvent - INFO - Program send to Robot:
servoj([0.14112623248547762, -1.4496118445519308, -1.3928545461962667, -1.5431846710789756, 1.6290875875306616, 2.9881945916750374], 0.5, 0.5, 0.01, 0.1, 80)

2025-07-07 17:09:55,347 - gym_custom_envs_real_ur_drivers_URBasic_realTimeClientEvent - INFO - Program send to Robot:
servoj([0.14112623248547915, -1.4511304855319376, -1.39892911922815, -1.543184672597615, 1.6381994425225528, 2.973008165169899], 0.5, 0.5, 0.01, 0.1, 80)

2025-07-07 17:09:55,363 - gym_custom_envs_real_ur_drivers_URBasic_realTimeClientEvent - INFO - Program send to Robot:
servoj([0.14112623248547917, -1.4511456719417377, -1.3989898649584689, -1.5431846726128016, 1.6382905610724716, 2.972856300904848], 0.5, 0.5, 0.01, 0.1, 80)

2025-07-07 17:09:55,370 - gym_custom_envs_real_ur_drivers_URBasic_realTimeClientEvent - INFO - Program send to Robot:
servoj([0.14112623248547917, -1.4511458238058357, -1.3989904724157722, -1.5431846726129534, 1.638291472257971, 2.9728547822621976], 0.5, 0.5, 0.01, 0.1, 80)

2025-07-07 17:09:55,382 - gym_custom_envs_real_ur_drivers_URBasic_realTimeClientEvent - INFO - Program send to Robot:
servoj([0.13960759150547225, -1.4511458253244767, -1.403546401430366, -1.543184672612955, 1.6489219682298737, 2.962224280215723], 0.5, 0.5, 0.01, 0.1, 80)

2025-07-07 17:09:55,395 - gym_custom_envs_real_ur_drivers_URBasic_realTimeClientEvent - INFO - Program send to Robot:
servoj([0.13959240509567217, -1.4511458253396632, -1.4035919607205118, -1.543184672612955, 1.6490282731895927, 2.9621179751952584], 0.5, 0.5, 0.01, 0.1, 80)

2025-07-07 17:09:55,407 - gym_custom_envs_real_ur_drivers_URBasic_realTimeClientEvent - INFO - Program send to Robot:
servoj([0.13959225323157418, -1.451145825339815, -1.4035924163134132, -1.543184672612955, 1.64902933623919, 2.9621169121450537], 0.5, 0.5, 0.01, 0.1, 80)

2025-07-07 17:09:55,416 - gym_custom_envs_real_ur_drivers_URBasic_realTimeClientEvent - INFO - Program send to Robot:
servoj([0.13959225171293319, -1.4511458253398164, -1.4081483438093623, -1.5447033135929618, 1.6566225517697195, 2.9499677736744983], 0.5, 0.5, 0.01, 0.1, 80)

2025-07-07 17:09:55,433 - gym_custom_envs_real_ur_drivers_URBasic_realTimeClientEvent - INFO - Program send to Robot:
servoj([0.13959225169774678, -1.4511458253398166, -1.4081939030843218, -1.5447185000027617, 1.656698483925025, 2.9498462822897924], 0.5, 0.5, 0.01, 0.1, 80)

2025-07-07 17:09:55,444 - gym_custom_envs_real_ur_drivers_URBasic_realTimeClientEvent - INFO - Program send to Robot:
servoj([0.13655496973758147, -1.4511458253398166, -1.4127502816170923, -1.5447186518668599, 1.659736525206591, 2.939214580515898], 0.5, 0.5, 0.01, 0.1, 80)

2025-07-07 17:09:55,457 - gym_custom_envs_real_ur_drivers_URBasic_realTimeClientEvent - INFO - Program send to Robot:
servoj([0.1365245969179798, -1.4511458253398166, -1.4127958454024199, -1.5447186533855009, 1.6597669056194067, 2.939108263498159], 0.5, 0.5, 0.01, 0.1, 80)

2025-07-07 17:09:55,467 - gym_custom_envs_real_ur_drivers_URBasic_realTimeClientEvent - INFO - Program send to Robot:
servoj([0.1365242931897838, -1.4511458253398166, -1.412796301040273, -1.5447186534006871, 1.6597672094235347, 2.9391072003279812], 0.5, 0.5, 0.01, 0.1, 80)

2025-07-07 17:09:55,480 - gym_custom_envs_real_ur_drivers_URBasic_realTimeClientEvent - INFO - Program send to Robot:
servoj([0.13348700819248793, -1.4511458253398166, -1.4158335875566648, -1.544718653400839, 1.659767212461576, 2.9284767028362317], 0.5, 0.5, 0.01, 0.1, 80)

2025-07-07 17:09:55,483 - gym_custom_envs_real_ur_drivers_URBasic_realTimeClientEvent - INFO - Program send to Robot:
servoj([0.13345663534251498, -1.4511458253398166, -1.4158639604218286, -1.5447186534008406, 1.6597672124919565, 2.9283703978613143], 0.5, 0.5, 0.01, 0.1, 80)

2025-07-07 17:09:55,504 - gym_custom_envs_real_ur_drivers_URBasic_realTimeClientEvent - INFO - Program send to Robot:
servoj([0.13345633161401527, -1.4511458253398166, -1.4158642641504804, -1.5447186534008406, 1.6597672124922602, 2.928369334811565], 0.5, 0.5, 0.01, 0.1, 80)

2025-07-07 17:09:55,507 - gym_custom_envs_real_ur_drivers_URBasic_realTimeClientEvent - INFO - Program send to Robot:
servoj([0.12890040563670985, -1.4526644663198234, -1.4189015491477808, -1.5462372943808476, 1.6597672124922633, 2.9162201963410137], 0.5, 0.5, 0.01, 0.1, 80)

2025-07-07 17:09:55,527 - gym_custom_envs_real_ur_drivers_URBasic_realTimeClientEvent - INFO - Program send to Robot:
servoj([0.12885484637693678, -1.4526796527296233, -1.4189319219977539, -1.5462524807906477, 1.6597672124922633, 2.9160987049563083], 0.5, 0.5, 0.01, 0.1, 80)

2025-07-07 17:09:55,531 - gym_custom_envs_real_ur_drivers_URBasic_realTimeClientEvent - INFO - Program send to Robot:
servoj([0.12885439078433905, -1.4526798045937213, -1.4189322257262535, -1.5462526326547457, 1.6597672124922633, 2.916097490042461], 0.5, 0.5, 0.01, 0.1, 80)

2025-07-07 17:09:55,553 - gym_custom_envs_real_ur_drivers_URBasic_realTimeClientEvent - INFO - Program send to Robot:
servoj([0.11214933544833847, -1.4557170880723758, -1.4189322287635386, -1.5462526341733867, 1.6582485715122572, 2.9009110680932544], 0.5, 0.5, 0.01, 0.1, 80)

2025-07-07 17:09:55,563 - gym_custom_envs_real_ur_drivers_URBasic_realTimeClientEvent - INFO - Program send to Robot:
servoj([0.11198228489497847, -1.4557474609071623, -1.4189322287939115, -1.546252634188573, 1.6582333851024573, 2.9007592038737626], 0.5, 0.5, 0.01, 0.1, 80)

2025-07-07 17:09:55,575 - gym_custom_envs_real_ur_drivers_URBasic_realTimeClientEvent - INFO - Program send to Robot:
servoj([0.08464507674932295, -1.4603036875755306, -1.4189322287942152, -1.5462526341887248, 1.6597518742183652, 2.8810153524914797], 0.5, 0.5, 0.01, 0.1, 80)

2025-07-07 17:09:55,578 - gym_custom_envs_real_ur_drivers_URBasic_realTimeClientEvent - INFO - Program send to Robot:
servoj([0.08437170466786639, -1.4603492498422144, -1.418932228794218, -1.5462526341887264, 1.6597670591095244, 2.880817913977657], 0.5, 0.5, 0.01, 0.1, 80)

2025-07-07 17:09:55,598 - gym_custom_envs_real_ur_drivers_URBasic_realTimeClientEvent - INFO - Program send to Robot:
servoj([0.08436897094705183, -1.4603497054648813, -1.418932228794218, -1.5462526341887264, 1.659767210958436, 2.8808159395925186], 0.5, 0.5, 0.01, 0.1, 80)

2025-07-07 17:09:55,605 - gym_custom_envs_real_ur_drivers_URBasic_realTimeClientEvent - INFO - Program send to Robot:
servoj([0.05247748302970136, -1.466424273941135, -1.418932228794218, -1.5447339932087194, 1.6597672124769252, 2.859554946128572], 0.5, 0.5, 0.01, 0.1, 80)

2025-07-07 17:09:55,611 - gym_custom_envs_real_ur_drivers_URBasic_realTimeClientEvent - INFO - Program send to Robot:
servoj([0.052158568150527856, -1.4664850196258976, -1.418932228794218, -1.5447188067989193, 1.6597672124921101, 2.859342336193933], 0.5, 0.5, 0.01, 0.1, 80)

2025-07-07 17:09:55,630 - gym_custom_envs_real_ur_drivers_URBasic_realTimeClientEvent - INFO - Program send to Robot:
servoj([0.05215537900173612, -1.466485627082745, -1.418932228794218, -1.5447186549348213, 1.6597672124922618, 2.859340210094586], 0.5, 0.5, 0.01, 0.1, 80)

2025-07-07 17:09:55,635 - gym_custom_envs_real_ur_drivers_URBasic_realTimeClientEvent - INFO - Program send to Robot:
servoj([0.02026388653010544, -1.4755974790373543, -1.4174135878142111, -1.5447186534161803, 1.6612858534722703, 2.8395978560935045], 0.5, 0.5, 0.01, 0.1, 80)

2025-07-07 17:09:55,645 - gym_custom_envs_real_ur_drivers_URBasic_realTimeClientEvent - INFO - Program send to Robot:
servoj([0.019944971605389133, -1.4756885975569005, -1.4173984014044112, -1.544718653400994, 1.6613010398820705, 2.839400432553494], 0.5, 0.5, 0.01, 0.1, 80)

2025-07-07 17:09:55,650 - gym_custom_envs_real_ur_drivers_URBasic_rtdeEvent - INFO - Total packages: 1000
2025-07-07 17:09:55,659 - gym_custom_envs_real_ur_drivers_URBasic_realTimeClientEvent - INFO - Program send to Robot:
servoj([0.01994178245614197, -1.475689508742096, -1.417398249540313, -1.5447186534008421, 1.6613011917461684, 2.839398458318094], 0.5, 0.5, 0.01, 0.1, 80)

2025-07-07 17:09:55,670 - gym_custom_envs_real_ur_drivers_URBasic_realTimeClientEvent - INFO - Program send to Robot:
servoj([-0.004356505115458974, -1.481764081773975, -1.4173982480216722, -1.5447186534008406, 1.6613011932648094, 2.8211747468156583], 0.5, 0.5, 0.01, 0.1, 80)

2025-07-07 17:09:55,679 - gym_custom_envs_real_ur_drivers_URBasic_realTimeClientEvent - INFO - Program send to Robot:
servoj([-0.004599487991174983, -1.4818248275042938, -1.4173982480064857, -1.5447186534008406, 1.661301193279996, 2.8209925097006336], 0.5, 0.5, 0.01, 0.1, 80)

2025-07-07 17:09:55,683 - gym_custom_envs_real_ur_drivers_URBasic_realTimeClientEvent - INFO - Program send to Robot:
servoj([-0.0046019178199321435, -1.481825434961597, -1.4173982480063338, -1.5447186534008406, 1.6613011932801478, 2.8209906873294837], 0.5, 0.5, 0.01, 0.1, 80)

2025-07-07 17:09:55,699 - gym_custom_envs_real_ur_drivers_URBasic_realTimeClientEvent - INFO - Program send to Robot:
servoj([-0.027381556818321245, -1.4863813639761905, -1.4173982480063323, -1.5447186534008406, 1.6643384752401629, 2.8027669773456907], 0.5, 0.5, 0.01, 0.1, 80)

2025-07-07 17:09:55,707 - gym_custom_envs_real_ur_drivers_URBasic_realTimeClientEvent - INFO - Program send to Robot:
servoj([-0.027609353208305137, -1.4864269232663363, -1.4173982480063323, -1.5447186534008406, 1.6643688480597632, 2.8025847402458526], 0.5, 0.5, 0.01, 0.1, 80)

2025-07-07 17:09:55,717 - gym_custom_envs_real_ur_drivers_URBasic_realTimeClientEvent - INFO - Program send to Robot:
servoj([-0.027611631172204977, -1.486427378859238, -1.4173982480063323, -1.5447186534008406, 1.664369151787959, 2.802582917874854], 0.5, 0.5, 0.01, 0.1, 80)

2025-07-07 17:09:55,731 - gym_custom_envs_real_ur_drivers_URBasic_realTimeClientEvent - INFO - Program send to Robot:
servoj([-0.045835345711925546, -1.4879460243951736, -1.4173982480063323, -1.5447186534008406, 1.664369154825241, 2.787396489851077], 0.5, 0.5, 0.01, 0.1, 80)

2025-07-07 17:09:55,741 - gym_custom_envs_real_ur_drivers_URBasic_realTimeClientEvent - INFO - Program send to Robot:
servoj([-0.04601758285732275, -1.487961210850533, -1.4173982480063323, -1.5447186534008406, 1.6643691548556139, 2.787244625570839], 0.5, 0.5, 0.01, 0.1, 80)

2025-07-07 17:09:55,749 - gym_custom_envs_real_ur_drivers_URBasic_realTimeClientEvent - INFO - Program send to Robot:
servoj([-0.046019405228776726, -1.4879613627150865, -1.4173982480063323, -1.5447186534008406, 1.6643691548559176, 2.7872431069280363], 0.5, 0.5, 0.01, 0.1, 80)

2025-07-07 17:09:55,754 - gym_custom_envs_real_ur_drivers_URBasic_realTimeClientEvent - INFO - Program send to Robot:
servoj([-0.046019423452491263, -1.4879613642337322, -1.4173982480063323, -1.5447186534008406, 1.6643691548559207, 2.7872430917416082], 0.5, 0.5, 0.01, 0.1, 80)

2025-07-07 17:09:55,773 - gym_custom_envs_real_ur_drivers_URBasic_realTimeClientEvent - INFO - Program send to Robot:
servoj([-0.061205833434796096, -1.4894800052289254, -1.4189168889863393, -1.5447186534008406, 1.6643691548559207, 2.77509396374969], 0.5, 0.5, 0.01, 0.1, 80)

2025-07-07 17:09:55,778 - gym_custom_envs_real_ur_drivers_URBasic_realTimeClientEvent - INFO - Program send to Robot:
servoj([-0.06135769753461915, -1.4894951916388774, -1.4189320753961394, -1.5447186534008406, 1.6643691548559207, 2.7749724724697704], 0.5, 0.5, 0.01, 0.1, 80)

2025-07-07 17:09:55,789 - gym_custom_envs_real_ur_drivers_URBasic_realTimeClientEvent - INFO - Program send to Robot:
servoj([-0.061359216175617376, -1.489495343502977, -1.4189322272602374, -1.5447186534008406, 1.6643691548559207, 2.774971257556971], 0.5, 0.5, 0.01, 0.1, 80)

2025-07-07 17:09:55,803 - gym_custom_envs_real_ur_drivers_URBasic_realTimeClientEvent - INFO - Program send to Robot:
servoj([-0.07502700018208854, -1.494051267961638, -1.4204508697588853, -1.5447186534008406, 1.6643691548559207, 2.762822117567789], 0.5, 0.5, 0.01, 0.1, 80)

2025-07-07 17:09:55,814 - gym_custom_envs_real_ur_drivers_URBasic_realTimeClientEvent - INFO - Program send to Robot:
servoj([-0.07516367802215325, -1.4940968272062247, -1.4204660561838718, -1.5447186534008406, 1.6643691548559207, 2.7627006261678972], 0.5, 0.5, 0.01, 0.1, 80)

2025-07-07 17:09:55,822 - gym_custom_envs_real_ur_drivers_URBasic_realTimeClientEvent - INFO - Program send to Robot:
servoj([-0.07516504480055389, -1.4940972827986705, -1.4204662080481216, -1.5447186534008406, 1.6643691548559207, 2.7626994112538985], 0.5, 0.5, 0.01, 0.1, 80)

2025-07-07 17:09:55,827 - gym_custom_envs_real_ur_drivers_URBasic_realTimeClientEvent - INFO - Program send to Robot:
servoj([-0.08883282728839909, -1.4986532102946155, -1.4204662095667642, -1.5462372943808476, 1.6643691548559207, 2.752068912244711], 0.5, 0.5, 0.01, 0.1, 80)

2025-07-07 17:09:55,845 - gym_custom_envs_real_ur_drivers_URBasic_realTimeClientEvent - INFO - Program send to Robot:
servoj([-0.08896950511327753, -1.4986987695695748, -1.4204662095819507, -1.5462524807906477, 1.6643691548559207, 2.751962607254619], 0.5, 0.5, 0.01, 0.1, 80)

2025-07-07 17:09:55,851 - gym_custom_envs_real_ur_drivers_URBasic_realTimeClientEvent - INFO - Program send to Robot:
servoj([-0.08897087189152632, -1.4986992251623246, -1.4204662095821026, -1.5462526326547457, 1.6643691548559207, 2.751961544204718], 0.5, 0.5, 0.01, 0.1, 80)

2025-07-07 17:09:55,860 - gym_custom_envs_real_ur_drivers_URBasic_realTimeClientEvent - INFO - Program send to Robot:
servoj([-0.10112001339936305, -1.5032551526582723, -1.418947568602097, -1.5447339931933797, 1.6643691548559207, 2.741331046714172], 0.5, 0.5, 0.01, 0.1, 80)

2025-07-07 17:09:55,875 - gym_custom_envs_real_ur_drivers_URBasic_realTimeClientEvent - INFO - Program send to Robot:
servoj([-0.10124150481444141, -1.5033007119332318, -1.418932382192297, -1.5447188067987658, 1.6643691548559207, 2.7412247417392663], 0.5, 0.5, 0.01, 0.1, 80)

2025-07-07 17:09:55,884 - gym_custom_envs_real_ur_drivers_URBasic_realTimeClientEvent - INFO - Program send to Robot:
servoj([-0.10124271972859221, -1.5033011675259813, -1.418932230328199, -1.5447186549348197, 1.6643691548559207, 2.741223678689517], 0.5, 0.5, 0.01, 0.1, 80)

2025-07-07 17:09:55,892 - gym_custom_envs_real_ur_drivers_URBasic_realTimeClientEvent - INFO - Program send to Robot:
servoj([-0.11035457775777449, -1.5078570950219292, -1.417413587829551, -1.5447186534161803, 1.6643691548559207, 2.732111822178979], 0.5, 0.5, 0.01, 0.1, 80)

2025-07-07 17:09:55,899 - gym_custom_envs_real_ur_drivers_URBasic_realTimeClientEvent - INFO - Program send to Robot:
servoj([-0.11044569633806632, -1.5079026542968887, -1.4173984014045646, -1.544718653400994, 1.6643691548559207, 2.7320207036138733], 0.5, 0.5, 0.01, 0.1, 80)

2025-07-07 17:09:55,917 - gym_custom_envs_real_ur_drivers_URBasic_realTimeClientEvent - INFO - Program send to Robot:
servoj([-0.11044660752386924, -1.5079031098896385, -1.4173982495403146, -1.5447186534008421, 1.6643691548559207, 2.7320197924282223], 0.5, 0.5, 0.01, 0.1, 80)

2025-07-07 17:09:55,922 - gym_custom_envs_real_ur_drivers_URBasic_realTimeClientEvent - INFO - Program send to Robot:
servoj([-0.1180398215357611, -1.5124590373855862, -1.4158796070416653, -1.5447186534008406, 1.6643691548559207, 2.724426578416332], 0.5, 0.5, 0.01, 0.1, 80)

2025-07-07 17:09:55,933 - gym_custom_envs_real_ur_drivers_URBasic_realTimeClientEvent - INFO - Program send to Robot:
servoj([-0.11811575367588002, -1.5125045966605457, -1.4158644206166786, -1.5447186534008406, 1.6643691548559207, 2.724350646276213], 0.5, 0.5, 0.01, 0.1, 80)

2025-07-07 17:09:55,947 - gym_custom_envs_real_ur_drivers_URBasic_realTimeClientEvent - INFO - Program send to Robot:
servoj([-0.11811651299728122, -1.5125050522532952, -1.4158642687524288, -1.5447186534008406, 1.6643691548559207, 2.724349886954812], 0.5, 0.5, 0.01, 0.1, 80)

2025-07-07 17:09:55,958 - gym_custom_envs_real_ur_drivers_URBasic_realTimeClientEvent - INFO - Program send to Robot:
servoj([-0.12419108451052256, -1.5155423387692362, -1.4128269852737732, -1.5447186534008406, 1.6643691548559207, 2.7197939564215776], 0.5, 0.5, 0.01, 0.1, 80)

2025-07-07 17:09:55,963 - gym_custom_envs_real_ur_drivers_URBasic_realTimeClientEvent - INFO - Program send to Robot:
servoj([-0.12425183022565497, -1.5155727116343956, -1.4127966124389868, -1.5447186534008406, 1.6643691548559207, 2.7197483971162453], 0.5, 0.5, 0.01, 0.1, 80)

2025-07-07 17:09:55,971 - gym_custom_envs_real_ur_drivers_URBasic_realTimeClientEvent - INFO - Program send to Robot:
servoj([-0.1242524376828063, -1.5155730153630473, -1.4127963087106388, -1.5447186534008406, 1.6643691548559207, 2.7197479415231918], 0.5, 0.5, 0.01, 0.1, 80)

2025-07-07 17:09:55,987 - gym_custom_envs_real_ur_drivers_URBasic_realTimeClientEvent - INFO - Program send to Robot:
servoj([-0.1303270076774047, -1.5186103003603475, -1.4112776646933485, -1.5447186534008406, 1.6628505138759138, 2.715192014027241], 0.5, 0.5, 0.01, 0.1, 80)

2025-07-07 17:09:55,995 - gym_custom_envs_real_ur_drivers_URBasic_realTimeClientEvent - INFO - Program send to Robot:
servoj([-0.1303877533773507, -1.5186406732103206, -1.4112624782531755, -1.5447186534008406, 1.6628353274661136, 2.7151464547522814], 0.5, 0.5, 0.01, 0.1, 80)

2025-07-07 17:09:56,007 - gym_custom_envs_real_ur_drivers_URBasic_realTimeClientEvent - INFO - Program send to Robot:
servoj([-0.13038836083435015, -1.5186409769388203, -1.4112623263887738, -1.5447186534008406, 1.6628351756020157, 2.715145999159532], 0.5, 0.5, 0.01, 0.1, 80)

2025-07-07 17:09:56,019 - gym_custom_envs_real_ur_drivers_URBasic_realTimeClientEvent - INFO - Program send to Robot:
servoj([-0.1334256488689336, -1.520159620956112, -1.4112623248701297, -1.5447186534008406, 1.661316533103368, 2.7105900716635842], 0.5, 0.5, 0.01, 0.1, 80)

2025-07-07 17:09:56,030 - gym_custom_envs_real_ur_drivers_URBasic_realTimeClientEvent - INFO - Program send to Robot:
servoj([-0.13345602174927945, -1.5201748073962849, -1.4112623248549432, -1.5447186534008406, 1.6613013466783815, 2.7105445123886245], 0.5, 0.5, 0.01, 0.1, 80)

2025-07-07 17:09:56,036 - gym_custom_envs_real_ur_drivers_URBasic_realTimeClientEvent - INFO - Program send to Robot:
servoj([-0.1334563254780829, -1.5201749592606866, -1.4112623248547913, -1.5447186534008406, 1.6613011948141316, 2.710544056795875], 0.5, 0.5, 0.01, 0.1, 80)

2025-07-07 17:09:56,043 - gym_custom_envs_real_ur_drivers_URBasic_realTimeClientEvent - INFO - Program send to Robot:
servoj([-0.13345632851537093, -1.5201749607793307, -1.41126232485479, -1.5447186534008406, 1.661301193295489, 2.7105440522399475], 0.5, 0.5, 0.01, 0.1, 80)

2025-07-07 17:09:56,059 - gym_custom_envs_real_ur_drivers_URBasic_realTimeClientEvent - INFO - Program send to Robot:
servoj([-0.13953089246577116, -1.5201749607945172, -1.41126232485479, -1.5447186534008406, 1.6613011932803026, 2.7044694882743614], 0.5, 0.5, 0.01, 0.1, 80)

2025-07-07 17:09:56,068 - gym_custom_envs_real_ur_drivers_URBasic_realTimeClientEvent - INFO - Program send to Robot:
servoj([-0.13959163810527517, -1.520174960794669, -1.41126232485479, -1.5447186534008406, 1.6613011932801507, 2.7044087426347057], 0.5, 0.5, 0.01, 0.1, 80)

2025-07-07 17:09:56,080 - gym_custom_envs_real_ur_drivers_URBasic_realTimeClientEvent - INFO - Program send to Robot:
servoj([-0.14566680948169708, -1.5201749607946704, -1.41126232485479, -1.5447186534008406, 1.6613011932801494, 2.6983335712582814], 0.5, 0.5, 0.01, 0.1, 80)

2025-07-07 17:09:56,091 - gym_custom_envs_real_ur_drivers_URBasic_realTimeClientEvent - INFO - Program send to Robot:
servoj([-0.14572756119546132, -1.5201749607946704, -1.41126232485479, -1.5447186534008406, 1.6613011932801491, 2.6982728195445174], 0.5, 0.5, 0.01, 0.1, 80)

2025-07-07 17:09:56,103 - gym_custom_envs_real_ur_drivers_URBasic_realTimeClientEvent - INFO - Program send to Robot:
servoj([-0.14572816871259894, -1.5201749607946704, -1.41126232485479, -1.5447186534008406, 1.6613011932801491, 2.6982722120273794], 0.5, 0.5, 0.01, 0.1, 80)

2025-07-07 17:09:56,107 - gym_custom_envs_real_ur_drivers_URBasic_realTimeClientEvent - INFO - Program send to Robot:
servoj([-0.14572817478777034, -1.5201749607946704, -1.41126232485479, -1.5447186534008406, 1.6613011932801491, 2.698272205952208], 0.5, 0.5, 0.01, 0.1, 80)

2025-07-07 17:09:56,127 - gym_custom_envs_real_ur_drivers_URBasic_realTimeClientEvent - INFO - Program send to Robot:
servoj([-0.15484002072856284, -1.5201749607946704, -1.4097436838747832, -1.5447186534008406, 1.6613011932801491, 2.692197641971429], 0.5, 0.5, 0.01, 0.1, 80)

2025-07-07 17:09:56,131 - gym_custom_envs_real_ur_drivers_URBasic_realTimeClientEvent - INFO - Program send to Robot:
servoj([-0.15493113918797077, -1.5201749607946704, -1.409728497464983, -1.5447186534008406, 1.6613011932801491, 2.692136896331621], 0.5, 0.5, 0.01, 0.1, 80)

2025-07-07 17:09:56,151 - gym_custom_envs_real_ur_drivers_URBasic_realTimeClientEvent - INFO - Program send to Robot:
servoj([-0.16556253723261258, -1.5201749607946704, -1.4112469865808919, -1.5447186534008406, 1.6613011932801491, 2.687580365935203], 0.5, 0.5, 0.01, 0.1, 80)

2025-07-07 17:09:56,155 - gym_custom_envs_real_ur_drivers_URBasic_realTimeClientEvent - INFO - Program send to Robot:
servoj([-0.165668851213059, -1.5201749607946704, -1.4112621714720508, -1.5447186534008406, 1.6613011932801491, 2.687534800631239], 0.5, 0.5, 0.01, 0.1, 80)

2025-07-07 17:09:56,176 - gym_custom_envs_real_ur_drivers_URBasic_realTimeClientEvent - INFO - Program send to Robot:
servoj([-0.16566991435286343, -1.5201749607946704, -1.4112623233209625, -1.5447186534008406, 1.6613011932801491, 2.687534344978199], 0.5, 0.5, 0.01, 0.1, 80)

2025-07-07 17:09:56,180 - gym_custom_envs_real_ur_drivers_URBasic_realTimeClientEvent - INFO - Program send to Robot:
servoj([-0.1747817708643023, -1.5201749607946704, -1.4112623248394516, -1.5447186534008406, 1.6613011932801491, 2.686015699441662], 0.5, 0.5, 0.01, 0.1, 80)

2025-07-07 17:09:56,200 - gym_custom_envs_real_ur_drivers_URBasic_realTimeClientEvent - INFO - Program send to Robot:
servoj([-0.17487288942941667, -1.5201749607946704, -1.4112623248546365, -1.5447186534008406, 1.6613011932801491, 2.686000512986297], 0.5, 0.5, 0.01, 0.1, 80)

2025-07-07 17:09:56,212 - gym_custom_envs_real_ur_drivers_URBasic_realTimeClientEvent - INFO - Program send to Robot:
servoj([-0.18246700551510167, -1.5201749607946704, -1.4112623248547884, -1.5447186534008406, 1.6613011932801491, 2.684481720141736], 0.5, 0.5, 0.01, 0.1, 80)

2025-07-07 17:09:56,219 - gym_custom_envs_real_ur_drivers_URBasic_realTimeClientEvent - INFO - Program send to Robot:
servoj([-0.18254294667595852, -1.5201749607946704, -1.41126232485479, -1.5447186534008406, 1.6613011932801491, 2.6844665322132903], 0.5, 0.5, 0.01, 0.1, 80)

2025-07-07 17:09:56,235 - gym_custom_envs_real_ur_drivers_URBasic_realTimeClientEvent - INFO - Program send to Robot:
servoj([-0.1825437060875671, -1.5201749607946704, -1.41126232485479, -1.5447186534008406, 1.6613011932801491, 2.684466380334006], 0.5, 0.5, 0.01, 0.1, 80)

2025-07-07 17:09:56,242 - gym_custom_envs_real_ur_drivers_URBasic_realTimeClientEvent - INFO - Program send to Robot:
servoj([-0.18861827760171007, -1.5201749607946704, -1.41126232485479, -1.5447186534008406, 1.6613011932801491, 2.6829477378352062], 0.5, 0.5, 0.01, 0.1, 80)

2025-07-07 17:09:56,250 - gym_custom_envs_real_ur_drivers_URBasic_realTimeClientEvent - INFO - Program send to Robot:
servoj([-0.1886790233168515, -1.5201749607946704, -1.41126232485479, -1.5447186534008406, 1.6613011932801491, 2.6829325514102185], 0.5, 0.5, 0.01, 0.1, 80)

2025-07-07 17:09:56,259 - gym_custom_envs_real_ur_drivers_URBasic_realTimeClientEvent - INFO - Program send to Robot:
servoj([-0.1886796307740029, -1.5201749607946704, -1.41126232485479, -1.5447186534008406, 1.6613011932801491, 2.6829323995459684], 0.5, 0.5, 0.01, 0.1, 80)

2025-07-07 17:09:56,275 - gym_custom_envs_real_ur_drivers_URBasic_realTimeClientEvent - INFO - Program send to Robot:
servoj([-0.1932355597885948, -1.5186563198146636, -1.41126232485479, -1.5447186534008406, 1.6613011932801491, 2.682932398027326], 0.5, 0.5, 0.01, 0.1, 80)

2025-07-07 17:09:56,284 - gym_custom_envs_real_ur_drivers_URBasic_realTimeClientEvent - INFO - Program send to Robot:
servoj([-0.19328111907874074, -1.5186411334048637, -1.41126232485479, -1.5447186534008406, 1.6613011932801491, 2.68293239801214], 0.5, 0.5, 0.01, 0.1, 80)

2025-07-07 17:09:56,291 - gym_custom_envs_real_ur_drivers_URBasic_realTimeClientEvent - INFO - Program send to Robot:
servoj([-0.1932815746716422, -1.5186409815407658, -1.41126232485479, -1.5447186534008406, 1.6613011932801491, 2.682932398011988], 0.5, 0.5, 0.01, 0.1, 80)

2025-07-07 17:09:56,300 - gym_custom_envs_real_ur_drivers_URBasic_realTimeClientEvent - INFO - Program send to Robot:
servoj([-0.1932815792275712, -1.5186409800221248, -1.41126232485479, -1.5447186534008406, 1.6613011932801491, 2.682932398011986], 0.5, 0.5, 0.01, 0.1, 80)

2025-07-07 17:09:56,316 - gym_custom_envs_real_ur_drivers_URBasic_realTimeClientEvent - INFO - Program send to Robot:
servoj([-0.19480022025313745, -1.5186409800069383, -1.4097436838747832, -1.5447186534008406, 1.6613011932801491, 2.682932398011986], 0.5, 0.5, 0.01, 0.1, 80)

2025-07-07 17:09:56,324 - gym_custom_envs_real_ur_drivers_URBasic_realTimeClientEvent - INFO - Program send to Robot:
servoj([-0.19481540666339311, -1.5186409800067864, -1.409728497464983, -1.5447186534008406, 1.6613011932801491, 2.682932398011986], 0.5, 0.5, 0.01, 0.1, 80)

2025-07-07 17:09:56,334 - gym_custom_envs_real_ur_drivers_URBasic_realTimeClientEvent - INFO - Program send to Robot:
servoj([-0.19481555852749566, -1.5186409800067848, -1.4097283456008851, -1.5447186534008406, 1.6613011932801491, 2.682932398011986], 0.5, 0.5, 0.01, 0.1, 80)

2025-07-07 17:09:56,340 - gym_custom_envs_real_ur_drivers_URBasic_realTimeClientEvent - INFO - Program send to Robot:
servoj([-0.1978528420061501, -1.5186409800067848, -1.4097283440822441, -1.5447186534008406, 1.6613011932801491, 2.682932398011986], 0.5, 0.5, 0.01, 0.1, 80)

2025-07-07 17:09:56,358 - gym_custom_envs_real_ur_drivers_URBasic_realTimeClientEvent - INFO - Program send to Robot:
servoj([-0.19788321484093666, -1.5186409800067848, -1.4097283440670576, -1.5447186534008406, 1.6613011932801491, 2.682932398011986], 0.5, 0.5, 0.01, 0.1, 80)

2025-07-07 17:09:56,364 - gym_custom_envs_real_ur_drivers_URBasic_realTimeClientEvent - INFO - Program send to Robot:
servoj([-0.19788351856928454, -1.5186409800067848, -1.4097283440669057, -1.5447186534008406, 1.6613011932801491, 2.682932398011986], 0.5, 0.5, 0.01, 0.1, 80)

2025-07-07 17:09:56,373 - gym_custom_envs_real_ur_drivers_URBasic_realTimeClientEvent - INFO - Program send to Robot:
servoj([-0.19940216258657495, -1.5171223390267778, -1.4082097030868972, -1.5447186534008406, 1.6613011932801491, 2.682932398011986], 0.5, 0.5, 0.01, 0.1, 80)

2025-07-07 17:09:56,388 - gym_custom_envs_real_ur_drivers_URBasic_realTimeClientEvent - INFO - Program send to Robot:
servoj([-0.19941734902674788, -1.517107152616978, -1.4081945166770973, -1.5447186534008406, 1.6613011932801491, 2.682932398011986], 0.5, 0.5, 0.01, 0.1, 80)

2025-07-07 17:09:56,398 - gym_custom_envs_real_ur_drivers_URBasic_realTimeClientEvent - INFO - Program send to Robot:
servoj([-0.1994175008911496, -1.5171070007528797, -1.4081943648129993, -1.5447186534008406, 1.6613011932801491, 2.682932398011986], 0.5, 0.5, 0.01, 0.1, 80)

2025-07-07 17:09:56,406 - gym_custom_envs_real_ur_drivers_URBasic_realTimeClientEvent - INFO - Program send to Robot:
servoj([-0.20093614338980012, -1.5171069992342388, -1.4066757223143513, -1.5447186534008406, 1.6613011932801491, 2.682932398011986], 0.5, 0.5, 0.01, 0.1, 80)

2025-07-07 17:09:56,411 - gym_custom_envs_real_ur_drivers_URBasic_realTimeClientEvent - INFO - Program send to Robot:
servoj([-0.20095132981478664, -1.5171069992190525, -1.4066605358893647, -1.5447186534008406, 1.6613011932801491, 2.682932398011986], 0.5, 0.5, 0.01, 0.1, 80)

2025-07-07 17:09:56,430 - gym_custom_envs_real_ur_drivers_URBasic_realTimeClientEvent - INFO - Program send to Robot:
servoj([-0.20095148167903648, -1.5171069992189006, -1.4066603840251148, -1.5447186534008406, 1.6613011932801491, 2.682932398011986], 0.5, 0.5, 0.01, 0.1, 80)

2025-07-07 17:09:56,435 - gym_custom_envs_real_ur_drivers_URBasic_realTimeClientEvent - INFO - Program send to Robot:
servoj([-0.20398876515769288, -1.5155883582388923, -1.4051417415264664, -1.5447186534008406, 1.6613011932801491, 2.682932398011986], 0.5, 0.5, 0.01, 0.1, 80)

2025-07-07 17:09:56,445 - gym_custom_envs_real_ur_drivers_URBasic_realTimeClientEvent - INFO - Program send to Robot:
servoj([-0.20401913799247942, -1.5155731718290921, -1.4051265551014798, -1.5447186534008406, 1.6613011932801491, 2.682932398011986], 0.5, 0.5, 0.01, 0.1, 80)

2025-07-07 17:09:56,459 - gym_custom_envs_real_ur_drivers_URBasic_realTimeClientEvent - INFO - Program send to Robot:
servoj([-0.20401944172082728, -1.5155730199649942, -1.40512640323723, -1.5447186534008406, 1.6613011932801491, 2.682932398011986], 0.5, 0.5, 0.01, 0.1, 80)

2025-07-07 17:09:56,471 - gym_custom_envs_real_ur_drivers_URBasic_realTimeClientEvent - INFO - Program send to Robot:
servoj([-0.21009400867813768, -1.5155730184463532, -1.3990518377985597, -1.5432000124208338, 1.662819834260156, 2.682932398011986], 0.5, 0.5, 0.01, 0.1, 80)

2025-07-07 17:09:56,475 - gym_custom_envs_real_ur_drivers_URBasic_realTimeClientEvent - INFO - Program send to Robot:
servoj([-0.2101547543477108, -1.5155730184311669, -1.398991092144173, -1.5431848260110337, 1.662835020669956, 2.682932398011986], 0.5, 0.5, 0.01, 0.1, 80)

2025-07-07 17:09:56,494 - gym_custom_envs_real_ur_drivers_URBasic_realTimeClientEvent - INFO - Program send to Robot:
servoj([-0.21015536180440653, -1.515573018431015, -1.398990484687629, -1.5431846741469357, 1.662835172534054, 2.682932398011986], 0.5, 0.5, 0.01, 0.1, 80)

2025-07-07 17:09:56,501 - gym_custom_envs_real_ur_drivers_URBasic_realTimeClientEvent - INFO - Program send to Robot:
servoj([-0.2177485727790073, -1.5155730184310134, -1.3959531966530507, -1.5431846726282947, 1.662835174052695, 2.682932398011986], 0.5, 0.5, 0.01, 0.1, 80)

