2025-07-07 17:05:30,491 - gym_custom_envs_real_ur_drivers_URBasic_robotModelEvent - INFO - Init done
2025-07-07 17:05:30,992 - gym_custom_envs_real_ur_drivers_URBasic_realTimeClientEvent - INFO - Connected
2025-07-07 17:05:30,992 - gym_custom_envs_real_ur_drivers_URBasic_realTimeClientEvent - INFO - RT_CLient constructor done
2025-07-07 17:05:30,992 - gym_custom_envs_real_ur_drivers_URBasic_dataLogEvent - INFO - Data logging (not event logging) is disabled
2025-07-07 17:05:30,992 - gym_custom_envs_real_ur_drivers_URBasic_dataLogEvent - INFO - DataLog constructor done
2025-07-07 17:05:30,993 - gym_custom_envs_real_ur_drivers_URBasic_dataLogEvent - INFO - DataLog is stopped
2025-07-07 17:05:30,993 - gym_custom_envs_real_ur_drivers_URBasic_rtdeEvent - INFO - RTDE constructor done
2025-07-07 17:05:31,321 - gym_custom_envs_real_ur_drivers_URBasic_rtdeEvent - INFO - Controller version: 3.3.1-60
2025-07-07 17:05:31,322 - gym_custom_envs_real_ur_drivers_URBasic_rtdeEvent - INFO - RTDE started
2025-07-07 17:05:31,494 - gym_custom_envs_real_ur_drivers_URBasic_dashboardEvent - INFO - Connected
2025-07-07 17:05:31,494 - gym_custom_envs_real_ur_drivers_URBasic_dashboardEvent - INFO - UR Dashboard respond Connected: Universal Robots Dashboard Server
2025-07-07 17:05:31,494 - gym_custom_envs_real_ur_drivers_URBasic_dashboardEvent - INFO - Dashboard server constructor done
2025-07-07 17:05:31,494 - gym_custom_envs_real_ur_drivers_URBasic_robotConnectorEvent - INFO - Init done
2025-07-07 17:05:31,494 - gym_custom_envs_real_ur_drivers_URBasic_urScriptEvent - INFO - Init done!!!
2025-07-07 17:05:31,508 - gym_custom_envs_real_ur_drivers_URBasic_urScriptExtEvent - INFO - Init done
2025-07-07 17:05:33,126 - gym_custom_envs_real_ur_interfaceEvent - INFO - [] init done
2025-07-07 17:05:33,126 - gym_custom_envs_real_ur_drivers_URBasic_realTimeClientEvent - INFO - Program send to Robot:
end_freedrive_mode()

2025-07-07 17:05:33,316 - gym_custom_envs_real_ur_drivers_URBasic_realTimeClientEvent - INFO - Program send to Robot:
servoj([-0.1728000799762171, -1.5527302915556258, -1.6312117678194058, -1.4790684346542655, 1.7582609519638548, 2.9302544038698723], 0.5, 0.5, 0.008, 0.2, 100)

2025-07-07 17:05:33,339 - gym_custom_envs_real_ur_drivers_URBasic_realTimeClientEvent - INFO - Program send to Robot:
servoj([-0.17277623811830695, -1.5527020694221496, -1.6312590587065223, -1.478716648955349, 1.7582587219523775, 2.9302381023565713], 0.5, 0.5, 0.008, 0.2, 100)

2025-07-07 17:05:33,356 - gym_custom_envs_real_ur_drivers_URBasic_realTimeClientEvent - INFO - Program send to Robot:
servoj([-0.1728000799762171, -1.5527487458150748, -1.6312209949491303, -1.4787406555606102, 1.7582792216807093, 2.93028226980164], 0.5, 0.5, 0.008, 0.2, 100)

2025-07-07 17:05:33,372 - gym_custom_envs_real_ur_drivers_URBasic_realTimeClientEvent - INFO - Program send to Robot:
servoj([-0.17282392183412726, -1.5526935542774818, -1.6312932891642382, -1.4786754184269506, 1.7582814517863192, 2.930252436665086], 0.5, 0.5, 0.008, 0.2, 100)

2025-07-07 17:05:33,388 - gym_custom_envs_real_ur_drivers_URBasic_realTimeClientEvent - INFO - Program send to Robot:
servoj([-0.17277623811830695, -1.5526832466697102, -1.6312686546195305, -1.4786759057829457, 1.7583047638811384, 2.9302748251775066], 0.5, 0.5, 0.008, 0.2, 100)

2025-07-07 17:05:33,404 - gym_custom_envs_real_ur_drivers_URBasic_realTimeClientEvent - INFO - Program send to Robot:
servoj([-0.1728000799762171, -1.5530269575527982, -1.631294811986926, -1.4786848890333988, 1.7586409389424391, 2.930226722480699], 0.5, 0.5, 0.008, 0.2, 100)

2025-07-07 17:05:33,420 - gym_custom_envs_real_ur_drivers_URBasic_realTimeClientEvent - INFO - Program send to Robot:
servoj([-0.17265655199159796, -1.5530923074435774, -1.6312490030463729, -1.4787232577369027, 1.75854794377469, 2.930284706168869], 0.5, 0.5, 0.008, 0.2, 100)

2025-07-07 17:05:33,436 - gym_custom_envs_real_ur_drivers_URBasic_realTimeClientEvent - INFO - Program send to Robot:
servoj([-0.1724167029010218, -1.5530503616975264, -1.6313377890283245, -1.4787629607963153, 1.7584152150149661, 2.930471466170304], 0.5, 0.5, 0.008, 0.2, 100)

2025-07-07 17:05:33,452 - gym_custom_envs_real_ur_drivers_URBasic_realTimeClientEvent - INFO - Program send to Robot:
servoj([-0.1721415678607386, -1.552998058530295, -1.6314203430073926, -1.4787285125765832, 1.7583157311018387, 2.930503428898036], 0.5, 0.5, 0.008, 0.2, 100)

2025-07-07 17:05:33,469 - gym_custom_envs_real_ur_drivers_URBasic_realTimeClientEvent - INFO - Program send to Robot:
servoj([-0.17175866762270148, -1.552589483018549, -1.631509818041594, -1.4786587204478896, 1.7581416899137483, 2.930673939399766], 0.5, 0.5, 0.008, 0.2, 100)

2025-07-07 17:05:33,485 - gym_custom_envs_real_ur_drivers_URBasic_realTimeClientEvent - INFO - Program send to Robot:
servoj([-0.1714115301715296, -1.5525316996487848, -1.6315877986909801, -1.4787175837422304, 1.758054049199831, 2.9307581926027853], 0.5, 0.5, 0.008, 0.2, 100)

2025-07-07 17:05:33,500 - gym_custom_envs_real_ur_drivers_URBasic_realTimeClientEvent - INFO - Program send to Robot:
servoj([-0.1709089438067835, -1.552894299439805, -1.631768245963066, -1.4787971500878654, 1.7580762421236293, 2.930984839944028], 0.5, 0.5, 0.008, 0.2, 100)

2025-07-07 17:05:33,518 - gym_custom_envs_real_ur_drivers_URBasic_realTimeClientEvent - INFO - Program send to Robot:
servoj([-0.17036964098085577, -1.5528582705298153, -1.631904660244883, -1.4787839388012491, 1.757910568472977, 2.9311776993525736], 0.5, 0.5, 0.008, 0.2, 100)

2025-07-07 17:05:33,534 - gym_custom_envs_real_ur_drivers_URBasic_realTimeClientEvent - INFO - Program send to Robot:
servoj([-0.1694717566119593, -1.5523983771176888, -1.6321658127109713, -1.4787840785411366, 1.7582394298410582, 2.931492450803774], 0.5, 0.5, 0.008, 0.2, 100)

2025-07-07 17:05:33,548 - gym_custom_envs_real_ur_drivers_URBasic_realTimeClientEvent - INFO - Program send to Robot:
servoj([-0.16853810945619757, -1.5522903357617366, -1.6324109321051865, -1.4788030435508983, 1.757942472228931, 2.9318291416552165], 0.5, 0.5, 0.008, 0.2, 100)

2025-07-07 17:05:33,565 - gym_custom_envs_real_ur_drivers_URBasic_realTimeClientEvent - INFO - Program send to Robot:
servoj([-0.1672454039203089, -1.5521682582864005, -1.6327441524549642, -1.4788441963806196, 1.7580441347698181, 2.9319266406921796], 0.5, 0.5, 0.008, 0.2, 100)

2025-07-07 17:05:33,581 - gym_custom_envs_real_ur_drivers_URBasic_realTimeClientEvent - INFO - Program send to Robot:
servoj([-0.16576100984682257, -1.5520782431755316, -1.6331724288032992, -1.4788417733447206, 1.7576105789498009, 2.9324787075676535], 0.5, 0.5, 0.008, 0.2, 100)

2025-07-07 17:05:33,596 - gym_custom_envs_real_ur_drivers_URBasic_realTimeClientEvent - INFO - Program send to Robot:
servoj([-0.16470719972719366, -1.5520350643504557, -1.633480810698089, -1.4789816682431893, 1.7578467660977268, 2.932805669538472], 0.5, 0.5, 0.008, 0.2, 100)

2025-07-07 17:05:33,615 - gym_custom_envs_real_ur_drivers_URBasic_realTimeClientEvent - INFO - Program send to Robot:
servoj([-0.1646356741534632, -1.5516584340921715, -1.633513301897621, -1.479001046825004, 1.758204223053017, 2.9328848552224582], 0.5, 0.5, 0.008, 0.2, 100)

2025-07-07 17:05:33,631 - gym_custom_envs_real_ur_drivers_URBasic_realTimeClientEvent - INFO - Program send to Robot:
servoj([-0.16412069002260382, -1.5516143943696388, -1.6336114279669576, -1.4790065618045178, 1.7580830003985801, 2.933038160726663], 0.5, 0.5, 0.008, 0.2, 100)

2025-07-07 17:05:33,644 - gym_custom_envs_real_ur_drivers_URBasic_realTimeClientEvent - INFO - Program send to Robot:
servoj([-0.1640730063067835, -1.5516313750659227, -1.633623724976741, -1.4790621375805564, 1.7579327910028255, 2.9331063582033114], 0.5, 0.5, 0.008, 0.2, 100)

2025-07-07 17:05:33,660 - gym_custom_envs_real_ur_drivers_URBasic_realTimeClientEvent - INFO - Program send to Robot:
servoj([-0.16359426179994757, -1.5508020394693636, -1.6337745268932904, -1.4791404984762706, 1.7597200720035295, 2.9332380303214682], 0.5, 0.5, 0.008, 0.2, 100)

2025-07-07 17:05:33,679 - gym_custom_envs_real_ur_drivers_URBasic_realTimeClientEvent - INFO - Program send to Robot:
servoj([-0.1625762144671839, -1.5499452701767078, -1.633888738368189, -1.4790505529296183, 1.7618161289989966, 2.9335801857220893], 0.5, 0.5, 0.008, 0.2, 100)

2025-07-07 17:05:33,691 - gym_custom_envs_real_ur_drivers_URBasic_realTimeClientEvent - INFO - Program send to Robot:
servoj([-0.16137887636293585, -1.5498712594265867, -1.6342888179630006, -1.4792190796197062, 1.7616936398853058, 2.9340107231696138], 0.5, 0.5, 0.008, 0.2, 100)

2025-07-07 17:05:33,707 - gym_custom_envs_real_ur_drivers_URBasic_realTimeClientEvent - INFO - Program send to Robot:
servoj([-0.16012241045107062, -1.5497201979603659, -1.6345110756780437, -1.4791597918779973, 1.7613782836199128, 2.9343825245623654], 0.5, 0.5, 0.008, 0.2, 100)

2025-07-07 17:05:33,728 - gym_custom_envs_real_ur_drivers_URBasic_realTimeClientEvent - INFO - Program send to Robot:
servoj([-0.0015339807878858025, -1.5278448647344085, -1.679708962734777, -1.4864273834611863, 1.731863082337177, 2.9912625363770005], 0.5, 0.5, 0.008, 0.2, 100)

2025-07-07 17:05:33,732 - gym_custom_envs_real_ur_drivers_URBasic_realTimeClientEvent - INFO - Program send to Robot:
servoj([-0.0015339807878858025, -1.5278448647341016, -1.679708962734777, -1.4864273834611863, 1.7318642972510316, 2.9912625363770005], 0.5, 0.5, 0.008, 0.2, 100)

2025-07-07 17:05:33,752 - gym_custom_envs_real_ur_drivers_URBasic_realTimeClientEvent - INFO - Program send to Robot:
servoj([-0.0015339807878858025, -1.5263262237540918, -1.679708962734777, -1.4864273834611863, 1.745532078220231, 2.9927811773570068], 0.5, 0.5, 0.008, 0.2, 100)

2025-07-07 17:05:33,756 - gym_custom_envs_real_ur_drivers_URBasic_realTimeClientEvent - INFO - Program send to Robot:
servoj([-0.0015339807878858025, -1.5263110373442919, -1.679708962734777, -1.4864273834611863, 1.745668756029923, 2.9927963637668067], 0.5, 0.5, 0.008, 0.2, 100)

2025-07-07 17:05:33,777 - gym_custom_envs_real_ur_drivers_URBasic_realTimeClientEvent - INFO - Program send to Robot:
servoj([-0.0015339807878858025, -1.5263108854801937, -1.679708962734777, -1.4864273834611863, 1.7517446867280477, 2.992796515630905], 0.5, 0.5, 0.008, 0.2, 100)

2025-07-07 17:05:33,780 - gym_custom_envs_real_ur_drivers_URBasic_realTimeClientEvent - INFO - Program send to Robot:
servoj([-0.0015339807878858025, -1.5263108839615527, -1.679708962734777, -1.4864273834611863, 1.751805446035029, 2.9927965171495456], 0.5, 0.5, 0.008, 0.2, 100)

2025-07-07 17:05:33,801 - gym_custom_envs_real_ur_drivers_URBasic_realTimeClientEvent - INFO - Program send to Robot:
servoj([-0.0015339807878858025, -1.5263108839463664, -1.679708962734777, -1.4864273834611863, 1.7518060536280988, 2.992796517164732], 0.5, 0.5, 0.008, 0.2, 100)

2025-07-07 17:05:33,804 - gym_custom_envs_real_ur_drivers_URBasic_realTimeClientEvent - INFO - Program send to Robot:
servoj([-0.0015339807878858025, -1.5263108839462145, -1.679708962734777, -1.4864273834611863, 1.7518060597040295, 2.992796517164884], 0.5, 0.5, 0.008, 0.2, 100)

2025-07-07 17:05:33,824 - gym_custom_envs_real_ur_drivers_URBasic_realTimeClientEvent - INFO - Program send to Robot:
servoj([-0.0015339807878858025, -1.526310883946213, -1.679708962734777, -1.4864273834611863, 1.754843341724802, 2.992796517164886], 0.5, 0.5, 0.008, 0.2, 100)

2025-07-07 17:05:33,828 - gym_custom_envs_real_ur_drivers_URBasic_realTimeClientEvent - INFO - Program send to Robot:
servoj([-0.0015339807878858025, -1.526310883946213, -1.679708962734777, -1.4864273834611863, 1.7548737145450095, 2.992796517164886], 0.5, 0.5, 0.008, 0.2, 100)

2025-07-07 17:05:33,848 - gym_custom_envs_real_ur_drivers_URBasic_realTimeClientEvent - INFO - Program send to Robot:
servoj([-0.0015339807878858025, -1.526310883946213, -1.679708962734777, -1.4849087424811795, 1.7548740182732117, 2.992796517164886], 0.5, 0.5, 0.008, 0.2, 100)

2025-07-07 17:05:33,852 - gym_custom_envs_real_ur_drivers_URBasic_realTimeClientEvent - INFO - Program send to Robot:
servoj([-0.0015339807878858025, -1.526310883946213, -1.679708962734777, -1.4848935560713794, 1.7548740213104936, 2.992796517164886], 0.5, 0.5, 0.008, 0.2, 100)

2025-07-07 17:05:33,872 - gym_custom_envs_real_ur_drivers_URBasic_realTimeClientEvent - INFO - Program send to Robot:
servoj([-0.0015339807878858025, -1.526310883946213, -1.679708962734777, -1.4848934042072814, 1.7533553803608595, 2.992796517164886], 0.5, 0.5, 0.008, 0.2, 100)

2025-07-07 17:05:33,876 - gym_custom_envs_real_ur_drivers_URBasic_realTimeClientEvent - INFO - Program send to Robot:
servoj([-0.0015339807878858025, -1.526310883946213, -1.679708962734777, -1.4848934026886405, 1.753340193951363, 2.992796517164886], 0.5, 0.5, 0.008, 0.2, 100)

2025-07-07 17:05:33,897 - gym_custom_envs_real_ur_drivers_URBasic_realTimeClientEvent - INFO - Program send to Robot:
servoj([-0.0015339807878858025, -1.526310883946213, -1.679708962734777, -1.4848934026734542, 1.7533400420872682, 2.992796517164886], 0.5, 0.5, 0.008, 0.2, 100)

2025-07-07 17:05:33,900 - gym_custom_envs_real_ur_drivers_URBasic_realTimeClientEvent - INFO - Program send to Robot:
servoj([-0.0015339807878858025, -1.526310883946213, -1.679708962734777, -1.4848934026733023, 1.7533400405686272, 2.992796517164886], 0.5, 0.5, 0.008, 0.2, 100)

2025-07-07 17:05:33,921 - gym_custom_envs_real_ur_drivers_URBasic_realTimeClientEvent - INFO - Program send to Robot:
servoj([-0.0015339807878858025, -1.526310883946213, -1.679708962734777, -1.4848934026733007, 1.7518213995734346, 2.992796517164886], 0.5, 0.5, 0.008, 0.2, 100)

2025-07-07 17:05:33,924 - gym_custom_envs_real_ur_drivers_URBasic_realTimeClientEvent - INFO - Program send to Robot:
servoj([-0.0015339807878858025, -1.526310883946213, -1.679708962734777, -1.4848934026733007, 1.7518062131634828, 2.992796517164886], 0.5, 0.5, 0.008, 0.2, 100)

2025-07-07 17:05:33,944 - gym_custom_envs_real_ur_drivers_URBasic_realTimeClientEvent - INFO - Program send to Robot:
servoj([-0.003052621767892307, -1.526310883946213, -1.67819032175477, -1.4833747616932937, 1.7502874203193766, 2.992796517164886], 0.5, 0.5, 0.008, 0.2, 100)

2025-07-07 17:05:33,948 - gym_custom_envs_real_ur_drivers_URBasic_realTimeClientEvent - INFO - Program send to Robot:
servoj([-0.003067808177692372, -1.526310883946213, -1.67817513534497, -1.4833595752834936, 1.7502722323909354, 2.992796517164886], 0.5, 0.5, 0.008, 0.2, 100)

2025-07-07 17:05:33,968 - gym_custom_envs_real_ur_drivers_URBasic_realTimeClientEvent - INFO - Program send to Robot:
servoj([-0.003067960041790373, -1.526310883946213, -1.678174983480872, -1.4818407824393889, 1.7487534395316442, 2.992796517164886], 0.5, 0.5, 0.008, 0.2, 100)

2025-07-07 17:05:33,973 - gym_custom_envs_real_ur_drivers_URBasic_realTimeClientEvent - INFO - Program send to Robot:
servoj([-0.003067961560431353, -1.526310883946213, -1.678174981962231, -1.4818255945109478, 1.7487382516030512, 2.992796517164886], 0.5, 0.5, 0.008, 0.2, 100)

2025-07-07 17:05:33,992 - gym_custom_envs_real_ur_drivers_URBasic_realTimeClientEvent - INFO - Program send to Robot:
servoj([-0.0030679615756177628, -1.526310883946213, -1.6781749819470446, -1.4818254426316635, 1.7487380997237651, 2.992796517164886], 0.5, 0.5, 0.008, 0.2, 100)

2025-07-07 17:05:33,996 - gym_custom_envs_real_ur_drivers_URBasic_realTimeClientEvent - INFO - Program send to Robot:
servoj([-0.003067961575769627, -1.526310883946213, -1.6781749819468927, -1.4818254411128706, 1.7487380982049723, 2.992796517164886], 0.5, 0.5, 0.008, 0.2, 100)

2025-07-07 17:05:34,017 - gym_custom_envs_real_ur_drivers_URBasic_realTimeClientEvent - INFO - Program send to Robot:
servoj([-0.0030679615757711453, -1.526310883946213, -1.6781749819468912, -1.4818254410976828, 1.7487380981897844, 2.992796517164886], 0.5, 0.5, 0.008, 0.2, 100)

2025-07-07 17:05:34,020 - gym_custom_envs_real_ur_drivers_URBasic_realTimeClientEvent - INFO - Program send to Robot:
servoj([-0.0030679615757711605, -1.526310883946213, -1.6781749819468912, -1.481825441097531, 1.7487380981896326, 2.992796517164886], 0.5, 0.5, 0.008, 0.2, 100)

2025-07-07 17:05:34,036 - gym_custom_envs_real_ur_drivers_URBasic_realTimeClientEvent - INFO - Program send to Robot:
servoj([-0.003067961575771161, -1.526310883946213, -1.6781749819468912, -1.4818254410975293, 1.745700816229617, 2.992796517164886], 0.5, 0.5, 0.008, 0.2, 100)

2025-07-07 17:05:34,044 - gym_custom_envs_real_ur_drivers_URBasic_realTimeClientEvent - INFO - Program send to Robot:
servoj([-0.003067961575771161, -1.526310883946213, -1.6781749819468912, -1.4818254410975293, 1.745670443410017, 2.992796517164886], 0.5, 0.5, 0.008, 0.2, 100)

2025-07-07 17:05:34,060 - gym_custom_envs_real_ur_drivers_URBasic_realTimeClientEvent - INFO - Program send to Robot:
servoj([-0.003067961575771161, -1.526310883946213, -1.6781749819468912, -1.4818254410975293, 1.7456701396818208, 2.992796517164886], 0.5, 0.5, 0.008, 0.2, 100)

2025-07-07 17:05:34,069 - gym_custom_envs_real_ur_drivers_URBasic_realTimeClientEvent - INFO - Program send to Robot:
servoj([-0.003067961575771161, -1.526310883946213, -1.6781749819468912, -1.4818254410975293, 1.7411142137045192, 2.992796517164886], 0.5, 0.5, 0.008, 0.2, 100)

2025-07-07 17:05:34,076 - gym_custom_envs_real_ur_drivers_URBasic_realTimeClientEvent - INFO - Program send to Robot:
servoj([-0.003067961575771161, -1.526310883946213, -1.6781749819468912, -1.4818254410975293, 1.7410686544447462, 2.992796517164886], 0.5, 0.5, 0.008, 0.2, 100)

2025-07-07 17:05:34,092 - gym_custom_envs_real_ur_drivers_URBasic_realTimeClientEvent - INFO - Program send to Robot:
servoj([-0.003067961575771161, -1.526310883946213, -1.6781749819468912, -1.4818254410975293, 1.7410681988521484, 2.992796517164886], 0.5, 0.5, 0.008, 0.2, 100)

2025-07-07 17:05:34,100 - gym_custom_envs_real_ur_drivers_URBasic_realTimeClientEvent - INFO - Program send to Robot:
servoj([-0.004586602555778105, -1.526310883946213, -1.6781749819468912, -1.4803068001175228, 1.7365122713562016, 2.992796517164886], 0.5, 0.5, 0.008, 0.2, 100)

2025-07-07 17:05:34,112 - gym_custom_envs_real_ur_drivers_URBasic_realTimeClientEvent - INFO - Program send to Robot:
servoj([-0.004601788965578175, -1.526310883946213, -1.6781749819468912, -1.4802916137077227, 1.736466712081242, 2.992796517164886], 0.5, 0.5, 0.008, 0.2, 100)

2025-07-07 17:05:34,124 - gym_custom_envs_real_ur_drivers_URBasic_realTimeClientEvent - INFO - Program send to Robot:
servoj([-0.0046019408296761755, -1.526310883946213, -1.6781749819468912, -1.4802914618436247, 1.7364662564884925, 2.992796517164886], 0.5, 0.5, 0.008, 0.2, 100)

2025-07-07 17:05:34,136 - gym_custom_envs_real_ur_drivers_URBasic_realTimeClientEvent - INFO - Program send to Robot:
servoj([-0.004601942348317155, -1.526310883946213, -1.6766563409668842, -1.478772819344977, 1.730391688012538, 2.992796517164886], 0.5, 0.5, 0.008, 0.2, 100)

2025-07-07 17:05:34,140 - gym_custom_envs_real_ur_drivers_URBasic_realTimeClientEvent - INFO - Program send to Robot:
servoj([-0.004601942363503565, -1.526310883946213, -1.676641154557084, -1.4787576329199905, 1.7303309423277786, 2.992796517164886], 0.5, 0.5, 0.008, 0.2, 100)

2025-07-07 17:05:34,161 - gym_custom_envs_real_ur_drivers_URBasic_realTimeClientEvent - INFO - Program send to Robot:
servoj([-0.0030833013836484846, -1.526310883946213, -1.67512236171298, -1.4742015581157202, 1.7257744119309109, 2.992796517164886], 0.5, 0.5, 0.008, 0.2, 100)

2025-07-07 17:05:34,164 - gym_custom_envs_real_ur_drivers_URBasic_realTimeClientEvent - INFO - Program send to Robot:
servoj([-0.003068114973849934, -1.526310883946213, -1.675107173784539, -1.4741559973676774, 1.7257288466269423, 2.992796517164886], 0.5, 0.5, 0.008, 0.2, 100)

2025-07-07 17:05:34,184 - gym_custom_envs_real_ur_drivers_URBasic_realTimeClientEvent - INFO - Program send to Robot:
servoj([-0.0030679631097519484, -1.526310883946213, -1.6751070219052546, -1.474155541760197, 1.7257283909739025, 2.992796517164886], 0.5, 0.5, 0.008, 0.2, 100)

2025-07-07 17:05:34,188 - gym_custom_envs_real_ur_drivers_URBasic_realTimeClientEvent - INFO - Program send to Robot:
servoj([-0.0030679615911109685, -1.526310883946213, -1.6751070203864618, -1.4741555372041222, 1.7257283864173723, 2.992796517164886], 0.5, 0.5, 0.008, 0.2, 100)

2025-07-07 17:05:34,207 - gym_custom_envs_real_ur_drivers_URBasic_realTimeClientEvent - INFO - Program send to Robot:
servoj([-0.0045866025559315035, -1.526310883946213, -1.673588379391267, -1.469599614218541, 1.7196538224517792, 2.9912778761848795], 0.5, 0.5, 0.008, 0.2, 100)

2025-07-07 17:05:34,215 - gym_custom_envs_real_ur_drivers_URBasic_realTimeClientEvent - INFO - Program send to Robot:
servoj([-0.004601788965579709, -1.526310883946213, -1.673573192981315, -1.4695540549886854, 1.7195930768121233, 2.991262689775079], 0.5, 0.5, 0.008, 0.2, 100)

2025-07-07 17:05:34,220 - gym_custom_envs_real_ur_drivers_URBasic_realTimeClientEvent - INFO - Program send to Robot:
servoj([-0.00460194082967619, -1.526310883946213, -1.6735730411172154, -1.4695535993963869, 1.7195924693557267, 2.9912625379109814], 0.5, 0.5, 0.008, 0.2, 100)

2025-07-07 17:05:34,239 - gym_custom_envs_real_ur_drivers_URBasic_realTimeClientEvent - INFO - Program send to Robot:
servoj([-0.004601942348317156, -1.526310883946213, -1.6705357576385607, -1.4634790309204364, 1.7180738223011567, 2.9882252544323262], 0.5, 0.5, 0.008, 0.2, 100)

2025-07-07 17:05:34,244 - gym_custom_envs_real_ur_drivers_URBasic_realTimeClientEvent - INFO - Program send to Robot:
servoj([-0.004601942363503565, -1.526310883946213, -1.670505384803774, -1.463418285235677, 1.718058635830611, 2.98819488159754], 0.5, 0.5, 0.008, 0.2, 100)

2025-07-07 17:05:34,255 - gym_custom_envs_real_ur_drivers_URBasic_realTimeClientEvent - INFO - Program send to Robot:
servoj([-0.004601942363655429, -1.526310883946213, -1.6644305171553992, -1.4573431138588024, 1.7180584839659054, 2.982120013949165], 0.5, 0.5, 0.008, 0.2, 100)

2025-07-07 17:05:34,268 - gym_custom_envs_real_ur_drivers_URBasic_realTimeClientEvent - INFO - Program send to Robot:
servoj([-0.004601942363656948, -1.526310883946213, -1.6643697684789154, -1.4572823621450337, 1.7180584824472585, 2.982059265272681], 0.5, 0.5, 0.008, 0.2, 100)

2025-07-07 17:05:34,279 - gym_custom_envs_real_ur_drivers_URBasic_realTimeClientEvent - INFO - Program send to Robot:
servoj([-0.004601942363656963, -1.526310883946213, -1.6643691609921507, -1.457281754627896, 1.718058482432072, 2.9820586577859163], 0.5, 0.5, 0.008, 0.2, 100)

2025-07-07 17:05:34,288 - gym_custom_envs_real_ur_drivers_URBasic_realTimeClientEvent - INFO - Program send to Robot:
servoj([-0.004601942363656963, -1.526310883946213, -1.6567759500172492, -1.4512071846326973, 1.71805848243192, 2.9759840877910215], 0.5, 0.5, 0.008, 0.2, 100)

2025-07-07 17:05:34,292 - gym_custom_envs_real_ur_drivers_URBasic_realTimeClientEvent - INFO - Program send to Robot:
servoj([-0.004601942363656963, -1.526310883946213, -1.6567000179075002, -1.4511464389327453, 1.7180584824319185, 2.9759233420910727], 0.5, 0.5, 0.008, 0.2, 100)

2025-07-07 17:05:34,308 - gym_custom_envs_real_ur_drivers_URBasic_realTimeClientEvent - INFO - Program send to Robot:
servoj([-0.004601942363656963, -1.526310883946213, -1.6566992585864027, -1.4511458314757457, 1.7180584824319185, 2.9759227346340733], 0.5, 0.5, 0.008, 0.2, 100)

2025-07-07 17:05:34,317 - gym_custom_envs_real_ur_drivers_URBasic_realTimeClientEvent - INFO - Program send to Robot:
servoj([-0.004601942363656963, -1.526310883946213, -1.6566992509931917, -1.4511458254011758, 1.7180584824319185, 2.975922728559503], 0.5, 0.5, 0.008, 0.2, 100)

2025-07-07 17:05:34,327 - gym_custom_envs_real_ur_drivers_URBasic_realTimeClientEvent - INFO - Program send to Robot:
servoj([-0.006120583343663908, -1.526310883946213, -1.6491060460172258, -1.4481085433804166, 1.7180584824319185, 2.96984816457873], 0.5, 0.5, 0.008, 0.2, 100)

2025-07-07 17:05:34,340 - gym_custom_envs_real_ur_drivers_URBasic_realTimeClientEvent - INFO - Program send to Robot:
servoj([-0.006135769753463977, -1.526310883946213, -1.6490301139674661, -1.448078170560209, 1.7180584824319185, 2.9697874189389224], 0.5, 0.5, 0.008, 0.2, 100)

2025-07-07 17:05:34,350 - gym_custom_envs_real_ur_drivers_URBasic_realTimeClientEvent - INFO - Program send to Robot:
servoj([-0.006135921617561978, -1.526310883946213, -1.6490293546469685, -1.448077866832007, 1.7180584824319185, 2.9697868114825243], 0.5, 0.5, 0.008, 0.2, 100)

2025-07-07 17:05:34,358 - gym_custom_envs_real_ur_drivers_URBasic_realTimeClientEvent - INFO - Program send to Robot:
servoj([-0.009173205096216407, -1.526310883946213, -1.6429547831337357, -1.4435219408547044, 1.7165398414519115, 2.9667495234479473], 0.5, 0.5, 0.008, 0.2, 100)

2025-07-07 17:05:34,364 - gym_custom_envs_real_ur_drivers_URBasic_realTimeClientEvent - INFO - Program send to Robot:
servoj([-0.009203577931002951, -1.526310883946213, -1.6428940374186034, -1.4434763815949314, 1.7165246550421114, 2.9667191505676014], 0.5, 0.5, 0.008, 0.2, 100)

2025-07-07 17:05:34,382 - gym_custom_envs_real_ur_drivers_URBasic_realTimeClientEvent - INFO - Program send to Robot:
servoj([-0.009203881659350818, -1.526310883946213, -1.642893429961452, -1.4434759260023338, 1.7165245031780134, 2.966718846838798], 0.5, 0.5, 0.008, 0.2, 100)

2025-07-07 17:05:34,388 - gym_custom_envs_real_ur_drivers_URBasic_realTimeClientEvent - INFO - Program send to Robot:
servoj([-0.015278448616661194, -1.5247922429662062, -1.6368188599668536, -1.4434759214464077, 1.7165245016593724, 2.965200202821503], 0.5, 0.5, 0.008, 0.2, 100)

2025-07-07 17:05:34,398 - gym_custom_envs_real_ur_drivers_URBasic_realTimeClientEvent - INFO - Program send to Robot:
servoj([-0.015339194286234297, -1.524777056556406, -1.6367581142669076, -1.4434759214008483, 1.7165245016441861, 2.96518501638133], 0.5, 0.5, 0.008, 0.2, 100)

2025-07-07 17:05:34,412 - gym_custom_envs_real_ur_drivers_URBasic_realTimeClientEvent - INFO - Program send to Robot:
servoj([-0.015339801742930028, -1.524776904692308, -1.6367575068099083, -1.4434759214003927, 1.7165245016440343, 2.9651848645169285], 0.5, 0.5, 0.008, 0.2, 100)

2025-07-07 17:05:34,423 - gym_custom_envs_real_ur_drivers_URBasic_realTimeClientEvent - INFO - Program send to Robot:
servoj([-0.02293301271753127, -1.524776903173667, -1.6306829368153115, -1.4434759214003883, 1.7165245016440327, 2.9621475810382702], 0.5, 0.5, 0.008, 0.2, 100)

2025-07-07 17:05:34,428 - gym_custom_envs_real_ur_drivers_URBasic_realTimeClientEvent - INFO - Program send to Robot:
servoj([-0.02300894482727728, -1.5247769031584808, -1.6306221911153655, -1.4434759214003883, 1.7165245016440327, 2.962117208203484], 0.5, 0.5, 0.008, 0.2, 100)

2025-07-07 17:05:34,436 - gym_custom_envs_real_ur_drivers_URBasic_realTimeClientEvent - INFO - Program send to Robot:
servoj([-0.023009704148374742, -1.524776903158329, -1.630621583658366, -1.4434759214003883, 1.7165245016440327, 2.962116904475136], 0.5, 0.5, 0.008, 0.2, 100)

2025-07-07 17:05:34,455 - gym_custom_envs_real_ur_drivers_URBasic_realTimeClientEvent - INFO - Program send to Robot:
servoj([-0.029084275661612615, -1.5262955441383341, -1.623028372683762, -1.4434759214003883, 1.7165245016440327, 2.959079619477839], 0.5, 0.5, 0.008, 0.2, 100)

2025-07-07 17:05:34,460 - gym_custom_envs_real_ur_drivers_URBasic_realTimeClientEvent - INFO - Program send to Robot:
servoj([-0.029145021376744993, -1.5263107305481343, -1.6229524405740159, -1.4434759214003883, 1.7165245016440327, 2.959049246627866], 0.5, 0.5, 0.008, 0.2, 100)

2025-07-07 17:05:34,470 - gym_custom_envs_real_ur_drivers_URBasic_realTimeClientEvent - INFO - Program send to Robot:
servoj([-0.029145628833896316, -1.5263108824122322, -1.6229516812529186, -1.4434759214003883, 1.7165245016440327, 2.9590489428993663], 0.5, 0.5, 0.008, 0.2, 100)

2025-07-07 17:05:34,485 - gym_custom_envs_real_ur_drivers_URBasic_realTimeClientEvent - INFO - Program send to Robot:
servoj([-0.03673883980850168, -1.5263108839308732, -1.6168771097396808, -1.4434759214003883, 1.7165245016440327, 2.949937093982041], 0.5, 0.5, 0.008, 0.2, 100)

2025-07-07 17:05:34,494 - gym_custom_envs_real_ur_drivers_URBasic_realTimeClientEvent - INFO - Program send to Robot:
servoj([-0.03681477191824773, -1.5263108839460595, -1.6168163640245483, -1.4434759214003883, 1.7165245016440327, 2.949845975492868], 0.5, 0.5, 0.008, 0.2, 100)

2025-07-07 17:05:34,502 - gym_custom_envs_real_ur_drivers_URBasic_realTimeClientEvent - INFO - Program send to Robot:
servoj([-0.03681553123934519, -1.5263108839462114, -1.616815756567397, -1.4434759214003883, 1.7165245016440327, 2.949845064307976], 0.5, 0.5, 0.008, 0.2, 100)

2025-07-07 17:05:34,508 - gym_custom_envs_real_ur_drivers_URBasic_realTimeClientEvent - INFO - Program send to Robot:
servoj([-0.036815538832556165, -1.526310883946213, -1.6168157504928256, -1.4434759214003883, 1.7165245016440327, 2.9498450551961275], 0.5, 0.5, 0.008, 0.2, 100)

2025-07-07 17:05:34,527 - gym_custom_envs_real_ur_drivers_URBasic_realTimeClientEvent - INFO - Program send to Robot:
servoj([-0.04289010282851561, -1.526310883946213, -1.610741186512052, -1.4434759214003883, 1.7165245016440327, 2.937695927264954], 0.5, 0.5, 0.008, 0.2, 100)

2025-07-07 17:05:34,533 - gym_custom_envs_real_ur_drivers_URBasic_realTimeClientEvent - INFO - Program send to Robot:
servoj([-0.0429508484684752, -1.526310883946213, -1.6106804408722444, -1.4434759214003883, 1.7165245016440327, 2.937574435985642], 0.5, 0.5, 0.008, 0.2, 100)

2025-07-07 17:05:34,542 - gym_custom_envs_real_ur_drivers_URBasic_realTimeClientEvent - INFO - Program send to Robot:
servoj([-0.0429514559248748, -1.526310883946213, -1.6106798334158463, -1.4434759214003883, 1.7165245016440327, 2.937573221072849], 0.5, 0.5, 0.008, 0.2, 100)

2025-07-07 17:05:34,557 - gym_custom_envs_real_ur_drivers_URBasic_realTimeClientEvent - INFO - Program send to Robot:
servoj([-0.045988743959452245, -1.526310883946213, -1.6076425453812693, -1.4434759214003883, 1.7165245016440327, 2.925424081083667], 0.5, 0.5, 0.008, 0.2, 100)

2025-07-07 17:05:34,568 - gym_custom_envs_real_ur_drivers_URBasic_realTimeClientEvent - INFO - Program send to Robot:
servoj([-0.046019116839798015, -1.526310883946213, -1.6076121725009234, -1.4434759214003883, 1.7165245016440327, 2.925302589683775], 0.5, 0.5, 0.008, 0.2, 100)

2025-07-07 17:05:34,572 - gym_custom_envs_real_ur_drivers_URBasic_realTimeClientEvent - INFO - Program send to Robot:
servoj([-0.04601942056860148, -1.526310883946213, -1.60761186877212, -1.4434759214003883, 1.7165245016440327, 2.9253013747697763], 0.5, 0.5, 0.008, 0.2, 100)

2025-07-07 17:05:34,590 - gym_custom_envs_real_ur_drivers_URBasic_realTimeClientEvent - INFO - Program send to Robot:
servoj([-0.047538064585896454, -1.526310883946213, -1.606093224754825, -1.4434759214003883, 1.7165245016440327, 2.920745439680616], 0.5, 0.5, 0.008, 0.2, 100)

2025-07-07 17:05:34,598 - gym_custom_envs_real_ur_drivers_URBasic_realTimeClientEvent - INFO - Program send to Robot:
servoj([-0.04755325102606941, -1.526310883946213, -1.606078038314652, -1.4434759214003883, 1.7165245016440327, 2.9206998803297246], 0.5, 0.5, 0.008, 0.2, 100)

2025-07-07 17:05:34,604 - gym_custom_envs_real_ur_drivers_URBasic_realTimeClientEvent - INFO - Program send to Robot:
servoj([-0.047553402890471136, -1.526310883946213, -1.6060778864502503, -1.4434759214003883, 1.7165245016440327, 2.9206994247362155], 0.5, 0.5, 0.008, 0.2, 100)

2025-07-07 17:05:34,621 - gym_custom_envs_real_ur_drivers_URBasic_realTimeClientEvent - INFO - Program send to Robot:
servoj([-0.04907204538912166, -1.526310883946213, -1.6060778849316062, -1.4419572804203815, 1.7165245016440327, 2.9206994201802803], 0.5, 0.5, 0.008, 0.2, 100)

2025-07-07 17:05:34,628 - gym_custom_envs_real_ur_drivers_URBasic_realTimeClientEvent - INFO - Program send to Robot:
servoj([-0.049087231814108165, -1.526310883946213, -1.60607788491642, -1.4419420940105814, 1.7165245016440327, 2.920699420134721], 0.5, 0.5, 0.008, 0.2, 100)

2025-07-07 17:05:34,637 - gym_custom_envs_real_ur_drivers_URBasic_realTimeClientEvent - INFO - Program send to Robot:
servoj([-0.04908738367835803, -1.526310883946213, -1.606077884916268, -1.4419419421464834, 1.7165245016440327, 2.9206994201342655], 0.5, 0.5, 0.008, 0.2, 100)

2025-07-07 17:05:34,645 - gym_custom_envs_real_ur_drivers_URBasic_realTimeClientEvent - INFO - Program send to Robot:
servoj([-0.04908738519700053, -1.526310883946213, -1.6060778849162665, -1.4419419406278424, 1.7165245016440327, 2.920699420134261], 0.5, 0.5, 0.008, 0.2, 100)

2025-07-07 17:05:34,661 - gym_custom_envs_real_ur_drivers_URBasic_realTimeClientEvent - INFO - Program send to Robot:
servoj([-0.04908738521218695, -1.526310883946213, -1.6060778849162665, -1.441941940612656, 1.7165245016440327, 2.9206994201342606], 0.5, 0.5, 0.008, 0.2, 100)

2025-07-07 17:05:34,670 - gym_custom_envs_real_ur_drivers_URBasic_realTimeClientEvent - INFO - Program send to Robot:
servoj([-0.04908738521233882, -1.526310883946213, -1.6060778849162665, -1.4419419406125042, 1.7165245016440327, 2.9206994201342606], 0.5, 0.5, 0.008, 0.2, 100)

2025-07-07 17:05:34,676 - gym_custom_envs_real_ur_drivers_URBasic_realTimeClientEvent - INFO - Program send to Robot:
servoj([-0.04908738521234034, -1.526310883946213, -1.6060778849162665, -1.4419419406125027, 1.7165245016440327, 2.9206994201342606], 0.5, 0.5, 0.008, 0.2, 100)

2025-07-07 17:05:34,694 - gym_custom_envs_real_ur_drivers_URBasic_realTimeClientEvent - INFO - Program send to Robot:
servoj([-0.04908738521234035, -1.526310883946213, -1.6060778849162665, -1.4419419406125027, 1.7165245016440327, 2.9206994201342606], 0.5, 0.5, 0.008, 0.2, 100)

2025-07-07 17:05:34,700 - gym_custom_envs_real_ur_drivers_URBasic_realTimeClientEvent - INFO - Program send to Robot:
servoj([-0.04908738521234035, -1.526310883946213, -1.6060778849162665, -1.4419419406125027, 1.7165245016440327, 2.9206994201342606], 0.5, 0.5, 0.008, 0.2, 100)

2025-07-07 17:05:34,710 - gym_custom_envs_real_ur_drivers_URBasic_realTimeClientEvent - INFO - Program send to Robot:
servoj([-0.04908738521234035, -1.5278295249262197, -1.6075965258962734, -1.4419419406125027, 1.7150058606640257, 2.9206994201342606], 0.5, 0.5, 0.008, 0.2, 100)

2025-07-07 17:05:34,724 - gym_custom_envs_real_ur_drivers_URBasic_realTimeClientEvent - INFO - Program send to Robot:
servoj([-0.04908738521234035, -1.5278447113360198, -1.6076117123060736, -1.4419419406125027, 1.7149906742542256, 2.9206994201342606], 0.5, 0.5, 0.008, 0.2, 100)

2025-07-07 17:05:34,733 - gym_custom_envs_real_ur_drivers_URBasic_realTimeClientEvent - INFO - Program send to Robot:
servoj([-0.04908738521234035, -1.5278448632001178, -1.6076118641701715, -1.4419419406125027, 1.7149905223901276, 2.9206994201342606], 0.5, 0.5, 0.008, 0.2, 100)

2025-07-07 17:05:34,741 - gym_custom_envs_real_ur_drivers_URBasic_realTimeClientEvent - INFO - Program send to Robot:
servoj([-0.04908738521234035, -1.5278448647187588, -1.6076118656888125, -1.4419419406125027, 1.7149905208714866, 2.9206994201342606], 0.5, 0.5, 0.008, 0.2, 100)

2025-07-07 17:05:34,748 - gym_custom_envs_real_ur_drivers_URBasic_realTimeClientEvent - INFO - Program send to Robot:
servoj([-0.04908738521234035, -1.527844864733945, -1.6076118657039988, -1.4419419406125027, 1.7149905208563003, 2.9206994201342606], 0.5, 0.5, 0.008, 0.2, 100)

2025-07-07 17:05:34,765 - gym_custom_envs_real_ur_drivers_URBasic_realTimeClientEvent - INFO - Program send to Robot:
servoj([-0.04908738521234035, -1.527844864734097, -1.6076118657041507, -1.4419419406125027, 1.7149905208561484, 2.9206994201342606], 0.5, 0.5, 0.008, 0.2, 100)

2025-07-07 17:05:34,772 - gym_custom_envs_real_ur_drivers_URBasic_realTimeClientEvent - INFO - Program send to Robot:
servoj([-0.04908738521234035, -1.5278448647340985, -1.6091305066841584, -1.4419419406125027, 1.714990520856147, 2.9206994201342606], 0.5, 0.5, 0.008, 0.2, 100)

2025-07-07 17:05:34,781 - gym_custom_envs_real_ur_drivers_URBasic_realTimeClientEvent - INFO - Program send to Robot:
servoj([-0.04908738521234035, -1.5278448647340985, -1.6091456930939585, -1.4419419406125027, 1.714990520856147, 2.9206994201342606], 0.5, 0.5, 0.008, 0.2, 100)

2025-07-07 17:05:34,790 - gym_custom_envs_real_ur_drivers_URBasic_realTimeClientEvent - INFO - Program send to Robot:
servoj([-0.04908738521234035, -1.5278448647340985, -1.6091458449580565, -1.4419419406125027, 1.714990520856147, 2.9206994201342606], 0.5, 0.5, 0.008, 0.2, 100)

2025-07-07 17:05:34,806 - gym_custom_envs_real_ur_drivers_URBasic_realTimeClientEvent - INFO - Program send to Robot:
servoj([-0.04908738521234035, -1.5293635057141055, -1.6091458464766975, -1.4419419406125027, 1.714990520856147, 2.9206994201342606], 0.5, 0.5, 0.008, 0.2, 100)

2025-07-07 17:05:34,814 - gym_custom_envs_real_ur_drivers_URBasic_realTimeClientEvent - INFO - Program send to Robot:
servoj([-0.04908738521234035, -1.5293786921239056, -1.6091458464918837, -1.4419419406125027, 1.714990520856147, 2.9206994201342606], 0.5, 0.5, 0.008, 0.2, 100)

2025-07-07 17:05:34,820 - gym_custom_envs_real_ur_drivers_URBasic_realTimeClientEvent - INFO - Program send to Robot:
servoj([-0.04908738521234035, -1.5293788439880036, -1.6091458464920356, -1.4419419406125027, 1.714990520856147, 2.9206994201342606], 0.5, 0.5, 0.008, 0.2, 100)

2025-07-07 17:05:34,837 - gym_custom_envs_real_ur_drivers_URBasic_realTimeClientEvent - INFO - Program send to Robot:
servoj([-0.04908738521234035, -1.5293788455066446, -1.6091458464920372, -1.4419419406125027, 1.714990520856147, 2.9206994201342606], 0.5, 0.5, 0.008, 0.2, 100)

2025-07-07 17:05:34,844 - gym_custom_envs_real_ur_drivers_URBasic_realTimeClientEvent - INFO - Program send to Robot:
servoj([-0.04908738521234035, -1.5293788455218311, -1.6091458464920372, -1.4419419406125027, 1.714990520856147, 2.9206994201342606], 0.5, 0.5, 0.008, 0.2, 100)

2025-07-07 17:05:34,852 - gym_custom_envs_real_ur_drivers_URBasic_realTimeClientEvent - INFO - Program send to Robot:
servoj([-0.04908738521234035, -1.5293788455219828, -1.6091458464920372, -1.4419419406125027, 1.714990520856147, 2.9206994201342606], 0.5, 0.5, 0.008, 0.2, 100)

2025-07-07 17:05:34,860 - gym_custom_envs_real_ur_drivers_URBasic_realTimeClientEvent - INFO - Program send to Robot:
servoj([-0.04908738521234035, -1.5293788455219843, -1.6091458464920372, -1.4419419406125027, 1.714990520856147, 2.9206994201342606], 0.5, 0.5, 0.008, 0.2, 100)

2025-07-07 17:05:34,876 - gym_custom_envs_real_ur_drivers_URBasic_realTimeClientEvent - INFO - Program send to Robot:
servoj([-0.04756874423233384, -1.5293788455219843, -1.6091458464920372, -1.4419419406125027, 1.714990520856147, 2.9206994201342606], 0.5, 0.5, 0.008, 0.2, 100)

2025-07-07 17:05:34,884 - gym_custom_envs_real_ur_drivers_URBasic_realTimeClientEvent - INFO - Program send to Robot:
servoj([-0.04755355782253378, -1.5293788455219843, -1.6091458464920372, -1.4419419406125027, 1.714990520856147, 2.9206994201342606], 0.5, 0.5, 0.008, 0.2, 100)

2025-07-07 17:05:34,892 - gym_custom_envs_real_ur_drivers_URBasic_realTimeClientEvent - INFO - Program send to Robot:
servoj([-0.047553405958435775, -1.5293788455219843, -1.6091458464920372, -1.4419419406125027, 1.714990520856147, 2.9206994201342606], 0.5, 0.5, 0.008, 0.2, 100)

2025-07-07 17:05:34,900 - gym_custom_envs_real_ur_drivers_URBasic_realTimeClientEvent - INFO - Program send to Robot:
servoj([-0.0475534044397948, -1.530897486501991, -1.607627205512031, -1.4419419406125027, 1.714990520856147, 2.9206994201342606], 0.5, 0.5, 0.008, 0.2, 100)

2025-07-07 17:05:34,916 - gym_custom_envs_real_ur_drivers_URBasic_realTimeClientEvent - INFO - Program send to Robot:
servoj([-0.04755340442460839, -1.5309126729117912, -1.6076120191022312, -1.4419419406125027, 1.714990520856147, 2.9206994201342606], 0.5, 0.5, 0.008, 0.2, 100)

2025-07-07 17:05:34,925 - gym_custom_envs_real_ur_drivers_URBasic_realTimeClientEvent - INFO - Program send to Robot:
servoj([-0.047553404424456526, -1.5309128247758892, -1.607611867238133, -1.4419419406125027, 1.714990520856147, 2.9206994201342606], 0.5, 0.5, 0.008, 0.2, 100)

2025-07-07 17:05:34,934 - gym_custom_envs_real_ur_drivers_URBasic_realTimeClientEvent - INFO - Program send to Robot:
servoj([-0.047553404424455006, -1.5309128262945302, -1.607611865719492, -1.4419419406125027, 1.7165091618361539, 2.9206994201342606], 0.5, 0.5, 0.008, 0.2, 100)

2025-07-07 17:05:34,950 - gym_custom_envs_real_ur_drivers_URBasic_realTimeClientEvent - INFO - Program send to Robot:
servoj([-0.04755340442445499, -1.5309128263097167, -1.6076118657043057, -1.4419419406125027, 1.716524348245954, 2.9206994201342606], 0.5, 0.5, 0.008, 0.2, 100)

2025-07-07 17:05:34,958 - gym_custom_envs_real_ur_drivers_URBasic_realTimeClientEvent - INFO - Program send to Robot:
servoj([-0.04755340442445499, -1.5309128263098686, -1.6076118657041538, -1.4419419406125027, 1.716524500110052, 2.9206994201342606], 0.5, 0.5, 0.008, 0.2, 100)

2025-07-07 17:05:34,965 - gym_custom_envs_real_ur_drivers_URBasic_realTimeClientEvent - INFO - Program send to Robot:
servoj([-0.04755340442445499, -1.53091282630987, -1.6076118657041523, -1.4419419406125027, 1.716524501628693, 2.9206994201342606], 0.5, 0.5, 0.008, 0.2, 100)

2025-07-07 17:05:34,982 - gym_custom_envs_real_ur_drivers_URBasic_realTimeClientEvent - INFO - Program send to Robot:
servoj([-0.04755340442445499, -1.53091282630987, -1.6076118657041523, -1.4419419406125027, 1.7165245016438793, 2.9206994201342606], 0.5, 0.5, 0.008, 0.2, 100)

2025-07-07 17:05:34,988 - gym_custom_envs_real_ur_drivers_URBasic_realTimeClientEvent - INFO - Program send to Robot:
servoj([-0.04755340442445499, -1.53091282630987, -1.6076118657041523, -1.4419419406125027, 1.7165245016440311, 2.9206994201342606], 0.5, 0.5, 0.008, 0.2, 100)

2025-07-07 17:05:34,997 - gym_custom_envs_real_ur_drivers_URBasic_realTimeClientEvent - INFO - Program send to Robot:
servoj([-0.04755340442445499, -1.53091282630987, -1.6076118657041523, -1.4419419406125027, 1.7165245016440327, 2.9206994201342606], 0.5, 0.5, 0.008, 0.2, 100)

2025-07-07 17:05:35,013 - gym_custom_envs_real_ur_drivers_URBasic_realTimeClientEvent - INFO - Program send to Robot:
servoj([-0.04755340442445499, -1.53091282630987, -1.6076118657041523, -1.4419419406125027, 1.7165245016440327, 2.9206994201342606], 0.5, 0.5, 0.008, 0.2, 100)

2025-07-07 17:05:35,021 - gym_custom_envs_real_ur_drivers_URBasic_realTimeClientEvent - INFO - Program send to Robot:
servoj([-0.04755340442445499, -1.53091282630987, -1.6076118657041523, -1.4419419406125027, 1.7165245016440327, 2.9206994201342606], 0.5, 0.5, 0.008, 0.2, 100)

2025-07-07 17:05:35,029 - gym_custom_envs_real_ur_drivers_URBasic_realTimeClientEvent - INFO - Program send to Robot:
servoj([-0.04755340442445499, -1.53091282630987, -1.6076118657041523, -1.4419419406125027, 1.7165245016440327, 2.9206994201342606], 0.5, 0.5, 0.008, 0.2, 100)

2025-07-07 17:05:35,036 - gym_custom_envs_real_ur_drivers_URBasic_realTimeClientEvent - INFO - Program send to Robot:
servoj([-0.04755340442445499, -1.53091282630987, -1.6076118657041523, -1.4419419406125027, 1.7165245016440327, 2.9206994201342606], 0.5, 0.5, 0.008, 0.2, 100)

2025-07-07 17:05:35,054 - gym_custom_envs_real_ur_drivers_URBasic_realTimeClientEvent - INFO - Program send to Robot:
servoj([-0.04755340442445499, -1.53091282630987, -1.6076118657041523, -1.4419419406125027, 1.7165245016440327, 2.9206994201342606], 0.5, 0.5, 0.008, 0.2, 100)

2025-07-07 17:05:35,060 - gym_custom_envs_real_ur_drivers_URBasic_realTimeClientEvent - INFO - Program send to Robot:
servoj([-0.04755340442445499, -1.53091282630987, -1.6076118657041523, -1.4419419406125027, 1.7165245016440327, 2.9206994201342606], 0.5, 0.5, 0.008, 0.2, 100)

2025-07-07 17:05:35,070 - gym_custom_envs_real_ur_drivers_URBasic_realTimeClientEvent - INFO - Program send to Robot:
servoj([-0.04755340442445499, -1.53091282630987, -1.6076118657041523, -1.4419419406125027, 1.7165245016440327, 2.9206994201342606], 0.5, 0.5, 0.008, 0.2, 100)

2025-07-07 17:05:35,084 - gym_custom_envs_real_ur_drivers_URBasic_realTimeClientEvent - INFO - Program send to Robot:
servoj([-0.04755340442445499, -1.53091282630987, -1.6076118657041523, -1.4419419406125027, 1.7165245016440327, 2.9206994201342606], 0.5, 0.5, 0.008, 0.2, 100)

2025-07-07 17:05:35,093 - gym_custom_envs_real_ur_drivers_URBasic_realTimeClientEvent - INFO - Program send to Robot:
servoj([-0.04755340442445499, -1.53091282630987, -1.6076118657041523, -1.4419419406125027, 1.7165245016440327, 2.9206994201342606], 0.5, 0.5, 0.008, 0.2, 100)

2025-07-07 17:05:35,101 - gym_custom_envs_real_ur_drivers_URBasic_realTimeClientEvent - INFO - Program send to Robot:
servoj([-0.04755340442445499, -1.53091282630987, -1.6076118657041523, -1.4419419406125027, 1.7165245016440327, 2.9206994201342606], 0.5, 0.5, 0.008, 0.2, 100)

2025-07-07 17:05:35,107 - gym_custom_envs_real_ur_drivers_URBasic_realTimeClientEvent - INFO - Program send to Robot:
servoj([-0.04755340442445499, -1.53091282630987, -1.6076118657041523, -1.4419419406125027, 1.7165245016440327, 2.9206994201342606], 0.5, 0.5, 0.008, 0.2, 100)

2025-07-07 17:05:35,124 - gym_custom_envs_real_ur_drivers_URBasic_realTimeClientEvent - INFO - Program send to Robot:
servoj([-0.04755340442445499, -1.53091282630987, -1.6076118657041523, -1.4419419406125027, 1.7165245016440327, 2.9206994201342606], 0.5, 0.5, 0.008, 0.2, 100)

2025-07-07 17:05:35,133 - gym_custom_envs_real_ur_drivers_URBasic_realTimeClientEvent - INFO - Program send to Robot:
servoj([-0.04755340442445499, -1.53091282630987, -1.6076118657041523, -1.4419419406125027, 1.7165245016440327, 2.9206994201342606], 0.5, 0.5, 0.008, 0.2, 100)

2025-07-07 17:05:35,150 - gym_custom_envs_real_ur_drivers_URBasic_realTimeClientEvent - INFO - Program send to Robot:
servoj([-0.04755340442445499, -1.53091282630987, -1.6076118657041523, -1.4419419406125027, 1.7165245016440327, 2.9206994201342606], 0.5, 0.5, 0.008, 0.2, 100)

2025-07-07 17:05:35,158 - gym_custom_envs_real_ur_drivers_URBasic_realTimeClientEvent - INFO - Program send to Robot:
servoj([-0.04755340442445499, -1.53091282630987, -1.6076118657041523, -1.4419419406125027, 1.7165245016440327, 2.9206994201342606], 0.5, 0.5, 0.008, 0.2, 100)

2025-07-07 17:05:35,174 - gym_custom_envs_real_ur_drivers_URBasic_realTimeClientEvent - INFO - Program send to Robot:
servoj([-0.04755340442445499, -1.53091282630987, -1.6076118657041523, -1.4419419406125027, 1.7165245016440327, 2.9206994201342606], 0.5, 0.5, 0.008, 0.2, 100)

2025-07-07 17:05:35,180 - gym_custom_envs_real_ur_drivers_URBasic_realTimeClientEvent - INFO - Program send to Robot:
servoj([-0.04755340442445499, -1.53091282630987, -1.6076118657041523, -1.4419419406125027, 1.7165245016440327, 2.9206994201342606], 0.5, 0.5, 0.008, 0.2, 100)

2025-07-07 17:05:35,189 - gym_custom_envs_real_ur_drivers_URBasic_realTimeClientEvent - INFO - Program send to Robot:
servoj([-0.04755340442445499, -1.53091282630987, -1.6076118657041523, -1.4419419406125027, 1.7165245016440327, 2.9206994201342606], 0.5, 0.5, 0.008, 0.2, 100)

2025-07-07 17:05:35,204 - gym_custom_envs_real_ur_drivers_URBasic_realTimeClientEvent - INFO - Program send to Robot:
servoj([-0.04755340442445499, -1.53091282630987, -1.6076118657041523, -1.4419419406125027, 1.7165245016440327, 2.9206994201342606], 0.5, 0.5, 0.008, 0.2, 100)

2025-07-07 17:05:35,213 - gym_custom_envs_real_ur_drivers_URBasic_realTimeClientEvent - INFO - Program send to Robot:
servoj([-0.04755340442445499, -1.53091282630987, -1.6076118657041523, -1.4419419406125027, 1.7165245016440327, 2.9206994201342606], 0.5, 0.5, 0.008, 0.2, 100)

2025-07-07 17:05:35,221 - gym_custom_envs_real_ur_drivers_URBasic_realTimeClientEvent - INFO - Program send to Robot:
servoj([-0.04755340442445499, -1.53091282630987, -1.6076118657041523, -1.4419419406125027, 1.7165245016440327, 2.9206994201342606], 0.5, 0.5, 0.008, 0.2, 100)

2025-07-07 17:05:35,228 - gym_custom_envs_real_ur_drivers_URBasic_realTimeClientEvent - INFO - Program send to Robot:
servoj([-0.04755340442445499, -1.53091282630987, -1.6076118657041523, -1.4419419406125027, 1.7165245016440327, 2.9206994201342606], 0.5, 0.5, 0.008, 0.2, 100)

2025-07-07 17:05:35,246 - gym_custom_envs_real_ur_drivers_URBasic_realTimeClientEvent - INFO - Program send to Robot:
servoj([-0.04755340442445499, -1.53091282630987, -1.6076118657041523, -1.4419419406125027, 1.7165245016440327, 2.9206994201342606], 0.5, 0.5, 0.008, 0.2, 100)

2025-07-07 17:05:35,252 - gym_custom_envs_real_ur_drivers_URBasic_realTimeClientEvent - INFO - Program send to Robot:
servoj([-0.04755340442445499, -1.53091282630987, -1.6076118657041523, -1.4419419406125027, 1.7165245016440327, 2.9206994201342606], 0.5, 0.5, 0.008, 0.2, 100)

2025-07-07 17:05:35,261 - gym_custom_envs_real_ur_drivers_URBasic_realTimeClientEvent - INFO - Program send to Robot:
servoj([-0.04755340442445499, -1.53091282630987, -1.6076118657041523, -1.4419419406125027, 1.7165245016440327, 2.9206994201342606], 0.5, 0.5, 0.008, 0.2, 100)

2025-07-07 17:05:35,276 - gym_custom_envs_real_ur_drivers_URBasic_realTimeClientEvent - INFO - Program send to Robot:
servoj([-0.04755340442445499, -1.53091282630987, -1.6076118657041523, -1.4419419406125027, 1.7165245016440327, 2.9206994201342606], 0.5, 0.5, 0.008, 0.2, 100)

2025-07-07 17:05:35,285 - gym_custom_envs_real_ur_drivers_URBasic_realTimeClientEvent - INFO - Program send to Robot:
servoj([-0.04755340442445499, -1.53091282630987, -1.6076118657041523, -1.4419419406125027, 1.7165245016440327, 2.9206994201342606], 0.5, 0.5, 0.008, 0.2, 100)

2025-07-07 17:05:35,294 - gym_custom_envs_real_ur_drivers_URBasic_realTimeClientEvent - INFO - Program send to Robot:
servoj([-0.04755340442445499, -1.53091282630987, -1.6076118657041523, -1.4419419406125027, 1.7165245016440327, 2.9206994201342606], 0.5, 0.5, 0.008, 0.2, 100)

2025-07-07 17:05:35,299 - gym_custom_envs_real_ur_drivers_URBasic_realTimeClientEvent - INFO - Program send to Robot:
servoj([-0.04755340442445499, -1.53091282630987, -1.6076118657041523, -1.4419419406125027, 1.7165245016440327, 2.9206994201342606], 0.5, 0.5, 0.008, 0.2, 100)

2025-07-07 17:05:35,319 - gym_custom_envs_real_ur_drivers_URBasic_realTimeClientEvent - INFO - Program send to Robot:
servoj([-0.04755340442445499, -1.53091282630987, -1.6076118657041523, -1.4419419406125027, 1.7165245016440327, 2.9206994201342606], 0.5, 0.5, 0.008, 0.2, 100)

2025-07-07 17:05:35,324 - gym_custom_envs_real_ur_drivers_URBasic_realTimeClientEvent - INFO - Program send to Robot:
servoj([-0.04755340442445499, -1.53091282630987, -1.6076118657041523, -1.4419419406125027, 1.7165245016440327, 2.9206994201342606], 0.5, 0.5, 0.008, 0.2, 100)

2025-07-07 17:05:35,336 - gym_custom_envs_real_ur_drivers_URBasic_realTimeClientEvent - INFO - Program send to Robot:
servoj([-0.04755340442445499, -1.53091282630987, -1.6076118657041523, -1.4419419406125027, 1.7165245016440327, 2.9206994201342606], 0.5, 0.5, 0.008, 0.2, 100)

2025-07-07 17:05:35,348 - gym_custom_envs_real_ur_drivers_URBasic_realTimeClientEvent - INFO - Program send to Robot:
servoj([-0.04755340442445499, -1.53091282630987, -1.6076118657041523, -1.4419419406125027, 1.7165245016440327, 2.9222180611142674], 0.5, 0.5, 0.008, 0.2, 100)

2025-07-07 17:05:35,359 - gym_custom_envs_real_ur_drivers_URBasic_realTimeClientEvent - INFO - Program send to Robot:
servoj([-0.04755340442445499, -1.53091282630987, -1.6076118657041523, -1.4419419406125027, 1.7165245016440327, 2.9222332475240678], 0.5, 0.5, 0.008, 0.2, 100)

2025-07-07 17:05:35,367 - gym_custom_envs_real_ur_drivers_URBasic_realTimeClientEvent - INFO - Program send to Robot:
servoj([-0.04755340442445499, -1.53091282630987, -1.6076118657041523, -1.4419419406125027, 1.7165245016440327, 2.9222333993881655], 0.5, 0.5, 0.008, 0.2, 100)

2025-07-07 17:05:35,372 - gym_custom_envs_real_ur_drivers_URBasic_realTimeClientEvent - INFO - Program send to Robot:
servoj([-0.04755340442445499, -1.53091282630987, -1.6076118657041523, -1.4419419406125027, 1.7165245016440327, 2.9222334009068067], 0.5, 0.5, 0.008, 0.2, 100)

2025-07-07 17:05:35,388 - gym_custom_envs_real_ur_drivers_URBasic_realTimeClientEvent - INFO - Program send to Robot:
servoj([-0.04755340442445499, -1.53091282630987, -1.6091305066841584, -1.4419419406125027, 1.7165245016440327, 2.9222334009219932], 0.5, 0.5, 0.008, 0.2, 100)

2025-07-07 17:05:35,395 - gym_custom_envs_real_ur_drivers_URBasic_realTimeClientEvent - INFO - Program send to Robot:
servoj([-0.04755340442445499, -1.53091282630987, -1.6091456930939585, -1.4419419406125027, 1.7165245016440327, 2.922233400922145], 0.5, 0.5, 0.008, 0.2, 100)

2025-07-07 17:05:35,407 - gym_custom_envs_real_ur_drivers_URBasic_realTimeClientEvent - INFO - Program send to Robot:
servoj([-0.04603476344444805, -1.53091282630987, -1.6091458449580565, -1.4419419406125027, 1.7165245016440327, 2.9222334009221465], 0.5, 0.5, 0.008, 0.2, 100)

2025-07-07 17:05:35,420 - gym_custom_envs_real_ur_drivers_URBasic_realTimeClientEvent - INFO - Program send to Robot:
servoj([-0.04601957703464798, -1.53091282630987, -1.6091458464766975, -1.4419419406125027, 1.7165245016440327, 2.9222334009221465], 0.5, 0.5, 0.008, 0.2, 100)

2025-07-07 17:05:35,431 - gym_custom_envs_real_ur_drivers_URBasic_realTimeClientEvent - INFO - Program send to Robot:
servoj([-0.04601942517054997, -1.53091282630987, -1.6091458464918837, -1.4419419406125027, 1.7165245016440327, 2.9222334009221465], 0.5, 0.5, 0.008, 0.2, 100)

2025-07-07 17:05:35,440 - gym_custom_envs_real_ur_drivers_URBasic_realTimeClientEvent - INFO - Program send to Robot:
servoj([-0.04753806463191594, -1.53091282630987, -1.6091458464920356, -1.4419419406125027, 1.7165245016440327, 2.9222334009221465], 0.5, 0.5, 0.008, 0.2, 100)

2025-07-07 17:05:35,456 - gym_custom_envs_real_ur_drivers_URBasic_realTimeClientEvent - INFO - Program send to Robot:
servoj([-0.0475532510265296, -1.53091282630987, -1.6091458464920372, -1.4419419406125027, 1.7165245016440327, 2.9222334009221465], 0.5, 0.5, 0.008, 0.2, 100)

2025-07-07 17:05:35,460 - gym_custom_envs_real_ur_drivers_URBasic_realTimeClientEvent - INFO - Program send to Robot:
servoj([-0.047553402890475736, -1.53091282630987, -1.6091458464920372, -1.4419419406125027, 1.7165245016440327, 2.9222334009221465], 0.5, 0.5, 0.008, 0.2, 100)

2025-07-07 17:05:35,480 - gym_custom_envs_real_ur_drivers_URBasic_realTimeClientEvent - INFO - Program send to Robot:
servoj([-0.0475534044091152, -1.53091282630987, -1.6091458464920372, -1.4434605815925095, 1.7165245016440327, 2.9222334009221465], 0.5, 0.5, 0.008, 0.2, 100)

2025-07-07 17:05:35,484 - gym_custom_envs_real_ur_drivers_URBasic_realTimeClientEvent - INFO - Program send to Robot:
servoj([-0.047553404424301594, -1.53091282630987, -1.6091458464920372, -1.4434757680023094, 1.7165245016440327, 2.9222334009221465], 0.5, 0.5, 0.008, 0.2, 100)

2025-07-07 17:05:35,503 - gym_custom_envs_real_ur_drivers_URBasic_realTimeClientEvent - INFO - Program send to Robot:
servoj([-0.04755340442445346, -1.53091282630987, -1.6106644874720442, -1.4419572788864006, 1.7165245016440327, 2.9222334009221465], 0.5, 0.5, 0.008, 0.2, 100)

2025-07-07 17:05:35,508 - gym_custom_envs_real_ur_drivers_URBasic_realTimeClientEvent - INFO - Program send to Robot:
servoj([-0.04755340442445498, -1.53091282630987, -1.6106796738818443, -1.4419420939952416, 1.7165245016440327, 2.9222334009221465], 0.5, 0.5, 0.008, 0.2, 100)

2025-07-07 17:05:35,516 - gym_custom_envs_real_ur_drivers_URBasic_realTimeClientEvent - INFO - Program send to Robot:
servoj([-0.04755340442445499, -1.53091282630987, -1.6106798257459423, -1.44194194214633, 1.7165245016440327, 2.9222334009221465], 0.5, 0.5, 0.008, 0.2, 100)

2025-07-07 17:05:35,535 - gym_custom_envs_real_ur_drivers_URBasic_realTimeClientEvent - INFO - Program send to Robot:
servoj([-0.04603476344444805, -1.53091282630987, -1.6106798272645833, -1.4419419406278409, 1.7165245016440327, 2.9222334009221465], 0.5, 0.5, 0.008, 0.2, 100)

2025-07-07 17:05:35,540 - gym_custom_envs_real_ur_drivers_URBasic_realTimeClientEvent - INFO - Program send to Robot:
servoj([-0.04601957703464798, -1.53091282630987, -1.6106798272797698, -1.441941940612656, 1.7165245016440327, 2.9222334009221465], 0.5, 0.5, 0.008, 0.2, 100)

2025-07-07 17:05:35,551 - gym_custom_envs_real_ur_drivers_URBasic_realTimeClientEvent - INFO - Program send to Robot:
servoj([-0.04601942517054997, -1.53091282630987, -1.6106798272799216, -1.4419419406125042, 1.7165245016440327, 2.9222334009221465], 0.5, 0.5, 0.008, 0.2, 100)

2025-07-07 17:05:35,564 - gym_custom_envs_real_ur_drivers_URBasic_realTimeClientEvent - INFO - Program send to Robot:
servoj([-0.046019423651908996, -1.53091282630987, -1.610679827279923, -1.4419419406125027, 1.7165245016440327, 2.9222334009221465], 0.5, 0.5, 0.008, 0.2, 100)

2025-07-07 17:05:35,576 - gym_custom_envs_real_ur_drivers_URBasic_realTimeClientEvent - INFO - Program send to Robot:
servoj([-0.04450078265671565, -1.53091282630987, -1.610679827279923, -1.4419419406125027, 1.7165245016440327, 2.9222334009221465], 0.5, 0.5, 0.008, 0.2, 100)

2025-07-07 17:05:35,580 - gym_custom_envs_real_ur_drivers_URBasic_realTimeClientEvent - INFO - Program send to Robot:
servoj([-0.044485596246763716, -1.53091282630987, -1.610679827279923, -1.4419419406125027, 1.7165245016440327, 2.9222334009221465], 0.5, 0.5, 0.008, 0.2, 100)

2025-07-07 17:05:35,600 - gym_custom_envs_real_ur_drivers_URBasic_realTimeClientEvent - INFO - Program send to Robot:
servoj([-0.04144816242265074, -1.53091282630987, -1.6121984682599297, -1.4419419406125027, 1.7180431426240397, 2.9222334009221465], 0.5, 0.5, 0.008, 0.2, 100)

2025-07-07 17:05:35,604 - gym_custom_envs_real_ur_drivers_URBasic_realTimeClientEvent - INFO - Program send to Robot:
servoj([-0.04141778808440961, -1.53091282630987, -1.6122136546697299, -1.4419419406125027, 1.7180583290338398, 2.9222334009221465], 0.5, 0.5, 0.008, 0.2, 100)

2025-07-07 17:05:35,623 - gym_custom_envs_real_ur_drivers_URBasic_realTimeClientEvent - INFO - Program send to Robot:
servoj([-0.0414174843410272, -1.53091282630987, -1.6122138065338278, -1.4419419406125027, 1.7180584808979378, 2.9222334009221465], 0.5, 0.5, 0.008, 0.2, 100)

2025-07-07 17:05:35,628 - gym_custom_envs_real_ur_drivers_URBasic_realTimeClientEvent - INFO - Program send to Robot:
servoj([-0.04141748130359338, -1.53091282630987, -1.6122138080524688, -1.4419419406125027, 1.7180584824165788, 2.9222334009221465], 0.5, 0.5, 0.008, 0.2, 100)

2025-07-07 17:05:35,647 - gym_custom_envs_real_ur_drivers_URBasic_realTimeClientEvent - INFO - Program send to Robot:
servoj([-0.03534291735319214, -1.53091282630987, -1.6137324490476623, -1.4419419406125027, 1.718058482431765, 2.9222334009221465], 0.5, 0.5, 0.008, 0.2, 100)

2025-07-07 17:05:35,655 - gym_custom_envs_real_ur_drivers_URBasic_realTimeClientEvent - INFO - Program send to Robot:
servoj([-0.035282171713688124, -1.53091282630987, -1.6137476354576141, -1.4419419406125027, 1.718058482431917, 2.9222334009221465], 0.5, 0.5, 0.008, 0.2, 100)

2025-07-07 17:05:35,661 - gym_custom_envs_real_ur_drivers_URBasic_realTimeClientEvent - INFO - Program send to Robot:
servoj([-0.035281564257293084, -1.53091282630987, -1.6137477873217136, -1.4419419406125027, 1.7180584824319185, 2.9222334009221465], 0.5, 0.5, 0.008, 0.2, 100)

2025-07-07 17:05:35,676 - gym_custom_envs_real_ur_drivers_URBasic_realTimeClientEvent - INFO - Program send to Robot:
servoj([-0.027688353282694856, -1.53091282630987, -1.6167850708003686, -1.4419419406125027, 1.7180584824319185, 2.9222334009221465], 0.5, 0.5, 0.008, 0.2, 100)

2025-07-07 17:05:35,684 - gym_custom_envs_real_ur_drivers_URBasic_realTimeClientEvent - INFO - Program send to Robot:
servoj([-0.027612421172948872, -1.53091282630987, -1.6168154436351552, -1.4419419406125027, 1.7180584824319185, 2.9222334009221465], 0.5, 0.5, 0.008, 0.2, 100)

2025-07-07 17:05:35,695 - gym_custom_envs_real_ur_drivers_URBasic_realTimeClientEvent - INFO - Program send to Robot:
servoj([-0.018499815971811065, -1.53091282630987, -1.6183343883435093, -1.4419419406125027, 1.7180584824319185, 2.9222334009221465], 0.5, 0.5, 0.008, 0.2, 100)

2025-07-07 17:05:35,708 - gym_custom_envs_real_ur_drivers_URBasic_realTimeClientEvent - INFO - Program send to Robot:
servoj([-0.018408689919799687, -1.53091282630987, -1.6183495777905927, -1.4419419406125027, 1.7180584824319185, 2.9222334009221465], 0.5, 0.5, 0.008, 0.2, 100)

2025-07-07 17:05:35,720 - gym_custom_envs_real_ur_drivers_URBasic_realTimeClientEvent - INFO - Program send to Robot:
servoj([-0.01840777865927957, -1.53091282630987, -1.6183497296850635, -1.4419419406125027, 1.7180584824319185, 2.9222334009221465], 0.5, 0.5, 0.008, 0.2, 100)

2025-07-07 17:05:35,724 - gym_custom_envs_real_ur_drivers_URBasic_realTimeClientEvent - INFO - Program send to Robot:
servoj([-0.01840776954667437, -1.53091282630987, -1.6183497312040083, -1.4419419406125027, 1.7180584824319185, 2.9222334009221465], 0.5, 0.5, 0.008, 0.2, 100)

2025-07-07 17:05:35,744 - gym_custom_envs_real_ur_drivers_URBasic_realTimeClientEvent - INFO - Program send to Robot:
servoj([-0.012333205535520982, -1.53091282630987, -1.6213870131792114, -1.4419419406125027, 1.7165398414519115, 2.9222334009221465], 0.5, 0.5, 0.008, 0.2, 100)

2025-07-07 17:05:35,748 - gym_custom_envs_real_ur_drivers_URBasic_realTimeClientEvent - INFO - Program send to Robot:
servoj([-0.012272459895409447, -1.53091282630987, -1.6214173859989636, -1.4419419406125027, 1.7165246550421114, 2.9222334009221465], 0.5, 0.5, 0.008, 0.2, 100)

2025-07-07 17:05:35,768 - gym_custom_envs_real_ur_drivers_URBasic_realTimeClientEvent - INFO - Program send to Robot:
servoj([-0.007715929498987938, -1.53091282630987, -1.622936330707168, -1.4419419406125027, 1.7165245031780134, 2.9222334009221465], 0.5, 0.5, 0.008, 0.2, 100)

2025-07-07 17:05:35,772 - gym_custom_envs_real_ur_drivers_URBasic_realTimeClientEvent - INFO - Program send to Robot:
servoj([-0.007670364195023722, -1.53091282630987, -1.62295152015425, -1.4419419406125027, 1.7165245016593724, 2.9222334009221465], 0.5, 0.5, 0.008, 0.2, 100)

2025-07-07 17:05:35,793 - gym_custom_envs_real_ur_drivers_URBasic_realTimeClientEvent - INFO - Program send to Robot:
servoj([-0.0046326265819706305, -1.53091282630987, -1.625988954008734, -1.4419419406125027, 1.7165245016441861, 2.923752041902153], 0.5, 0.5, 0.008, 0.2, 100)

2025-07-07 17:05:35,796 - gym_custom_envs_real_ur_drivers_URBasic_realTimeClientEvent - INFO - Program send to Robot:
servoj([-0.0046022492058401, -1.53091282630987, -1.6260193283472788, -1.4419419406125027, 1.7165245016440343, 2.923767228311953], 0.5, 0.5, 0.008, 0.2, 100)

2025-07-07 17:05:35,817 - gym_custom_envs_real_ur_drivers_URBasic_realTimeClientEvent - INFO - Program send to Robot:
servoj([-0.004601945432078794, -1.53091282630987, -1.6260196320906641, -1.4419419406125027, 1.7165245016440327, 2.9237673801760513], 0.5, 0.5, 0.008, 0.2, 100)

2025-07-07 17:05:35,820 - gym_custom_envs_real_ur_drivers_URBasic_realTimeClientEvent - INFO - Program send to Robot:
servoj([-0.004601942394341182, -1.53091282630987, -1.626019635128098, -1.4419419406125027, 1.7165245016440327, 2.923767381694692], 0.5, 0.5, 0.008, 0.2, 100)

2025-07-07 17:05:35,836 - gym_custom_envs_real_ur_drivers_URBasic_realTimeClientEvent - INFO - Program send to Robot:
servoj([-0.003083301383956861, -1.53091282630987, -1.6275382761384793, -1.4419419406125027, 1.7165245016440327, 2.9237673817098786], 0.5, 0.5, 0.008, 0.2, 100)

2025-07-07 17:05:35,844 - gym_custom_envs_real_ur_drivers_URBasic_realTimeClientEvent - INFO - Program send to Robot:
servoj([-0.0030681149738530176, -1.53091282630987, -1.6275534625485832, -1.4419419406125027, 1.7165245016440327, 2.9237673817100305], 0.5, 0.5, 0.008, 0.2, 100)

2025-07-07 17:05:35,860 - gym_custom_envs_real_ur_drivers_URBasic_realTimeClientEvent - INFO - Program send to Robot:
servoj([-0.003067963109751979, -1.5324314672898764, -1.6290722553926913, -1.4419419406125027, 1.7165245016440327, 2.9237673817100323], 0.5, 0.5, 0.008, 0.2, 100)

2025-07-07 17:05:35,868 - gym_custom_envs_real_ur_drivers_URBasic_realTimeClientEvent - INFO - Program send to Robot:
servoj([-0.003067961591110969, -1.5324466536996766, -1.6290874433211322, -1.4419419406125027, 1.7165245016440327, 2.9237673817100323], 0.5, 0.5, 0.008, 0.2, 100)

2025-07-07 17:05:35,876 - gym_custom_envs_real_ur_drivers_URBasic_realTimeClientEvent - INFO - Program send to Robot:
servoj([-0.003067961575924559, -1.5324468055637746, -1.6290875952004167, -1.4419419406125027, 1.7165245016440327, 2.9237673817100323], 0.5, 0.5, 0.008, 0.2, 100)

2025-07-07 17:05:35,892 - gym_custom_envs_real_ur_drivers_URBasic_realTimeClientEvent - INFO - Program send to Robot:
servoj([-0.0015493205957661902, -1.5324468070824155, -1.6306062376992165, -1.4419419406125027, 1.7165245016440327, 2.9237673817100323], 0.5, 0.5, 0.008, 0.2, 100)

2025-07-07 17:05:35,900 - gym_custom_envs_real_ur_drivers_URBasic_realTimeClientEvent - INFO - Program send to Robot:
servoj([-0.0015341341859646063, -1.532446807097602, -1.6306214241242045, -1.4419419406125027, 1.7165245016440327, 2.9237673817100323], 0.5, 0.5, 0.008, 0.2, 100)

2025-07-07 17:05:35,912 - gym_custom_envs_real_ur_drivers_URBasic_realTimeClientEvent - INFO - Program send to Robot:
servoj([-0.0015339823218665906, -1.532446807097754, -1.6306215759884544, -1.4419419406125027, 1.7165245016440327, 2.9237673817100323], 0.5, 0.5, 0.008, 0.2, 100)

2025-07-07 17:05:35,924 - gym_custom_envs_real_ur_drivers_URBasic_realTimeClientEvent - INFO - Program send to Robot:
servoj([-0.0015339808032256103, -1.5324468070977555, -1.6321402184871037, -1.4419419406125027, 1.7165245016440327, 2.925286022690039], 0.5, 0.5, 0.008, 0.2, 100)

2025-07-07 17:05:35,936 - gym_custom_envs_real_ur_drivers_URBasic_realTimeClientEvent - INFO - Program send to Robot:
servoj([-0.0015339807880392006, -1.5324468070977555, -1.63215540491209, -1.4419419406125027, 1.7165245016440327, 2.925301209099839], 0.5, 0.5, 0.008, 0.2, 100)

2025-07-07 17:05:35,940 - gym_custom_envs_real_ur_drivers_URBasic_realTimeClientEvent - INFO - Program send to Robot:
servoj([-0.0015339807878873364, -1.5324468070977555, -1.63215555677634, -1.4419419406125027, 1.7165245016440327, 2.925301360963937], 0.5, 0.5, 0.008, 0.2, 100)

2025-07-07 17:05:35,961 - gym_custom_envs_real_ur_drivers_URBasic_realTimeClientEvent - INFO - Program send to Robot:
servoj([-1.5339807878873377e-05, -1.5324468070977555, -1.6336741992749895, -1.4419419406125027, 1.7165245016440327, 2.925301362482578], 0.5, 0.5, 0.008, 0.2, 100)

2025-07-07 17:05:35,964 - gym_custom_envs_real_ur_drivers_URBasic_realTimeClientEvent - INFO - Program send to Robot:
servoj([-1.5339807878873392e-07, -1.5324468070977555, -1.633689385699976, -1.4419419406125027, 1.7165245016440327, 2.9253013624977644], 0.5, 0.5, 0.008, 0.2, 100)

2025-07-07 17:05:35,980 - gym_custom_envs_real_ur_drivers_URBasic_realTimeClientEvent - INFO - Program send to Robot:
servoj([-1.5339807878873405e-09, -1.5324468070977555, -1.633689537564226, -1.4419419406125027, 1.7165245016440327, 2.9253013624979163], 0.5, 0.5, 0.008, 0.2, 100)

2025-07-07 17:05:35,988 - gym_custom_envs_real_ur_drivers_URBasic_realTimeClientEvent - INFO - Program send to Robot:
servoj([-1.5339807878873417e-11, -1.5324468070977555, -1.6367268210428814, -1.4419419406125027, 1.7165245016440327, 2.9253013624979176], 0.5, 0.5, 0.008, 0.2, 100)

2025-07-07 17:05:35,996 - gym_custom_envs_real_ur_drivers_URBasic_realTimeClientEvent - INFO - Program send to Robot:
servoj([-1.533980787887343e-13, -1.5324468070977555, -1.636757193877668, -1.4419419406125027, 1.7165245016440327, 2.9253013624979176], 0.5, 0.5, 0.008, 0.2, 100)

2025-07-07 17:05:36,012 - gym_custom_envs_real_ur_drivers_URBasic_realTimeClientEvent - INFO - Program send to Robot:
servoj([-1.5339807878873443e-15, -1.5324468070977555, -1.6367574976060157, -1.4419419406125027, 1.7165245016440327, 2.9253013624979176], 0.5, 0.5, 0.008, 0.2, 100)

2025-07-07 17:05:36,020 - gym_custom_envs_real_ur_drivers_URBasic_realTimeClientEvent - INFO - Program send to Robot:
servoj([-1.5339807878873457e-17, -1.5324468070977555, -1.6397947826033132, -1.4419419406125027, 1.7165245016440327, 2.9253013624979176], 0.5, 0.5, 0.008, 0.2, 100)

2025-07-07 17:05:36,032 - gym_custom_envs_real_ur_drivers_URBasic_realTimeClientEvent - INFO - Program send to Robot:
servoj([-1.533980787887347e-19, -1.5324468070977555, -1.6398251554532863, -1.4419419406125027, 1.7165245016440327, 2.9253013624979176], 0.5, 0.5, 0.008, 0.2, 100)

2025-07-07 17:05:36,044 - gym_custom_envs_real_ur_drivers_URBasic_realTimeClientEvent - INFO - Program send to Robot:
servoj([-1.5339807878873484e-21, -1.5324468070977555, -1.639825459181786, -1.4419419406125027, 1.7165245016440327, 2.9253013624979176], 0.5, 0.5, 0.008, 0.2, 100)

2025-07-07 17:05:36,056 - gym_custom_envs_real_ur_drivers_URBasic_realTimeClientEvent - INFO - Program send to Robot:
servoj([-1.5339807878873497e-23, -1.5324468070977555, -1.6413441031990779, -1.4419419406125027, 1.7165245016440327, 2.9253013624979176], 0.5, 0.5, 0.008, 0.2, 100)

2025-07-07 17:05:36,060 - gym_custom_envs_real_ur_drivers_URBasic_realTimeClientEvent - INFO - Program send to Robot:
servoj([-1.533980787887351e-25, -1.5324468070977555, -1.6413592896392506, -1.4419419406125027, 1.7165245016440327, 2.9253013624979176], 0.5, 0.5, 0.008, 0.2, 100)

2025-07-07 17:05:36,080 - gym_custom_envs_real_ur_drivers_URBasic_realTimeClientEvent - INFO - Program send to Robot:
servoj([-1.5339807878873524e-27, -1.5324468070977555, -1.6459153644436724, -1.4419419406125027, 1.7165245016440327, 2.9253013624979176], 0.5, 0.5, 0.008, 0.2, 100)

2025-07-07 17:05:36,084 - gym_custom_envs_real_ur_drivers_URBasic_realTimeClientEvent - INFO - Program send to Robot:
servoj([-1.5339807878873537e-29, -1.5324468070977555, -1.6459609251917167, -1.4419419406125027, 1.7165245016440327, 2.9253013624979176], 0.5, 0.5, 0.008, 0.2, 100)

2025-07-07 17:05:36,105 - gym_custom_envs_real_ur_drivers_URBasic_realTimeClientEvent - INFO - Program send to Robot:
servoj([-1.533980787887355e-31, -1.5324468070977555, -1.645961380799197, -1.4419419406125027, 1.7165245016440327, 2.9253013624979176], 0.5, 0.5, 0.008, 0.2, 100)

2025-07-07 17:05:36,108 - gym_custom_envs_real_ur_drivers_URBasic_realTimeClientEvent - INFO - Program send to Robot:
servoj([-1.5339807878873563e-33, -1.5324468070977555, -1.645961385355272, -1.4419419406125027, 1.7165245016440327, 2.9253013624979176], 0.5, 0.5, 0.008, 0.2, 100)

2025-07-07 17:05:36,128 - gym_custom_envs_real_ur_drivers_URBasic_realTimeClientEvent - INFO - Program send to Robot:
servoj([-1.5339807878873578e-35, -1.5324468070977555, -1.6489986673608465, -1.4419419406125027, 1.7165245016440327, 2.9253013624979176], 0.5, 0.5, 0.008, 0.2, 100)

2025-07-07 17:05:36,132 - gym_custom_envs_real_ur_drivers_URBasic_realTimeClientEvent - INFO - Program send to Robot:
servoj([-1.533980787887359e-37, -1.5324468070977555, -1.6490290401809025, -1.4419419406125027, 1.7165245016440327, 2.9253013624979176], 0.5, 0.5, 0.008, 0.2, 100)

2025-07-07 17:05:36,151 - gym_custom_envs_real_ur_drivers_URBasic_realTimeClientEvent - INFO - Program send to Robot:
servoj([-1.5339807878873603e-39, -1.5324468070977555, -1.6520666258691157, -1.4419419406125027, 1.7150058606640257, 2.9253013624979176], 0.5, 0.5, 0.008, 0.2, 100)

2025-07-07 17:05:36,156 - gym_custom_envs_real_ur_drivers_URBasic_realTimeClientEvent - INFO - Program send to Robot:
servoj([-1.5339807878873616e-41, -1.5324468070977555, -1.652097001725998, -1.4419419406125027, 1.7149906742542256, 2.9253013624979176], 0.5, 0.5, 0.008, 0.2, 100)

2025-07-07 17:05:36,164 - gym_custom_envs_real_ur_drivers_URBasic_realTimeClientEvent - INFO - Program send to Robot:
servoj([-1.533980787887363e-43, -1.5324468070977555, -1.6520973054845667, -1.4419419406125027, 1.7149905223901276, 2.9253013624979176], 0.5, 0.5, 0.008, 0.2, 100)

2025-07-07 17:05:36,183 - gym_custom_envs_real_ur_drivers_URBasic_realTimeClientEvent - INFO - Program send to Robot:
servoj([-1.5339807878873642e-45, -1.5324468070977555, -1.6551345904821664, -1.4419419406125027, 1.7149905208714866, 2.9253013624979176], 0.5, 0.5, 0.008, 0.2, 100)

2025-07-07 17:05:36,188 - gym_custom_envs_real_ur_drivers_URBasic_realTimeClientEvent - INFO - Program send to Robot:
servoj([-1.5339807878873656e-47, -1.5324468070977555, -1.6551649633321424, -1.4419419406125027, 1.7149905208563003, 2.9253013624979176], 0.5, 0.5, 0.008, 0.2, 100)

2025-07-07 17:05:36,199 - gym_custom_envs_real_ur_drivers_URBasic_realTimeClientEvent - INFO - Program send to Robot:
servoj([-1.533980787887367e-49, -1.5324468070977555, -1.655165267060642, -1.4419419406125027, 1.7149905208561484, 2.9253013624979176], 0.5, 0.5, 0.008, 0.2, 100)

2025-07-07 17:05:36,211 - gym_custom_envs_real_ur_drivers_URBasic_realTimeClientEvent - INFO - Program send to Robot:
servoj([-1.5339807878873683e-51, -1.5324468070977555, -1.6612398340179542, -1.4419419406125027, 1.714990520856147, 2.9268200034779244], 0.5, 0.5, 0.008, 0.2, 100)

2025-07-07 17:05:36,223 - gym_custom_envs_real_ur_drivers_URBasic_realTimeClientEvent - INFO - Program send to Robot:
servoj([-1.5339807878873697e-53, -1.5324468070977555, -1.6613005796875273, -1.4419419406125027, 1.714990520856147, 2.9268351898877247], 0.5, 0.5, 0.008, 0.2, 100)

2025-07-07 17:05:36,232 - gym_custom_envs_real_ur_drivers_URBasic_realTimeClientEvent - INFO - Program send to Robot:
servoj([-1.533980787887371e-55, -1.5324468070977555, -1.661301187144223, -1.4419419406125027, 1.714990520856147, 2.9268353417518225], 0.5, 0.5, 0.008, 0.2, 100)

2025-07-07 17:05:36,236 - gym_custom_envs_real_ur_drivers_URBasic_realTimeClientEvent - INFO - Program send to Robot:
servoj([-1.5339807878873725e-57, -1.5324468070977555, -1.66130119321879, -1.4419419406125027, 1.714990520856147, 2.9268353432704637], 0.5, 0.5, 0.008, 0.2, 100)

2025-07-07 17:05:36,252 - gym_custom_envs_real_ur_drivers_URBasic_realTimeClientEvent - INFO - Program send to Robot:
servoj([-1.5339807878873738e-59, -1.5324468070977555, -1.6658571162195563, -1.4419419406125027, 1.714990520856147, 2.9268353432856498], 0.5, 0.5, 0.008, 0.2, 100)

2025-07-07 17:05:36,261 - gym_custom_envs_real_ur_drivers_URBasic_realTimeClientEvent - INFO - Program send to Robot:
servoj([-1.5339807878873752e-61, -1.5324468070977555, -1.665902675449564, -1.4419419406125027, 1.714990520856147, 2.9268353432858016], 0.5, 0.5, 0.008, 0.2, 100)

2025-07-07 17:05:36,272 - gym_custom_envs_real_ur_drivers_URBasic_realTimeClientEvent - INFO - Program send to Robot:
servoj([-1.5339807878873766e-63, -1.5324468070977555, -1.6704590539818842, -1.4419419406125027, 1.714990520856147, 2.92835398426581], 0.5, 0.5, 0.008, 0.2, 100)

2025-07-07 17:05:36,285 - gym_custom_envs_real_ur_drivers_URBasic_realTimeClientEvent - INFO - Program send to Robot:
servoj([-1.533980787887378e-65, -1.5324468070977555, -1.6705046177672074, -1.4419419406125027, 1.714990520856147, 2.92836917067561], 0.5, 0.5, 0.008, 0.2, 100)

2025-07-07 17:05:36,295 - gym_custom_envs_real_ur_drivers_URBasic_realTimeClientEvent - INFO - Program send to Robot:
servoj([-1.5339807878873794e-67, -1.5324468070977555, -1.6705050734050606, -1.4419419406125027, 1.714990520856147, 2.9283693225397083], 0.5, 0.5, 0.008, 0.2, 100)

2025-07-07 17:05:36,302 - gym_custom_envs_real_ur_drivers_URBasic_realTimeClientEvent - INFO - Program send to Robot:
servoj([-1.5339807878873807e-69, -1.5324468070977555, -1.6705050779614392, -1.4419419406125027, 1.714990520856147, 2.928369324058349], 0.5, 0.5, 0.008, 0.2, 100)

2025-07-07 17:05:36,308 - gym_custom_envs_real_ur_drivers_URBasic_realTimeClientEvent - INFO - Program send to Robot:
servoj([-1.533980787887382e-71, -1.5324468070977555, -1.6750610009470237, -1.4419419406125027, 1.714990520856147, 2.9283693240735356], 0.5, 0.5, 0.008, 0.2, 100)

2025-07-07 17:05:36,327 - gym_custom_envs_real_ur_drivers_URBasic_realTimeClientEvent - INFO - Program send to Robot:
servoj([-1.5339807878873834e-73, -1.5324468070977555, -1.6751065601768795, -1.4419419406125027, 1.714990520856147, 2.9283693240736874], 0.5, 0.5, 0.008, 0.2, 100)

2025-07-07 17:05:36,332 - gym_custom_envs_real_ur_drivers_URBasic_realTimeClientEvent - INFO - Program send to Robot:
servoj([-1.5339807878873847e-75, -1.5324468070977555, -1.675107015769178, -1.4419419406125027, 1.714990520856147, 2.9283693240736888], 0.5, 0.5, 0.008, 0.2, 100)

2025-07-07 17:05:36,342 - gym_custom_envs_real_ur_drivers_URBasic_realTimeClientEvent - INFO - Program send to Robot:
servoj([-1.5339807878873861e-77, -1.5324468070977555, -1.681181584245128, -1.4419419406125027, 1.711953238896133, 2.9298879650536955], 0.5, 0.5, 0.008, 0.2, 100)

2025-07-07 17:05:36,356 - gym_custom_envs_real_ur_drivers_URBasic_realTimeClientEvent - INFO - Program send to Robot:
servoj([-1.5339807878873875e-79, -1.5324468070977555, -1.6812423299298875, -1.4419419406125027, 1.7119228660765327, 2.929903151463496], 0.5, 0.5, 0.008, 0.2, 100)

2025-07-07 17:05:36,367 - gym_custom_envs_real_ur_drivers_URBasic_realTimeClientEvent - INFO - Program send to Robot:
servoj([-1.5339807878873889e-81, -1.5324468070977555, -1.685798860326755, -1.4419419406125027, 1.707366639408317, 2.9329405852876076], 0.5, 0.5, 0.008, 0.2, 100)

2025-07-07 17:05:36,371 - gym_custom_envs_real_ur_drivers_URBasic_realTimeClientEvent - INFO - Program send to Robot:
servoj([-1.5339807878873902e-83, -1.5324468070977555, -1.6858444256307237, -1.4419419406125027, 1.7073210771416347, 2.9329709596258486], 0.5, 0.5, 0.008, 0.2, 100)

2025-07-07 17:05:36,391 - gym_custom_envs_real_ur_drivers_URBasic_realTimeClientEvent - INFO - Program send to Robot:
servoj([-1.5339807878873917e-85, -1.5324468070977555, -1.6858448812837634, -1.4419419406125027, 1.707320621518968, 2.932971263369231], 0.5, 0.5, 0.008, 0.2, 100)

2025-07-07 17:05:36,399 - gym_custom_envs_real_ur_drivers_URBasic_realTimeClientEvent - INFO - Program send to Robot:
servoj([-1.533980787887393e-87, -1.5324468070977555, -1.6873635268203007, -1.4419419406125027, 1.6982087710827005, 2.9375271893466848], 0.5, 0.5, 0.008, 0.2, 100)

2025-07-07 17:05:36,404 - gym_custom_envs_real_ur_drivers_URBasic_realTimeClientEvent - INFO - Program send to Robot:
servoj([-1.5339807878873944e-89, -1.5324468070977555, -1.6873787132756661, -1.4419419406125027, 1.698117652578338, 2.9375727486064593], 0.5, 0.5, 0.008, 0.2, 100)

2025-07-07 17:05:36,423 - gym_custom_envs_real_ur_drivers_URBasic_realTimeClientEvent - INFO - Program send to Robot:
servoj([-1.5339807878873956e-91, -1.5324468070977555, -1.6873788651402197, -1.4419419406125027, 1.6981167413932943, 2.937573204199057], 0.5, 0.5, 0.008, 0.2, 100)

2025-07-07 17:05:36,427 - gym_custom_envs_real_ur_drivers_URBasic_realTimeClientEvent - INFO - Program send to Robot:
servoj([-1.533980787887397e-93, -1.5324468070977555, -1.6873788666588654, -1.4419419406125027, 1.6981167322814437, 2.937573208754983], 0.5, 0.5, 0.008, 0.2, 100)

2025-07-07 17:05:36,438 - gym_custom_envs_real_ur_drivers_URBasic_realTimeClientEvent - INFO - Program send to Robot:
servoj([0.0015186409800069444, -1.5324468070977555, -1.6888975076540587, -1.4419419406125027, 1.6905235272902914, 2.942129131740563], 0.5, 0.5, 0.008, 0.2, 100)

2025-07-07 17:05:36,452 - gym_custom_envs_real_ur_drivers_URBasic_realTimeClientEvent - INFO - Program send to Robot:
servoj([0.001533827389807014, -1.5324468070977555, -1.6889126940640107, -1.4419419406125027, 1.69044759524038, 2.9421746909704183], 0.5, 0.5, 0.008, 0.2, 100)

2025-07-07 17:05:36,462 - gym_custom_envs_real_ur_drivers_URBasic_realTimeClientEvent - INFO - Program send to Robot:
servoj([0.0015339792539050146, -1.5324468070977555, -1.6889128459281102, -1.4419419406125027, 1.6904468359198808, 2.942175146562717], 0.5, 0.5, 0.008, 0.2, 100)

2025-07-07 17:05:36,470 - gym_custom_envs_real_ur_drivers_URBasic_realTimeClientEvent - INFO - Program send to Robot:
servoj([0.0015339807725459945, -1.5324468070977555, -1.6889128474467512, -1.4419419406125027, 1.6843722644066488, 2.9467310740586607], 0.5, 0.5, 0.008, 0.2, 100)

2025-07-07 17:05:36,476 - gym_custom_envs_real_ur_drivers_URBasic_realTimeClientEvent - INFO - Program send to Robot:
servoj([0.0015339807877324044, -1.5324468070977555, -1.6889128474619375, -1.4419419406125027, 1.6843115186915165, 2.94677663333362], 0.5, 0.5, 0.008, 0.2, 100)

2025-07-07 17:05:36,495 - gym_custom_envs_real_ur_drivers_URBasic_realTimeClientEvent - INFO - Program send to Robot:
servoj([0.0030526217678907733, -1.5324468070977555, -1.6889128474620894, -1.4419419406125027, 1.6797549882943446, 2.95133301186639], 0.5, 0.5, 0.008, 0.2, 100)

2025-07-07 17:05:36,500 - gym_custom_envs_real_ur_drivers_URBasic_realTimeClientEvent - INFO - Program send to Robot:
servoj([0.003067808177692357, -1.5324468070977555, -1.688912847462091, -1.4419419406125027, 1.6797094229903726, 2.951378575651718], 0.5, 0.5, 0.008, 0.2, 100)

2025-07-07 17:05:36,511 - gym_custom_envs_real_ur_drivers_URBasic_realTimeClientEvent - INFO - Program send to Robot:
servoj([0.0030679600417903726, -1.5324468070977555, -1.688912847462091, -1.4419419406125027, 1.679708967337333, 2.951379031289571], 0.5, 0.5, 0.008, 0.2, 100)

2025-07-07 17:05:36,524 - gym_custom_envs_real_ur_drivers_URBasic_realTimeClientEvent - INFO - Program send to Robot:
servoj([0.003067961560431353, -1.5324468070977555, -1.688912847462091, -1.4419419406125027, 1.6797089627808026, 2.9513790358459495], 0.5, 0.5, 0.008, 0.2, 100)

2025-07-07 17:05:36,534 - gym_custom_envs_real_ur_drivers_URBasic_realTimeClientEvent - INFO - Program send to Robot:
servoj([0.004586602555624707, -1.5324468070977555, -1.688912847462091, -1.4419419406125027, 1.6766716807752233, 2.954416317851527], 0.5, 0.5, 0.008, 0.2, 100)

2025-07-07 17:05:36,542 - gym_custom_envs_real_ur_drivers_URBasic_realTimeClientEvent - INFO - Program send to Robot:
servoj([0.004601788965576641, -1.5324468070977555, -1.688912847462091, -1.4419419406125027, 1.6766413079551676, 2.9544466906715825], 0.5, 0.5, 0.008, 0.2, 100)

2025-07-07 17:05:36,557 - gym_custom_envs_real_ur_drivers_URBasic_realTimeClientEvent - INFO - Program send to Robot:
servoj([0.00460194082967616, -1.5324468070977555, -1.688912847462091, -1.4419419406125027, 1.676641004226967, 2.9544469943997833], 0.5, 0.5, 0.008, 0.2, 100)

2025-07-07 17:05:36,565 - gym_custom_envs_real_ur_drivers_URBasic_realTimeClientEvent - INFO - Program send to Robot:
servoj([0.006120583328324099, -1.5324468070977555, -1.688912847462091, -1.4419419406125027, 1.676641001189685, 2.9544469974370653], 0.5, 0.5, 0.008, 0.2, 100)

2025-07-07 17:05:36,573 - gym_custom_envs_real_ur_drivers_URBasic_realTimeClientEvent - INFO - Program send to Robot:
servoj([0.006135769753310579, -1.5324468070977555, -1.688912847462091, -1.4419419406125027, 1.6766410011593122, 2.954446997467438], 0.5, 0.5, 0.008, 0.2, 100)

2025-07-07 17:05:36,590 - gym_custom_envs_real_ur_drivers_URBasic_realTimeClientEvent - INFO - Program send to Robot:
servoj([0.006135921617560444, -1.5324468070977555, -1.688912847462091, -1.4419419406125027, 1.6766410011590085, 2.9544469974677416], 0.5, 0.5, 0.008, 0.2, 100)

2025-07-07 17:05:36,597 - gym_custom_envs_real_ur_drivers_URBasic_realTimeClientEvent - INFO - Program send to Robot:
servoj([0.006135923136202943, -1.5324468070977555, -1.687394206482084, -1.4419419406125027, 1.6766410011590054, 2.9544469974677448], 0.5, 0.5, 0.008, 0.2, 100)

2025-07-07 17:05:36,605 - gym_custom_envs_real_ur_drivers_URBasic_realTimeClientEvent - INFO - Program send to Robot:
servoj([0.006135923151389368, -1.5324468070977555, -1.687379020072284, -1.4419419406125027, 1.6766410011590054, 2.9544469974677448], 0.5, 0.5, 0.008, 0.2, 100)

2025-07-07 17:05:36,619 - gym_custom_envs_real_ur_drivers_URBasic_realTimeClientEvent - INFO - Program send to Robot:
servoj([0.0061359231515412315, -1.5324468070977555, -1.6873788682081858, -1.4419419406125027, 1.6766410011590054, 2.9544469974677448], 0.5, 0.5, 0.008, 0.2, 100)

2025-07-07 17:05:36,630 - gym_custom_envs_real_ur_drivers_URBasic_realTimeClientEvent - INFO - Program send to Robot:
servoj([0.00613592315154275, -1.5324468070977555, -1.6873788666895448, -1.4419419406125027, 1.6766410011590054, 2.9544469974677448], 0.5, 0.5, 0.008, 0.2, 100)

2025-07-07 17:05:36,638 - gym_custom_envs_real_ur_drivers_URBasic_realTimeClientEvent - INFO - Program send to Robot:
servoj([0.006135923151542766, -1.5324468070977555, -1.6873788666743585, -1.4419419406125027, 1.6766410011590054, 2.9544469974677448], 0.5, 0.5, 0.008, 0.2, 100)

2025-07-07 17:05:36,644 - gym_custom_envs_real_ur_drivers_URBasic_realTimeClientEvent - INFO - Program send to Robot:
servoj([0.006135923151542766, -1.5324468070977555, -1.6873788666742067, -1.4419419406125027, 1.6766410011590054, 2.9544469974677448], 0.5, 0.5, 0.008, 0.2, 100)

2025-07-07 17:05:36,661 - gym_custom_envs_real_ur_drivers_URBasic_realTimeClientEvent - INFO - Program send to Robot:
servoj([0.006135923151542766, -1.5324468070977555, -1.6873788666742051, -1.4419419406125027, 1.6751223601789993, 2.9544469974677448], 0.5, 0.5, 0.008, 0.2, 100)

2025-07-07 17:05:36,668 - gym_custom_envs_real_ur_drivers_URBasic_realTimeClientEvent - INFO - Program send to Robot:
servoj([0.006135923151542766, -1.5324468070977555, -1.6873788666742051, -1.4419419406125027, 1.6751071737691992, 2.9544469974677448], 0.5, 0.5, 0.008, 0.2, 100)

2025-07-07 17:05:36,676 - gym_custom_envs_real_ur_drivers_URBasic_realTimeClientEvent - INFO - Program send to Robot:
servoj([0.006135923151542766, -1.5324468070977555, -1.6873788666742051, -1.4419419406125027, 1.6751070219051012, 2.9544469974677448], 0.5, 0.5, 0.008, 0.2, 100)

2025-07-07 17:05:36,684 - gym_custom_envs_real_ur_drivers_URBasic_realTimeClientEvent - INFO - Program send to Robot:
servoj([0.006135923151542766, -1.5324468070977555, -1.6873788666742051, -1.4419419406125027, 1.6751070203864602, 2.9544469974677448], 0.5, 0.5, 0.008, 0.2, 100)

2025-07-07 17:05:36,700 - gym_custom_envs_real_ur_drivers_URBasic_realTimeClientEvent - INFO - Program send to Robot:
servoj([0.006135923151542766, -1.5324468070977555, -1.6873788666742051, -1.4434605815925095, 1.675107020371274, 2.9544469974677448], 0.5, 0.5, 0.008, 0.2, 100)

2025-07-07 17:05:36,708 - gym_custom_envs_real_ur_drivers_URBasic_realTimeClientEvent - INFO - Program send to Robot:
servoj([0.006135923151542766, -1.5324468070977555, -1.6873788666742051, -1.4434757680023094, 1.675107020371122, 2.9544469974677448], 0.5, 0.5, 0.008, 0.2, 100)

2025-07-07 17:05:36,715 - gym_custom_envs_real_ur_drivers_URBasic_realTimeClientEvent - INFO - Program send to Robot:
servoj([0.006135923151542766, -1.5324468070977555, -1.6873788666742051, -1.4434759198664073, 1.6751070203711205, 2.9544469974677448], 0.5, 0.5, 0.008, 0.2, 100)

2025-07-07 17:05:36,732 - gym_custom_envs_real_ur_drivers_URBasic_realTimeClientEvent - INFO - Program send to Robot:
servoj([0.0046172821715358215, -1.5324468070977555, -1.690416148634219, -1.4434759213850483, 1.6735883793911135, 2.9544469974677448], 0.5, 0.5, 0.008, 0.2, 100)

2025-07-07 17:05:36,741 - gym_custom_envs_real_ur_drivers_URBasic_realTimeClientEvent - INFO - Program send to Robot:
servoj([0.004602095761735752, -1.5324468070977555, -1.6904465214538191, -1.4434759214002348, 1.6735731929813134, 2.9544469974677448], 0.5, 0.5, 0.008, 0.2, 100)

2025-07-07 17:05:36,749 - gym_custom_envs_real_ur_drivers_URBasic_realTimeClientEvent - INFO - Program send to Robot:
servoj([0.004601943897637751, -1.5324468070977555, -1.6904468251820153, -1.4434759214003867, 1.6735730411172154, 2.9544469974677448], 0.5, 0.5, 0.008, 0.2, 100)

2025-07-07 17:05:36,764 - gym_custom_envs_real_ur_drivers_URBasic_realTimeClientEvent - INFO - Program send to Robot:
servoj([0.004601942378996771, -1.5324468070977555, -1.695002751159317, -1.4434759214003883, 1.6735730395985744, 2.9529283564877375], 0.5, 0.5, 0.008, 0.2, 100)

2025-07-07 17:05:36,772 - gym_custom_envs_real_ur_drivers_URBasic_realTimeClientEvent - INFO - Program send to Robot:
servoj([0.0046019423638103615, -1.5324468070977555, -1.69504831041909, -1.4434759214003883, 1.673573039583388, 2.9529131700779376], 0.5, 0.5, 0.008, 0.2, 100)

2025-07-07 17:05:36,780 - gym_custom_envs_real_ur_drivers_URBasic_realTimeClientEvent - INFO - Program send to Robot:
servoj([0.004601942363658497, -1.5324468070977555, -1.6950487660116877, -1.4434759214003883, 1.6735730395832362, 2.9529130182138394], 0.5, 0.5, 0.008, 0.2, 100)

2025-07-07 17:05:36,796 - gym_custom_envs_real_ur_drivers_URBasic_realTimeClientEvent - INFO - Program send to Robot:
servoj([0.003083301383650034, -1.5324468070977555, -1.6980860525276278, -1.4434759214003883, 1.6720543986032277, 2.9529130166951987], 0.5, 0.5, 0.008, 0.2, 100)

2025-07-07 17:05:36,804 - gym_custom_envs_real_ur_drivers_URBasic_realTimeClientEvent - INFO - Program send to Robot:
servoj([0.0030681149738499493, -1.5324468070977555, -1.6981164253927872, -1.4434759214003883, 1.6720392121934275, 2.952913016680012], 0.5, 0.5, 0.008, 0.2, 100)

2025-07-07 17:05:36,812 - gym_custom_envs_real_ur_drivers_URBasic_realTimeClientEvent - INFO - Program send to Robot:
servoj([0.003067963109751949, -1.5324468070977555, -1.6981167291214387, -1.4434759214003883, 1.6720390603293296, 2.9529130166798603], 0.5, 0.5, 0.008, 0.2, 100)

2025-07-07 17:05:36,820 - gym_custom_envs_real_ur_drivers_URBasic_realTimeClientEvent - INFO - Program send to Robot:
servoj([0.0030679615911109685, -1.5324468070977555, -1.7011540141187391, -1.4434759214003883, 1.6705204178306818, 2.954431657659866], 0.5, 0.5, 0.008, 0.2, 100)

2025-07-07 17:05:36,836 - gym_custom_envs_real_ur_drivers_URBasic_realTimeClientEvent - INFO - Program send to Robot:
servoj([0.003067961575924559, -1.5324468070977555, -1.7011843869687122, -1.4434759214003883, 1.6705052314056954, 2.954446844069666], 0.5, 0.5, 0.008, 0.2, 100)

2025-07-07 17:05:36,844 - gym_custom_envs_real_ur_drivers_URBasic_realTimeClientEvent - INFO - Program send to Robot:
servoj([0.003067961575772695, -1.5324468070977555, -1.701184690697212, -1.4434759214003883, 1.6705050795414456, 2.954446995933764], 0.5, 0.5, 0.008, 0.2, 100)

2025-07-07 17:05:36,860 - gym_custom_envs_real_ur_drivers_URBasic_realTimeClientEvent - INFO - Program send to Robot:
servoj([0.0015493205957646714, -1.5324468070977555, -1.7057406166745168, -1.4449945623803953, 1.670505078022803, 2.954446997452405], 0.5, 0.5, 0.008, 0.2, 100)

2025-07-07 17:05:36,868 - gym_custom_envs_real_ur_drivers_URBasic_realTimeClientEvent - INFO - Program send to Robot:
servoj([0.001534134185964591, -1.5324468070977555, -1.7057861759342898, -1.4450097487901952, 1.6705050780076165, 2.9544469974675915], 0.5, 0.5, 0.008, 0.2, 100)

2025-07-07 17:05:36,884 - gym_custom_envs_real_ur_drivers_URBasic_realTimeClientEvent - INFO - Program send to Robot:
servoj([0.0015339823218665904, -1.5324468070977555, -1.7118611954469143, -1.4450099006542934, 1.6705050780074646, 2.952928356487736], 0.5, 0.5, 0.008, 0.2, 100)

2025-07-07 17:05:36,893 - gym_custom_envs_real_ur_drivers_URBasic_realTimeClientEvent - INFO - Program send to Robot:
servoj([0.0015339808032256103, -1.5324468070977555, -1.7119219456420405, -1.4450099021729343, 1.670505078007463, 2.9529131700779376], 0.5, 0.5, 0.008, 0.2, 100)

2025-07-07 17:05:36,909 - gym_custom_envs_real_ur_drivers_URBasic_realTimeClientEvent - INFO - Program send to Robot:
servoj([0.0015339807880392006, -1.5324468070977555, -1.7119225531439919, -1.4450099021881206, 1.670505078007463, 2.9529130182138394], 0.5, 0.5, 0.008, 0.2, 100)

2025-07-07 17:05:36,917 - gym_custom_envs_real_ur_drivers_URBasic_realTimeClientEvent - INFO - Program send to Robot:
servoj([0.0015339807878873364, -1.5324468070977555, -1.7149598411790252, -1.4450099021882725, 1.670505078007463, 2.9529130166951987], 0.5, 0.5, 0.008, 0.2, 100)

2025-07-07 17:05:36,925 - gym_custom_envs_real_ur_drivers_URBasic_realTimeClientEvent - INFO - Program send to Robot:
servoj([0.001533980787885818, -1.5324468070977555, -1.7149902140593756, -1.445009902188274, 1.670505078007463, 2.952913016680012], 0.5, 0.5, 0.008, 0.2, 100)

2025-07-07 17:05:36,940 - gym_custom_envs_real_ur_drivers_URBasic_realTimeClientEvent - INFO - Program send to Robot:
servoj([0.0015339807878858027, -1.5324468070977555, -1.7149905177881792, -1.445009902188274, 1.670505078007463, 2.9529130166798603], 0.5, 0.5, 0.008, 0.2, 100)

2025-07-07 17:05:36,948 - gym_custom_envs_real_ur_drivers_URBasic_realTimeClientEvent - INFO - Program send to Robot:
servoj([0.0015339807878858025, -1.5324468070977555, -1.7180278027854812, -1.445009902188274, 1.670505078007463, 2.952913016679859], 0.5, 0.5, 0.008, 0.2, 100)

2025-07-07 17:05:36,956 - gym_custom_envs_real_ur_drivers_URBasic_realTimeClientEvent - INFO - Program send to Robot:
servoj([0.0015339807878858025, -1.5324468070977555, -1.7180581756354543, -1.445009902188274, 1.670505078007463, 2.952913016679859], 0.5, 0.5, 0.008, 0.2, 100)

2025-07-07 17:05:36,964 - gym_custom_envs_real_ur_drivers_URBasic_realTimeClientEvent - INFO - Program send to Robot:
servoj([0.0015339807878858025, -1.5324468070977555, -1.718058479363954, -1.445009902188274, 1.670505078007463, 2.952913016679859], 0.5, 0.5, 0.008, 0.2, 100)

2025-07-07 17:05:36,980 - gym_custom_envs_real_ur_drivers_URBasic_realTimeClientEvent - INFO - Program send to Robot:
servoj([0.0015339807878858025, -1.5324468070977555, -1.719577123381245, -1.445009902188274, 1.670505078007463, 2.952913016679859], 0.5, 0.5, 0.008, 0.2, 100)

2025-07-07 17:05:36,988 - gym_custom_envs_real_ur_drivers_URBasic_realTimeClientEvent - INFO - Program send to Robot:
servoj([0.0015339807878858025, -1.5324468070977555, -1.7195923098214179, -1.445009902188274, 1.670505078007463, 2.952913016679859], 0.5, 0.5, 0.008, 0.2, 100)

2025-07-07 17:05:36,997 - gym_custom_envs_real_ur_drivers_URBasic_realTimeClientEvent - INFO - Program send to Robot:
servoj([0.0015339807878858025, -1.5324468070977555, -1.7195924616858196, -1.445009902188274, 1.670505078007463, 2.952913016679859], 0.5, 0.5, 0.008, 0.2, 100)

2025-07-07 17:05:37,004 - gym_custom_envs_real_ur_drivers_URBasic_realTimeClientEvent - INFO - Program send to Robot:
servoj([0.0015339807878858025, -1.5324468070977555, -1.7195924632044637, -1.445009902188274, 1.670505078007463, 2.952913016679859], 0.5, 0.5, 0.008, 0.2, 100)

2025-07-07 17:05:37,022 - gym_custom_envs_real_ur_drivers_URBasic_realTimeClientEvent - INFO - Program send to Robot:
servoj([0.0015339807878858025, -1.5324468070977555, -1.721111104199657, -1.443491261208267, 1.670505078007463, 2.952913016679859], 0.5, 0.5, 0.008, 0.2, 100)

2025-07-07 17:05:37,027 - gym_custom_envs_real_ur_drivers_URBasic_realTimeClientEvent - INFO - Program send to Robot:
servoj([0.0015339807878858025, -1.5324468070977555, -1.721126290609609, -1.443476074798467, 1.670505078007463, 2.952913016679859], 0.5, 0.5, 0.008, 0.2, 100)

2025-07-07 17:05:37,038 - gym_custom_envs_real_ur_drivers_URBasic_realTimeClientEvent - INFO - Program send to Robot:
servoj([0.0015339807878858025, -1.5324468070977555, -1.7211264424737085, -1.443475922934369, 1.670505078007463, 2.952913016679859], 0.5, 0.5, 0.008, 0.2, 100)

2025-07-07 17:05:37,052 - gym_custom_envs_real_ur_drivers_URBasic_realTimeClientEvent - INFO - Program send to Robot:
servoj([0.0015339807878858025, -1.5324468070977555, -1.7211264439923495, -1.443475921415728, 1.670505078007463, 2.952913016679859], 0.5, 0.5, 0.008, 0.2, 100)

2025-07-07 17:05:37,062 - gym_custom_envs_real_ur_drivers_URBasic_realTimeClientEvent - INFO - Program send to Robot:
servoj([0.0015339807878858025, -1.5324468070977555, -1.721126444007536, -1.4434759214005417, 1.670505078007463, 2.952913016679859], 0.5, 0.5, 0.008, 0.2, 100)

2025-07-07 17:05:37,071 - gym_custom_envs_real_ur_drivers_URBasic_realTimeClientEvent - INFO - Program send to Robot:
servoj([0.0015339807878858025, -1.5324468070977555, -1.7211264440076879, -1.4434759214003898, 1.670505078007463, 2.952913016679859], 0.5, 0.5, 0.008, 0.2, 100)

2025-07-07 17:05:37,076 - gym_custom_envs_real_ur_drivers_URBasic_realTimeClientEvent - INFO - Program send to Robot:
servoj([0.0015339807878858025, -1.5324468070977555, -1.7211264440076892, -1.4434759214003883, 1.670505078007463, 2.952913016679859], 0.5, 0.5, 0.008, 0.2, 100)

2025-07-07 17:05:37,095 - gym_custom_envs_real_ur_drivers_URBasic_realTimeClientEvent - INFO - Program send to Robot:
servoj([0.0015339807878858025, -1.5324468070977555, -1.7211264440076892, -1.4434759214003883, 1.670505078007463, 2.952913016679859], 0.5, 0.5, 0.008, 0.2, 100)

2025-07-07 17:05:37,100 - gym_custom_envs_real_ur_drivers_URBasic_realTimeClientEvent - INFO - Program send to Robot:
servoj([0.0015339807878858025, -1.5324468070977555, -1.7211264440076892, -1.4434759214003883, 1.670505078007463, 2.952913016679859], 0.5, 0.5, 0.008, 0.2, 100)

2025-07-07 17:05:37,110 - gym_custom_envs_real_ur_drivers_URBasic_realTimeClientEvent - INFO - Program send to Robot:
servoj([0.0015339807878858025, -1.5324468070977555, -1.7211264440076892, -1.4434759214003883, 1.6720237189874698, 2.952913016679859], 0.5, 0.5, 0.008, 0.2, 100)

2025-07-07 17:05:37,124 - gym_custom_envs_real_ur_drivers_URBasic_realTimeClientEvent - INFO - Program send to Robot:
servoj([0.0015339807878858025, -1.5324468070977555, -1.7211264440076892, -1.4434759214003883, 1.67203890539727, 2.952913016679859], 0.5, 0.5, 0.008, 0.2, 100)

2025-07-07 17:05:37,136 - gym_custom_envs_real_ur_drivers_URBasic_realTimeClientEvent - INFO - Program send to Robot:
servoj([0.0015339807878858025, -1.5324468070977555, -1.7211264440076892, -1.4434759214003883, 1.672039057261368, 2.952913016679859], 0.5, 0.5, 0.008, 0.2, 100)

2025-07-07 17:05:37,140 - gym_custom_envs_real_ur_drivers_URBasic_realTimeClientEvent - INFO - Program send to Robot:
servoj([0.0015339807878858025, -1.5324468070977555, -1.7211264440076892, -1.4434759214003883, 1.672039058780009, 2.952913016679859], 0.5, 0.5, 0.008, 0.2, 100)

2025-07-07 17:05:37,160 - gym_custom_envs_real_ur_drivers_URBasic_realTimeClientEvent - INFO - Program send to Robot:
servoj([0.0015339807878858025, -1.5324468070977555, -1.7211264440076892, -1.4434759214003883, 1.6720390587951954, 2.952913016679859], 0.5, 0.5, 0.008, 0.2, 100)

2025-07-07 17:05:37,164 - gym_custom_envs_real_ur_drivers_URBasic_realTimeClientEvent - INFO - Program send to Robot:
servoj([0.0015339807878858025, -1.5324468070977555, -1.7211264440076892, -1.4434759214003883, 1.6720390587953473, 2.952913016679859], 0.5, 0.5, 0.008, 0.2, 100)

2025-07-07 17:05:37,183 - gym_custom_envs_real_ur_drivers_URBasic_realTimeClientEvent - INFO - Program send to Robot:
servoj([0.0015339807878858025, -1.5324468070977555, -1.7211264440076892, -1.4434759214003883, 1.6735576997753556, 2.952913016679859], 0.5, 0.5, 0.008, 0.2, 100)

2025-07-07 17:05:37,191 - gym_custom_envs_real_ur_drivers_URBasic_realTimeClientEvent - INFO - Program send to Robot:
servoj([0.0015339807878858025, -1.5324468070977555, -1.7211264440076892, -1.4434759214003883, 1.6735728861851558, 2.952913016679859], 0.5, 0.5, 0.008, 0.2, 100)

2025-07-07 17:05:37,196 - gym_custom_envs_real_ur_drivers_URBasic_realTimeClientEvent - INFO - Program send to Robot:
servoj([0.0015339807878858025, -1.5324468070977555, -1.7211264440076892, -1.4434759214003883, 1.6735730380492537, 2.952913016679859], 0.5, 0.5, 0.008, 0.2, 100)

2025-07-07 17:05:37,214 - gym_custom_envs_real_ur_drivers_URBasic_realTimeClientEvent - INFO - Program send to Robot:
servoj([0.0015339807878858025, -1.5324468070977555, -1.7211264440076892, -1.4434759214003883, 1.6750916805479017, 2.952913016679859], 0.5, 0.5, 0.008, 0.2, 100)

2025-07-07 17:05:37,220 - gym_custom_envs_real_ur_drivers_URBasic_realTimeClientEvent - INFO - Program send to Robot:
servoj([0.0015339807878858025, -1.5324468070977555, -1.7211264440076892, -1.4434759214003883, 1.6751068669728884, 2.952913016679859], 0.5, 0.5, 0.008, 0.2, 100)

2025-07-07 17:05:37,230 - gym_custom_envs_real_ur_drivers_URBasic_realTimeClientEvent - INFO - Program send to Robot:
